N10 ; PROGRAM NAME: 1373275
N11 ; ORDER       : 13732
N12 ; OPER. NAME  : Side Milling:101
N13 ; OPER. DESCR.: FEAANF : POMA D1
N14 ; OPER. TYPE  : sideMill
N15 ; GEO. OPTION : 1
N16 ; MACHINE     : SH_HX151_24_SIM840D
N17 ;             : STARRAG_HECKERT_5axis_finish_milling_machine
N18 ; CONTROL     : SINUMERIK 840D
N19 ; created:   2021-11-10 08:04:48.400262
;-------DODATKOWE DANE-------------------
; PROGRAMISTA : Mariusz Orzechowski
; PARTID      : 132T008743P1005_-
;  ap         : 5.0
;  ae         : 5.0
;  lean_angle : 0.0
;  fin_offset : 0.0
;----------------------------------------
N20 ;----------------------------------------
RAPORT("T13732","Side Milling:101")
N21 TRAFOOF
N22 D0
N23 G90 G94
N24 STOPRE
N25 M9 ; chlodziwo wyl
N26 ; --- Side Milling:101 - FEAANF : POMA D1 ---
N28 ;ToolChange : concat=None ,current_tdmid=None, PP.tdmId=940983
N29 MSG(" TLID=940983 D=10.0 R=0.0 Ang=0.0 Len=116.0 ")
N30 TRAFOOF
N31 D0
N32 G0 G53 Z290 B0
N33 G0 X200
N34 G0 Y150
N35 T="7740983"
N36 G0 X500
RAPORT("T13732","ToolChangeStart 7740983")
N37 M6
RAPORT("T13732","ToolChangeEnd")
N38 ; (Preloading tool)
N39 T="7740984"
N40 G0 X200
N41 STOPRE
N42 S2864 M03
N43 STOPRE
N44 TOL(0.1,1,1)
N45 G0 X165.115 A41.0169
N46 TRAORI
N47 G54 D1
N48 D1 
N49 TRANS  X=R20
N50 ; DELTA A > 40.1
N51 TRAFOOF
N52 STOPRE
N53 G0 G53 D0 Z265.000
N54 G1 G53 A41.0169 F10000
N55 TRAORI
N56 G54 D1
N57 TRANS  X=R20
N58 G00 X165.115 Y-97.270 Z-3.115 A41.0169 B1.9807 
N59 M342 ; chlodziwo woda
N60 X163.791 Y-64.479 Z-40.838 
N61 D1 
N62 G01 G41 X163.791 Y-56.932 Z-34.277 F286
N63 G01 X163.791 Y-56.932 Z-34.277 F286 
N64 X163.791 Y-56.806 Z-34.168 
N65 X163.791 Y-56.680 Z-34.058 
N66 X163.791 Y-56.554 Z-33.949 
N67 X163.791 Y-56.447 Z-33.855 
N68 X163.791 Y-56.339 Z-33.761 
N69 X163.791 Y-56.231 Z-33.668 
N70 X163.791 Y-56.123 Z-33.574 
N71 X163.791 Y-56.015 Z-33.480 
N72 X163.791 Y-55.907 Z-33.387 
N73 X163.791 Y-55.800 Z-33.293 
N74 X163.791 Y-55.692 Z-33.199 
N75 X163.791 Y-55.584 Z-33.105 
N76 X163.791 Y-55.476 Z-33.012 
N77 X163.791 Y-55.368 Z-32.918 
N78 X163.791 Y-55.261 Z-32.824 
N79 X163.791 Y-55.153 Z-32.730 
N80 X163.791 Y-55.045 Z-32.637 
N81 X163.791 Y-54.937 Z-32.543 
N82 X163.791 Y-54.829 Z-32.449 
N83 X163.791 Y-54.722 Z-32.356 
N84 X163.791 Y-54.614 Z-32.262 
N85 X163.791 Y-54.506 Z-32.168 
N86 X163.791 Y-54.398 Z-32.074 
N87 X163.791 Y-54.290 Z-31.981 
N88 X163.791 Y-54.182 Z-31.887 
N89 X163.791 Y-54.075 Z-31.793 
N90 X163.791 Y-53.967 Z-31.700 
N91 X163.791 Y-53.859 Z-31.606 
N92 X163.791 Y-53.751 Z-31.512 
N93 X163.791 Y-53.643 Z-31.418 
N94 X163.791 Y-53.536 Z-31.325 
N95 X163.791 Y-53.428 Z-31.231 
N96 X163.791 Y-53.320 Z-31.137 
N97 X163.791 Y-53.212 Z-31.043 
N98 X163.791 Y-53.104 Z-30.950 
N99 X163.791 Y-52.996 Z-30.856 
N100 X163.791 Y-52.889 Z-30.762 
N101 X163.791 Y-52.781 Z-30.669 
N102 X163.791 Y-52.673 Z-30.575 
N103 X163.791 Y-52.565 Z-30.481 
N104 X163.791 Y-52.457 Z-30.387 
N105 X163.791 Y-52.349 Z-30.293 
N106 X163.791 Y-52.241 Z-30.200 
N107 X163.791 Y-52.133 Z-30.106 
N108 X163.791 Y-52.025 Z-30.012 
N109 X163.791 Y-51.917 Z-29.918 
N110 X163.791 Y-51.810 Z-29.824 
N111 X163.791 Y-51.702 Z-29.730 
N112 X163.791 Y-51.594 Z-29.637 
N113 X163.791 Y-51.486 Z-29.543 
N114 X163.791 Y-51.378 Z-29.449 
N115 X163.791 Y-51.270 Z-29.355 
N116 X163.791 Y-51.162 Z-29.261 
N117 X163.791 Y-51.054 Z-29.168 
N118 X163.791 Y-50.946 Z-29.074 
N119 X163.791 Y-50.838 Z-28.980 
N120 X163.791 Y-50.730 Z-28.886 
N121 X163.791 Y-50.622 Z-28.792 
N122 X163.791 Y-50.515 Z-28.699 
N123 X163.791 Y-50.407 Z-28.605 
N124 X163.791 Y-50.299 Z-28.511 
N125 X163.791 Y-50.191 Z-28.417 
N126 X163.791 Y-50.083 Z-28.323 
N127 X163.791 Y-49.975 Z-28.229 
N128 X163.791 Y-49.867 Z-28.136 
N129 X163.791 Y-49.759 Z-28.042 
N130 X163.791 Y-49.651 Z-27.948 
N131 X163.791 Y-49.543 Z-27.854 
N132 X163.791 Y-49.435 Z-27.760 
N133 X163.791 Y-49.327 Z-27.667 
N134 X163.791 Y-49.220 Z-27.573 
N135 X163.791 Y-49.112 Z-27.479 
N136 X163.791 Y-49.004 Z-27.385 
N137 X163.791 Y-48.896 Z-27.291 
N138 X163.791 Y-48.788 Z-27.198 
N139 X163.791 Y-48.680 Z-27.104 
N140 X163.791 Y-48.572 Z-27.010 
N141 X163.791 Y-48.464 Z-26.916 
N142 X163.791 Y-48.356 Z-26.822 
N143 X163.791 Y-48.248 Z-26.728 
N144 X163.791 Y-48.140 Z-26.635 
N145 X163.791 Y-48.032 Z-26.541 
N146 X163.791 Y-47.924 Z-26.447 
N147 X163.791 Y-47.817 Z-26.353 
N148 X163.791 Y-47.709 Z-26.259 
N149 X163.791 Y-47.601 Z-26.166 
N150 X163.791 Y-47.493 Z-26.072 
N151 X163.791 Y-47.385 Z-25.978 
N152 X163.791 Y-47.277 Z-25.884 
N153 X163.791 Y-47.169 Z-25.790 
N154 X163.791 Y-47.061 Z-25.697 
N155 X163.791 Y-46.953 Z-25.603 
N156 X163.791 Y-46.845 Z-25.509 
N157 X163.791 Y-46.737 Z-25.415 
N158 X163.791 Y-46.629 Z-25.321 
N159 X163.791 Y-46.522 Z-25.227 
N160 X163.791 Y-46.414 Z-25.134 
N161 X163.791 Y-46.306 Z-25.040 
N162 X163.791 Y-46.198 Z-24.946 
N163 X163.791 Y-46.090 Z-24.852 
N164 X163.791 Y-45.982 Z-24.758 
N165 X163.791 Y-45.874 Z-24.665 
N166 X163.791 Y-45.766 Z-24.571 
N167 X163.791 Y-45.658 Z-24.477 
N168 X163.791 Y-45.550 Z-24.383 
N169 X163.791 Y-45.442 Z-24.289 
N170 X163.791 Y-45.334 Z-24.196 
N171 X163.791 Y-45.227 Z-24.102 
N172 X163.791 Y-45.119 Z-24.008 
N173 X163.791 Y-45.011 Z-23.914 
N174 X163.791 Y-44.903 Z-23.820 
N175 X163.791 Y-44.795 Z-23.726 
N176 X163.791 Y-44.687 Z-23.633 
N177 X163.791 Y-44.579 Z-23.539 
N178 X163.791 Y-44.471 Z-23.445 
N179 X163.791 Y-44.363 Z-23.351 
N180 X163.791 Y-44.255 Z-23.257 
N181 X163.791 Y-44.147 Z-23.164 
N182 X163.791 Y-44.039 Z-23.070 
N183 X163.791 Y-43.931 Z-22.976 
N184 X163.791 Y-43.824 Z-22.882 
N185 X163.791 Y-43.716 Z-22.788 
N186 X163.791 Y-43.608 Z-22.695 
N187 X163.791 Y-43.500 Z-22.601 
N188 X163.791 Y-43.392 Z-22.507 
N189 X163.791 Y-43.284 Z-22.413 
N190 X163.791 Y-43.176 Z-22.319 
N191 X163.791 Y-43.068 Z-22.225 
N192 X163.791 Y-42.960 Z-22.132 
N193 X163.791 Y-42.852 Z-22.038 
N194 X163.791 Y-42.744 Z-21.944 
N195 X163.791 Y-42.636 Z-21.850 
N196 X163.791 Y-42.529 Z-21.756 
N197 X163.791 Y-42.421 Z-21.663 
N198 X163.791 Y-42.313 Z-21.569 
N199 X163.791 Y-42.205 Z-21.475 
N200 X163.791 Y-42.097 Z-21.381 
N201 X163.791 Y-41.989 Z-21.287 
N202 X163.791 Y-41.881 Z-21.194 
N203 X163.791 Y-41.773 Z-21.100 
N204 X163.791 Y-41.665 Z-21.006 
N205 X163.791 Y-41.557 Z-20.912 
N206 X163.791 Y-41.449 Z-20.818 
N207 X163.791 Y-41.341 Z-20.724 
N208 X163.791 Y-41.234 Z-20.631 
N209 X163.791 Y-41.126 Z-20.537 
N210 X163.791 Y-41.018 Z-20.443 
N211 X163.791 Y-40.910 Z-20.349 
N212 X163.791 Y-40.802 Z-20.255 
N213 X163.791 Y-40.694 Z-20.162 
N214 X163.791 Y-40.586 Z-20.068 
N215 X163.791 Y-40.478 Z-19.974 
N216 X163.791 Y-40.370 Z-19.880 
N217 X163.791 Y-40.262 Z-19.786 
N218 X163.791 Y-40.154 Z-19.693 
N219 X163.791 Y-40.046 Z-19.599 
N220 X163.791 Y-39.939 Z-19.505 
N221 X163.791 Y-39.831 Z-19.411 
N222 X163.791 Y-39.723 Z-19.317 
N223 X163.791 Y-39.615 Z-19.223 
N224 X163.791 Y-39.507 Z-19.130 
N225 X163.791 Y-39.399 Z-19.036 
N226 X163.791 Y-39.291 Z-18.942 
N227 X163.791 Y-39.183 Z-18.848 
N228 X163.791 Y-39.075 Z-18.754 
N229 X163.791 Y-38.967 Z-18.661 
N230 X163.791 Y-38.859 Z-18.567 
N231 X163.791 Y-38.751 Z-18.473 
N232 X163.791 Y-38.643 Z-18.379 
N233 X163.791 Y-38.536 Z-18.285 
N234 X163.791 Y-38.428 Z-18.192 
N235 X163.791 Y-38.320 Z-18.098 
N236 X163.791 Y-38.212 Z-18.004 
N237 X163.791 Y-38.104 Z-17.910 
N238 X163.791 Y-37.996 Z-17.816 
N239 X163.791 Y-37.888 Z-17.723 
N240 X163.791 Y-37.780 Z-17.629 
N241 X163.791 Y-37.672 Z-17.535 
N242 X163.791 Y-37.564 Z-17.441 
N243 X163.791 Y-37.456 Z-17.347 
N244 X163.791 Y-37.348 Z-17.253 
N245 X163.791 Y-37.241 Z-17.160 
N246 X163.791 Y-37.133 Z-17.066 
N247 X163.791 Y-37.025 Z-16.972 
N248 X163.791 Y-36.917 Z-16.878 
N249 X163.791 Y-36.809 Z-16.784 
N250 X163.791 Y-36.701 Z-16.691 
N251 X163.791 Y-36.593 Z-16.597 
N252 X163.791 Y-36.485 Z-16.503 
N253 X163.791 Y-36.377 Z-16.409 
N254 X163.791 Y-36.269 Z-16.315 
N255 X163.791 Y-36.161 Z-16.222 
N256 X163.791 Y-36.053 Z-16.128 
N257 X163.791 Y-35.946 Z-16.034 
N258 X163.791 Y-35.838 Z-15.940 
N259 X163.791 Y-35.730 Z-15.846 
N260 X163.791 Y-35.622 Z-15.752 
N261 X163.791 Y-35.514 Z-15.659 
N262 X163.791 Y-35.406 Z-15.565 
N263 X163.791 Y-35.298 Z-15.471 
N264 X163.791 Y-35.190 Z-15.377 
N265 X163.791 Y-35.082 Z-15.283 
N266 X163.791 Y-34.974 Z-15.190 
N267 X163.791 Y-34.866 Z-15.096 
N268 X163.791 Y-34.758 Z-15.002 
N269 X163.791 Y-34.650 Z-14.908 
N270 X163.791 Y-34.543 Z-14.814 
N271 X163.791 Y-34.435 Z-14.721 
N272 X163.791 Y-34.327 Z-14.627 
N273 X163.791 Y-34.219 Z-14.533 
N274 X163.791 Y-34.111 Z-14.439 
N275 X163.791 Y-34.003 Z-14.345 
N276 X163.791 Y-33.895 Z-14.251 
N277 X163.791 Y-33.787 Z-14.158 
N278 X163.791 Y-33.679 Z-14.064 
N279 X163.791 Y-33.571 Z-13.970 
N280 X163.791 Y-33.463 Z-13.876 
N281 X163.791 Y-33.355 Z-13.782 
N282 X163.791 Y-33.248 Z-13.689 
N283 X163.791 Y-33.140 Z-13.595 
N284 X163.791 Y-33.032 Z-13.501 
N285 X163.791 Y-32.924 Z-13.407 
N286 X163.791 Y-32.816 Z-13.313 
N287 X163.791 Y-32.708 Z-13.220 
N288 X163.791 Y-32.600 Z-13.126 
N289 X163.791 Y-32.492 Z-13.032 
N290 X163.791 Y-32.384 Z-12.938 
N291 X163.791 Y-32.276 Z-12.844 
N292 X163.791 Y-32.168 Z-12.750 
N293 X163.791 Y-32.060 Z-12.657 
N294 X163.791 Y-31.953 Z-12.563 
N295 X163.791 Y-31.845 Z-12.469 
N296 X163.791 Y-31.737 Z-12.375 
N297 X163.791 Y-31.629 Z-12.281 
N298 X163.791 Y-31.521 Z-12.188 
N299 X163.791 Y-31.413 Z-12.094 
N300 X163.791 Y-31.305 Z-12.000 
N301 X163.791 Y-31.197 Z-11.906 
N302 X163.791 Y-31.089 Z-11.812 
N303 X163.791 Y-30.981 Z-11.719 
N304 X163.791 Y-30.873 Z-11.625 
N305 X163.791 Y-30.765 Z-11.531 
N306 X163.791 Y-30.658 Z-11.437 
N307 X163.791 Y-30.550 Z-11.343 
N308 X163.791 Y-30.442 Z-11.249 
N309 X163.791 Y-30.334 Z-11.156 
N310 X163.791 Y-30.226 Z-11.062 
N311 X163.791 Y-30.118 Z-10.968 
N312 X163.791 Y-30.010 Z-10.874 
N313 X163.791 Y-29.902 Z-10.780 
N314 X163.791 Y-29.794 Z-10.687 
N315 X163.791 Y-29.686 Z-10.593 
N316 X163.791 Y-29.578 Z-10.499 
N317 X163.791 Y-29.470 Z-10.405 
N318 X163.791 Y-29.362 Z-10.311 
N319 X163.791 Y-29.255 Z-10.218 
N320 X163.791 Y-29.147 Z-10.124 
N321 X163.791 Y-29.039 Z-10.030 
N322 X163.791 Y-28.931 Z-9.936 
N323 X163.791 Y-28.823 Z-9.842 
N324 X163.791 Y-28.715 Z-9.748 
N325 X163.791 Y-28.607 Z-9.655 
N326 X163.791 Y-28.499 Z-9.561 
N327 X163.791 Y-28.391 Z-9.467 
N328 X163.791 Y-28.283 Z-9.373 
N329 X163.791 Y-28.175 Z-9.279 
N330 X163.791 Y-28.067 Z-9.186 
N331 X163.791 Y-27.960 Z-9.092 
N332 X163.791 Y-27.852 Z-8.998 
N333 X163.791 Y-27.744 Z-8.904 
N334 X163.791 Y-27.636 Z-8.810 
N335 X163.791 Y-27.528 Z-8.717 
N336 X163.791 Y-27.420 Z-8.623 
N337 X163.791 Y-27.312 Z-8.529 
N338 X163.791 Y-27.204 Z-8.435 
N339 X163.791 Y-27.096 Z-8.341 
N340 X163.791 Y-26.988 Z-8.247 
N341 X163.791 Y-26.880 Z-8.154 
N342 X163.791 Y-26.772 Z-8.060 
N343 X163.791 Y-26.665 Z-7.966 
N344 X163.791 Y-26.557 Z-7.872 
N345 X163.791 Y-26.449 Z-7.778 
N346 X163.791 Y-26.341 Z-7.685 
N347 X163.791 Y-26.233 Z-7.591 
N348 X163.791 Y-26.125 Z-7.497 
N349 X163.791 Y-26.017 Z-7.403 
N350 X163.791 Y-25.909 Z-7.309 
N351 X163.791 Y-25.801 Z-7.216 
N352 X163.791 Y-25.693 Z-7.122 
N353 X163.791 Y-25.585 Z-7.028 
N354 X163.791 Y-25.477 Z-6.934 
N355 X163.791 Y-25.369 Z-6.840 
N356 X163.791 Y-25.262 Z-6.746 
N357 X163.791 Y-25.154 Z-6.653 
N358 X163.791 Y-25.046 Z-6.559 
N359 X163.791 Y-24.938 Z-6.465 
N360 X163.791 Y-24.830 Z-6.371 
N361 X163.791 Y-24.722 Z-6.277 
N362 X163.791 Y-24.614 Z-6.184 
N363 X163.791 Y-24.506 Z-6.090 
N364 X163.791 Y-24.398 Z-5.996 
N365 X163.791 Y-24.290 Z-5.902 
N366 X163.791 Y-24.182 Z-5.808 
N367 X163.791 Y-24.074 Z-5.715 
N368 X163.791 Y-23.967 Z-5.621 
N369 X163.791 Y-23.859 Z-5.527 
N370 X163.791 Y-23.751 Z-5.433 
N371 X163.791 Y-23.643 Z-5.339 
N372 X163.791 Y-23.535 Z-5.245 
N373 X163.791 Y-23.427 Z-5.152 
N374 X163.791 Y-23.319 Z-5.058 
N375 X163.791 Y-23.211 Z-4.964 
N376 X163.791 Y-23.103 Z-4.870 
N377 X163.791 Y-22.995 Z-4.776 
N378 X163.791 Y-22.887 Z-4.683 
N379 X163.791 Y-22.779 Z-4.589 
N380 X163.791 Y-22.672 Z-4.495 
N381 X163.791 Y-22.564 Z-4.401 
N382 X163.791 Y-22.456 Z-4.307 
N383 X163.791 Y-22.348 Z-4.214 
N384 X163.790 Y-22.240 Z-4.120 
N385 X163.789 Y-22.132 Z-4.026 
N386 X163.783 Y-22.024 Z-3.932 
N387 X163.772 Y-21.917 Z-3.838 
N388 X163.756 Y-21.810 Z-3.745 
N389 X163.735 Y-21.704 Z-3.652 
N390 X163.709 Y-21.598 Z-3.559 
N391 X163.679 Y-21.493 Z-3.466 
N392 X163.644 Y-21.389 Z-3.375 
N393 X163.604 Y-21.286 Z-3.284 
N394 X163.560 Y-21.184 Z-3.194 
N395 X163.511 Y-21.084 Z-3.105 
N396 X163.457 Y-20.985 Z-3.017 
N397 X163.399 Y-20.887 Z-2.930 
N398 X163.337 Y-20.791 Z-2.844 
N399 X163.269 Y-20.697 Z-2.760 
N400 X163.199 Y-20.604 Z-2.677 
N401 X163.123 Y-20.514 Z-2.596 
N402 X163.044 Y-20.426 Z-2.516 
N403 X162.960 Y-20.339 Z-2.439 
N404 X162.873 Y-20.255 Z-2.362 
N405 X162.782 Y-20.174 Z-2.288 
N406 X162.687 Y-20.095 Z-2.216 
N407 X162.589 Y-20.018 Z-2.146 
N408 X162.487 Y-19.944 Z-2.078 
N409 X162.382 Y-19.873 Z-2.013 
N410 X162.274 Y-19.804 Z-1.949 
N411 X162.162 Y-19.739 Z-1.889 
N412 X162.048 Y-19.676 Z-1.830 
N413 X161.930 Y-19.617 Z-1.774 
N414 X161.810 Y-19.560 Z-1.721 
N415 X161.688 Y-19.507 Z-1.670 
N416 X161.562 Y-19.457 Z-1.622 
N417 X161.435 Y-19.410 Z-1.577 
N418 X161.306 Y-19.367 Z-1.535 
N419 X161.174 Y-19.326 Z-1.495 
N420 X161.041 Y-19.290 Z-1.459 
N421 X160.906 Y-19.257 Z-1.425 
N422 X160.769 Y-19.227 Z-1.395 
N423 X160.632 Y-19.201 Z-1.367 
N424 X160.493 Y-19.179 Z-1.343 
N425 X160.352 Y-19.159 Z-1.321 
N426 X160.211 Y-19.144 Z-1.303 
N427 X160.070 Y-19.133 Z-1.288 
N428 X159.927 Y-19.125 Z-1.276 
N429 X159.785 Y-19.120 Z-1.267 
N430 X159.642 Y-19.120 Z-1.262 
N431 X159.499 Y-19.122 Z-1.259 
N432 X159.356 Y-19.124 Z-1.256 
N433 X159.213 Y-19.127 Z-1.253 
N434 X159.070 Y-19.129 Z-1.250 
N435 X158.927 Y-19.132 Z-1.247 
N436 X158.784 Y-19.134 Z-1.244 
N437 X158.641 Y-19.137 Z-1.242 
N438 X158.498 Y-19.139 Z-1.239 
N439 X158.355 Y-19.142 Z-1.236 
N440 X158.212 Y-19.144 Z-1.233 
N441 X158.070 Y-19.147 Z-1.230 
N442 X157.927 Y-19.149 Z-1.227 
N443 X157.784 Y-19.152 Z-1.224 
N444 X157.641 Y-19.154 Z-1.222 
N445 X157.498 Y-19.157 Z-1.219 
N446 X157.355 Y-19.159 Z-1.216 
N447 X157.212 Y-19.162 Z-1.213 
N448 X157.069 Y-19.164 Z-1.210 
N449 X156.926 Y-19.167 Z-1.207 
N450 X156.783 Y-19.169 Z-1.204 
N451 X156.640 Y-19.172 Z-1.202 
N452 X156.497 Y-19.174 Z-1.199 
N453 X156.354 Y-19.177 Z-1.196 
N454 X156.211 Y-19.179 Z-1.193 
N455 X156.068 Y-19.182 Z-1.190 
N456 X155.925 Y-19.184 Z-1.187 
N457 X155.782 Y-19.186 Z-1.184 
N458 X155.639 Y-19.189 Z-1.182 
N459 X155.497 Y-19.191 Z-1.179 
N460 X155.354 Y-19.194 Z-1.176 
N461 X155.211 Y-19.196 Z-1.173 
N462 X155.068 Y-19.199 Z-1.170 
N463 X154.925 Y-19.201 Z-1.167 
N464 X154.782 Y-19.204 Z-1.164 
N465 X154.639 Y-19.206 Z-1.162 
N466 X154.496 Y-19.209 Z-1.159 
N467 X154.353 Y-19.211 Z-1.156 
N468 X154.210 Y-19.214 Z-1.153 
N469 X154.067 Y-19.216 Z-1.150 
N470 X153.924 Y-19.219 Z-1.147 
N471 X153.781 Y-19.221 Z-1.144 
N472 X153.638 Y-19.224 Z-1.142 
N473 X153.495 Y-19.226 Z-1.139 
N474 X153.352 Y-19.229 Z-1.136 
N475 X153.209 Y-19.231 Z-1.133 
N476 X153.067 Y-19.234 Z-1.130 
N477 X152.924 Y-19.236 Z-1.127 
N478 X152.781 Y-19.239 Z-1.124 
N479 X152.638 Y-19.241 Z-1.122 
N480 X152.495 Y-19.244 Z-1.119 
N481 X152.352 Y-19.246 Z-1.116 
N482 X152.209 Y-19.249 Z-1.113 
N483 X152.066 Y-19.251 Z-1.110 
N484 X151.923 Y-19.254 Z-1.107 
N485 X151.780 Y-19.256 Z-1.104 
N486 X151.637 Y-19.259 Z-1.102 
N487 X151.494 Y-19.261 Z-1.099 
N488 X151.351 Y-19.263 Z-1.096 
N489 X151.208 Y-19.266 Z-1.093 
N490 X151.065 Y-19.268 Z-1.090 
N491 X150.922 Y-19.271 Z-1.087 
N492 X150.779 Y-19.273 Z-1.084 
N493 X150.636 Y-19.276 Z-1.082 
N494 X150.494 Y-19.278 Z-1.079 
N495 X150.351 Y-19.281 Z-1.076 
N496 X150.208 Y-19.283 Z-1.073 
N497 X150.065 Y-19.286 Z-1.070 
N498 X149.922 Y-19.288 Z-1.067 
N499 X149.779 Y-19.291 Z-1.064 
N500 X149.636 Y-19.293 Z-1.062 
N501 X149.493 Y-19.296 Z-1.059 
N502 X149.350 Y-19.298 Z-1.056 
N503 X149.207 Y-19.301 Z-1.053 
N504 X149.064 Y-19.303 Z-1.050 
N505 X148.921 Y-19.306 Z-1.047 
N506 X148.778 Y-19.308 Z-1.044 
N507 X148.635 Y-19.311 Z-1.042 
N508 X148.492 Y-19.313 Z-1.039 
N509 X148.349 Y-19.316 Z-1.036 
N510 X148.206 Y-19.318 Z-1.033 
N511 X148.063 Y-19.321 Z-1.030 
N512 X147.921 Y-19.323 Z-1.027 
N513 X147.778 Y-19.326 Z-1.024 
N514 X147.635 Y-19.328 Z-1.022 
N515 X147.492 Y-19.331 Z-1.019 
N516 X147.349 Y-19.333 Z-1.016 
N517 X147.206 Y-19.336 Z-1.013 
N518 X147.063 Y-19.338 Z-1.010 
N519 X146.920 Y-19.340 Z-1.007 
N520 X146.777 Y-19.343 Z-1.004 
N521 X146.634 Y-19.345 Z-1.002 
N522 X146.491 Y-19.348 Z-0.999 
N523 X146.348 Y-19.350 Z-0.996 
N524 X146.205 Y-19.353 Z-0.993 
N525 X146.062 Y-19.355 Z-0.990 
N526 X145.919 Y-19.358 Z-0.987 
N527 X145.776 Y-19.360 Z-0.984 
N528 X145.633 Y-19.363 Z-0.982 
N529 X145.491 Y-19.365 Z-0.979 
N530 X145.348 Y-19.368 Z-0.976 
N531 X145.205 Y-19.370 Z-0.973 
N532 X145.062 Y-19.373 Z-0.970 
N533 X144.919 Y-19.375 Z-0.967 
N534 X144.776 Y-19.378 Z-0.964 
N535 X144.633 Y-19.380 Z-0.962 
N536 X144.490 Y-19.383 Z-0.959 
N537 X144.347 Y-19.385 Z-0.956 
N538 X144.204 Y-19.388 Z-0.953 
N539 X144.061 Y-19.390 Z-0.950 
N540 X143.918 Y-19.393 Z-0.947 
N541 X143.775 Y-19.395 Z-0.944 
N542 X143.632 Y-19.398 Z-0.942 
N543 X143.489 Y-19.400 Z-0.939 
N544 X143.346 Y-19.403 Z-0.936 
N545 X143.203 Y-19.405 Z-0.933 
N546 X143.060 Y-19.408 Z-0.930 
N547 X142.918 Y-19.410 Z-0.927 
N548 X142.775 Y-19.413 Z-0.924 
N549 X142.632 Y-19.415 Z-0.922 
N550 X142.489 Y-19.417 Z-0.919 
N551 X142.346 Y-19.420 Z-0.916 
N552 X142.203 Y-19.422 Z-0.913 
N553 X142.060 Y-19.425 Z-0.910 
N554 X141.917 Y-19.427 Z-0.907 
N555 X141.774 Y-19.430 Z-0.904 
N556 X141.631 Y-19.432 Z-0.902 
N557 X141.488 Y-19.435 Z-0.899 
N558 X141.345 Y-19.437 Z-0.896 
N559 X141.202 Y-19.440 Z-0.893 
N560 X141.059 Y-19.442 Z-0.890 
N561 X140.916 Y-19.445 Z-0.887 
N562 X140.773 Y-19.447 Z-0.884 
N563 X140.630 Y-19.450 Z-0.882 
N564 X140.487 Y-19.452 Z-0.879 
N565 X140.345 Y-19.455 Z-0.876 
N566 X140.202 Y-19.457 Z-0.873 
N567 X140.059 Y-19.460 Z-0.870 
N568 X139.916 Y-19.462 Z-0.867 
N569 X139.773 Y-19.465 Z-0.864 
N570 X139.630 Y-19.467 Z-0.862 
N571 X139.487 Y-19.470 Z-0.859 
N572 X139.344 Y-19.472 Z-0.856 
N573 X139.201 Y-19.475 Z-0.853 
N574 X139.058 Y-19.477 Z-0.850 
N575 X138.915 Y-19.480 Z-0.847 
N576 X138.772 Y-19.482 Z-0.844 
N577 X138.629 Y-19.485 Z-0.842 
N578 X138.486 Y-19.487 Z-0.839 
N579 X138.343 Y-19.490 Z-0.836 
N580 X138.200 Y-19.492 Z-0.833 
N581 X138.057 Y-19.495 Z-0.831 
N582 X137.915 Y-19.501 Z-0.831 
N583 X137.772 Y-19.511 Z-0.834 
N584 X137.630 Y-19.524 Z-0.841 
N585 X137.488 Y-19.541 Z-0.851 
N586 X137.347 Y-19.562 Z-0.864 
N587 X137.207 Y-19.586 Z-0.880 
N588 X137.068 Y-19.614 Z-0.900 
N589 X136.931 Y-19.646 Z-0.922 
N590 X136.794 Y-19.681 Z-0.948 
N591 X136.660 Y-19.719 Z-0.976 
N592 X136.527 Y-19.761 Z-1.008 
N593 X136.395 Y-19.806 Z-1.042 
N594 X136.266 Y-19.854 Z-1.080 
N595 X136.139 Y-19.906 Z-1.120 
N596 X136.015 Y-19.961 Z-1.164 
N597 X135.892 Y-20.019 Z-1.210 
N598 X135.773 Y-20.080 Z-1.259 
N599 X135.656 Y-20.144 Z-1.310 
N600 X135.542 Y-20.211 Z-1.365 
N601 X135.431 Y-20.281 Z-1.421 
N602 X135.322 Y-20.353 Z-1.481 
N603 X135.218 Y-20.429 Z-1.542 
N604 X135.116 Y-20.506 Z-1.607 
N605 X135.019 Y-20.587 Z-1.673 
N606 X134.924 Y-20.670 Z-1.742 
N607 X134.834 Y-20.755 Z-1.812 
N608 X134.747 Y-20.842 Z-1.885 
N609 X134.664 Y-20.931 Z-1.960 
N610 X134.586 Y-21.023 Z-2.037 
N611 X134.511 Y-21.116 Z-2.115 
N612 X134.440 Y-21.211 Z-2.195 
N613 X134.374 Y-21.308 Z-2.277 
N614 X134.312 Y-21.406 Z-2.361 
N615 X134.255 Y-21.506 Z-2.445 
N616 X134.202 Y-21.607 Z-2.531 
N617 X134.154 Y-21.710 Z-2.619 
N618 X134.110 Y-21.813 Z-2.707 
N619 X134.071 Y-21.918 Z-2.797 
N620 X134.036 Y-22.023 Z-2.887 
N621 X134.007 Y-22.129 Z-2.978 
N622 X133.981 Y-22.236 Z-3.070 
N623 X133.961 Y-22.343 Z-3.162 
N624 X133.946 Y-22.450 Z-3.255 
N625 X133.936 Y-22.558 Z-3.349 
N626 X133.930 Y-22.666 Z-3.442 
N627 X133.929 Y-22.774 Z-3.536 
N628 X133.929 Y-22.882 Z-3.630 
N629 X133.929 Y-22.990 Z-3.724 
N630 X133.929 Y-23.098 Z-3.818 
N631 X133.929 Y-23.206 Z-3.911 
N632 X133.929 Y-23.314 Z-4.005 
N633 X133.929 Y-23.422 Z-4.099 
N634 X133.929 Y-23.530 Z-4.193 
N635 X133.929 Y-23.637 Z-4.287 
N636 X133.929 Y-23.745 Z-4.380 
N637 X133.929 Y-23.853 Z-4.474 
N638 X133.929 Y-23.961 Z-4.568 
N639 X133.929 Y-24.069 Z-4.662 
N640 X133.929 Y-24.177 Z-4.756 
N641 X133.929 Y-24.285 Z-4.850 
N642 X133.929 Y-24.393 Z-4.943 
N643 X133.929 Y-24.501 Z-5.037 
N644 X133.929 Y-24.609 Z-5.131 
N645 X133.929 Y-24.717 Z-5.225 
N646 X133.929 Y-24.825 Z-5.319 
N647 X133.929 Y-24.932 Z-5.412 
N648 X133.929 Y-25.040 Z-5.506 
N649 X133.929 Y-25.148 Z-5.600 
N650 X133.929 Y-25.256 Z-5.694 
N651 X133.929 Y-25.364 Z-5.788 
N652 X133.929 Y-25.472 Z-5.881 
N653 X133.929 Y-25.580 Z-5.975 
N654 X133.929 Y-25.688 Z-6.069 
N655 X133.929 Y-25.796 Z-6.163 
N656 X133.929 Y-25.904 Z-6.257 
N657 X133.929 Y-26.012 Z-6.351 
N658 X133.929 Y-26.120 Z-6.444 
N659 X133.929 Y-26.227 Z-6.538 
N660 X133.929 Y-26.335 Z-6.632 
N661 X133.929 Y-26.443 Z-6.726 
N662 X133.929 Y-26.551 Z-6.820 
N663 X133.929 Y-26.659 Z-6.913 
N664 X133.929 Y-26.767 Z-7.007 
N665 X133.929 Y-26.875 Z-7.101 
N666 X133.929 Y-26.983 Z-7.195 
N667 X133.929 Y-27.091 Z-7.289 
N668 X133.929 Y-27.199 Z-7.382 
N669 X133.929 Y-27.307 Z-7.476 
N670 X133.929 Y-27.415 Z-7.570 
N671 X133.929 Y-27.523 Z-7.664 
N672 X133.929 Y-27.630 Z-7.758 
N673 X133.929 Y-27.738 Z-7.852 
N674 X133.929 Y-27.846 Z-7.945 
N675 X133.929 Y-27.954 Z-8.039 
N676 X133.929 Y-28.062 Z-8.133 
N677 X133.929 Y-28.170 Z-8.227 
N678 X133.929 Y-28.278 Z-8.321 
N679 X133.929 Y-28.386 Z-8.414 
N680 X133.929 Y-28.494 Z-8.508 
N681 X133.929 Y-28.602 Z-8.602 
N682 X133.929 Y-28.710 Z-8.696 
N683 X133.929 Y-28.818 Z-8.790 
N684 X133.929 Y-28.925 Z-8.883 
N685 X133.929 Y-29.033 Z-8.977 
N686 X133.929 Y-29.141 Z-9.071 
N687 X133.929 Y-29.249 Z-9.165 
N688 X133.929 Y-29.357 Z-9.259 
N689 X133.929 Y-29.465 Z-9.352 
N690 X133.929 Y-29.573 Z-9.446 
N691 X133.929 Y-29.681 Z-9.540 
N692 X133.929 Y-29.789 Z-9.634 
N693 X133.929 Y-29.897 Z-9.728 
N694 X133.929 Y-30.005 Z-9.822 
N695 X133.929 Y-30.113 Z-9.915 
N696 X133.929 Y-30.220 Z-10.009 
N697 X133.929 Y-30.328 Z-10.103 
N698 X133.929 Y-30.436 Z-10.197 
N699 X133.929 Y-30.544 Z-10.291 
N700 X133.929 Y-30.652 Z-10.384 
N701 X133.929 Y-30.760 Z-10.478 
N702 X133.929 Y-30.868 Z-10.572 
N703 X133.929 Y-30.976 Z-10.666 
N704 X133.929 Y-31.084 Z-10.760 
N705 X133.929 Y-31.192 Z-10.853 
N706 X133.929 Y-31.300 Z-10.947 
N707 X133.929 Y-31.408 Z-11.041 
N708 X133.929 Y-31.516 Z-11.135 
N709 X133.929 Y-31.623 Z-11.229 
N710 X133.929 Y-31.731 Z-11.323 
N711 X133.929 Y-31.839 Z-11.416 
N712 X133.929 Y-31.947 Z-11.510 
N713 X133.929 Y-32.055 Z-11.604 
N714 X133.929 Y-32.163 Z-11.698 
N715 X133.929 Y-32.271 Z-11.792 
N716 X133.929 Y-32.379 Z-11.885 
N717 X133.929 Y-32.487 Z-11.979 
N718 X133.929 Y-32.595 Z-12.073 
N719 X133.929 Y-32.703 Z-12.167 
N720 X133.929 Y-32.811 Z-12.261 
N721 X133.929 Y-32.918 Z-12.354 
N722 X133.929 Y-33.026 Z-12.448 
N723 X133.929 Y-33.134 Z-12.542 
N724 X133.929 Y-33.242 Z-12.636 
N725 X133.929 Y-33.350 Z-12.730 
N726 X133.929 Y-33.458 Z-12.824 
N727 X133.929 Y-33.566 Z-12.917 
N728 X133.929 Y-33.674 Z-13.011 
N729 X133.929 Y-33.782 Z-13.105 
N730 X133.929 Y-33.890 Z-13.199 
N731 X133.929 Y-33.998 Z-13.293 
N732 X133.929 Y-34.106 Z-13.386 
N733 X133.929 Y-34.213 Z-13.480 
N734 X133.929 Y-34.321 Z-13.574 
N735 X133.929 Y-34.429 Z-13.668 
N736 X133.929 Y-34.537 Z-13.762 
N737 X133.929 Y-34.645 Z-13.855 
N738 X133.929 Y-34.753 Z-13.949 
N739 X133.929 Y-34.861 Z-14.043 
N740 X133.929 Y-34.969 Z-14.137 
N741 X133.929 Y-35.077 Z-14.231 
N742 X133.929 Y-35.185 Z-14.325 
N743 X133.929 Y-35.293 Z-14.418 
N744 X133.929 Y-35.401 Z-14.512 
N745 X133.929 Y-35.508 Z-14.606 
N746 X133.929 Y-35.616 Z-14.700 
N747 X133.929 Y-35.724 Z-14.794 
N748 X133.929 Y-35.832 Z-14.887 
N749 X133.929 Y-35.940 Z-14.981 
N750 X133.929 Y-36.048 Z-15.075 
N751 X133.929 Y-36.156 Z-15.169 
N752 X133.929 Y-36.264 Z-15.263 
N753 X133.929 Y-36.372 Z-15.356 
N754 X133.929 Y-36.480 Z-15.450 
N755 X133.929 Y-36.588 Z-15.544 
N756 X133.929 Y-36.696 Z-15.638 
N757 X133.929 Y-36.804 Z-15.732 
N758 X133.929 Y-36.911 Z-15.826 
N759 X133.929 Y-37.019 Z-15.919 
N760 X133.929 Y-37.127 Z-16.013 
N761 X133.929 Y-37.235 Z-16.107 
N762 X133.929 Y-37.343 Z-16.201 
N763 X133.929 Y-37.451 Z-16.295 
N764 X133.929 Y-37.559 Z-16.388 
N765 X133.929 Y-37.667 Z-16.482 
N766 X133.929 Y-37.774 Z-16.576 
N767 X133.929 Y-37.882 Z-16.669 
N768 X133.929 Y-37.990 Z-16.763 
N769 X133.929 Y-38.098 Z-16.857 
N770 X133.929 Y-38.206 Z-16.951 
N771 X133.929 Y-38.314 Z-17.044 
N772 X133.929 Y-38.421 Z-17.138 
N773 X133.929 Y-38.529 Z-17.232 
N774 X133.929 Y-38.637 Z-17.326 
N775 X133.929 Y-38.745 Z-17.419 
N776 X133.929 Y-38.853 Z-17.513 
N777 X133.929 Y-38.960 Z-17.607 
N778 X133.929 Y-39.068 Z-17.700 
N779 X133.929 Y-39.176 Z-17.794 
N780 X133.929 Y-39.284 Z-17.888 
N781 X133.929 Y-39.392 Z-17.982 
N782 X133.929 Y-39.500 Z-18.075 
N783 X133.929 Y-39.607 Z-18.169 
N784 X133.929 Y-39.715 Z-18.263 
N785 X133.929 Y-39.823 Z-18.357 
N786 X133.929 Y-39.931 Z-18.450 
N787 X133.929 Y-40.039 Z-18.544 
N788 X133.929 Y-40.146 Z-18.638 
N789 X133.929 Y-40.254 Z-18.731 
N790 X133.929 Y-40.362 Z-18.825 
N791 X133.929 Y-40.470 Z-18.919 
N792 X133.929 Y-40.578 Z-19.013 
N793 X133.929 Y-40.686 Z-19.106 
N794 X133.929 Y-40.793 Z-19.200 
N795 X133.929 Y-40.901 Z-19.294 
N796 X133.929 Y-41.009 Z-19.387 
N797 X133.929 Y-41.117 Z-19.481 
N798 X133.929 Y-41.225 Z-19.575 
N799 G40 X133.929 Y-48.772 Z-26.135 F286
N800 X133.929 Y-48.772 Z-26.135 
N801 G00 X135.253 Y-81.563 Z11.587 
RAPORT("T13732","Side Milling:101 End")
N803 ;trailer : concat=None
; points cnt = 737
N804 MSG (" --- GROUPED OF SUBPROGRAM --- ")
N805 FGROUP()
N806 TRAFOOF
N10 ; PROGRAM NAME: 1373275
N11 ; ORDER       : 13732
N12 ; OPER. NAME  : Side Milling:102
N13 ; OPER. DESCR.: FSSANF : POMA D2
N14 ; OPER. TYPE  : sideMill
N15 ; GEO. OPTION : 1
N16 ; MACHINE     : SH_HX151_24_SIM840D
N17 ;             : STARRAG_HECKERT_5axis_finish_milling_machine
N18 ; CONTROL     : SINUMERIK 840D
N19 ; created:   2021-11-10 08:04:53.777940
;-------DODATKOWE DANE-------------------
; PROGRAMISTA : Mariusz Orzechowski
; PARTID      : 132T008743P1005_-
;  ap         : 5.0
;  ae         : 5.0
;  lean_angle : 0.0
;  fin_offset : 0.0
;----------------------------------------
N20 ;----------------------------------------
RAPORT("T13732","Side Milling:102")
N21 TRAFOOF
N22 D0
N23 G0 G90 G94 Z260.0
N24 STOPRE
N25 M9 ; chlodziwo wyl
N26 ; --- Side Milling:102 - FSSANF : POMA D2 ---
N28 ;ToolChange : concat=None ,current_tdmid=None, PP.tdmId=940983
N29 TRAFOOF
N30 D0
N31 G0 G54 Z270.0
N32 S2864 M03
N33 STOPRE
N34 TOL(0.1,1,1)
N35 G0  A41.0169
N36 TRAORI
N37 G54 D1
N38 D2 
N39 ; DELTA A > 40.1
N40 TRAFOOF
N41 STOPRE
N42 G0 G53 D0 Z265.000
N43 G1 G53 A41.0169 F10000
N44 TRAORI
N45 G54 D2
N46 TRANS 
N47 G00 X136.152 Y-65.700 Z25.345 A41.0169 B1.9807 
N48 M342 ; chlodziwo woda
N49 X134.829 Y-32.908 Z-12.377 
N50 D2 
N51 G01 G41 X134.829 Y-25.361 Z-5.817 F286
N52 G01 X134.829 Y-25.361 Z-5.817 F286 
N53 X134.829 Y-24.984 Z-5.489 
N54 X134.829 Y-24.606 Z-5.161 
N55 X134.829 Y-24.229 Z-4.832 
N56 X134.829 Y-23.852 Z-4.504 
N57 X134.829 Y-23.474 Z-4.176 
N58 X134.829 Y-23.097 Z-3.848 
N59 X134.829 Y-22.720 Z-3.520 
N60 X134.829 Y-22.342 Z-3.192 
N61 X134.829 Y-21.965 Z-2.864 
N62 X134.829 Y-21.588 Z-2.536 
N63 X134.829 Y-21.210 Z-2.208 
N64 X134.829 Y-20.833 Z-1.880 
N65 X134.829 Y-20.455 Z-1.552 
N66 X134.829 Y-20.078 Z-1.224 
N67 X134.829 Y-19.701 Z-0.896 
N68 X134.829 Y-19.323 Z-0.568 
N69 X134.829 Y-18.958 Z-0.250 
N70 X134.829 Y-18.593 Z0.067 
N71 X134.829 Y-18.227 Z0.385 
N72 X134.829 Y-17.862 Z0.703 
N73 X134.829 Y-17.496 Z1.020 
N74 X134.829 Y-17.131 Z1.338 
N75 X134.829 Y-16.765 Z1.656 
N76 X134.829 Y-16.400 Z1.973 
N77 X134.829 Y-16.034 Z2.291 
N78 X134.829 Y-15.669 Z2.609 
N79 X134.829 Y-15.304 Z2.926 
N80 X134.829 Y-14.938 Z3.244 
N81 X134.829 Y-14.573 Z3.562 
N82 X134.829 Y-14.207 Z3.879 
N83 X134.829 Y-13.842 Z4.197 
N84 X134.829 Y-13.476 Z4.515 
N85 X134.829 Y-13.111 Z4.832 
N86 X134.829 Y-12.745 Z5.150 
N87 X134.829 Y-12.380 Z5.468 
N88 X134.829 Y-12.015 Z5.785 
N89 X134.829 Y-11.649 Z6.103 
N90 X134.829 Y-11.284 Z6.421 
N91 X134.829 Y-10.918 Z6.738 
N92 X134.829 Y-10.553 Z7.056 
N93 X134.829 Y-10.187 Z7.374 
N94 X134.829 Y-9.822 Z7.691 
N95 X134.829 Y-9.456 Z8.009 
N96 X134.829 Y-9.091 Z8.327 
N97 X134.829 Y-8.726 Z8.644 
N98 X134.829 Y-8.348 Z8.973 
N99 X134.829 Y-7.971 Z9.301 
N100 X134.829 Y-7.593 Z9.629 
N101 X134.829 Y-7.216 Z9.957 
N102 X134.829 Y-6.839 Z10.285 
N103 X134.829 Y-6.461 Z10.613 
N104 X134.829 Y-6.084 Z10.941 
N105 X134.829 Y-5.707 Z11.269 
N106 X134.829 Y-5.329 Z11.597 
N107 X134.829 Y-4.952 Z11.925 
N108 G40 X134.829 Y2.595 Z18.485 F286
N109 X134.829 Y2.595 Z18.485 
N110 G00 X136.152 Y-30.196 Z56.208 
RAPORT("T13732","Side Milling:102 End")
N112 ;trailer : concat=None
; points cnt = 57
N113 MSG (" --- GROUPED OF SUBPROGRAM --- ")
N114 FGROUP()
N115 TRAFOOF
N10 ; PROGRAM NAME: 1373275
N11 ; ORDER       : 13732
N12 ; OPER. NAME  : Side Milling:103
N13 ; OPER. DESCR.: DFAZANF 
N14 ; OPER. TYPE  : sideMill
N15 ; GEO. OPTION : 1
N16 ; MACHINE     : SH_HX151_24_SIM840D
N17 ;             : STARRAG_HECKERT_5axis_finish_milling_machine
N18 ; CONTROL     : SINUMERIK 840D
N19 ; created:   2021-11-10 08:04:56.613634
;-------DODATKOWE DANE-------------------
; PROGRAMISTA : Mariusz Orzechowski
; PARTID      : 132T008743P1005_-
;  ap         : 5.0
;  ae         : 5.0
;  lean_angle : 0.0
;  fin_offset : 0.0
;----------------------------------------
N20 ;----------------------------------------
RAPORT("T13732","Side Milling:103")
N21 TRAFOOF
N22 D0
N23 G0 G90 G94 Z260.0
N24 STOPRE
N25 M9 ; chlodziwo wyl
N26 ; --- Side Milling:103 - DFAZANF  ---
N28 ;ToolChange : concat=None ,current_tdmid=None, PP.tdmId=940984
N29 MSG(" TLID=940984 D=12.0 R=0.0 Ang=0.0 Len=120.0 ")
N30 TRAFOOF
N31 D0
N32 G0 G53 Z290 B0
N33 G0 X200
N34 G0 Y150
N35 T="7740984"
N36 G0 X500
RAPORT("T13732","ToolChangeStart 7740984")
N37 M6
RAPORT("T13732","ToolChangeEnd")
N38 ; (Preloading tool)
N39 T="7759057"
N40 G0 X200
N41 STOPRE
N42 S2652 M03
N43 STOPRE
N44 TOL(0.1,1,1)
N45 G0 X140.451 A41.0169
N46 TRAORI
N47 G54 D1
N48 D1 
N49 TRANS  X=R21
N50 ; DELTA A > 40.1
N51 TRAFOOF
N52 STOPRE
N53 G0 G53 D0 Z265.000
N54 G1 G53 A41.0169 F10000
N55 TRAORI
N56 G54 D1
N57 TRANS  X=R21
N58 G00 X140.451 Y-6.034 Z77.061 A41.0169 B1.9807 
N59 M342 ; chlodziwo woda
N60 X139.127 Y26.757 Z39.338 
N61 G01 X139.127 Y19.210 Z32.778 F424 
N62 X139.127 Y16.946 Z30.810 
N63 X139.127 Y12.418 Z26.873 
N64 X139.127 Y-3.430 Z13.097 
N65 X139.127 Y-7.958 Z9.161 
N66 X139.392 Y-14.516 Z16.705 F1000 
N67 G00 X140.451 Y-40.749 Z46.883 
RAPORT("T13732","Side Milling:103 End")
N69 ;trailer : concat=None
; points cnt = 6
N70 MSG (" --- GROUPED OF SUBPROGRAM --- ")
N71 FGROUP()
N72 TRAFOOF
N10 ; PROGRAM NAME: 1373275
N11 ; ORDER       : 13732
N12 ; OPER. NAME  : Side Milling:104
N13 ; OPER. DESCR.: NNTAANF : Lejek D5
N14 ; OPER. TYPE  : sideMill
N15 ; GEO. OPTION : 1
N16 ; MACHINE     : SH_HX151_24_SIM840D
N17 ;             : STARRAG_HECKERT_5axis_finish_milling_machine
N18 ; CONTROL     : SINUMERIK 840D
N19 ; created:   2021-11-10 08:05:00.638964
;-------DODATKOWE DANE-------------------
; PROGRAMISTA : Mariusz Orzechowski
; PARTID      : 132T008743P1005_-
;  ap         : 5.0
;  ae         : 5.0
;  lean_angle : 0.0
;  fin_offset : 0.0
;----------------------------------------
N20 ;----------------------------------------
RAPORT("T13732","Side Milling:104")
N21 TRAFOOF
N22 D0
N23 G0 G90 G94 Z260.0
N24 STOPRE
N25 M9 ; chlodziwo wyl
N26 ; --- Side Milling:104 - NNTAANF : Lejek D5 ---
N28 ;ToolChange : concat=None ,current_tdmid=None, PP.tdmId=959057
N29 MSG(" TLID=959057 D=6.0 R=0.6 Ang=0.0 Len=100.0 ")
N30 TRAFOOF
N31 D0
N32 G0 G53 Z290 B0
N33 G0 X200
N34 G0 Y150
N35 T="7759057"
N36 G0 X500
RAPORT("T13732","ToolChangeStart 7759057")
N37 M6
RAPORT("T13732","ToolChangeEnd")
N38 ; (Preloading tool)
N39 T="7740983"
N40 G0 X200
N41 STOPRE
N42 S3713 M03
N43 STOPRE
N44 TOL(0.1,1,1)
N45 G0 X151.760 A131.0000
N46 TRAORI
N47 G54 D1
N48 ; DELTA A > 40.1
N49 TRAFOOF
N50 STOPRE
N51 G0 G53 D0 Z265.000
N52 G1 G53 A131.0000 F10000
N53 TRAORI
N54 G54 D1
N55 TRANS 
N56 G00 X151.760 Y-67.702 Z-8.935 A131.0000 B0.0000 
N57 M342 ; chlodziwo woda
N58 X151.760 Y-29.966 Z23.867 
N59 D5 
N60 G01 G42 X150.394 Y-23.467 Z16.391 F193
N61 G01 X150.394 Y-23.467 Z16.391 F193 
N62 X150.349 Y-23.250 Z16.142 
N63 X150.303 Y-23.034 Z15.893 
N64 X150.258 Y-22.817 Z15.643 
N65 X150.212 Y-22.601 Z15.394 
N66 X150.166 Y-22.384 Z15.145 
N67 X150.121 Y-22.167 Z14.896 
N68 X150.075 Y-21.951 Z14.647 
N69 X150.030 Y-21.734 Z14.397 
N70 X149.984 Y-21.517 Z14.148 
N71 X149.939 Y-21.301 Z13.899 
N72 X149.893 Y-21.084 Z13.650 
N73 X149.848 Y-20.867 Z13.401 
N74 X149.802 Y-20.651 Z13.151 
N75 X149.757 Y-20.434 Z12.902 
N76 X149.711 Y-20.218 Z12.653 
N77 X149.666 Y-20.001 Z12.404 
N78 X149.620 Y-19.784 Z12.155 
N79 X149.575 Y-19.568 Z11.905 
N80 X149.531 Y-19.361 Z11.667 
N81 X149.488 Y-19.154 Z11.429 
N82 X149.444 Y-18.947 Z11.191 
N83 X149.401 Y-18.740 Z10.953 
N84 X149.357 Y-18.533 Z10.715 
N85 X149.313 Y-18.326 Z10.477 
N86 X149.270 Y-18.119 Z10.239 
N87 X149.226 Y-17.912 Z10.000 
N88 X149.183 Y-17.705 Z9.762 
N89 X149.139 Y-17.498 Z9.524 
N90 X149.096 Y-17.291 Z9.286 
N91 X149.052 Y-17.084 Z9.048 
N92 X149.009 Y-16.877 Z8.810 
N93 X148.965 Y-16.670 Z8.572 
N94 X148.922 Y-16.463 Z8.334 
N95 X148.878 Y-16.256 Z8.096 
N96 X148.835 Y-16.049 Z7.857 
N97 X148.791 Y-15.842 Z7.619 
N98 X148.748 Y-15.635 Z7.381 
N99 X148.704 Y-15.428 Z7.143 
N100 X148.661 Y-15.221 Z6.905 
N101 X148.615 Y-15.004 Z6.656 
N102 X148.570 Y-14.788 Z6.407 
N103 X148.524 Y-14.571 Z6.157 
N104 X148.479 Y-14.354 Z5.908 
N105 X148.433 Y-14.138 Z5.659 
N106 X148.388 Y-13.921 Z5.410 
N107 X148.342 Y-13.704 Z5.160 
N108 X148.297 Y-13.488 Z4.911 
N109 X148.251 Y-13.271 Z4.662 
N110 G40 X148.251 Y-13.271 Z4.662 F193
N111 
N112 G00 X148.251 Y-51.007 Z-28.141 
RAPORT("T13732","Side Milling:104 End")
N114 ;trailer : concat=None
; points cnt = 50
N115 MSG (" --- GROUPED OF SUBPROGRAM --- ")
N116 FGROUP()
N117 TRAFOOF
N10 ; PROGRAM NAME: 1373275
N11 ; ORDER       : 13732
N12 ; OPER. NAME  : Side Milling:105
N13 ; OPER. DESCR.: NTAANF : Lejek D6
N14 ; OPER. TYPE  : sideMill
N15 ; GEO. OPTION : 1
N16 ; MACHINE     : SH_HX151_24_SIM840D
N17 ;             : STARRAG_HECKERT_5axis_finish_milling_machine
N18 ; CONTROL     : SINUMERIK 840D
N19 ; created:   2021-11-10 08:05:04.144694
;-------DODATKOWE DANE-------------------
; PROGRAMISTA : Mariusz Orzechowski
; PARTID      : 132T008743P1005_-
;  ap         : 5.0
;  ae         : 5.0
;  lean_angle : 0.0
;  fin_offset : 0.0
;----------------------------------------
N20 ;----------------------------------------
RAPORT("T13732","Side Milling:105")
N21 TRAFOOF
N22 D0
N23 G0 G90 G94 Z260.0
N24 STOPRE
N25 M9 ; chlodziwo wyl
N26 ; --- Side Milling:105 - NTAANF : Lejek D6 ---
N28 ;ToolChange : concat=None ,current_tdmid=None, PP.tdmId=959057
N29 TRAFOOF
N30 D0
N31 G0 G54 Z270.0
N32 S3713 M03
N33 STOPRE
N34 TOL(0.1,1,1)
N35 G0  A131.0000
N36 TRAORI
N37 G54 D1
N38 ; DELTA A > 40.1
N39 TRAFOOF
N40 STOPRE
N41 G0 G53 D0 Z265.000
N42 G1 G53 A131.0000 F10000
N43 TRAORI
N44 G54 D1
N45 TRANS 
N46 G00 X145.704 Y-67.673 Z-8.968 A131.0000 B0.0000 
N47 M342 ; chlodziwo woda
N48 X145.704 Y-29.938 Z23.835 
N49 D6 
N50 G01 G41 X146.571 Y-23.402 Z16.316 F193
N51 G01 X146.571 Y-23.402 Z16.316 F193 
N52 X146.600 Y-23.184 Z16.066 
N53 X146.629 Y-22.966 Z15.815 
N54 X146.658 Y-22.748 Z15.564 
N55 X146.687 Y-22.531 Z15.314 
N56 X146.716 Y-22.313 Z15.063 
N57 X146.745 Y-22.095 Z14.813 
N58 X146.773 Y-21.877 Z14.562 
N59 X146.802 Y-21.659 Z14.311 
N60 X146.831 Y-21.441 Z14.061 
N61 X146.860 Y-21.223 Z13.810 
N62 X146.889 Y-21.005 Z13.559 
N63 X146.918 Y-20.788 Z13.309 
N64 X146.947 Y-20.570 Z13.058 
N65 X146.976 Y-20.352 Z12.808 
N66 X147.005 Y-20.134 Z12.557 
N67 X147.034 Y-19.916 Z12.306 
N68 X147.062 Y-19.698 Z12.056 
N69 X147.091 Y-19.480 Z11.805 
N70 X147.119 Y-19.269 Z11.561 
N71 X147.148 Y-19.057 Z11.318 
N72 X147.176 Y-18.845 Z11.074 
N73 X147.204 Y-18.633 Z10.830 
N74 X147.232 Y-18.421 Z10.586 
N75 X147.260 Y-18.209 Z10.343 
N76 X147.288 Y-17.997 Z10.099 
N77 X147.316 Y-17.786 Z9.855 
N78 X147.344 Y-17.574 Z9.612 
N79 X147.372 Y-17.362 Z9.368 
N80 X147.401 Y-17.150 Z9.124 
N81 X147.429 Y-16.938 Z8.880 
N82 X147.457 Y-16.726 Z8.637 
N83 X147.485 Y-16.514 Z8.393 
N84 X147.513 Y-16.302 Z8.149 
N85 X147.541 Y-16.091 Z7.905 
N86 X147.569 Y-15.879 Z7.662 
N87 X147.597 Y-15.667 Z7.418 
N88 X147.625 Y-15.455 Z7.174 
N89 X147.654 Y-15.243 Z6.931 
N90 X147.682 Y-15.025 Z6.680 
N91 X147.711 Y-14.807 Z6.429 
N92 X147.740 Y-14.590 Z6.179 
N93 X147.769 Y-14.372 Z5.928 
N94 X147.798 Y-14.154 Z5.677 
N95 X147.827 Y-13.936 Z5.427 
N96 X147.856 Y-13.718 Z5.176 
N97 X147.885 Y-13.500 Z4.926 
N98 X147.914 Y-13.282 Z4.675 
N99 G40 X147.914 Y-13.282 Z4.675 F193
N100 
N101 G00 X147.914 Y-51.018 Z-28.128 
RAPORT("T13732","Side Milling:105 End")
N103 ;trailer : concat=None
; points cnt = 49
N104 M9 ; chlodziwo wyl.
N105 M9 ; chlodziwo wyl.
N106 MSG (" --- KONIEC PROGRAMU --- ")
N107 TRANS
N108 G54
N109 FGROUP()
N110 TRAFOOF
N111 STOPRE
N112 G0 G53 D0 Z290.0 M9 M5
N113 G0 G53 Y150 A0 B0
N114 M17
