N11 ; ORDER       : 13732
N12 ; OPER. NAME  : Flank Milling Transition:138
N13 ; OPER. DESCR.: finish flank root/promienie przejsc wk
N14 ; OPER. TYPE  : preFinFlank
N15 ; GEO. OPTION : 2
N16 ; MACHINE     : SH_HX151_24_SIM840D
N17 ;             : STARRAG_HECKERT_5axis_finish_milling_machine
N18 ; CONTROL     : SINUMERIK 840D
N19 ; created:   2021-11-09 15:28:44.119956
;-------DODATKOWE DANE-------------------
; PROGRAMISTA : Mariusz Orzechowski
; PARTID      : 132T008743P1005_-
;  dec_value  : 0.725
;  lean_angle : 24.0
;  tilt_angle : 0.0
;  airf_offset: 0.05
;  firstoffset: 3.0
;----------------------------------------
N20 ;----------------------------------------
RAPORT("T13732","Flank Milling Transition:138")
N21 TRAFOOF
N22 D0
N23 G90 G94
N24 STOPRE
N25 M9 ; chlodziwo wyl
N26 ; --- Flank Milling Transition:138 - finish flank root/promienie przejsc wk ---
N28 ;ToolChange : concat=None ,current_tdmid=None, PP.tdmId=959059
N29 MSG(" TLID=959059 D=3.85986 R=2.3 Ang=10.0 Len=175.0 ")
N30 TRAFOOF
N31 D0
N32 G0 G53 Z290 B0
N33 G0 X200
N34 G0 Y150
N35 T="7759059"
N36 G0 X500
RAPORT("T13732","ToolChangeStart 7759059")
N37 M6
RAPORT("T13732","ToolChangeEnd")
N38 ; (Preloading tool)
N39 T="7759063"
N40 G0 X200
N41 STOPRE
N42 S5624 M03
N43 STOPRE
N44 TOL(0.001,1,1)
N45 G0 X176.763 A162.4661
N46 TRAORI
N47 G54 D3
N48 D3 
N49 TRANS  X=R9 A=R25
STOPRE
E_ZDARZ=300017
;ACS_FINISH_UBG_PLATFORM_XLB_ROOT=7759059
STOPRE
N50 ; DELTA A > 40.1
N51 TRAFOOF
N52 STOPRE
N53 G0 G53 D0 Z265.000
N54 G1 G53 A162.4661 F10000
N55 TRAORI
N56 G54 D3
N57 TRANS  X=R9 A=R25
N58 G00 X176.763 Y-50.178 Z-39.749 A162.4661 B8.9540 
N59 M342 ; chlodziwo woda
N60 X170.801 Y-34.937 Z7.497 
N61 G01 X170.823 Y-32.504 Z9.465 F337 
N62 X170.887 Y-29.584 Z10.586 
N63 X170.986 Y-26.461 Z10.749 
N64 X171.111 Y-23.442 Z9.939 
N65 M342 ; chlodziwo woda
N66 X171.250 Y-20.821 Z8.236 
N67 X171.260 Y-20.761 Z8.141 A164.6444 B8.9128 
N68 X171.271 Y-20.614 Z8.015 A164.9533 B8.9296 
N69 X171.282 Y-20.445 Z7.874 A164.9866 B8.9562 
N70 X171.293 Y-20.261 Z7.723 A165.0173 B8.9850 
N71 X171.306 Y-20.064 Z7.559 A165.0545 B9.0160 
N72 X171.316 Y-19.852 Z7.385 A165.0971 B9.0493 
N73 X171.327 Y-19.626 Z7.199 A165.1450 B9.0848 
N74 X171.337 Y-19.386 Z7.001 A165.1997 B9.1225 
N75 X171.347 Y-19.133 Z6.793 A165.2635 B9.1623 
N76 X171.356 Y-18.868 Z6.576 A165.3398 B9.2040 
N77 X171.364 Y-18.591 Z6.349 A165.4318 B9.2476 
N78 X171.370 Y-18.303 Z6.115 A165.5419 B9.2928 
N79 X171.375 Y-18.007 Z5.873 A165.6712 B9.3395 
N80 X171.378 Y-17.703 Z5.627 A165.8196 B9.3876 
N81 X171.380 Y-17.391 Z5.376 A165.9869 B9.4370 
N82 X171.379 Y-17.074 Z5.121 A166.1730 B9.4876 
N83 X171.378 Y-16.753 Z4.865 A166.3780 B9.5393 
N84 X171.373 Y-16.428 Z4.607 A166.6018 B9.5919 
N85 X171.366 Y-16.100 Z4.349 A166.8442 B9.6455 
N86 X171.356 Y-15.770 Z4.091 A167.1061 B9.7000 
N87 X171.346 Y-15.439 Z3.834 A167.3894 B9.7553 
N88 X171.336 Y-15.107 Z3.580 A167.6971 B9.8114 
N89 X171.326 Y-14.775 Z3.327 A168.0325 B9.8715 
N90 X171.318 Y-14.444 Z3.078 A168.3971 B9.9344 
N91 X171.309 Y-14.113 Z2.832 A168.7907 B9.9985 
N92 X171.302 Y-13.784 Z2.590 A169.2127 B10.0641 
N93 X171.295 Y-13.456 Z2.352 A169.6623 B10.1311 
N94 X171.289 Y-13.130 Z2.118 A170.1397 B10.1997 
N95 X171.283 Y-12.805 Z1.890 A170.6453 B10.2700 
N96 X171.278 Y-12.482 Z1.666 A171.1797 B10.3422 
N97 X171.273 Y-12.162 Z1.448 A171.7437 B10.4164 
N98 X171.269 Y-11.844 Z1.236 A172.3380 B10.4927 
N99 X171.266 Y-11.529 Z1.029 A172.9631 B10.5714 
N100 X171.264 Y-11.216 Z0.828 A173.6200 B10.6525 
N101 X171.261 Y-10.906 Z0.633 A174.3092 B10.7363 
N102 X171.258 Y-10.600 Z0.445 A175.0315 B10.8230 
N103 X171.257 Y-10.296 Z0.262 A175.7881 B10.9129 
N104 X171.256 Y-9.995 Z0.086 A176.5808 B11.0061 
N105 X171.256 Y-9.698 Z-0.083 A177.4123 B11.1031 
N106 X171.256 Y-9.404 Z-0.246 A178.2854 B11.2041 
N107 X171.256 Y-9.114 Z-0.402 A179.2023 B11.3097 
N108 X171.256 Y-8.828 Z-0.551 A180.1633 B11.4202 
N109 X171.257 Y-8.546 Z-0.694 A181.1669 B11.5358 
N110 X171.258 Y-8.267 Z-0.829 A182.2105 B11.6569 
N111 X171.260 Y-7.991 Z-0.958 A183.2894 B11.7639 
N112 X171.263 Y-7.719 Z-1.080 A184.4018 B11.8593 
N113 X171.266 Y-7.450 Z-1.196 A185.5477 B11.9572 
N114 X171.269 Y-7.185 Z-1.304 A186.7273 B12.0576 
N115 X171.272 Y-6.924 Z-1.406 A187.9411 B12.1605 
N116 X171.276 Y-6.666 Z-1.502 A189.1901 B12.2659 
N117 X171.280 Y-6.411 Z-1.591 A190.4745 B12.3739 
N118 X171.284 Y-6.160 Z-1.673 A191.7943 B12.4843 
N119 X171.289 Y-5.913 Z-1.750 A193.1492 B12.5972 
N120 X171.293 Y-5.669 Z-1.820 A194.5386 B12.7125 
N121 X171.298 Y-5.428 Z-1.884 A195.9620 B12.8301 
N122 X171.303 Y-5.191 Z-1.942 A197.4182 B12.9499 
N123 X171.308 Y-4.956 Z-1.994 A198.9058 B13.0718 
N124 X171.313 Y-4.725 Z-2.040 A200.4233 B13.1955 
N125 X171.318 Y-4.497 Z-2.080 A201.9691 B13.3210 
N126 X171.324 Y-4.272 Z-2.115 A203.5416 B13.4481 
N127 X171.329 Y-4.050 Z-2.144 A205.1393 B13.5765 
N128 X171.335 Y-3.830 Z-2.167 A206.7603 B13.7061 
N129 X171.340 Y-3.612 Z-2.184 A208.4029 B13.8367 
N130 X171.346 Y-3.397 Z-2.196 A210.0651 B13.9680 
N131 X171.352 Y-3.184 Z-2.203 A211.7448 B14.1000 
N132 X171.358 Y-2.973 Z-2.203 A213.4399 B14.2323 
N133 X171.364 Y-2.763 Z-2.198 A215.1482 B14.3648 
N134 X171.370 Y-2.556 Z-2.188 A216.8676 B14.4973 
N135 X171.376 Y-2.350 Z-2.171 A218.5962 B14.6297 
N136 X171.382 Y-2.145 Z-2.149 A220.3321 B14.7617 
N137 X171.388 Y-1.941 Z-2.121 A222.0736 B14.8933 
N138 X171.394 Y-1.739 Z-2.087 A223.8188 B15.0244 
N139 X171.401 Y-1.538 Z-2.047 A225.5656 B15.1549 
N140 X171.407 Y-1.338 Z-2.001 A227.3119 B15.2847 
N141 X171.413 Y-1.139 Z-1.948 A229.0553 B15.4139 
N142 X171.420 Y-0.941 Z-1.889 A230.7934 B15.5424 
N143 X171.426 Y-0.744 Z-1.824 A232.5230 B15.6703 
N144 X171.433 Y-0.547 Z-1.752 A234.2374 B15.7974 
N145 X171.439 Y-0.351 Z-1.672 A235.9200 B15.9231 
N146 X171.445 Y-0.155 Z-1.583 A237.5326 B16.0458 
N147 X171.452 Y0.042 Z-1.483 A239.0014 B16.1617 
N148 X171.459 Y0.243 Z-1.368 A240.2147 B16.2650 
N149 X171.467 Y0.449 Z-1.232 A241.0432 B16.3387 
N150 X171.478 Y0.661 Z-1.073 A241.3795 B16.2954 
N151 X171.491 Y0.878 Z-0.890 A241.2121 B16.1910 
N152 X171.504 Y1.100 Z-0.685 A240.6216 B16.0861 
N153 X171.516 Y1.324 Z-0.464 A239.7461 B15.9975 
N154 X171.528 Y1.548 Z-0.232 A238.7334 B15.9175 
N155 X171.540 Y1.769 Z0.007 A237.7034 B15.8338 
N156 X171.552 Y1.985 Z0.250 A236.7303 B15.7371 
N157 X171.565 Y2.194 Z0.496 A235.8447 B15.6227 
N158 X171.578 Y2.398 Z0.744 A235.0480 B15.4888 
N159 X171.592 Y2.595 Z0.995 A234.3339 B15.3345 
N160 X171.606 Y2.786 Z1.248 A233.7066 B15.1571 
N161 X171.621 Y2.969 Z1.503 A233.1832 B14.9505 
N162 X171.635 Y3.161 Z1.784 A232.9291 B14.7462 
N163 X171.644 Y3.350 Z2.076 A232.8470 B14.5336 
N164 X171.648 Y3.529 Z2.368 A232.8632 B14.2997 
N165 X171.646 Y3.699 Z2.663 A232.9437 B14.0470 
N166 X171.640 Y3.861 Z2.959 A233.0570 B13.7804 
N167 X171.629 Y4.015 Z3.259 A233.1800 B13.5052 
N168 X171.613 Y4.162 Z3.561 A233.2992 B13.2262 
N169 X171.592 Y4.301 Z3.866 A233.4067 B12.9469 
N170 X171.567 Y4.433 Z4.172 A233.4986 B12.6705 
N171 X171.537 Y4.558 Z4.479 A233.5728 B12.3998 
N172 X171.503 Y4.676 Z4.787 A233.6306 B12.1360 
N173 X171.465 Y4.787 Z5.095 A233.6784 B11.8769 
N174 X171.424 Y4.890 Z5.402 A233.7255 B11.6183 
N175 X171.380 Y4.984 Z5.706 A233.7806 B11.3546 
N176 X171.334 Y5.070 Z6.007 A233.8488 B11.0818 
N177 X171.287 Y5.147 Z6.305 A233.9286 B10.8000 
N178 X171.238 Y5.214 Z6.597 A234.0143 B10.5126 
N179 X171.189 Y5.273 Z6.884 A234.1012 B10.2264 
N180 X171.139 Y5.321 Z7.164 A234.1902 B9.9419 
N181 X171.090 Y5.360 Z7.437 A234.3045 B9.6432 
N182 X171.044 Y5.387 Z7.698 A234.4962 B9.2936 
N183 X171.002 Y5.401 Z7.945 A234.8360 B8.8449 
N184 X170.968 Y5.399 Z8.174 A235.4160 B8.2389 
N185 X170.943 Y5.378 Z8.380 A236.3633 B7.4013 
N186 X170.930 Y5.337 Z8.556 A237.8163 B6.2624 
N187 X170.931 Y5.276 Z8.699 A239.8411 B4.8084 
N188 X170.945 Y5.200 Z8.808 A242.3986 B3.0901 
N189 X170.969 Y5.115 Z8.884 A245.4020 B1.1804 
N190 X171.003 Y5.025 Z8.930 A248.7622 B-0.8505 
N191 X171.043 Y4.936 Z8.948 A252.4083 B-2.9437 
N192 X171.089 Y4.853 Z8.942 A256.2889 B-5.0513 
N193 X171.138 Y4.778 Z8.914 A260.3676 B-7.1334 
N194 X171.190 Y4.714 Z8.867 A264.6150 B-9.1550 
N195 X171.241 Y4.663 Z8.804 A269.0009 B-11.0827 
N196 X171.292 Y4.625 Z8.728 A273.4968 B-12.8871 
N197 X171.339 Y4.602 Z8.642 A278.0782 B-14.5434 
N198 X171.383 Y4.593 Z8.549 A282.7240 B-16.0312 
N199 X171.422 Y4.598 Z8.451 A287.4149 B-17.3334 
N200 X171.460 Y4.618 Z8.352 A292.1410 B-18.5757 
N201 X171.491 Y4.651 Z8.253 A296.8883 B-19.6246 
N202 X171.515 Y4.696 Z8.154 A301.6334 B-20.4069 
N203 X171.531 Y4.751 Z8.059 A306.3561 B-20.9205 
N204 X171.539 Y4.817 Z7.969 A311.0385 B-21.1645 
N205 X171.538 Y4.892 Z7.885 A315.6656 B-21.1401 
N206 X171.529 Y4.973 Z7.809 A320.2246 B-20.8497 
N207 X171.512 Y5.060 Z7.742 A324.7055 B-20.2973 
N208 X171.488 Y5.152 Z7.686 A329.1006 B-19.4881 
N209 X171.456 Y5.247 Z7.641 A333.4076 B-18.4288 
N210 X171.415 Y5.343 Z7.607 A337.6289 B-17.1278 
N211 X171.365 Y5.439 Z7.587 A341.7778 B-15.6221 
N212 X171.308 Y5.534 Z7.580 A345.8655 B-13.9446 
N213 X171.244 Y5.626 Z7.587 A349.8998 B-12.1218 
N214 X171.175 Y5.713 Z7.609 A353.8823 B-10.1835 
N215 X171.105 Y5.791 Z7.644 A357.8006 B-8.1661 
N216 X171.033 Y5.859 Z7.693 A1.6201 B-6.1163 
N217 X170.965 Y5.911 Z7.755 A5.2832 B-4.0907 
N218 X170.902 Y5.942 Z7.826 A8.7225 B-2.1486 
N219 X170.846 Y5.951 Z7.904 A11.8855 B-0.3374 
N220 X170.801 Y5.934 Z7.985 A14.7556 B1.3194 
N221 X170.767 Y5.893 Z8.067 A17.3561 B2.8237 
N222 X170.743 Y5.829 Z8.146 A19.7344 B4.1932 
N223 X170.730 Y5.744 Z8.222 A21.9391 B5.4484 
N224 X170.728 Y5.639 Z8.293 A24.0052 B6.6038 
N225 X170.736 Y5.516 Z8.357 A25.9551 B7.6680 
N226 X170.753 Y5.374 Z8.412 A27.8002 B8.6455 
N227 X170.780 Y5.215 Z8.457 A29.5377 B9.5349 
N228 X170.815 Y5.038 Z8.491 A31.1615 B10.3345 
N229 X170.858 Y4.846 Z8.513 A32.6860 B11.0515 
N230 X170.907 Y4.640 Z8.524 A34.1515 B11.7023 
N231 X170.961 Y4.422 Z8.524 A35.5731 B12.2922 
N232 X171.019 Y4.191 Z8.512 A36.9247 B12.8125 
N233 X171.081 Y3.948 Z8.488 A38.1779 B13.2562 
N234 X171.145 Y3.692 Z8.451 A39.3334 B13.6275 
N235 X171.209 Y3.425 Z8.401 A40.4054 B13.9343 
N236 X171.273 Y3.147 Z8.341 A41.3966 B14.1809 
N237 X171.334 Y2.860 Z8.268 A42.3038 B14.3701 
N238 X171.393 Y2.562 Z8.185 A43.1211 B14.5052 
N239 X171.447 Y2.254 Z8.091 A43.8438 B14.5907 
N240 X171.495 Y1.936 Z7.988 A44.4761 B14.6329 
N241 X171.538 Y1.610 Z7.876 A45.0271 B14.6379 
N242 X171.572 Y1.275 Z7.755 A45.5067 B14.6119 
N243 X171.600 Y0.932 Z7.628 A45.9240 B14.5612 
N244 X171.623 Y0.582 Z7.495 A46.2858 B14.5023 
N245 X171.638 Y0.225 Z7.357 A46.5913 B14.4283 
N246 X171.648 Y-0.139 Z7.215 A46.8363 B14.3418 
N247 X171.650 Y-0.509 Z7.069 A47.0151 B14.2484 
N248 X171.643 Y-0.874 Z6.923 A47.0765 B14.2018 
N249 X171.632 Y-1.208 Z6.787 A46.8838 B14.2586 
N250 X171.620 Y-1.546 Z6.650 A46.5939 B14.3200 
N251 X171.609 Y-1.889 Z6.512 A46.1981 B14.3863 
N252 X171.597 Y-2.236 Z6.373 A45.6884 B14.4577 
N253 X171.586 Y-2.586 Z6.235 A45.0608 B14.5340 
N254 X171.575 Y-2.940 Z6.100 A44.3154 B14.6151 
N255 X171.563 Y-3.295 Z5.967 A43.4576 B14.7005 
N256 X171.552 Y-3.652 Z5.839 A42.4951 B14.7896 
N257 X171.542 Y-4.010 Z5.716 A41.4351 B14.8819 
N258 X171.531 Y-4.369 Z5.599 A40.2845 B14.9769 
N259 X171.521 Y-4.729 Z5.488 A39.0491 B15.0740 
N260 X171.512 Y-5.089 Z5.385 A37.7364 B15.1729 
N261 X171.502 Y-5.449 Z5.290 A36.3570 B15.2728 
N262 X171.494 Y-5.808 Z5.203 A34.9241 B15.3730 
N263 X171.485 Y-6.168 Z5.125 A33.4524 B15.4729 
N264 X171.477 Y-6.527 Z5.056 A31.9544 B15.5719 
N265 X171.470 Y-6.885 Z4.997 A30.4404 B15.6694 
N266 X171.463 Y-7.243 Z4.947 A28.9179 B15.7651 
N267 X171.457 Y-7.600 Z4.906 A27.3932 B15.8588 
N268 X171.451 Y-7.957 Z4.875 A25.8721 B15.9503 
N269 X171.445 Y-8.315 Z4.854 A24.3601 B16.0394 
N270 X171.441 Y-8.672 Z4.842 A22.8629 B16.1260 
N271 X171.436 Y-9.030 Z4.839 A21.3859 B16.2098 
N272 X171.433 Y-9.388 Z4.846 A19.9337 B16.2909 
N273 X171.430 Y-9.746 Z4.863 A18.5104 B16.3693 
N274 X171.427 Y-10.105 Z4.888 A17.1198 B16.4449 
N275 X171.425 Y-10.465 Z4.923 A15.7653 B16.5177 
N276 X171.423 Y-10.825 Z4.967 A14.4505 B16.5878 
N277 X171.423 Y-11.185 Z5.020 A13.1787 B16.6553 
N278 X171.423 Y-11.546 Z5.082 A11.9535 B16.7202 
N279 X171.423 Y-11.906 Z5.152 A10.7772 B16.7826 
N280 X171.424 Y-12.266 Z5.231 A9.6513 B16.8427 
N281 X171.426 Y-12.626 Z5.317 A8.5760 B16.9005 
N282 X171.428 Y-12.984 Z5.411 A7.5507 B16.9561 
N283 X171.431 Y-13.340 Z5.512 A6.5744 B17.0097 
N284 X171.435 Y-13.694 Z5.619 A5.6465 B17.0614 
N285 X171.439 Y-14.045 Z5.732 A4.7662 B17.1112 
N286 X171.444 Y-14.392 Z5.850 A3.9323 B17.1590 
N287 X171.449 Y-14.733 Z5.972 A3.1428 B17.2051 
N288 X171.455 Y-15.069 Z6.098 A2.3947 B17.2493 
N289 X171.461 Y-15.398 Z6.226 A1.6847 B17.2917 
N290 X171.467 Y-15.719 Z6.356 A1.0145 B17.3322 
N291 X171.474 Y-16.031 Z6.487 A0.3919 B17.3708 
N292 X171.481 Y-16.332 Z6.618 A359.8256 B17.4077 
N293 X171.488 Y-16.622 Z6.747 A359.3217 B17.4429 
N294 X171.494 Y-16.899 Z6.875 A358.8804 B17.4836 
N295 X171.494 Y-17.163 Z6.999 A358.4919 B17.5232 
N296 X171.486 Y-17.415 Z7.120 A358.1450 B17.5607 
N297 X171.473 Y-17.653 Z7.237 A357.8284 B17.5961 
N298 X171.455 Y-17.879 Z7.349 A357.5326 B17.6292 
N299 X171.432 Y-18.091 Z7.455 A357.2516 B17.6601 
N300 X171.405 Y-18.291 Z7.557 A356.9826 B17.6887 
N301 X171.375 Y-18.478 Z7.653 A356.7188 B17.7150 
N302 X171.343 Y-18.654 Z7.743 A356.4630 B17.7393 
N303 X171.308 Y-18.805 Z7.829 A356.5763 B17.7677 
N304 X171.274 Y-18.880 Z7.906 A358.5679 B17.8245 
N305 X171.241 Y-18.907 Z7.980 A1.7153 B17.8886 
N306 X171.212 Y-18.924 Z8.050 A5.0285 B17.9398 
N307 X171.188 Y-18.940 Z8.115 A8.2918 B17.9749 
N308 X171.168 Y-18.956 Z8.176 A11.4566 B17.9946 
N309 X171.152 Y-18.975 Z8.235 A14.5159 B17.9998 
N310 X171.141 Y-18.995 Z8.289 A17.4755 B17.9918 
N311 X171.134 Y-19.018 Z8.340 A20.3471 B17.9716 
N312 X171.131 Y-19.042 Z8.388 A23.1438 B17.9401 
N313 X171.131 Y-19.067 Z8.434 A25.8788 B17.8978 
N314 X171.135 Y-19.094 Z8.477 A28.5642 B17.8453 
N315 X171.143 Y-19.123 Z8.518 A31.2101 B17.7828 
N316 X171.154 Y-19.153 Z8.557 A33.8249 B17.7105 
N317 X171.168 Y-19.185 Z8.593 A36.4163 B17.6287 
N318 X171.186 Y-19.218 Z8.628 A38.9903 B17.5374 
N319 X171.206 Y-19.253 Z8.660 A41.5518 B17.4367 
N320 X171.228 Y-19.288 Z8.691 A44.1045 B17.3269 
N321 X171.252 Y-19.325 Z8.719 A46.6504 B17.2080 
N322 X171.277 Y-19.363 Z8.746 A49.1907 B17.0802 
N323 X171.304 Y-19.402 Z8.770 A51.7259 B16.9438 
N324 X171.332 Y-19.442 Z8.792 A54.2559 B16.7989 
N325 X171.361 Y-19.482 Z8.811 A56.7804 B16.6460 
N326 X171.390 Y-19.523 Z8.829 A59.2989 B16.4853 
N327 X171.419 Y-19.565 Z8.844 A61.8110 B16.3174 
N328 X171.447 Y-19.606 Z8.858 A64.3164 B16.1426 
N329 X171.474 Y-19.648 Z8.869 A66.8149 B15.9612 
N330 X171.500 Y-19.690 Z8.879 A69.3065 B15.7739 
N331 X171.524 Y-19.732 Z8.886 A71.7906 B15.5811 
N332 X171.546 Y-19.773 Z8.892 A74.2664 B15.3832 
N333 X171.567 Y-19.815 Z8.895 A76.7336 B15.1809 
N334 X171.585 Y-19.856 Z8.897 A79.1930 B14.9746 
N335 X171.601 Y-19.896 Z8.897 A81.6469 B14.7646 
N336 X171.613 Y-19.937 Z8.896 A84.0967 B14.5513 
N337 X171.621 Y-19.976 Z8.893 A86.5427 B14.3352 
N338 X171.625 Y-20.015 Z8.888 A88.9846 B14.1170 
N339 X171.627 Y-20.054 Z8.882 A91.4253 B13.9044 
N340 X171.628 Y-20.092 Z8.875 A93.8642 B13.6763 
N341 X171.628 Y-20.129 Z8.866 A96.3079 B13.4528 
N342 X171.626 Y-20.166 Z8.856 A98.7569 B13.2293 
N343 X171.620 Y-20.202 Z8.845 A101.2109 B13.0056 
N344 X171.612 Y-20.238 Z8.832 A103.6692 B12.7823 
N345 X171.600 Y-20.273 Z8.819 A106.1321 B12.5600 
N346 X171.586 Y-20.307 Z8.804 A108.6007 B12.3391 
N347 X171.569 Y-20.340 Z8.788 A111.0761 B12.1202 
N348 X171.550 Y-20.373 Z8.772 A113.5596 B11.9037 
N349 X171.530 Y-20.405 Z8.754 A116.0523 B11.6901 
N350 X171.508 Y-20.437 Z8.736 A118.5557 B11.4799 
N351 X171.485 Y-20.468 Z8.716 A121.0720 B11.2734 
N352 X171.461 Y-20.498 Z8.696 A123.6037 B11.0711 
N353 X171.437 Y-20.528 Z8.674 A126.1549 B10.8733 
N354 X171.412 Y-20.557 Z8.652 A128.7309 B10.6802 
N355 X171.387 Y-20.586 Z8.628 A131.3399 B10.4920 
N356 X171.363 Y-20.614 Z8.603 A133.9931 B10.3086 
N357 X171.339 Y-20.642 Z8.576 A136.7055 B10.1299 
N358 X171.317 Y-20.670 Z8.547 A139.4952 B9.9560 
N359 X171.296 Y-20.697 Z8.516 A142.3837 B9.7868 
N360 X171.278 Y-20.725 Z8.483 A145.3944 B9.6229 
N361 X171.263 Y-20.751 Z8.445 A148.5514 B9.4650 
N362 X171.252 Y-20.777 Z8.404 A151.8733 B9.3150 
N363 X171.246 Y-20.800 Z8.357 A155.3616 B9.1757 
N364 X171.243 Y-20.819 Z8.302 A158.9734 B9.0520 
N365 X171.250 Y-20.821 Z8.236 A162.4661 B8.9540 
N366 X172.442 Y-23.869 Z-1.213 
N367 G00 X175.423 Y-31.490 Z-24.836 
N368 X176.038 Y-50.203 Z-39.728 
N369 X170.076 Y-34.961 Z7.518 
N370 G01 X170.098 Y-32.529 Z9.486 F337 
N371 X170.162 Y-29.608 Z10.606 
N372 X170.261 Y-26.486 Z10.770 
N373 X170.386 Y-23.466 Z9.960 
N374 M342 ; chlodziwo woda
N375 X170.525 Y-20.845 Z8.257 
N376 X170.535 Y-20.784 Z8.161 A164.6444 B8.9128 
N377 X170.546 Y-20.638 Z8.034 A164.9533 B8.9296 
N378 X170.557 Y-20.467 Z7.893 A164.9866 B8.9562 
N379 X170.568 Y-20.284 Z7.741 A165.0173 B8.9850 
N380 X170.581 Y-20.086 Z7.578 A165.0545 B9.0160 
N381 X170.591 Y-19.874 Z7.402 A165.0971 B9.0493 
N382 X170.602 Y-19.647 Z7.216 A165.1450 B9.0848 
N383 X170.612 Y-19.407 Z7.018 A165.1997 B9.1225 
N384 X170.622 Y-19.153 Z6.810 A165.2635 B9.1623 
N385 X170.631 Y-18.887 Z6.591 A165.3398 B9.2040 
N386 X170.638 Y-18.609 Z6.364 A165.4318 B9.2476 
N387 X170.645 Y-18.321 Z6.129 A165.5419 B9.2928 
N388 X170.650 Y-18.024 Z5.887 A165.6712 B9.3395 
N389 X170.653 Y-17.719 Z5.640 A165.8196 B9.3876 
N390 X170.655 Y-17.407 Z5.388 A165.9869 B9.4370 
N391 X170.654 Y-17.090 Z5.133 A166.1730 B9.4876 
N392 X170.652 Y-16.768 Z4.876 A166.3780 B9.5393 
N393 X170.647 Y-16.442 Z4.618 A166.6018 B9.5919 
N394 X170.640 Y-16.113 Z4.359 A166.8442 B9.6455 
N395 X170.631 Y-15.782 Z4.100 A167.1061 B9.7000 
N396 X170.620 Y-15.450 Z3.843 A167.3894 B9.7553 
N397 X170.610 Y-15.118 Z3.588 A167.6971 B9.8114 
N398 X170.601 Y-14.785 Z3.335 A168.0325 B9.8715 
N399 X170.592 Y-14.453 Z3.084 A168.3971 B9.9344 
N400 X170.584 Y-14.122 Z2.838 A168.7907 B9.9985 
N401 X170.576 Y-13.791 Z2.595 A169.2127 B10.0641 
N402 X170.569 Y-13.463 Z2.356 A169.6623 B10.1311 
N403 X170.563 Y-13.135 Z2.122 A170.1397 B10.1997 
N404 X170.557 Y-12.810 Z1.893 A170.6453 B10.2700 
N405 X170.552 Y-12.486 Z1.669 A171.1797 B10.3422 
N406 X170.548 Y-12.165 Z1.450 A171.7437 B10.4164 
N407 X170.544 Y-11.846 Z1.237 A172.3380 B10.4927 
N408 X170.541 Y-11.530 Z1.030 A172.9631 B10.5714 
N409 X170.538 Y-11.216 Z0.828 A173.6200 B10.6525 
N410 X170.536 Y-10.906 Z0.633 A174.3092 B10.7363 
N411 X170.533 Y-10.598 Z0.444 A175.0315 B10.8230 
N412 X170.532 Y-10.293 Z0.261 A175.7881 B10.9129 
N413 X170.531 Y-9.991 Z0.084 A176.5808 B11.0061 
N414 X170.530 Y-9.693 Z-0.085 A177.4123 B11.1031 
N415 X170.530 Y-9.399 Z-0.248 A178.2854 B11.2041 
N416 X170.530 Y-9.108 Z-0.405 A179.2023 B11.3097 
N417 X170.531 Y-8.820 Z-0.555 A180.1633 B11.4202 
N418 X170.532 Y-8.537 Z-0.697 A181.1669 B11.5358 
N419 X170.533 Y-8.257 Z-0.833 A182.2105 B11.6569 
N420 X170.535 Y-7.980 Z-0.962 A183.2894 B11.7639 
N421 X170.537 Y-7.707 Z-1.085 A184.4018 B11.8593 
N422 X170.540 Y-7.438 Z-1.200 A185.5477 B11.9572 
N423 X170.544 Y-7.171 Z-1.309 A186.7273 B12.0576 
N424 X170.547 Y-6.909 Z-1.411 A187.9411 B12.1605 
N425 X170.551 Y-6.650 Z-1.506 A189.1901 B12.2659 
N426 X170.555 Y-6.394 Z-1.595 A190.4745 B12.3739 
N427 X170.559 Y-6.142 Z-1.677 A191.7943 B12.4843 
N428 X170.564 Y-5.894 Z-1.753 A193.1492 B12.5972 
N429 X170.568 Y-5.649 Z-1.823 A194.5386 B12.7125 
N430 X170.573 Y-5.408 Z-1.887 A195.9620 B12.8301 
N431 X170.578 Y-5.169 Z-1.944 A197.4182 B12.9499 
N432 X170.583 Y-4.935 Z-1.996 A198.9058 B13.0718 
N433 X170.588 Y-4.703 Z-2.042 A200.4233 B13.1955 
N434 X170.594 Y-4.474 Z-2.081 A201.9691 B13.3210 
N435 X170.599 Y-4.248 Z-2.115 A203.5416 B13.4481 
N436 X170.605 Y-4.025 Z-2.143 A205.1393 B13.5765 
N437 X170.610 Y-3.805 Z-2.166 A206.7603 B13.7061 
N438 X170.616 Y-3.587 Z-2.183 A208.4029 B13.8367 
N439 X170.622 Y-3.371 Z-2.194 A210.0651 B13.9680 
N440 X170.627 Y-3.158 Z-2.199 A211.7448 B14.1000 
N441 X170.633 Y-2.946 Z-2.199 A213.4399 B14.2323 
N442 X170.639 Y-2.737 Z-2.193 A215.1482 B14.3648 
N443 X170.645 Y-2.529 Z-2.182 A216.8676 B14.4973 
N444 X170.651 Y-2.323 Z-2.165 A218.5962 B14.6297 
N445 X170.658 Y-2.118 Z-2.141 A220.3321 B14.7617 
N446 X170.664 Y-1.915 Z-2.113 A222.0736 B14.8933 
N447 X170.670 Y-1.713 Z-2.078 A223.8188 B15.0244 
N448 X170.676 Y-1.512 Z-2.037 A225.5656 B15.1549 
N449 X170.683 Y-1.313 Z-1.990 A227.3119 B15.2847 
N450 X170.689 Y-1.114 Z-1.937 A229.0553 B15.4139 
N451 X170.695 Y-0.916 Z-1.877 A230.7934 B15.5424 
N452 X170.702 Y-0.720 Z-1.811 A232.5230 B15.6703 
N453 X170.708 Y-0.524 Z-1.738 A234.2374 B15.7974 
N454 X170.714 Y-0.328 Z-1.658 A235.9200 B15.9231 
N455 X170.721 Y-0.133 Z-1.569 A237.5326 B16.0458 
N456 X170.727 Y0.064 Z-1.468 A239.0014 B16.1617 
N457 X170.734 Y0.265 Z-1.352 A240.2147 B16.2650 
N458 X170.742 Y0.470 Z-1.216 A241.0432 B16.3387 
N459 X170.753 Y0.680 Z-1.057 A241.3795 B16.2954 
N460 X170.766 Y0.897 Z-0.873 A241.2121 B16.1910 
N461 X170.779 Y1.118 Z-0.668 A240.6216 B16.0861 
N462 X170.791 Y1.342 Z-0.447 A239.7461 B15.9975 
N463 X170.803 Y1.565 Z-0.215 A238.7334 B15.9175 
N464 X170.815 Y1.785 Z0.025 A237.7034 B15.8338 
N465 X170.828 Y2.000 Z0.268 A236.7303 B15.7371 
N466 X170.840 Y2.209 Z0.514 A235.8447 B15.6227 
N467 X170.854 Y2.412 Z0.762 A235.0480 B15.4888 
N468 X170.867 Y2.609 Z1.013 A234.3339 B15.3345 
N469 X170.882 Y2.799 Z1.266 A233.7066 B15.1571 
N470 X170.896 Y2.981 Z1.521 A233.1832 B14.9505 
N471 X170.910 Y3.168 Z1.795 A232.9291 B14.7462 
N472 X170.919 Y3.350 Z2.076 A232.8470 B14.5336 
N473 X170.923 Y3.523 Z2.358 A232.8632 B14.2997 
N474 X170.922 Y3.687 Z2.642 A232.9437 B14.0470 
N475 X170.916 Y3.844 Z2.929 A233.0570 B13.7804 
N476 X170.905 Y3.994 Z3.218 A233.1800 B13.5052 
N477 X170.890 Y4.137 Z3.510 A233.2992 B13.2262 
N478 X170.870 Y4.273 Z3.804 A233.4067 B12.9469 
N479 X170.845 Y4.402 Z4.100 A233.4986 B12.6705 
N480 X170.816 Y4.525 Z4.398 A233.5728 B12.3998 
N481 X170.783 Y4.642 Z4.696 A233.6306 B12.1360 
N482 X170.747 Y4.751 Z4.994 A233.6784 B11.8769 
N483 X170.706 Y4.853 Z5.292 A233.7255 B11.6183 
N484 X170.663 Y4.947 Z5.587 A233.7806 B11.3546 
N485 X170.618 Y5.034 Z5.880 A233.8488 B11.0818 
N486 X170.571 Y5.111 Z6.169 A233.9286 B10.8000 
N487 X170.523 Y5.181 Z6.454 A234.0143 B10.5126 
N488 X170.474 Y5.241 Z6.733 A234.1012 B10.2264 
N489 X170.424 Y5.293 Z7.007 A234.1902 B9.9419 
N490 X170.375 Y5.336 Z7.274 A234.3045 B9.6432 
N491 X170.328 Y5.367 Z7.530 A234.4962 B9.2936 
N492 X170.286 Y5.386 Z7.773 A234.8360 B8.8449 
N493 X170.250 Y5.389 Z7.998 A235.4160 B8.2389 
N494 X170.223 Y5.376 Z8.202 A236.3633 B7.4013 
N495 X170.209 Y5.342 Z8.378 A237.8163 B6.2624 
N496 X170.207 Y5.289 Z8.521 A239.8411 B4.8084 
N497 X170.218 Y5.221 Z8.631 A242.3986 B3.0901 
N498 X170.239 Y5.143 Z8.711 A245.4020 B1.1804 
N499 X170.268 Y5.061 Z8.763 A248.7622 B-0.8505 
N500 X170.304 Y4.979 Z8.788 A252.4083 B-2.9437 
N501 X170.344 Y4.901 Z8.790 A256.2889 B-5.0513 
N502 X170.388 Y4.830 Z8.771 A260.3676 B-7.1334 
N503 X170.434 Y4.769 Z8.735 A264.6150 B-9.1550 
N504 X170.480 Y4.718 Z8.683 A269.0009 B-11.0827 
N505 X170.525 Y4.680 Z8.619 A273.4968 B-12.8871 
N506 X170.567 Y4.655 Z8.545 A278.0782 B-14.5434 
N507 X170.607 Y4.643 Z8.465 A282.7240 B-16.0312 
N508 X170.641 Y4.643 Z8.380 A287.4149 B-17.3334 
N509 X170.675 Y4.657 Z8.294 A292.1410 B-18.5757 
N510 X170.704 Y4.683 Z8.208 A296.8883 B-19.6246 
N511 X170.726 Y4.719 Z8.123 A301.6334 B-20.4069 
N512 X170.740 Y4.767 Z8.041 A306.3561 B-20.9205 
N513 X170.747 Y4.822 Z7.963 A311.0385 B-21.1645 
N514 X170.746 Y4.886 Z7.891 A315.6656 B-21.1401 
N515 X170.738 Y4.957 Z7.827 A320.2246 B-20.8497 
N516 X170.723 Y5.033 Z7.770 A324.7055 B-20.2973 
N517 X170.701 Y5.113 Z7.724 A329.1006 B-19.4881 
N518 X170.672 Y5.196 Z7.687 A333.4076 B-18.4288 
N519 X170.634 Y5.280 Z7.662 A337.6289 B-17.1278 
N520 X170.588 Y5.365 Z7.648 A341.7778 B-15.6221 
N521 X170.535 Y5.448 Z7.647 A345.8655 B-13.9446 
N522 X170.476 Y5.528 Z7.658 A349.8998 B-12.1218 
N523 X170.413 Y5.603 Z7.682 A353.8823 B-10.1835 
N524 X170.348 Y5.671 Z7.719 A357.8006 B-8.1661 
N525 X170.282 Y5.728 Z7.768 A1.6201 B-6.1163 
N526 X170.219 Y5.769 Z7.828 A5.2832 B-4.0907 
N527 X170.161 Y5.792 Z7.897 A8.7225 B-2.1486 
N528 X170.111 Y5.791 Z7.970 A11.8855 B-0.3374 
N529 X170.071 Y5.767 Z8.046 A14.7556 B1.3194 
N530 X170.042 Y5.719 Z8.121 A17.3561 B2.8237 
N531 X170.022 Y5.649 Z8.193 A19.7344 B4.1932 
N532 X170.012 Y5.560 Z8.261 A21.9391 B5.4484 
N533 X170.013 Y5.452 Z8.322 A24.0052 B6.6038 
N534 X170.023 Y5.327 Z8.376 A25.9551 B7.6680 
N535 X170.042 Y5.186 Z8.422 A27.8002 B8.6455 
N536 X170.070 Y5.028 Z8.458 A29.5377 B9.5349 
N537 X170.106 Y4.855 Z8.484 A31.1615 B10.3345 
N538 X170.149 Y4.668 Z8.499 A32.6860 B11.0515 
N539 X170.198 Y4.468 Z8.504 A34.1515 B11.7023 
N540 X170.251 Y4.257 Z8.498 A35.5731 B12.2922 
N541 X170.309 Y4.034 Z8.482 A36.9247 B12.8125 
N542 X170.369 Y3.799 Z8.455 A38.1779 B13.2562 
N543 X170.432 Y3.552 Z8.416 A39.3334 B13.6275 
N544 X170.495 Y3.295 Z8.366 A40.4054 B13.9343 
N545 X170.557 Y3.028 Z8.305 A41.3966 B14.1809 
N546 X170.618 Y2.750 Z8.233 A42.3038 B14.3701 
N547 X170.675 Y2.463 Z8.152 A43.1211 B14.5052 
N548 X170.727 Y2.166 Z8.060 A43.8438 B14.5907 
N549 X170.775 Y1.860 Z7.960 A44.4761 B14.6329 
N550 X170.816 Y1.545 Z7.851 A45.0271 B14.6379 
N551 X170.849 Y1.222 Z7.735 A45.5067 B14.6119 
N552 X170.877 Y0.891 Z7.612 A45.9240 B14.5612 
N553 X170.898 Y0.553 Z7.484 A46.2858 B14.5023 
N554 X170.914 Y0.208 Z7.351 A46.5913 B14.4283 
N555 X170.923 Y-0.143 Z7.213 A46.8363 B14.3418 
N556 X170.924 Y-0.500 Z7.072 A47.0151 B14.2484 
N557 X170.918 Y-0.855 Z6.931 A47.0765 B14.2018 
N558 X170.907 Y-1.189 Z6.795 A46.8838 B14.2586 
N559 X170.895 Y-1.528 Z6.657 A46.5939 B14.3200 
N560 X170.884 Y-1.871 Z6.518 A46.1981 B14.3863 
N561 X170.872 Y-2.218 Z6.380 A45.6884 B14.4577 
N562 X170.861 Y-2.569 Z6.242 A45.0608 B14.5340 
N563 X170.849 Y-2.922 Z6.106 A44.3154 B14.6151 
N564 X170.838 Y-3.278 Z5.973 A43.4576 B14.7005 
N565 X170.827 Y-3.635 Z5.844 A42.4951 B14.7896 
N566 X170.817 Y-3.994 Z5.721 A41.4351 B14.8819 
N567 X170.806 Y-4.354 Z5.603 A40.2845 B14.9769 
N568 X170.796 Y-4.714 Z5.492 A39.0491 B15.0740 
N569 X170.786 Y-5.074 Z5.388 A37.7364 B15.1729 
N570 X170.777 Y-5.435 Z5.292 A36.3570 B15.2728 
N571 X170.768 Y-5.795 Z5.205 A34.9241 B15.3730 
N572 X170.760 Y-6.156 Z5.126 A33.4524 B15.4729 
N573 X170.752 Y-6.515 Z5.057 A31.9544 B15.5719 
N574 X170.744 Y-6.874 Z4.998 A30.4404 B15.6694 
N575 X170.737 Y-7.233 Z4.947 A28.9179 B15.7651 
N576 X170.731 Y-7.592 Z4.906 A27.3932 B15.8588 
N577 X170.725 Y-7.950 Z4.875 A25.8721 B15.9503 
N578 X170.720 Y-8.308 Z4.854 A24.3601 B16.0394 
N579 X170.715 Y-8.667 Z4.842 A22.8629 B16.1260 
N580 X170.711 Y-9.026 Z4.839 A21.3859 B16.2098 
N581 X170.707 Y-9.385 Z4.846 A19.9337 B16.2909 
N582 X170.705 Y-9.745 Z4.862 A18.5104 B16.3693 
N583 X170.701 Y-10.105 Z4.888 A17.1198 B16.4449 
N584 X170.699 Y-10.465 Z4.923 A15.7653 B16.5177 
N585 X170.697 Y-10.827 Z4.968 A14.4505 B16.5878 
N586 X170.697 Y-11.188 Z5.021 A13.1787 B16.6553 
N587 X170.697 Y-11.550 Z5.083 A11.9535 B16.7202 
N588 X170.698 Y-11.912 Z5.154 A10.7772 B16.7826 
N589 X170.699 Y-12.273 Z5.233 A9.6513 B16.8427 
N590 X170.700 Y-12.633 Z5.320 A8.5760 B16.9005 
N591 X170.703 Y-12.992 Z5.414 A7.5507 B16.9561 
N592 X170.706 Y-13.350 Z5.515 A6.5744 B17.0097 
N593 X170.709 Y-13.705 Z5.623 A5.6465 B17.0614 
N594 X170.713 Y-14.057 Z5.736 A4.7662 B17.1112 
N595 X170.718 Y-14.404 Z5.855 A3.9323 B17.1590 
N596 X170.723 Y-14.747 Z5.978 A3.1428 B17.2051 
N597 X170.729 Y-15.084 Z6.104 A2.3947 B17.2493 
N598 X170.735 Y-15.414 Z6.233 A1.6847 B17.2917 
N599 X170.741 Y-15.736 Z6.363 A1.0145 B17.3322 
N600 X170.748 Y-16.048 Z6.495 A0.3919 B17.3708 
N601 X170.755 Y-16.350 Z6.626 A359.8256 B17.4077 
N602 X170.763 Y-16.640 Z6.756 A359.3217 B17.4429 
N603 X170.768 Y-16.918 Z6.884 A358.8804 B17.4836 
N604 X170.768 Y-17.183 Z7.009 A358.4919 B17.5232 
N605 X170.761 Y-17.435 Z7.131 A358.1450 B17.5607 
N606 X170.748 Y-17.674 Z7.248 A357.8284 B17.5961 
N607 X170.729 Y-17.900 Z7.360 A357.5326 B17.6292 
N608 X170.707 Y-18.113 Z7.467 A357.2516 B17.6601 
N609 X170.680 Y-18.313 Z7.569 A356.9826 B17.6887 
N610 X170.650 Y-18.501 Z7.665 A356.7188 B17.7150 
N611 X170.618 Y-18.677 Z7.756 A356.4630 B17.7393 
N612 X170.583 Y-18.829 Z7.841 A356.5763 B17.7677 
N613 X170.549 Y-18.902 Z7.919 A358.5679 B17.8245 
N614 X170.516 Y-18.928 Z7.990 A1.7153 B17.8886 
N615 X170.486 Y-18.944 Z8.059 A5.0285 B17.9398 
N616 X170.462 Y-18.958 Z8.122 A8.2918 B17.9749 
N617 X170.441 Y-18.973 Z8.182 A11.4566 B17.9946 
N618 X170.426 Y-18.990 Z8.238 A14.5159 B17.9998 
N619 X170.415 Y-19.009 Z8.291 A17.4755 B17.9918 
N620 X170.408 Y-19.029 Z8.341 A20.3471 B17.9716 
N621 X170.404 Y-19.051 Z8.389 A23.1438 B17.9401 
N622 X170.404 Y-19.074 Z8.434 A25.8788 B17.8978 
N623 X170.408 Y-19.099 Z8.477 A28.5642 B17.8453 
N624 X170.416 Y-19.126 Z8.518 A31.2101 B17.7828 
N625 X170.427 Y-19.154 Z8.557 A33.8249 B17.7105 
N626 X170.442 Y-19.184 Z8.594 A36.4163 B17.6287 
N627 X170.459 Y-19.215 Z8.629 A38.9903 B17.5374 
N628 X170.479 Y-19.247 Z8.662 A41.5518 B17.4367 
N629 X170.501 Y-19.281 Z8.693 A44.1045 B17.3269 
N630 X170.525 Y-19.316 Z8.723 A46.6504 B17.2080 
N631 X170.551 Y-19.353 Z8.750 A49.1907 B17.0802 
N632 X170.578 Y-19.390 Z8.776 A51.7259 B16.9438 
N633 X170.606 Y-19.428 Z8.800 A54.2559 B16.7989 
N634 X170.635 Y-19.468 Z8.821 A56.7804 B16.6460 
N635 X170.664 Y-19.507 Z8.841 A59.2989 B16.4853 
N636 X170.693 Y-19.548 Z8.858 A61.8110 B16.3174 
N637 X170.721 Y-19.588 Z8.873 A64.3164 B16.1426 
N638 X170.748 Y-19.630 Z8.887 A66.8149 B15.9612 
N639 X170.774 Y-19.671 Z8.898 A69.3065 B15.7739 
N640 X170.799 Y-19.713 Z8.908 A71.7906 B15.5811 
N641 X170.821 Y-19.754 Z8.915 A74.2664 B15.3832 
N642 X170.842 Y-19.796 Z8.921 A76.7336 B15.1809 
N643 X170.860 Y-19.837 Z8.925 A79.1930 B14.9746 
N644 X170.876 Y-19.878 Z8.927 A81.6469 B14.7646 
N645 X170.888 Y-19.919 Z8.928 A84.0967 B14.5513 
N646 X170.896 Y-19.960 Z8.927 A86.5427 B14.3352 
N647 X170.901 Y-20.000 Z8.924 A88.9846 B14.1170 
N648 X170.903 Y-20.040 Z8.920 A91.4253 B13.9044 
N649 X170.904 Y-20.079 Z8.914 A93.8642 B13.6763 
N650 X170.904 Y-20.118 Z8.906 A96.3079 B13.4528 
N651 X170.902 Y-20.156 Z8.898 A98.7569 B13.2293 
N652 X170.896 Y-20.194 Z8.888 A101.2109 B13.0056 
N653 X170.888 Y-20.232 Z8.876 A103.6692 B12.7823 
N654 X170.876 Y-20.268 Z8.863 A106.1321 B12.5600 
N655 X170.862 Y-20.304 Z8.849 A108.6007 B12.3391 
N656 X170.845 Y-20.340 Z8.834 A111.0761 B12.1202 
N657 X170.827 Y-20.375 Z8.818 A113.5596 B11.9037 
N658 X170.806 Y-20.409 Z8.800 A116.0523 B11.6901 
N659 X170.784 Y-20.443 Z8.782 A118.5557 B11.4799 
N660 X170.761 Y-20.476 Z8.762 A121.0720 B11.2734 
N661 X170.737 Y-20.508 Z8.741 A123.6037 B11.0711 
N662 X170.713 Y-20.540 Z8.719 A126.1549 B10.8733 
N663 X170.688 Y-20.571 Z8.695 A128.7309 B10.6802 
N664 X170.664 Y-20.601 Z8.670 A131.3399 B10.4920 
N665 X170.639 Y-20.631 Z8.644 A133.9931 B10.3086 
N666 X170.615 Y-20.661 Z8.616 A136.7055 B10.1299 
N667 X170.593 Y-20.690 Z8.585 A139.4952 B9.9560 
N668 X170.572 Y-20.719 Z8.552 A142.3837 B9.7868 
N669 X170.554 Y-20.747 Z8.516 A145.3944 B9.6229 
N670 X170.539 Y-20.775 Z8.477 A148.5514 B9.4650 
N671 X170.528 Y-20.802 Z8.433 A151.8733 B9.3150 
N672 X170.521 Y-20.825 Z8.383 A155.3616 B9.1757 
N673 X170.519 Y-20.844 Z8.326 A158.9734 B9.0520 
N674 X170.525 Y-20.845 Z8.257 A162.4661 B8.9540 
N675 X171.717 Y-23.894 Z-1.192 
N676 G00 X174.698 Y-31.515 Z-24.815 
N677 X175.313 Y-50.228 Z-39.707 
N678 X169.351 Y-34.986 Z7.538 
N679 G01 X169.373 Y-32.554 Z9.506 F337 
N680 X169.437 Y-29.633 Z10.627 
N681 X169.536 Y-26.510 Z10.790 
N682 X169.661 Y-23.491 Z9.981 
N683 M342 ; chlodziwo woda
N684 X169.800 Y-20.870 Z8.277 
N685 X169.810 Y-20.808 Z8.181 A164.6444 B8.9128 
N686 X169.821 Y-20.661 Z8.053 A164.9533 B8.9296 
N687 X169.832 Y-20.490 Z7.912 A164.9866 B8.9562 
N688 X169.843 Y-20.306 Z7.759 A165.0173 B8.9850 
N689 X169.855 Y-20.108 Z7.596 A165.0545 B9.0160 
N690 X169.866 Y-19.895 Z7.420 A165.0971 B9.0493 
N691 X169.877 Y-19.668 Z7.233 A165.1450 B9.0848 
N692 X169.887 Y-19.427 Z7.035 A165.1997 B9.1225 
N693 X169.897 Y-19.173 Z6.826 A165.2635 B9.1623 
N694 X169.905 Y-18.906 Z6.607 A165.3398 B9.2040 
N695 X169.913 Y-18.628 Z6.379 A165.4318 B9.2476 
N696 X169.919 Y-18.339 Z6.144 A165.5419 B9.2928 
N697 X169.924 Y-18.042 Z5.901 A165.6712 B9.3395 
N698 X169.928 Y-17.736 Z5.653 A165.8196 B9.3876 
N699 X169.929 Y-17.423 Z5.401 A165.9869 B9.4370 
N700 X169.928 Y-17.105 Z5.145 A166.1730 B9.4876 
N701 X169.927 Y-16.782 Z4.888 A166.3780 B9.5393 
N702 X169.922 Y-16.455 Z4.628 A166.6018 B9.5919 
N703 X169.915 Y-16.126 Z4.369 A166.8442 B9.6455 
N704 X169.905 Y-15.794 Z4.110 A167.1061 B9.7000 
N705 X169.895 Y-15.462 Z3.852 A167.3894 B9.7553 
N706 X169.885 Y-15.128 Z3.596 A167.6971 B9.8114 
N707 X169.875 Y-14.795 Z3.342 A168.0325 B9.8715 
N708 X169.867 Y-14.462 Z3.091 A168.3971 B9.9344 
N709 X169.858 Y-14.130 Z2.844 A168.7907 B9.9985 
N710 X169.851 Y-13.799 Z2.600 A169.2127 B10.0641 
N711 X169.844 Y-13.469 Z2.361 A169.6623 B10.1311 
N712 X169.838 Y-13.141 Z2.126 A170.1397 B10.1997 
N713 X169.832 Y-12.815 Z1.896 A170.6453 B10.2700 
N714 X169.827 Y-12.490 Z1.672 A171.1797 B10.3422 
N715 X169.822 Y-12.168 Z1.452 A171.7437 B10.4164 
N716 X169.818 Y-11.848 Z1.238 A172.3380 B10.4927 
N717 X169.815 Y-11.531 Z1.030 A172.9631 B10.5714 
N718 X169.813 Y-11.217 Z0.828 A173.6200 B10.6525 
N719 X169.810 Y-10.905 Z0.632 A174.3092 B10.7363 
N720 X169.807 Y-10.596 Z0.443 A175.0315 B10.8230 
N721 X169.806 Y-10.290 Z0.259 A175.7881 B10.9129 
N722 X169.805 Y-9.988 Z0.083 A176.5808 B11.0061 
N723 X169.805 Y-9.689 Z-0.088 A177.4123 B11.1031 
N724 X169.805 Y-9.393 Z-0.251 A178.2854 B11.2041 
N725 X169.805 Y-9.101 Z-0.408 A179.2023 B11.3097 
N726 X169.806 Y-8.813 Z-0.558 A180.1633 B11.4202 
N727 X169.806 Y-8.528 Z-0.701 A181.1669 B11.5358 
N728 X169.808 Y-8.247 Z-0.837 A182.2105 B11.6569 
N729 X169.810 Y-7.970 Z-0.967 A183.2894 B11.7639 
N730 X169.812 Y-7.695 Z-1.089 A184.4018 B11.8593 
N731 X169.815 Y-7.425 Z-1.204 A185.5477 B11.9572 
N732 X169.819 Y-7.158 Z-1.313 A186.7273 B12.0576 
N733 X169.822 Y-6.894 Z-1.415 A187.9411 B12.1605 
N734 X169.826 Y-6.634 Z-1.510 A189.1901 B12.2659 
N735 X169.830 Y-6.378 Z-1.599 A190.4745 B12.3739 
N736 X169.834 Y-6.125 Z-1.681 A191.7943 B12.4843 
N737 X169.839 Y-5.875 Z-1.757 A193.1492 B12.5972 
N738 X169.844 Y-5.630 Z-1.827 A194.5386 B12.7125 
N739 X169.848 Y-5.387 Z-1.890 A195.9620 B12.8301 
N740 X169.853 Y-5.148 Z-1.947 A197.4182 B12.9499 
N741 X169.858 Y-4.913 Z-1.998 A198.9058 B13.0718 
N742 X169.864 Y-4.680 Z-2.043 A200.4233 B13.1955 
N743 X169.869 Y-4.451 Z-2.082 A201.9691 B13.3210 
N744 X169.874 Y-4.224 Z-2.116 A203.5416 B13.4481 
N745 X169.880 Y-4.001 Z-2.143 A205.1393 B13.5765 
N746 X169.886 Y-3.780 Z-2.165 A206.7603 B13.7061 
N747 X169.891 Y-3.561 Z-2.181 A208.4029 B13.8367 
N748 X169.897 Y-3.345 Z-2.191 A210.0651 B13.9680 
N749 X169.903 Y-3.132 Z-2.196 A211.7448 B14.1000 
N750 X169.909 Y-2.920 Z-2.195 A213.4399 B14.2323 
N751 X169.915 Y-2.710 Z-2.188 A215.1482 B14.3648 
N752 X169.921 Y-2.503 Z-2.176 A216.8676 B14.4973 
N753 X169.927 Y-2.296 Z-2.158 A218.5962 B14.6297 
N754 X169.933 Y-2.092 Z-2.134 A220.3321 B14.7617 
N755 X169.939 Y-1.889 Z-2.104 A222.0736 B14.8933 
N756 X169.946 Y-1.687 Z-2.069 A223.8188 B15.0244 
N757 X169.952 Y-1.486 Z-2.027 A225.5656 B15.1549 
N758 X169.958 Y-1.287 Z-1.979 A227.3119 B15.2847 
N759 X169.964 Y-1.089 Z-1.925 A229.0553 B15.4139 
N760 X169.971 Y-0.892 Z-1.865 A230.7934 B15.5424 
N761 X169.977 Y-0.695 Z-1.798 A232.5230 B15.6703 
N762 X169.983 Y-0.500 Z-1.725 A234.2374 B15.7974 
N763 X169.990 Y-0.305 Z-1.644 A235.9200 B15.9231 
N764 X169.996 Y-0.110 Z-1.554 A237.5326 B16.0458 
N765 X170.003 Y0.086 Z-1.453 A239.0014 B16.1617 
N766 X170.010 Y0.286 Z-1.337 A240.2147 B16.2650 
N767 X170.018 Y0.490 Z-1.201 A241.0432 B16.3387 
N768 X170.029 Y0.700 Z-1.041 A241.3795 B16.2954 
N769 X170.042 Y0.916 Z-0.857 A241.2121 B16.1910 
N770 X170.054 Y1.137 Z-0.651 A240.6216 B16.0861 
N771 X170.067 Y1.360 Z-0.430 A239.7461 B15.9975 
N772 X170.079 Y1.582 Z-0.197 A238.7334 B15.9175 
N773 X170.091 Y1.801 Z0.042 A237.7034 B15.8338 
N774 X170.103 Y2.016 Z0.285 A236.7303 B15.7371 
N775 X170.116 Y2.224 Z0.531 A235.8447 B15.6227 
N776 X170.129 Y2.426 Z0.780 A235.0480 B15.4888 
N777 X170.142 Y2.622 Z1.031 A234.3339 B15.3345 
N778 X170.157 Y2.812 Z1.284 A233.7066 B15.1571 
N779 X170.172 Y2.994 Z1.538 A233.1832 B14.9505 
N780 X170.185 Y3.175 Z1.805 A232.9291 B14.7462 
N781 X170.194 Y3.350 Z2.076 A232.8470 B14.5336 
N782 X170.198 Y3.517 Z2.348 A232.8632 B14.2997 
N783 X170.197 Y3.676 Z2.622 A232.9437 B14.0470 
N784 X170.192 Y3.828 Z2.898 A233.0570 B13.7804 
N785 X170.182 Y3.973 Z3.177 A233.1800 B13.5052 
N786 X170.167 Y4.112 Z3.458 A233.2992 B13.2262 
N787 X170.148 Y4.245 Z3.742 A233.4067 B12.9469 
N788 X170.124 Y4.372 Z4.028 A233.4986 B12.6705 
N789 X170.096 Y4.492 Z4.316 A233.5728 B12.3998 
N790 X170.064 Y4.606 Z4.605 A233.6306 B12.1360 
N791 X170.028 Y4.714 Z4.894 A233.6784 B11.8769 
N792 X169.989 Y4.815 Z5.182 A233.7255 B11.6183 
N793 X169.946 Y4.910 Z5.469 A233.7806 B11.3546 
N794 X169.902 Y4.996 Z5.753 A233.8488 B11.0818 
N795 X169.856 Y5.075 Z6.034 A233.9286 B10.8000 
N796 X169.808 Y5.145 Z6.311 A234.0143 B10.5126 
N797 X169.759 Y5.208 Z6.583 A234.1012 B10.2264 
N798 X169.709 Y5.263 Z6.851 A234.1902 B9.9419 
N799 X169.660 Y5.309 Z7.111 A234.3045 B9.6432 
N800 X169.612 Y5.344 Z7.362 A234.4962 B9.2936 
N801 X169.569 Y5.367 Z7.600 A234.8360 B8.8449 
N802 X169.532 Y5.376 Z7.822 A235.4160 B8.2389 
N803 X169.504 Y5.368 Z8.023 A236.3633 B7.4013 
N804 X169.487 Y5.341 Z8.197 A237.8163 B6.2624 
N805 X169.483 Y5.295 Z8.341 A239.8411 B4.8084 
N806 X169.491 Y5.235 Z8.453 A242.3986 B3.0901 
N807 X169.508 Y5.165 Z8.536 A245.4020 B1.1804 
N808 X169.533 Y5.090 Z8.592 A248.7622 B-0.8505 
N809 X169.564 Y5.015 Z8.624 A252.4083 B-2.9437 
N810 X169.600 Y4.943 Z8.634 A256.2889 B-5.0513 
N811 X169.639 Y4.877 Z8.624 A260.3676 B-7.1334 
N812 X169.679 Y4.818 Z8.598 A264.6150 B-9.1550 
N813 X169.719 Y4.770 Z8.558 A269.0009 B-11.0827 
N814 X169.759 Y4.732 Z8.506 A273.4968 B-12.8871 
N815 X169.796 Y4.705 Z8.446 A278.0782 B-14.5434 
N816 X169.830 Y4.690 Z8.379 A282.7240 B-16.0312 
N817 X169.861 Y4.686 Z8.308 A287.4149 B-17.3334 
N818 X169.891 Y4.695 Z8.236 A292.1410 B-18.5757 
N819 X169.917 Y4.714 Z8.163 A296.8883 B-19.6246 
N820 X169.936 Y4.743 Z8.091 A301.6334 B-20.4069 
N821 X169.949 Y4.781 Z8.022 A306.3561 B-20.9205 
N822 X169.955 Y4.827 Z7.957 A311.0385 B-21.1645 
N823 X169.954 Y4.881 Z7.897 A315.6656 B-21.1401 
N824 X169.947 Y4.940 Z7.844 A320.2246 B-20.8497 
N825 X169.933 Y5.005 Z7.798 A324.7055 B-20.2973 
N826 X169.914 Y5.073 Z7.761 A329.1006 B-19.4881 
N827 X169.887 Y5.144 Z7.733 A333.4076 B-18.4288 
N828 X169.853 Y5.216 Z7.715 A337.6289 B-17.1278 
N829 X169.811 Y5.287 Z7.707 A341.7778 B-15.6221 
N830 X169.762 Y5.358 Z7.710 A345.8655 B-13.9446 
N831 X169.708 Y5.426 Z7.725 A349.8998 B-12.1218 
N832 X169.651 Y5.489 Z7.751 A353.8823 B-10.1835 
N833 X169.591 Y5.545 Z7.789 A357.8006 B-8.1661 
N834 X169.531 Y5.591 Z7.837 A1.6201 B-6.1163 
N835 X169.473 Y5.622 Z7.895 A5.2832 B-4.0907 
N836 X169.421 Y5.634 Z7.960 A8.7225 B-2.1486 
N837 X169.376 Y5.625 Z8.029 A11.8855 B-0.3374 
N838 X169.341 Y5.593 Z8.099 A14.7556 B1.3194 
N839 X169.316 Y5.538 Z8.167 A17.3561 B2.8237 
N840 X169.301 Y5.464 Z8.231 A19.7344 B4.1932 
N841 X169.295 Y5.371 Z8.289 A21.9391 B5.4484 
N842 X169.298 Y5.261 Z8.342 A24.0052 B6.6038 
N843 X169.310 Y5.136 Z8.387 A25.9551 B7.6680 
N844 X169.331 Y4.995 Z8.424 A27.8002 B8.6455 
N845 X169.360 Y4.841 Z8.452 A29.5377 B9.5349 
N846 X169.396 Y4.672 Z8.471 A31.1615 B10.3345 
N847 X169.440 Y4.490 Z8.479 A32.6860 B11.0515 
N848 X169.488 Y4.296 Z8.479 A34.1515 B11.7023 
N849 X169.541 Y4.092 Z8.469 A35.5731 B12.2922 
N850 X169.598 Y3.877 Z8.450 A36.9247 B12.8125 
N851 X169.658 Y3.650 Z8.420 A38.1779 B13.2562 
N852 X169.719 Y3.413 Z8.379 A39.3334 B13.6275 
N853 X169.781 Y3.165 Z8.329 A40.4054 B13.9343 
N854 X169.842 Y2.908 Z8.268 A41.3966 B14.1809 
N855 X169.901 Y2.641 Z8.198 A42.3038 B14.3701 
N856 X169.957 Y2.364 Z8.119 A43.1211 B14.5052 
N857 X170.008 Y2.079 Z8.030 A43.8438 B14.5907 
N858 X170.054 Y1.784 Z7.932 A44.4761 B14.6329 
N859 X170.094 Y1.481 Z7.826 A45.0271 B14.6379 
N860 X170.127 Y1.169 Z7.714 A45.5067 B14.6119 
N861 X170.153 Y0.850 Z7.596 A45.9240 B14.5612 
N862 X170.174 Y0.524 Z7.472 A46.2858 B14.5023 
N863 X170.189 Y0.192 Z7.344 A46.5913 B14.4283 
N864 X170.197 Y-0.147 Z7.212 A46.8363 B14.3418 
N865 X170.199 Y-0.491 Z7.076 A47.0151 B14.2484 
N866 X170.193 Y-0.837 Z6.938 A47.0765 B14.2018 
N867 X170.182 Y-1.171 Z6.802 A46.8838 B14.2586 
N868 X170.170 Y-1.510 Z6.664 A46.5939 B14.3200 
N869 X170.159 Y-1.853 Z6.525 A46.1981 B14.3863 
N870 X170.147 Y-2.200 Z6.386 A45.6884 B14.4577 
N871 X170.136 Y-2.551 Z6.248 A45.0608 B14.5340 
N872 X170.124 Y-2.905 Z6.112 A44.3154 B14.6151 
N873 X170.113 Y-3.261 Z5.979 A43.4576 B14.7005 
N874 X170.102 Y-3.619 Z5.849 A42.4951 B14.7896 
N875 X170.091 Y-3.978 Z5.725 A41.4351 B14.8819 
N876 X170.081 Y-4.338 Z5.607 A40.2845 B14.9769 
N877 X170.071 Y-4.699 Z5.495 A39.0491 B15.0740 
N878 X170.061 Y-5.060 Z5.391 A37.7364 B15.1729 
N879 X170.052 Y-5.421 Z5.295 A36.3570 B15.2728 
N880 X170.043 Y-5.782 Z5.207 A34.9241 B15.3730 
N881 X170.034 Y-6.143 Z5.128 A33.4524 B15.4729 
N882 X170.026 Y-6.504 Z5.059 A31.9544 B15.5719 
N883 X170.019 Y-6.864 Z4.998 A30.4404 B15.6694 
N884 X170.012 Y-7.224 Z4.948 A28.9179 B15.7651 
N885 X170.006 Y-7.583 Z4.907 A27.3932 B15.8588 
N886 X170.000 Y-7.943 Z4.875 A25.8721 B15.9503 
N887 X169.994 Y-8.302 Z4.854 A24.3601 B16.0394 
N888 X169.989 Y-8.662 Z4.841 A22.8629 B16.1260 
N889 X169.985 Y-9.022 Z4.839 A21.3859 B16.2098 
N890 X169.981 Y-9.382 Z4.846 A19.9337 B16.2909 
N891 X169.979 Y-9.743 Z4.862 A18.5104 B16.3693 
N892 X169.976 Y-10.104 Z4.888 A17.1198 B16.4449 
N893 X169.974 Y-10.466 Z4.923 A15.7653 B16.5177 
N894 X169.972 Y-10.829 Z4.968 A14.4505 B16.5878 
N895 X169.972 Y-11.191 Z5.022 A13.1787 B16.6553 
N896 X169.971 Y-11.554 Z5.084 A11.9535 B16.7202 
N897 X169.972 Y-11.917 Z5.155 A10.7772 B16.7826 
N898 X169.973 Y-12.279 Z5.235 A9.6513 B16.8427 
N899 X169.975 Y-12.641 Z5.322 A8.5760 B16.9005 
N900 X169.977 Y-13.001 Z5.417 A7.5507 B16.9561 
N901 X169.980 Y-13.360 Z5.519 A6.5744 B17.0097 
N902 X169.983 Y-13.716 Z5.627 A5.6465 B17.0614 
N903 X169.988 Y-14.068 Z5.741 A4.7662 B17.1112 
N904 X169.992 Y-14.417 Z5.860 A3.9323 B17.1590 
N905 X169.997 Y-14.761 Z5.983 A3.1428 B17.2051 
N906 X170.003 Y-15.098 Z6.110 A2.3947 B17.2493 
N907 X170.009 Y-15.429 Z6.240 A1.6847 B17.2917 
N908 X170.016 Y-15.752 Z6.371 A1.0145 B17.3322 
N909 X170.023 Y-16.065 Z6.503 A0.3919 B17.3708 
N910 X170.030 Y-16.368 Z6.635 A359.8256 B17.4077 
N911 X170.037 Y-16.659 Z6.765 A359.3217 B17.4429 
N912 X170.043 Y-16.937 Z6.894 A358.8804 B17.4836 
N913 X170.042 Y-17.203 Z7.019 A358.4919 B17.5232 
N914 X170.035 Y-17.455 Z7.141 A358.1450 B17.5607 
N915 X170.022 Y-17.695 Z7.259 A357.8284 B17.5961 
N916 X170.004 Y-17.921 Z7.371 A357.5326 B17.6292 
N917 X169.981 Y-18.135 Z7.479 A357.2516 B17.6601 
N918 X169.954 Y-18.336 Z7.581 A356.9826 B17.6887 
N919 X169.924 Y-18.524 Z7.677 A356.7188 B17.7150 
N920 X169.892 Y-18.700 Z7.769 A356.4630 B17.7393 
N921 X169.858 Y-18.852 Z7.854 A356.5763 B17.7677 
N922 X169.823 Y-18.925 Z7.931 A358.5679 B17.8245 
N923 X169.790 Y-18.950 Z8.001 A1.7153 B17.8886 
N924 X169.761 Y-18.964 Z8.066 A5.0285 B17.9398 
N925 X169.736 Y-18.977 Z8.128 A8.2918 B17.9749 
N926 X169.715 Y-18.990 Z8.186 A11.4566 B17.9946 
N927 X169.700 Y-19.005 Z8.241 A14.5159 B17.9998 
N928 X169.688 Y-19.022 Z8.293 A17.4755 B17.9918 
N929 X169.681 Y-19.040 Z8.342 A20.3471 B17.9716 
N930 X169.678 Y-19.060 Z8.389 A23.1438 B17.9401 
N931 X169.678 Y-19.081 Z8.434 A25.8788 B17.8978 
N932 X169.682 Y-19.104 Z8.477 A28.5642 B17.8453 
N933 X169.689 Y-19.129 Z8.517 A31.2101 B17.7828 
N934 X169.701 Y-19.155 Z8.556 A33.8249 B17.7105 
N935 X169.715 Y-19.182 Z8.594 A36.4163 B17.6287 
N936 X169.733 Y-19.211 Z8.629 A38.9903 B17.5374 
N937 X169.752 Y-19.242 Z8.663 A41.5518 B17.4367 
N938 X169.775 Y-19.274 Z8.696 A44.1045 B17.3269 
N939 X169.799 Y-19.307 Z8.726 A46.6504 B17.2080 
N940 X169.824 Y-19.342 Z8.755 A49.1907 B17.0802 
N941 X169.852 Y-19.378 Z8.782 A51.7259 B16.9438 
N942 X169.880 Y-19.414 Z8.807 A54.2559 B16.7989 
N943 X169.909 Y-19.452 Z8.830 A56.7804 B16.6460 
N944 X169.938 Y-19.491 Z8.852 A59.2989 B16.4853 
N945 X169.967 Y-19.530 Z8.871 A61.8110 B16.3174 
N946 X169.995 Y-19.571 Z8.889 A64.3164 B16.1426 
N947 X170.023 Y-19.611 Z8.904 A66.8149 B15.9612 
N948 X170.049 Y-19.652 Z8.918 A69.3065 B15.7739 
N949 X170.073 Y-19.694 Z8.930 A71.7906 B15.5811 
N950 X170.096 Y-19.735 Z8.939 A74.2664 B15.3832 
N951 X170.116 Y-19.777 Z8.947 A76.7336 B15.1809 
N952 X170.135 Y-19.818 Z8.953 A79.1930 B14.9746 
N953 X170.151 Y-19.860 Z8.957 A81.6469 B14.7646 
N954 X170.163 Y-19.901 Z8.960 A84.0967 B14.5513 
N955 X170.171 Y-19.943 Z8.960 A86.5427 B14.3352 
N956 X170.176 Y-19.984 Z8.959 A88.9846 B14.1170 
N957 X170.179 Y-20.025 Z8.957 A91.4253 B13.9044 
N958 X170.180 Y-20.065 Z8.953 A93.8642 B13.6763 
N959 X170.180 Y-20.106 Z8.947 A96.3079 B13.4528 
N960 X170.178 Y-20.146 Z8.939 A98.7569 B13.2293 
N961 X170.172 Y-20.185 Z8.930 A101.2109 B13.0056 
N962 X170.164 Y-20.225 Z8.920 A103.6692 B12.7823 
N963 X170.153 Y-20.263 Z8.908 A106.1321 B12.5600 
N964 X170.138 Y-20.301 Z8.895 A108.6007 B12.3391 
N965 X170.122 Y-20.339 Z8.880 A111.0761 B12.1202 
N966 X170.103 Y-20.376 Z8.864 A113.5596 B11.9037 
N967 X170.083 Y-20.412 Z8.847 A116.0523 B11.6901 
N968 X170.061 Y-20.448 Z8.828 A118.5557 B11.4799 
N969 X170.038 Y-20.483 Z8.808 A121.0720 B11.2734 
N970 X170.014 Y-20.517 Z8.786 A123.6037 B11.0711 
N971 X169.990 Y-20.551 Z8.763 A126.1549 B10.8733 
N972 X169.965 Y-20.584 Z8.739 A128.7309 B10.6802 
N973 X169.940 Y-20.616 Z8.713 A131.3399 B10.4920 
N974 X169.915 Y-20.648 Z8.685 A133.9931 B10.3086 
N975 X169.892 Y-20.679 Z8.656 A136.7055 B10.1299 
N976 X169.869 Y-20.710 Z8.624 A139.4952 B9.9560 
N977 X169.848 Y-20.740 Z8.589 A142.3837 B9.7868 
N978 X169.830 Y-20.770 Z8.551 A145.3944 B9.6229 
N979 X169.814 Y-20.799 Z8.509 A148.5514 B9.4650 
N980 X169.804 Y-20.826 Z8.462 A151.8733 B9.3150 
N981 X169.797 Y-20.850 Z8.409 A155.3616 B9.1757 
N982 X169.794 Y-20.869 Z8.349 A158.9734 B9.0520 
N983 X169.800 Y-20.870 Z8.277 A162.4661 B8.9540 
N984 X170.992 Y-23.919 Z-1.172 
N985 G00 X173.973 Y-31.539 Z-24.795 
N986 X174.588 Y-50.252 Z-39.686 
N987 X168.627 Y-35.010 Z7.560 
N988 G01 X168.649 Y-32.578 Z9.528 F337 
N989 X168.712 Y-29.657 Z10.648 
N990 X168.811 Y-26.534 Z10.812 
N991 X168.936 Y-23.515 Z10.002 
N992 M342 ; chlodziwo woda
N993 X169.075 Y-20.894 Z8.299 
N994 X169.085 Y-20.831 Z8.200 A164.6444 B8.9128 
N995 X169.096 Y-20.684 Z8.072 A164.9533 B8.9296 
N996 X169.107 Y-20.513 Z7.931 A164.9866 B8.9562 
N997 X169.118 Y-20.328 Z7.778 A165.0173 B8.9850 
N998 X169.130 Y-20.130 Z7.614 A165.0545 B9.0160 
N999 X169.141 Y-19.917 Z7.438 A165.0971 B9.0493 
N1000 X169.152 Y-19.689 Z7.250 A165.1450 B9.0848 
N1001 X169.162 Y-19.448 Z7.052 A165.1997 B9.1225 
N1002 X169.171 Y-19.193 Z6.842 A165.2635 B9.1623 
N1003 X169.180 Y-18.926 Z6.623 A165.3398 B9.2040 
N1004 X169.188 Y-18.647 Z6.395 A165.4318 B9.2476 
N1005 X169.194 Y-18.358 Z6.158 A165.5419 B9.2928 
N1006 X169.199 Y-18.059 Z5.915 A165.6712 B9.3395 
N1007 X169.202 Y-17.753 Z5.667 A165.8196 B9.3876 
N1008 X169.204 Y-17.439 Z5.414 A165.9869 B9.4370 
N1009 X169.203 Y-17.120 Z5.157 A166.1730 B9.4876 
N1010 X169.201 Y-16.797 Z4.899 A166.3780 B9.5393 
N1011 X169.197 Y-16.469 Z4.639 A166.6018 B9.5919 
N1012 X169.190 Y-16.139 Z4.379 A166.8442 B9.6455 
N1013 X169.180 Y-15.807 Z4.119 A167.1061 B9.7000 
N1014 X169.169 Y-15.473 Z3.860 A167.3894 B9.7553 
N1015 X169.159 Y-15.139 Z3.604 A167.6971 B9.8114 
N1016 X169.150 Y-14.805 Z3.349 A168.0325 B9.8715 
N1017 X169.141 Y-14.471 Z3.098 A168.3971 B9.9344 
N1018 X169.133 Y-14.138 Z2.850 A168.7907 B9.9985 
N1019 X169.125 Y-13.806 Z2.605 A169.2127 B10.0641 
N1020 X169.118 Y-13.476 Z2.365 A169.6623 B10.1311 
N1021 X169.112 Y-13.146 Z2.130 A170.1397 B10.1997 
N1022 X169.106 Y-12.819 Z1.899 A170.6453 B10.2700 
N1023 X169.101 Y-12.494 Z1.674 A171.1797 B10.3422 
N1024 X169.097 Y-12.171 Z1.454 A171.7437 B10.4164 
N1025 X169.093 Y-11.850 Z1.240 A172.3380 B10.4927 
N1026 X169.090 Y-11.532 Z1.031 A172.9631 B10.5714 
N1027 X169.087 Y-11.217 Z0.828 A173.6200 B10.6525 
N1028 X169.085 Y-10.904 Z0.632 A174.3092 B10.7363 
N1029 X169.082 Y-10.594 Z0.442 A175.0315 B10.8230 
N1030 X169.081 Y-10.288 Z0.258 A175.7881 B10.9129 
N1031 X169.080 Y-9.984 Z0.081 A176.5808 B11.0061 
N1032 X169.079 Y-9.684 Z-0.090 A177.4123 B11.1031 
N1033 X169.079 Y-9.387 Z-0.254 A178.2854 B11.2041 
N1034 X169.080 Y-9.094 Z-0.411 A179.2023 B11.3097 
N1035 X169.080 Y-8.805 Z-0.561 A180.1633 B11.4202 
N1036 X169.081 Y-8.519 Z-0.705 A181.1669 B11.5358 
N1037 X169.082 Y-8.237 Z-0.841 A182.2105 B11.6569 
N1038 X169.084 Y-7.959 Z-0.971 A183.2894 B11.7639 
N1039 X169.087 Y-7.684 Z-1.093 A184.4018 B11.8593 
N1040 X169.090 Y-7.412 Z-1.209 A185.5477 B11.9572 
N1041 X169.093 Y-7.144 Z-1.317 A186.7273 B12.0576 
N1042 X169.097 Y-6.879 Z-1.419 A187.9411 B12.1605 
N1043 X169.101 Y-6.618 Z-1.515 A189.1901 B12.2659 
N1044 X169.105 Y-6.361 Z-1.603 A190.4745 B12.3739 
N1045 X169.109 Y-6.107 Z-1.685 A191.7943 B12.4843 
N1046 X169.114 Y-5.857 Z-1.761 A193.1492 B12.5972 
N1047 X169.119 Y-5.610 Z-1.830 A194.5386 B12.7125 
N1048 X169.123 Y-5.367 Z-1.893 A195.9620 B12.8301 
N1049 X169.128 Y-5.127 Z-1.950 A197.4182 B12.9499 
N1050 X169.134 Y-4.891 Z-2.000 A198.9058 B13.0718 
N1051 X169.139 Y-4.658 Z-2.045 A200.4233 B13.1955 
N1052 X169.144 Y-4.427 Z-2.083 A201.9691 B13.3210 
N1053 X169.150 Y-4.200 Z-2.116 A203.5416 B13.4481 
N1054 X169.155 Y-3.976 Z-2.143 A205.1393 B13.5765 
N1055 X169.161 Y-3.755 Z-2.164 A206.7603 B13.7061 
N1056 X169.167 Y-3.536 Z-2.179 A208.4029 B13.8367 
N1057 X169.172 Y-3.320 Z-2.189 A210.0651 B13.9680 
N1058 X169.178 Y-3.106 Z-2.193 A211.7448 B14.1000 
N1059 X169.184 Y-2.894 Z-2.191 A213.4399 B14.2323 
N1060 X169.190 Y-2.684 Z-2.183 A215.1482 B14.3648 
N1061 X169.196 Y-2.476 Z-2.170 A216.8676 B14.4973 
N1062 X169.202 Y-2.270 Z-2.151 A218.5962 B14.6297 
N1063 X169.209 Y-2.065 Z-2.127 A220.3321 B14.7617 
N1064 X169.215 Y-1.862 Z-2.096 A222.0736 B14.8933 
N1065 X169.221 Y-1.661 Z-2.060 A223.8188 B15.0244 
N1066 X169.227 Y-1.461 Z-2.017 A225.5656 B15.1549 
N1067 X169.234 Y-1.261 Z-1.969 A227.3119 B15.2847 
N1068 X169.240 Y-1.064 Z-1.914 A229.0553 B15.4139 
N1069 X169.246 Y-0.867 Z-1.853 A230.7934 B15.5424 
N1070 X169.253 Y-0.671 Z-1.785 A232.5230 B15.6703 
N1071 X169.259 Y-0.476 Z-1.711 A234.2374 B15.7974 
N1072 X169.265 Y-0.282 Z-1.630 A235.9200 B15.9231 
N1073 X169.272 Y-0.088 Z-1.539 A237.5326 B16.0458 
N1074 X169.278 Y0.108 Z-1.438 A239.0014 B16.1617 
N1075 X169.285 Y0.307 Z-1.321 A240.2147 B16.2650 
N1076 X169.293 Y0.511 Z-1.185 A241.0432 B16.3387 
N1077 X169.304 Y0.720 Z-1.024 A241.3795 B16.2954 
N1078 X169.317 Y0.935 Z-0.840 A241.2121 B16.1910 
N1079 X169.330 Y1.155 Z-0.635 A240.6216 B16.0861 
N1080 X169.342 Y1.377 Z-0.413 A239.7461 B15.9975 
N1081 X169.354 Y1.599 Z-0.180 A238.7334 B15.9175 
N1082 X169.366 Y1.818 Z0.059 A237.7034 B15.8338 
N1083 X169.378 Y2.031 Z0.303 A236.7303 B15.7371 
N1084 X169.391 Y2.239 Z0.549 A235.8447 B15.6227 
N1085 X169.404 Y2.441 Z0.797 A235.0480 B15.4888 
N1086 X169.417 Y2.636 Z1.048 A234.3339 B15.3345 
N1087 X169.432 Y2.824 Z1.302 A233.7066 B15.1571 
N1088 X169.447 Y3.006 Z1.556 A233.1832 B14.9505 
N1089 X169.460 Y3.182 Z1.815 A232.9291 B14.7462 
N1090 X169.469 Y3.350 Z2.076 A232.8470 B14.5336 
N1091 X169.473 Y3.511 Z2.338 A232.8632 B14.2997 
N1092 X169.473 Y3.664 Z2.602 A232.9437 B14.0470 
N1093 X169.468 Y3.811 Z2.868 A233.0570 B13.7804 
N1094 X169.458 Y3.951 Z3.136 A233.1800 B13.5052 
N1095 X169.444 Y4.086 Z3.407 A233.2992 B13.2262 
N1096 X169.426 Y4.216 Z3.681 A233.4067 B12.9469 
N1097 X169.403 Y4.340 Z3.957 A233.4986 B12.6705 
N1098 X169.376 Y4.458 Z4.235 A233.5728 B12.3998 
N1099 X169.345 Y4.570 Z4.514 A233.6306 B12.1360 
N1100 X169.309 Y4.677 Z4.794 A233.6784 B11.8769 
N1101 X169.271 Y4.777 Z5.073 A233.7255 B11.6183 
N1102 X169.230 Y4.871 Z5.350 A233.7806 B11.3546 
N1103 X169.186 Y4.958 Z5.626 A233.8488 B11.0818 
N1104 X169.140 Y5.037 Z5.899 A233.9286 B10.8000 
N1105 X169.093 Y5.108 Z6.168 A234.0143 B10.5126 
N1106 X169.044 Y5.173 Z6.434 A234.1012 B10.2264 
N1107 X168.994 Y5.230 Z6.694 A234.1902 B9.9419 
N1108 X168.944 Y5.279 Z6.948 A234.3045 B9.6432 
N1109 X168.897 Y5.318 Z7.194 A234.4962 B9.2936 
N1110 X168.852 Y5.345 Z7.428 A234.8360 B8.8449 
N1111 X168.814 Y5.358 Z7.646 A235.4160 B8.2389 
N1112 X168.784 Y5.356 Z7.845 A236.3633 B7.4013 
N1113 X168.766 Y5.334 Z8.017 A237.8163 B6.2624 
N1114 X168.759 Y5.295 Z8.159 A239.8411 B4.8084 
N1115 X168.764 Y5.242 Z8.272 A242.3986 B3.0901 
N1116 X168.778 Y5.179 Z8.358 A245.4020 B1.1804 
N1117 X168.799 Y5.111 Z8.418 A248.7622 B-0.8505 
N1118 X168.825 Y5.043 Z8.456 A252.4083 B-2.9437 
N1119 X168.856 Y4.977 Z8.474 A256.2889 B-5.0513 
N1120 X168.889 Y4.916 Z8.474 A260.3676 B-7.1334 
N1121 X168.923 Y4.862 Z8.458 A264.6150 B-9.1550 
N1122 X168.958 Y4.816 Z8.430 A269.0009 B-11.0827 
N1123 X168.992 Y4.779 Z8.391 A273.4968 B-12.8871 
N1124 X169.024 Y4.752 Z8.344 A278.0782 B-14.5434 
N1125 X169.054 Y4.735 Z8.291 A282.7240 B-16.0312 
N1126 X169.080 Y4.728 Z8.234 A287.4149 B-17.3334 
N1127 X169.106 Y4.731 Z8.176 A292.1410 B-18.5757 
N1128 X169.129 Y4.745 Z8.117 A296.8883 B-19.6246 
N1129 X169.147 Y4.766 Z8.059 A301.6334 B-20.4069 
N1130 X169.158 Y4.795 Z8.003 A306.3561 B-20.9205 
N1131 X169.163 Y4.832 Z7.951 A311.0385 B-21.1645 
N1132 X169.162 Y4.875 Z7.903 A315.6656 B-21.1401 
N1133 X169.155 Y4.924 Z7.861 A320.2246 B-20.8497 
N1134 X169.143 Y4.977 Z7.826 A324.7055 B-20.2973 
N1135 X169.126 Y5.033 Z7.798 A329.1006 B-19.4881 
N1136 X169.103 Y5.090 Z7.777 A333.4076 B-18.4288 
N1137 X169.072 Y5.149 Z7.766 A337.6289 B-17.1278 
N1138 X169.034 Y5.208 Z7.763 A341.7778 B-15.6221 
N1139 X168.990 Y5.266 Z7.771 A345.8655 B-13.9446 
N1140 X168.941 Y5.320 Z7.788 A349.8998 B-12.1218 
N1141 X168.888 Y5.371 Z7.816 A353.8823 B-10.1835 
N1142 X168.834 Y5.415 Z7.853 A357.8006 B-8.1661 
N1143 X168.779 Y5.449 Z7.900 A1.6201 B-6.1163 
N1144 X168.727 Y5.469 Z7.955 A5.2832 B-4.0907 
N1145 X168.681 Y5.472 Z8.016 A8.7225 B-2.1486 
N1146 X168.641 Y5.454 Z8.079 A11.8855 B-0.3374 
N1147 X168.611 Y5.414 Z8.143 A14.7556 B1.3194 
N1148 X168.591 Y5.353 Z8.203 A17.3561 B2.8237 
N1149 X168.579 Y5.274 Z8.259 A19.7344 B4.1932 
N1150 X168.577 Y5.178 Z8.309 A21.9391 B5.4484 
N1151 X168.583 Y5.067 Z8.353 A24.0052 B6.6038 
N1152 X168.597 Y4.942 Z8.389 A25.9551 B7.6680 
N1153 X168.620 Y4.804 Z8.419 A27.8002 B8.6455 
N1154 X168.650 Y4.652 Z8.440 A29.5377 B9.5349 
N1155 X168.687 Y4.488 Z8.452 A31.1615 B10.3345 
N1156 X168.730 Y4.311 Z8.455 A32.6860 B11.0515 
N1157 X168.779 Y4.124 Z8.450 A34.1515 B11.7023 
N1158 X168.831 Y3.927 Z8.437 A35.5731 B12.2922 
N1159 X168.887 Y3.720 Z8.415 A36.9247 B12.8125 
N1160 X168.946 Y3.502 Z8.383 A38.1779 B13.2562 
N1161 X169.006 Y3.273 Z8.342 A39.3334 B13.6275 
N1162 X169.067 Y3.036 Z8.291 A40.4054 B13.9343 
N1163 X169.127 Y2.788 Z8.231 A41.3966 B14.1809 
N1164 X169.184 Y2.532 Z8.162 A42.3038 B14.3701 
N1165 X169.239 Y2.266 Z8.084 A43.1211 B14.5052 
N1166 X169.289 Y1.992 Z7.997 A43.8438 B14.5907 
N1167 X169.333 Y1.708 Z7.903 A44.4761 B14.6329 
N1168 X169.372 Y1.416 Z7.802 A45.0271 B14.6379 
N1169 X169.404 Y1.117 Z7.693 A45.5067 B14.6119 
N1170 X169.429 Y0.810 Z7.580 A45.9240 B14.5612 
N1171 X169.450 Y0.496 Z7.461 A46.2858 B14.5023 
N1172 X169.464 Y0.176 Z7.337 A46.5913 B14.4283 
N1173 X169.472 Y-0.151 Z7.210 A46.8363 B14.3418 
N1174 X169.474 Y-0.483 Z7.079 A47.0151 B14.2484 
N1175 X169.468 Y-0.818 Z6.946 A47.0765 B14.2018 
N1176 X169.457 Y-1.152 Z6.809 A46.8838 B14.2586 
N1177 X169.445 Y-1.492 Z6.671 A46.5939 B14.3200 
N1178 X169.434 Y-1.835 Z6.532 A46.1981 B14.3863 
N1179 X169.422 Y-2.182 Z6.393 A45.6884 B14.4577 
N1180 X169.411 Y-2.533 Z6.255 A45.0608 B14.5340 
N1181 X169.399 Y-2.887 Z6.118 A44.3154 B14.6151 
N1182 X169.388 Y-3.244 Z5.984 A43.4576 B14.7005 
N1183 X169.377 Y-3.602 Z5.854 A42.4951 B14.7896 
N1184 X169.366 Y-3.962 Z5.730 A41.4351 B14.8819 
N1185 X169.356 Y-4.322 Z5.611 A40.2845 B14.9769 
N1186 X169.345 Y-4.683 Z5.499 A39.0491 B15.0740 
N1187 X169.336 Y-5.045 Z5.394 A37.7364 B15.1729 
N1188 X169.326 Y-5.407 Z5.298 A36.3570 B15.2728 
N1189 X169.317 Y-5.769 Z5.209 A34.9241 B15.3730 
N1190 X169.309 Y-6.131 Z5.130 A33.4524 B15.4729 
N1191 X169.301 Y-6.493 Z5.060 A31.9544 B15.5719 
N1192 X169.293 Y-6.854 Z4.999 A30.4404 B15.6694 
N1193 X169.286 Y-7.214 Z4.948 A28.9179 B15.7651 
N1194 X169.280 Y-7.575 Z4.907 A27.3932 B15.8588 
N1195 X169.274 Y-7.936 Z4.875 A25.8721 B15.9503 
N1196 X169.269 Y-8.296 Z4.853 A24.3601 B16.0394 
N1197 X169.264 Y-8.657 Z4.841 A22.8629 B16.1260 
N1198 X169.259 Y-9.018 Z4.838 A21.3859 B16.2098 
N1199 X169.256 Y-9.379 Z4.845 A19.9337 B16.2909 
N1200 X169.253 Y-9.741 Z4.862 A18.5104 B16.3693 
N1201 X169.250 Y-10.104 Z4.888 A17.1198 B16.4449 
N1202 X169.248 Y-10.467 Z4.924 A15.7653 B16.5177 
N1203 X169.246 Y-10.831 Z4.968 A14.4505 B16.5878 
N1204 X169.246 Y-11.194 Z5.022 A13.1787 B16.6553 
N1205 X169.245 Y-11.558 Z5.085 A11.9535 B16.7202 
N1206 X169.246 Y-11.922 Z5.157 A10.7772 B16.7826 
N1207 X169.247 Y-12.286 Z5.236 A9.6513 B16.8427 
N1208 X169.249 Y-12.648 Z5.324 A8.5760 B16.9005 
N1209 X169.251 Y-13.010 Z5.420 A7.5507 B16.9561 
N1210 X169.254 Y-13.369 Z5.522 A6.5744 B17.0097 
N1211 X169.258 Y-13.726 Z5.631 A5.6465 B17.0614 
N1212 X169.262 Y-14.080 Z5.745 A4.7662 B17.1112 
N1213 X169.266 Y-14.430 Z5.865 A3.9323 B17.1590 
N1214 X169.272 Y-14.774 Z5.989 A3.1428 B17.2051 
N1215 X169.277 Y-15.113 Z6.116 A2.3947 B17.2493 
N1216 X169.284 Y-15.444 Z6.246 A1.6847 B17.2917 
N1217 X169.290 Y-15.768 Z6.378 A1.0145 B17.3322 
N1218 X169.297 Y-16.082 Z6.511 A0.3919 B17.3708 
N1219 X169.304 Y-16.385 Z6.643 A359.8256 B17.4077 
N1220 X169.312 Y-16.677 Z6.774 A359.3217 B17.4429 
N1221 X169.317 Y-16.956 Z6.903 A358.8804 B17.4836 
N1222 X169.317 Y-17.222 Z7.029 A358.4919 B17.5232 
N1223 X169.310 Y-17.476 Z7.151 A358.1450 B17.5607 
N1224 X169.297 Y-17.716 Z7.269 A357.8284 B17.5961 
N1225 X169.278 Y-17.943 Z7.382 A357.5326 B17.6292 
N1226 X169.256 Y-18.157 Z7.490 A357.2516 B17.6601 
N1227 X169.229 Y-18.358 Z7.593 A356.9826 B17.6887 
N1228 X169.199 Y-18.547 Z7.690 A356.7188 B17.7150 
N1229 X169.167 Y-18.723 Z7.781 A356.4630 B17.7393 
N1230 X169.132 Y-18.875 Z7.867 A356.5763 B17.7677 
N1231 X169.098 Y-18.948 Z7.942 A358.5679 B17.8245 
N1232 X169.064 Y-18.971 Z8.010 A1.7153 B17.8886 
N1233 X169.035 Y-18.984 Z8.074 A5.0285 B17.9398 
N1234 X169.010 Y-18.996 Z8.134 A8.2918 B17.9749 
N1235 X168.989 Y-19.007 Z8.190 A11.4566 B17.9946 
N1236 X168.974 Y-19.020 Z8.244 A14.5159 B17.9998 
N1237 X168.962 Y-19.035 Z8.295 A17.4755 B17.9918 
N1238 X168.955 Y-19.051 Z8.343 A20.3471 B17.9716 
N1239 X168.951 Y-19.069 Z8.389 A23.1438 B17.9401 
N1240 X168.951 Y-19.088 Z8.434 A25.8788 B17.8978 
N1241 X168.955 Y-19.109 Z8.476 A28.5642 B17.8453 
N1242 X168.963 Y-19.132 Z8.517 A31.2101 B17.7828 
N1243 X168.974 Y-19.156 Z8.556 A33.8249 B17.7105 
N1244 X168.989 Y-19.181 Z8.594 A36.4163 B17.6287 
N1245 X169.006 Y-19.208 Z8.630 A38.9903 B17.5374 
N1246 X169.026 Y-19.237 Z8.665 A41.5518 B17.4367 
N1247 X169.048 Y-19.267 Z8.698 A44.1045 B17.3269 
N1248 X169.072 Y-19.298 Z8.730 A46.6504 B17.2080 
N1249 X169.098 Y-19.331 Z8.760 A49.1907 B17.0802 
N1250 X169.125 Y-19.365 Z8.788 A51.7259 B16.9438 
N1251 X169.153 Y-19.401 Z8.815 A54.2559 B16.7989 
N1252 X169.182 Y-19.437 Z8.840 A56.7804 B16.6460 
N1253 X169.212 Y-19.475 Z8.863 A59.2989 B16.4853 
N1254 X169.241 Y-19.513 Z8.884 A61.8110 B16.3174 
N1255 X169.269 Y-19.552 Z8.903 A64.3164 B16.1426 
N1256 X169.297 Y-19.592 Z8.921 A66.8149 B15.9612 
N1257 X169.323 Y-19.633 Z8.937 A69.3065 B15.7739 
N1258 X169.348 Y-19.674 Z8.950 A71.7906 B15.5811 
N1259 X169.370 Y-19.715 Z8.962 A74.2664 B15.3832 
N1260 X169.391 Y-19.757 Z8.972 A76.7336 B15.1809 
N1261 X169.410 Y-19.799 Z8.981 A79.1930 B14.9746 
N1262 X169.426 Y-19.841 Z8.987 A81.6469 B14.7646 
N1263 X169.438 Y-19.883 Z8.991 A84.0967 B14.5513 
N1264 X169.447 Y-19.925 Z8.994 A86.5427 B14.3352 
N1265 X169.452 Y-19.968 Z8.995 A88.9846 B14.1170 
N1266 X169.454 Y-20.010 Z8.994 A91.4253 B13.9044 
N1267 X169.456 Y-20.052 Z8.991 A93.8642 B13.6763 
N1268 X169.456 Y-20.093 Z8.987 A96.3079 B13.4528 
N1269 X169.454 Y-20.135 Z8.981 A98.7569 B13.2293 
N1270 X169.449 Y-20.176 Z8.973 A101.2109 B13.0056 
N1271 X169.440 Y-20.217 Z8.964 A103.6692 B12.7823 
N1272 X169.429 Y-20.258 Z8.953 A106.1321 B12.5600 
N1273 X169.415 Y-20.298 Z8.940 A108.6007 B12.3391 
N1274 X169.398 Y-20.337 Z8.926 A111.0761 B12.1202 
N1275 X169.380 Y-20.376 Z8.910 A113.5596 B11.9037 
N1276 X169.359 Y-20.415 Z8.893 A116.0523 B11.6901 
N1277 X169.337 Y-20.453 Z8.874 A118.5557 B11.4799 
N1278 X169.314 Y-20.490 Z8.854 A121.0720 B11.2734 
N1279 X169.290 Y-20.526 Z8.832 A123.6037 B11.0711 
N1280 X169.266 Y-20.562 Z8.808 A126.1549 B10.8733 
N1281 X169.241 Y-20.597 Z8.783 A128.7309 B10.6802 
N1282 X169.216 Y-20.631 Z8.756 A131.3399 B10.4920 
N1283 X169.192 Y-20.665 Z8.727 A133.9931 B10.3086 
N1284 X169.168 Y-20.697 Z8.696 A136.7055 B10.1299 
N1285 X169.145 Y-20.730 Z8.662 A139.4952 B9.9560 
N1286 X169.124 Y-20.761 Z8.625 A142.3837 B9.7868 
N1287 X169.105 Y-20.792 Z8.585 A145.3944 B9.6229 
N1288 X169.090 Y-20.822 Z8.541 A148.5514 B9.4650 
N1289 X169.079 Y-20.850 Z8.491 A151.8733 B9.3150 
N1290 X169.072 Y-20.875 Z8.436 A155.3616 B9.1757 
N1291 X169.069 Y-20.893 Z8.373 A158.9734 B9.0520 
N1292 X169.075 Y-20.894 Z8.299 A162.4661 B8.9540 
N1293 X170.267 Y-23.942 Z-1.150 
N1294 G00 X173.248 Y-31.563 Z-24.773 
N1295 X173.863 Y-50.275 Z-39.664 
N1296 X167.902 Y-35.034 Z7.581 
N1297 G01 X167.924 Y-32.601 Z9.549 F337 
N1298 X167.987 Y-29.681 Z10.670 
N1299 X168.087 Y-26.558 Z10.833 
N1300 X168.212 Y-23.539 Z10.024 
N1301 M342 ; chlodziwo woda
VELOLIM[A]=100 ;PRZYWOLANIE VELOLIM
N1302 X168.350 Y-20.918 Z8.320 
N1302 X168.350 Y-20.918 Z8.320 
F200
N1303 X168.360 Y-20.855 Z8.220 A164.6444 B8.9128 
N1304 X168.371 Y-20.707 Z8.091 A164.9533 B8.9296 
N1305 X168.382 Y-20.536 Z7.949 A164.9866 B8.9562 
N1306 X168.393 Y-20.351 Z7.796 A165.0173 B8.9850 
N1307 X168.405 Y-20.152 Z7.632 A165.0545 B9.0160 
N1308 X168.416 Y-19.938 Z7.455 A165.0971 B9.0493 
N1309 X168.427 Y-19.710 Z7.267 A165.1450 B9.0848 
N1310 X168.437 Y-19.468 Z7.068 A165.1997 B9.1225 
N1311 X168.446 Y-19.213 Z6.858 A165.2635 B9.1623 
N1312 X168.455 Y-18.945 Z6.639 A165.3398 B9.2040 
N1313 X168.463 Y-18.665 Z6.410 A165.4318 B9.2476 
N1314 X168.469 Y-18.376 Z6.173 A165.5419 B9.2928 
N1315 X168.474 Y-18.077 Z5.929 A165.6712 B9.3395 
N1316 X168.477 Y-17.770 Z5.680 A165.8196 B9.3876 
N1317 X168.479 Y-17.456 Z5.427 A165.9869 B9.4370 
N1318 X168.478 Y-17.136 Z5.170 A166.1730 B9.4876 
N1319 X168.476 Y-16.811 Z4.910 A166.3780 B9.5393 
N1320 X168.471 Y-16.483 Z4.650 A166.6018 B9.5919 
N1321 X168.464 Y-16.152 Z4.389 A166.8442 B9.6455 
N1322 X168.454 Y-15.819 Z4.128 A167.1061 B9.7000 
N1323 X168.444 Y-15.485 Z3.869 A167.3894 B9.7553 
N1324 X168.434 Y-15.150 Z3.611 A167.6971 B9.8114 
N1325 X168.425 Y-14.815 Z3.356 A168.0325 B9.8715 
N1326 X168.416 Y-14.480 Z3.104 A168.3971 B9.9344 
N1327 X168.407 Y-14.146 Z2.855 A168.7907 B9.9985 
N1328 X168.400 Y-13.813 Z2.611 A169.2127 B10.0641 
N1329 X168.393 Y-13.482 Z2.370 A169.6623 B10.1311 
N1330 X168.386 Y-13.152 Z2.134 A170.1397 B10.1997 
N1331 X168.381 Y-12.824 Z1.903 A170.6453 B10.2700 
N1332 X168.376 Y-12.498 Z1.677 A171.1797 B10.3422 
N1333 X168.371 Y-12.174 Z1.456 A171.7437 B10.4164 
N1334 X168.367 Y-11.852 Z1.241 A172.3380 B10.4927 
N1335 X168.364 Y-11.533 Z1.032 A172.9631 B10.5714 
N1336 X168.362 Y-11.217 Z0.828 A173.6200 B10.6525 
N1337 X168.359 Y-10.903 Z0.631 A174.3092 B10.7363 
N1338 X168.357 Y-10.593 Z0.441 A175.0315 B10.8230 
N1339 X168.355 Y-10.285 Z0.256 A175.7881 B10.9129 
N1340 X168.355 Y-9.980 Z0.079 A176.5808 B11.0061 
N1341 X168.354 Y-9.679 Z-0.092 A177.4123 B11.1031 
N1342 X168.354 Y-9.382 Z-0.257 A178.2854 B11.2041 
N1343 X168.354 Y-9.088 Z-0.414 A179.2023 B11.3097 
N1344 X168.355 Y-8.797 Z-0.565 A180.1633 B11.4202 
N1345 X168.356 Y-8.511 Z-0.709 A181.1669 B11.5358 
N1346 X168.357 Y-8.228 Z-0.845 A182.2105 B11.6569 
N1347 X168.359 Y-7.948 Z-0.975 A183.2894 B11.7639 
N1348 X168.362 Y-7.672 Z-1.097 A184.4018 B11.8593 
N1349 X168.365 Y-7.399 Z-1.213 A185.5477 B11.9572 
N1350 X168.368 Y-7.130 Z-1.322 A186.7273 B12.0576 
N1351 X168.372 Y-6.864 Z-1.424 A187.9411 B12.1605 
N1352 X168.376 Y-6.602 Z-1.519 A189.1901 B12.2659 
N1353 X168.380 Y-6.344 Z-1.607 A190.4745 B12.3739 
N1354 X168.384 Y-6.089 Z-1.689 A191.7943 B12.4843 
N1355 X168.389 Y-5.838 Z-1.764 A193.1492 B12.5972 
N1356 X168.394 Y-5.591 Z-1.833 A194.5386 B12.7125 
N1357 X168.399 Y-5.347 Z-1.896 A195.9620 B12.8301 
N1358 X168.404 Y-5.106 Z-1.952 A197.4182 B12.9499 
N1359 X168.409 Y-4.869 Z-2.002 A198.9058 B13.0718 
N1360 X168.414 Y-4.635 Z-2.046 A200.4233 B13.1955 
N1361 X168.419 Y-4.404 Z-2.084 A201.9691 B13.3210 
N1362 X168.425 Y-4.176 Z-2.116 A203.5416 B13.4481 
N1363 X168.431 Y-3.952 Z-2.142 A205.1393 B13.5765 
N1364 X168.436 Y-3.730 Z-2.163 A206.7603 B13.7061 
N1365 X168.442 Y-3.511 Z-2.177 A208.4029 B13.8367 
N1366 X168.448 Y-3.294 Z-2.186 A210.0651 B13.9680 
N1367 X168.454 Y-3.080 Z-2.189 A211.7448 B14.1000 
N1368 X168.460 Y-2.867 Z-2.187 A213.4399 B14.2323 
N1369 X168.466 Y-2.657 Z-2.178 A215.1482 B14.3648 
N1370 X168.472 Y-2.449 Z-2.164 A216.8676 B14.4973 
N1371 X168.478 Y-2.243 Z-2.145 A218.5962 B14.6297 
N1372 X168.484 Y-2.039 Z-2.119 A220.3321 B14.7617 
N1373 X168.490 Y-1.836 Z-2.088 A222.0736 B14.8933 
N1374 X168.497 Y-1.635 Z-2.050 A223.8188 B15.0244 
N1375 X168.503 Y-1.435 Z-2.007 A225.5656 B15.1549 
N1376 X168.509 Y-1.236 Z-1.958 A227.3119 B15.2847 
N1377 X168.515 Y-1.038 Z-1.903 A229.0553 B15.4139 
N1378 X168.522 Y-0.842 Z-1.841 A230.7934 B15.5424 
N1379 X168.528 Y-0.647 Z-1.773 A232.5230 B15.6703 
N1380 X168.534 Y-0.453 Z-1.698 A234.2374 B15.7974 
N1381 X168.541 Y-0.259 Z-1.616 A235.9200 B15.9231 
N1382 X168.547 Y-0.065 Z-1.525 A237.5326 B16.0458 
N1383 X168.554 Y0.130 Z-1.423 A239.0014 B16.1617 
N1384 X168.561 Y0.328 Z-1.306 A240.2147 B16.2650 
N1385 X168.568 Y0.531 Z-1.169 A241.0432 B16.3387 
N1386 X168.579 Y0.740 Z-1.008 A241.3795 B16.2954 
N1387 X168.592 Y0.954 Z-0.824 A241.2121 B16.1910 
N1388 X168.605 Y1.173 Z-0.618 A240.6216 B16.0861 
N1389 X168.617 Y1.395 Z-0.396 A239.7461 B15.9975 
N1390 X168.629 Y1.616 Z-0.163 A238.7334 B15.9175 
N1391 X168.641 Y1.834 Z0.077 A237.7034 B15.8338 
N1392 X168.653 Y2.047 Z0.320 A236.7303 B15.7371 
N1393 X168.666 Y2.254 Z0.566 A235.8447 B15.6227 
N1394 X168.679 Y2.455 Z0.815 A235.0480 B15.4888 
N1395 X168.693 Y2.649 Z1.066 A234.3339 B15.3345 
N1396 X168.707 Y2.837 Z1.319 A233.7066 B15.1571 
N1397 X168.722 Y3.018 Z1.574 A233.1832 B14.9505 
N1398 X168.735 Y3.189 Z1.825 A232.9291 B14.7462 
N1399 X168.744 Y3.350 Z2.076 A232.8470 B14.5336 
N1400 X168.748 Y3.505 Z2.328 A232.8632 B14.2997 
N1401 X168.748 Y3.652 Z2.581 A232.9437 B14.0470 
N1402 X168.744 Y3.794 Z2.837 A233.0570 B13.7804 
N1403 X168.735 Y3.930 Z3.095 A233.1800 B13.5052 
N1404 X168.722 Y4.061 Z3.356 A233.2992 B13.2262 
N1405 X168.704 Y4.187 Z3.620 A233.4067 B12.9469 
N1406 X168.682 Y4.307 Z3.886 A233.4986 B12.6705 
N1407 X168.656 Y4.423 Z4.154 A233.5728 B12.3998 
N1408 X168.625 Y4.534 Z4.424 A233.6306 B12.1360 
N1409 X168.591 Y4.638 Z4.694 A233.6784 B11.8769 
N1410 X168.553 Y4.738 Z4.964 A233.7255 B11.6183 
N1411 X168.513 Y4.831 Z5.233 A233.7806 B11.3546 
N1412 X168.470 Y4.917 Z5.500 A233.8488 B11.0818 
N1413 X168.424 Y4.997 Z5.764 A233.9286 B10.8000 
N1414 X168.377 Y5.070 Z6.026 A234.0143 B10.5126 
N1415 X168.329 Y5.136 Z6.284 A234.1012 B10.2264 
N1416 X168.279 Y5.195 Z6.538 A234.1902 B9.9419 
N1417 X168.229 Y5.246 Z6.786 A234.3045 B9.6432 
N1418 X168.181 Y5.288 Z7.026 A234.4962 B9.2936 
N1419 X168.136 Y5.319 Z7.256 A234.8360 B8.8449 
N1420 X168.096 Y5.337 Z7.470 A235.4160 B8.2389 
N1421 X168.065 Y5.339 Z7.666 A236.3633 B7.4013 
N1422 X168.044 Y5.323 Z7.836 A237.8163 B6.2624 
N1423 X168.035 Y5.290 Z7.978 A239.8411 B4.8084 
N1424 X168.037 Y5.242 Z8.092 A242.3986 B3.0901 
N1425 X168.047 Y5.186 Z8.179 A245.4020 B1.1804 
N1426 X168.064 Y5.126 Z8.243 A248.7622 B-0.8505 
N1427 X168.086 Y5.064 Z8.287 A252.4083 B-2.9437 
N1428 X168.111 Y5.005 Z8.312 A256.2889 B-5.0513 
N1429 X168.139 Y4.949 Z8.321 A260.3676 B-7.1334 
N1430 X168.168 Y4.899 Z8.316 A264.6150 B-9.1550 
N1431 X168.197 Y4.857 Z8.299 A269.0009 B-11.0827 
N1432 X168.225 Y4.822 Z8.273 A273.4968 B-12.8871 
N1433 X168.252 Y4.795 Z8.240 A278.0782 B-14.5434 
N1434 X168.277 Y4.777 Z8.201 A282.7240 B-16.0312 
N1435 X168.299 Y4.767 Z8.159 A287.4149 B-17.3334 
N1436 X168.322 Y4.766 Z8.115 A292.1410 B-18.5757 
N1437 X168.342 Y4.774 Z8.071 A296.8883 B-19.6246 
N1438 X168.357 Y4.788 Z8.027 A301.6334 B-20.4069 
N1439 X168.367 Y4.810 Z7.985 A306.3561 B-20.9205 
N1440 X168.371 Y4.837 Z7.945 A311.0385 B-21.1645 
N1441 X168.370 Y4.870 Z7.909 A315.6656 B-21.1401 
N1442 X168.364 Y4.907 Z7.878 A320.2246 B-20.8497 
N1443 X168.354 Y4.947 Z7.852 A324.7055 B-20.2973 
N1444 X168.339 Y4.991 Z7.833 A329.1006 B-19.4881 
N1445 X168.318 Y5.036 Z7.820 A333.4076 B-18.4288 
N1446 X168.291 Y5.081 Z7.815 A337.6289 B-17.1278 
N1447 X168.257 Y5.127 Z7.818 A341.7778 B-15.6221 
N1448 X168.217 Y5.171 Z7.828 A345.8655 B-13.9446 
N1449 X168.173 Y5.212 Z7.848 A349.8998 B-12.1218 
N1450 X168.126 Y5.250 Z7.875 A353.8823 B-10.1835 
N1451 X168.077 Y5.281 Z7.912 A357.8006 B-8.1661 
N1452 X168.028 Y5.303 Z7.956 A1.6201 B-6.1163 
N1453 X167.982 Y5.313 Z8.008 A5.2832 B-4.0907 
N1454 X167.940 Y5.305 Z8.063 A8.7225 B-2.1486 
N1455 X167.907 Y5.279 Z8.121 A11.8855 B-0.3374 
N1456 X167.881 Y5.232 Z8.177 A14.7556 B1.3194 
N1457 X167.865 Y5.166 Z8.229 A17.3561 B2.8237 
N1458 X167.858 Y5.083 Z8.277 A19.7344 B4.1932 
N1459 X167.859 Y4.984 Z8.319 A21.9391 B5.4484 
N1460 X167.867 Y4.873 Z8.355 A24.0052 B6.6038 
N1461 X167.884 Y4.748 Z8.385 A25.9551 B7.6680 
N1462 X167.909 Y4.612 Z8.407 A27.8002 B8.6455 
N1463 X167.940 Y4.464 Z8.422 A29.5377 B9.5349 
N1464 X167.977 Y4.304 Z8.428 A31.1615 B10.3345 
N1465 X168.021 Y4.133 Z8.427 A32.6860 B11.0515 
N1466 X168.069 Y3.953 Z8.418 A34.1515 B11.7023 
N1467 X168.122 Y3.763 Z8.402 A35.5731 B12.2922 
N1468 X168.177 Y3.564 Z8.377 A36.9247 B12.8125 
N1469 X168.234 Y3.354 Z8.344 A38.1779 B13.2562 
N1470 X168.294 Y3.135 Z8.302 A39.3334 B13.6275 
N1471 X168.353 Y2.907 Z8.251 A40.4054 B13.9343 
N1472 X168.411 Y2.669 Z8.192 A41.3966 B14.1809 
N1473 X168.467 Y2.423 Z8.124 A42.3038 B14.3701 
N1474 X168.521 Y2.168 Z8.049 A43.1211 B14.5052 
N1475 X168.569 Y1.905 Z7.965 A43.8438 B14.5907 
N1476 X168.613 Y1.632 Z7.874 A44.4761 B14.6329 
N1477 X168.650 Y1.352 Z7.777 A45.0271 B14.6379 
N1478 X168.681 Y1.064 Z7.673 A45.5067 B14.6119 
N1479 X168.706 Y0.769 Z7.563 A45.9240 B14.5612 
N1480 X168.725 Y0.467 Z7.449 A46.2858 B14.5023 
N1481 X168.739 Y0.159 Z7.331 A46.5913 B14.4283 
N1482 X168.747 Y-0.155 Z7.208 A46.8363 B14.3418 
N1483 X168.749 Y-0.474 Z7.083 A47.0151 B14.2484 
N1484 X168.743 Y-0.799 Z6.953 A47.0765 B14.2018 
N1485 X168.732 Y-1.134 Z6.817 A46.8838 B14.2586 
N1486 X168.720 Y-1.473 Z6.679 A46.5939 B14.3200 
N1487 X168.709 Y-1.817 Z6.539 A46.1981 B14.3863 
N1488 X168.697 Y-2.164 Z6.400 A45.6884 B14.4577 
N1489 X168.686 Y-2.516 Z6.261 A45.0608 B14.5340 
N1490 X168.674 Y-2.870 Z6.124 A44.3154 B14.6151 
N1491 X168.663 Y-3.227 Z5.990 A43.4576 B14.7005 
N1492 X168.652 Y-3.585 Z5.860 A42.4951 B14.7896 
N1493 X168.641 Y-3.945 Z5.735 A41.4351 B14.8819 
N1494 X168.630 Y-4.306 Z5.615 A40.2845 B14.9769 
N1495 X168.620 Y-4.668 Z5.503 A39.0491 B15.0740 
N1496 X168.610 Y-5.031 Z5.398 A37.7364 B15.1729 
N1497 X168.601 Y-5.393 Z5.300 A36.3570 B15.2728 
N1498 X168.592 Y-5.756 Z5.211 A34.9241 B15.3730 
N1499 X168.583 Y-6.119 Z5.132 A33.4524 B15.4729 
N1500 X168.575 Y-6.481 Z5.061 A31.9544 B15.5719 
N1501 X168.568 Y-6.843 Z5.000 A30.4404 B15.6694 
N1502 X168.561 Y-7.205 Z4.949 A28.9179 B15.7651 
N1503 X168.554 Y-7.567 Z4.907 A27.3932 B15.8588 
N1504 X168.548 Y-7.928 Z4.875 A25.8721 B15.9503 
N1505 X168.543 Y-8.290 Z4.853 A24.3601 B16.0394 
N1506 X168.538 Y-8.652 Z4.841 A22.8629 B16.1260 
N1507 X168.534 Y-9.014 Z4.838 A21.3859 B16.2098 
N1508 X168.530 Y-9.377 Z4.845 A19.9337 B16.2909 
N1509 X168.527 Y-9.740 Z4.862 A18.5104 B16.3693 
N1510 X168.524 Y-10.104 Z4.888 A17.1198 B16.4449 
N1511 X168.522 Y-10.468 Z4.924 A15.7653 B16.5177 
N1512 X168.520 Y-10.833 Z4.969 A14.4505 B16.5878 
N1513 X168.520 Y-11.198 Z5.023 A13.1787 B16.6553 
N1514 X168.520 Y-11.563 Z5.086 A11.9535 B16.7202 
N1515 X168.520 Y-11.928 Z5.158 A10.7772 B16.7826 
N1516 X168.521 Y-12.292 Z5.238 A9.6513 B16.8427 
N1517 X168.523 Y-12.656 Z5.327 A8.5760 B16.9005 
N1518 X168.525 Y-13.018 Z5.422 A7.5507 B16.9561 
N1519 X168.528 Y-13.379 Z5.525 A6.5744 B17.0097 
N1520 X168.532 Y-13.737 Z5.634 A5.6465 B17.0614 
N1521 X168.536 Y-14.092 Z5.750 A4.7662 B17.1112 
N1522 X168.541 Y-14.442 Z5.870 A3.9323 B17.1590 
N1523 X168.546 Y-14.788 Z5.994 A3.1428 B17.2051 
N1524 X168.552 Y-15.127 Z6.122 A2.3947 B17.2493 
N1525 X168.558 Y-15.460 Z6.253 A1.6847 B17.2917 
N1526 X168.564 Y-15.784 Z6.385 A1.0145 B17.3322 
N1527 X168.571 Y-16.099 Z6.518 A0.3919 B17.3708 
N1528 X168.578 Y-16.403 Z6.651 A359.8256 B17.4077 
N1529 X168.586 Y-16.695 Z6.783 A359.3217 B17.4429 
N1530 X168.592 Y-16.975 Z6.913 A358.8804 B17.4836 
N1531 X168.591 Y-17.242 Z7.039 A358.4919 B17.5232 
N1532 X168.584 Y-17.496 Z7.162 A358.1450 B17.5607 
N1533 X168.571 Y-17.736 Z7.280 A357.8284 B17.5961 
N1534 X168.553 Y-17.964 Z7.394 A357.5326 B17.6292 
N1535 X168.530 Y-18.178 Z7.502 A357.2516 B17.6601 
N1536 X168.503 Y-18.380 Z7.605 A356.9826 B17.6887 
N1537 X168.474 Y-18.569 Z7.702 A356.7188 B17.7150 
N1538 X168.441 Y-18.747 Z7.794 A356.4630 B17.7393 
N1539 X168.407 Y-18.899 Z7.880 A356.5763 B17.7677 
N1540 X168.372 Y-18.971 Z7.954 A358.5679 B17.8245 
N1541 X168.339 Y-18.993 Z8.020 A1.7153 B17.8886 
N1542 X168.309 Y-19.005 Z8.081 A5.0285 B17.9398 
N1543 X168.284 Y-19.015 Z8.139 A8.2918 B17.9749 
N1544 X168.263 Y-19.025 Z8.194 A11.4566 B17.9946 
N1545 X168.247 Y-19.036 Z8.247 A14.5159 B17.9998 
N1546 X168.236 Y-19.048 Z8.297 A17.4755 B17.9918 
N1547 X168.228 Y-19.062 Z8.344 A20.3471 B17.9716 
N1548 X168.225 Y-19.078 Z8.390 A23.1438 B17.9401 
N1549 X168.225 Y-19.095 Z8.434 A25.8788 B17.8978 
N1550 X168.229 Y-19.114 Z8.476 A28.5642 B17.8453 
N1551 X168.236 Y-19.134 Z8.517 A31.2101 B17.7828 
N1552 X168.248 Y-19.156 Z8.556 A33.8249 B17.7105 
N1553 X168.262 Y-19.180 Z8.594 A36.4163 B17.6287 
N1554 X168.279 Y-19.205 Z8.631 A38.9903 B17.5374 
N1555 X168.299 Y-19.231 Z8.666 A41.5518 B17.4367 
N1556 X168.322 Y-19.260 Z8.700 A44.1045 B17.3269 
N1557 X168.346 Y-19.289 Z8.733 A46.6504 B17.2080 
N1558 X168.372 Y-19.320 Z8.764 A49.1907 B17.0802 
N1559 X168.399 Y-19.353 Z8.794 A51.7259 B16.9438 
N1560 X168.427 Y-19.387 Z8.822 A54.2559 B16.7989 
N1561 X168.456 Y-19.422 Z8.849 A56.7804 B16.6460 
N1562 X168.486 Y-19.458 Z8.874 A59.2989 B16.4853 
N1563 X168.515 Y-19.495 Z8.897 A61.8110 B16.3174 
N1564 X168.543 Y-19.534 Z8.918 A64.3164 B16.1426 
N1565 X168.571 Y-19.573 Z8.938 A66.8149 B15.9612 
N1566 X168.598 Y-19.613 Z8.955 A69.3065 B15.7739 
N1567 X168.622 Y-19.654 Z8.971 A71.7906 B15.5811 
N1568 X168.645 Y-19.695 Z8.985 A74.2664 B15.3832 
N1569 X168.666 Y-19.737 Z8.997 A76.7336 B15.1809 
N1570 X168.685 Y-19.779 Z9.008 A79.1930 B14.9746 
N1571 X168.701 Y-19.821 Z9.016 A81.6469 B14.7646 
N1572 X168.714 Y-19.864 Z9.023 A84.0967 B14.5513 
N1573 X168.722 Y-19.907 Z9.027 A86.5427 B14.3352 
N1574 X168.727 Y-19.950 Z9.030 A88.9846 B14.1170 
N1575 X168.730 Y-19.993 Z9.031 A91.4253 B13.9044 
N1576 X168.731 Y-20.036 Z9.030 A93.8642 B13.6763 
N1577 X168.732 Y-20.080 Z9.027 A96.3079 B13.4528 
N1578 X168.729 Y-20.123 Z9.022 A98.7569 B13.2293 
N1579 X168.725 Y-20.166 Z9.016 A101.2109 B13.0056 
N1580 X168.716 Y-20.208 Z9.008 A103.6692 B12.7823 
N1581 X168.705 Y-20.251 Z8.998 A106.1321 B12.5600 
N1582 X168.691 Y-20.293 Z8.986 A108.6007 B12.3391 
N1583 X168.675 Y-20.334 Z8.972 A111.0761 B12.1202 
N1584 X168.656 Y-20.375 Z8.957 A113.5596 B11.9037 
N1585 X168.636 Y-20.416 Z8.940 A116.0523 B11.6901 
N1586 X168.614 Y-20.455 Z8.921 A118.5557 B11.4799 
N1587 X168.591 Y-20.495 Z8.900 A121.0720 B11.2734 
N1588 X168.567 Y-20.533 Z8.878 A123.6037 B11.0711 
N1589 X168.542 Y-20.571 Z8.854 A126.1549 B10.8733 
N1590 X168.518 Y-20.608 Z8.828 A128.7309 B10.6802 
N1591 X168.493 Y-20.644 Z8.800 A131.3399 B10.4920 
N1592 X168.468 Y-20.679 Z8.769 A133.9931 B10.3086 
N1593 X168.444 Y-20.714 Z8.737 A136.7055 B10.1299 
N1594 X168.421 Y-20.748 Z8.701 A139.4952 B9.9560 
N1595 X168.400 Y-20.781 Z8.663 A142.3837 B9.7868 
N1596 X168.381 Y-20.813 Z8.621 A145.3944 B9.6229 
N1597 X168.366 Y-20.844 Z8.574 A148.5514 B9.4650 
N1598 X168.355 Y-20.873 Z8.522 A151.8733 B9.3150 
N1599 X168.348 Y-20.898 Z8.464 A155.3616 B9.1757 
N1600 X168.344 Y-20.917 Z8.398 A158.9734 B9.0520 
N1601 X168.350 Y-20.918 Z8.320 A162.4661 B8.9540 
N1602 X169.542 Y-23.966 Z-1.129 
N1603 G00 X174.312 Y-36.160 Z-38.925 
RAPORT("T13732","Flank Milling Transition:138 End")
N1605 ;trailer : concat=None
; points cnt = 1525
N1606 MSG (" --- GROUPED OF SUBPROGRAM --- ")
VELOLIM[A]=100 ;ODWOLANIE VELOLIM
N1607 FGROUP()
N1608 TRAFOOF
N10 ; PROGRAM NAME: 1373233
N11 ; ORDER       : 13732
N12 ; OPER. NAME  : Flank Milling Transition:139
N13 ; OPER. DESCR.: finish flank shroud
N14 ; OPER. TYPE  : preFinFlank
N15 ; GEO. OPTION : 2
N16 ; MACHINE     : SH_HX151_24_SIM840D
N17 ;             : STARRAG_HECKERT_5axis_finish_milling_machine
N18 ; CONTROL     : SINUMERIK 840D
N19 ; created:   2021-11-09 15:29:08.529108
;-------DODATKOWE DANE-------------------
; PROGRAMISTA : Mariusz Orzechowski
; PARTID      : 132T008743P1005_-
;  dec_value  : 0.725
;  lean_angle : 10.0
;  tilt_angle : 0.0
;  airf_offset: 0.05
;  firstoffset: 3.0
;----------------------------------------
N20 ;----------------------------------------
RAPORT("T13732","Flank Milling Transition:139")
N21 TRAFOOF
N22 D0
N23 G0 G90 G94 Z260.0
N24 STOPRE
N25 M9 ; chlodziwo wyl
N26 ; --- Flank Milling Transition:139 - finish flank shroud ---
N28 ;ToolChange : concat=None ,current_tdmid=None, PP.tdmId=959059
N29 TRAFOOF
N30 D0
N31 G0 G54 Z270.0
N32 S5624 M03
N33 STOPRE
N34 TOL(0.001,1,1)
N35 G0  A128.2253
N36 TRAORI
N37 G54 D4
N38 D4 
N39 TRANS  X=R8 A=R25
STOPRE
E_ZDARZ=300018
;ACS_FINISH_UBG_PLATFORM_XLB_SHROUD=7759059
STOPRE
N40 ; DELTA A > 40.1
N41 TRAFOOF
N42 STOPRE
N43 G0 G53 D0 Z265.000
N44 G1 G53 A128.2253 F10000
N45 TRAORI
N46 G54 D4
N47 TRANS  X=R8 A=R25
N48 G00 X189.285 Y-58.295 Z-36.248 A128.2253 B-14.1803 
N49 M342 ; chlodziwo woda
N50 X198.668 Y-19.254 Z-6.453 
N51 G01 X198.723 Y-17.547 Z-3.832 F337 
N52 X198.884 Y-16.728 Z-0.816 
N53 X199.133 Y-16.880 Z2.299 
N54 X199.448 Y-17.986 Z5.208 
N55 M342 ; chlodziwo woda
N56 X199.797 Y-19.939 Z7.628 
N57 X199.810 Y-19.984 Z7.652 A124.5923 B-13.9095 
N58 X199.815 Y-20.016 Z7.665 A120.8371 B-13.6210 
N59 X199.812 Y-20.041 Z7.675 A117.2146 B-13.3358 
N60 X199.802 Y-20.063 Z7.683 A113.7752 B-13.0598 
N61 X199.787 Y-20.082 Z7.691 A110.5163 B-12.7946 
N62 X199.770 Y-20.099 Z7.698 A107.4184 B-12.5402 
N63 X199.750 Y-20.114 Z7.705 A104.4572 B-12.2958 
N64 X199.727 Y-20.128 Z7.711 A101.6084 B-12.0601 
N65 X199.704 Y-20.141 Z7.718 A98.8491 B-11.8321 
N66 X199.679 Y-20.154 Z7.724 A96.1593 B-11.6108 
N67 X199.653 Y-20.165 Z7.731 A93.5225 B-11.3953 
N68 X199.628 Y-20.176 Z7.737 A90.9255 B-11.1850 
N69 X199.602 Y-20.187 Z7.744 A88.3583 B-10.9797 
N70 X199.576 Y-20.198 Z7.750 A85.8135 B-10.7792 
N71 X199.551 Y-20.208 Z7.757 A83.2855 B-10.5834 
N72 X199.526 Y-20.218 Z7.763 A80.7702 B-10.3927 
N73 X199.503 Y-20.228 Z7.770 A78.2642 B-10.2070 
N74 X199.481 Y-20.237 Z7.777 A75.7649 B-10.0268 
N75 X199.461 Y-20.247 Z7.784 A73.2704 B-9.8523 
N76 X199.443 Y-20.256 Z7.791 A70.7791 B-9.6839 
N77 X199.428 Y-20.266 Z7.798 A68.2902 B-9.5220 
N78 X199.416 Y-20.275 Z7.806 A65.8029 B-9.3669 
N79 X199.407 Y-20.284 Z7.813 A63.3174 B-9.2191 
N80 X199.401 Y-20.294 Z7.821 A60.8340 B-9.0791 
N81 X199.397 Y-20.303 Z7.829 A58.3527 B-8.9472 
N82 X199.396 Y-20.312 Z7.838 A55.8724 B-8.8238 
N83 X199.395 Y-20.321 Z7.846 A53.3917 B-8.7022 
N84 X199.397 Y-20.330 Z7.855 A50.9101 B-8.6037 
N85 X199.398 Y-20.340 Z7.865 A48.4251 B-8.5075 
N86 X199.401 Y-20.349 Z7.874 A45.9362 B-8.4211 
N87 X199.405 Y-20.358 Z7.884 A43.4441 B-8.3446 
N88 X199.412 Y-20.367 Z7.895 A40.9505 B-8.2783 
N89 X199.423 Y-20.376 Z7.906 A38.4585 B-8.2225 
N90 X199.436 Y-20.386 Z7.918 A35.9690 B-8.1773 
N91 X199.452 Y-20.394 Z7.929 A33.4817 B-8.1428 
N92 X199.469 Y-20.403 Z7.941 A30.9957 B-8.1190 
N93 X199.488 Y-20.411 Z7.954 A28.5110 B-8.1058 
N94 X199.508 Y-20.419 Z7.967 A26.0281 B-8.1033 
N95 X199.529 Y-20.427 Z7.981 A23.5479 B-8.1113 
N96 X199.550 Y-20.435 Z7.996 A21.0709 B-8.1297 
N97 X199.572 Y-20.442 Z8.011 A18.5971 B-8.1584 
N98 X199.593 Y-20.449 Z8.026 A16.1260 B-8.1971 
N99 X199.614 Y-20.455 Z8.042 A13.6572 B-8.2458 
N100 X199.635 Y-20.461 Z8.059 A11.1900 B-8.3042 
N101 X199.654 Y-20.466 Z8.076 A8.7231 B-8.3721 
N102 X199.671 Y-20.470 Z8.094 A6.2549 B-8.4493 
N103 X199.687 Y-20.474 Z8.112 A3.7826 B-8.5357 
N104 X199.701 Y-20.477 Z8.131 A1.3028 B-8.6311 
N105 X199.712 Y-20.479 Z8.151 A358.8105 B-8.7356 
N106 X199.722 Y-20.480 Z8.171 A356.2997 B-8.8493 
N107 X199.728 Y-20.480 Z8.191 A353.7624 B-8.9722 
N108 X199.732 Y-20.479 Z8.212 A351.1894 B-9.1049 
N109 X199.733 Y-20.476 Z8.234 A348.5699 B-9.2478 
N110 X199.730 Y-20.471 Z8.257 A345.8911 B-9.4015 
N111 X199.725 Y-20.465 Z8.280 A343.1396 B-9.5668 
N112 X199.716 Y-20.457 Z8.303 A340.3010 B-9.7447 
N113 X199.703 Y-20.446 Z8.328 A337.3621 B-9.9360 
N114 X199.686 Y-20.431 Z8.352 A334.3132 B-10.1412 
N115 X199.666 Y-20.412 Z8.376 A331.1564 B-10.3602 
N116 X199.641 Y-20.385 Z8.398 A327.9266 B-10.5902 
N117 X199.613 Y-20.346 Z8.412 A324.7838 B-10.8191 
N118 X199.579 Y-20.267 Z8.397 A322.5297 B-10.9876 
N119 X199.540 Y-20.117 Z8.320 A322.2305 B-11.0167 
N120 X199.503 Y-19.940 Z8.221 A322.4695 B-11.0081 
N121 X199.467 Y-19.749 Z8.115 A322.7262 B-10.9993 
N122 X199.435 Y-19.544 Z8.003 A322.9874 B-10.9914 
N123 X199.407 Y-19.326 Z7.885 A323.2607 B-10.9837 
N124 X199.383 Y-19.095 Z7.761 A323.5492 B-10.9763 
N125 X199.364 Y-18.849 Z7.632 A323.8586 B-10.9688 
N126 X199.351 Y-18.589 Z7.497 A324.1990 B-10.9608 
N127 X199.339 Y-18.317 Z7.357 A324.5818 B-10.9515 
N128 X199.326 Y-18.031 Z7.213 A325.0185 B-10.9396 
N129 X199.313 Y-17.733 Z7.065 A325.5177 B-10.9254 
N130 X199.301 Y-17.423 Z6.914 A326.0794 B-10.9093 
N131 X199.288 Y-17.103 Z6.763 A326.6965 B-10.8919 
N132 X199.276 Y-16.775 Z6.611 A327.3596 B-10.8740 
N133 X199.264 Y-16.438 Z6.461 A328.0612 B-10.8559 
N134 X199.252 Y-16.096 Z6.313 A328.8004 B-10.8380 
N135 X199.241 Y-15.748 Z6.168 A329.5805 B-10.8200 
N136 X199.230 Y-15.396 Z6.027 A330.4043 B-10.8021 
N137 X199.219 Y-15.040 Z5.890 A331.2734 B-10.7842 
N138 X199.209 Y-14.682 Z5.758 A332.1889 B-10.7664 
N139 X199.200 Y-14.322 Z5.632 A333.1516 B-10.7487 
N140 X199.191 Y-13.960 Z5.513 A334.1620 B-10.7313 
N141 X199.183 Y-13.598 Z5.400 A335.2210 B-10.7143 
N142 X199.176 Y-13.235 Z5.293 A336.3294 B-10.6978 
N143 X199.169 Y-12.871 Z5.195 A337.4866 B-10.6820 
N144 X199.162 Y-12.507 Z5.104 A338.6912 B-10.6670 
N145 X199.156 Y-12.143 Z5.021 A339.9405 B-10.6530 
N146 X199.151 Y-11.779 Z4.946 A341.2313 B-10.6405 
N147 X199.146 Y-11.416 Z4.880 A342.5603 B-10.6294 
N148 X199.142 Y-11.052 Z4.822 A343.9239 B-10.6201 
N149 X199.139 Y-10.689 Z4.774 A345.3189 B-10.6128 
N150 X199.135 Y-10.325 Z4.734 A346.7417 B-10.6077 
N151 X199.133 Y-9.961 Z4.703 A348.1882 B-10.6049 
N152 X199.131 Y-9.597 Z4.682 A349.6541 B-10.6046 
N153 X199.129 Y-9.233 Z4.671 A351.1344 B-10.6070 
N154 X199.127 Y-8.868 Z4.668 A352.6240 B-10.6122 
N155 X199.127 Y-8.502 Z4.676 A354.1180 B-10.6203 
N156 X199.127 Y-8.135 Z4.693 A355.6113 B-10.6313 
N157 X199.128 Y-7.767 Z4.720 A357.0986 B-10.6455 
N158 X199.128 Y-7.398 Z4.758 A358.5730 B-10.6627 
N159 X199.129 Y-7.027 Z4.805 A0.0256 B-10.6831 
N160 X199.131 Y-6.655 Z4.862 A1.4447 B-10.7066 
N161 X199.132 Y-6.282 Z4.930 A2.8165 B-10.7332 
N162 X199.135 Y-5.908 Z5.007 A4.1281 B-10.7627 
N163 X199.138 Y-5.534 Z5.094 A5.3690 B-10.7949 
N164 X199.141 Y-5.160 Z5.190 A6.5310 B-10.8297 
N165 X199.144 Y-4.785 Z5.294 A7.6074 B-10.8666 
N166 X199.148 Y-4.411 Z5.406 A8.5905 B-10.9053 
N167 X199.152 Y-4.038 Z5.525 A9.4712 B-10.9455 
N168 X199.157 Y-3.667 Z5.651 A10.2397 B-10.9869 
N169 X199.161 Y-3.299 Z5.781 A10.8887 B-11.0290 
N170 X199.166 Y-2.934 Z5.916 A11.4160 B-11.0714 
N171 X199.171 Y-2.573 Z6.053 A11.8246 B-11.1138 
N172 X199.176 Y-2.217 Z6.191 A12.1215 B-11.1559 
N173 X199.181 Y-1.866 Z6.330 A12.3151 B-11.1975 
N174 X199.187 Y-1.520 Z6.468 A12.4136 B-11.2386 
N175 X199.185 Y-1.178 Z6.605 A12.3994 B-11.0636 
N176 X199.179 Y-0.812 Z6.752 A12.1877 B-10.6273 
N177 X199.179 Y-0.453 Z6.895 A11.9132 B-10.1907 
N178 X199.181 Y-0.103 Z7.033 A11.5760 B-9.6900 
N179 X199.187 Y0.238 Z7.166 A11.1784 B-9.1870 
N180 X199.200 Y0.569 Z7.293 A10.7114 B-8.6787 
N181 X199.220 Y0.889 Z7.413 A10.1647 B-8.1623 
N182 X199.246 Y1.196 Z7.525 A9.5277 B-7.6345 
N183 X199.277 Y1.491 Z7.628 A8.7936 B-7.0919 
N184 X199.313 Y1.772 Z7.722 A7.9655 B-6.5324 
N185 X199.352 Y2.040 Z7.807 A7.0507 B-5.9555 
N186 X199.392 Y2.296 Z7.882 A6.0533 B-5.3606 
N187 X199.432 Y2.538 Z7.948 A4.9721 B-4.7467 
N188 X199.472 Y2.766 Z8.004 A3.7921 B-4.1105 
N189 X199.509 Y2.979 Z8.050 A2.5086 B-3.4509 
N190 X199.544 Y3.179 Z8.088 A1.1469 B-2.7735 
N191 X199.576 Y3.367 Z8.118 A359.7352 B-2.0851 
N192 X199.604 Y3.541 Z8.139 A358.2624 B-1.3853 
N193 X199.627 Y3.700 Z8.153 A356.6886 B-0.6675 
N194 X199.645 Y3.844 Z8.160 A354.9939 B0.0699 
N195 X199.657 Y3.971 Z8.160 A353.1850 B0.8232 
N196 X199.664 Y4.083 Z8.156 A351.2714 B1.5869 
N197 X199.664 Y4.181 Z8.148 A349.2596 B2.3554 
N198 X199.659 Y4.264 Z8.137 A347.1587 B3.1223 
N199 X199.649 Y4.334 Z8.125 A344.9863 B3.8788 
N200 X199.635 Y4.393 Z8.112 A342.7629 B4.6160 
N201 X199.617 Y4.442 Z8.099 A340.5033 B5.3260 
N202 X199.595 Y4.482 Z8.086 A338.2228 B6.0021 
N203 X199.572 Y4.515 Z8.075 A335.9292 B6.6392 
N204 X199.548 Y4.541 Z8.066 A333.6245 B7.2333 
N205 X199.523 Y4.562 Z8.058 A331.3095 B7.7812 
N206 X199.498 Y4.579 Z8.052 A328.9847 B8.2802 
N207 X199.475 Y4.592 Z8.048 A326.6505 B8.7279 
N208 X199.453 Y4.602 Z8.046 A324.3067 B9.1221 
N209 X199.434 Y4.609 Z8.046 A321.9530 B9.4608 
N210 X199.418 Y4.615 Z8.048 A319.5886 B9.7428 
N211 X199.405 Y4.619 Z8.052 A317.2123 B9.9621 
N212 X199.397 Y4.622 Z8.058 A314.8235 B10.1177 
N213 X199.392 Y4.625 Z8.065 A312.4223 B10.2120 
N214 X199.391 Y4.628 Z8.074 A310.0080 B10.2467 
N215 X199.392 Y4.631 Z8.083 A307.5801 B10.2225 
N216 X199.395 Y4.635 Z8.094 A305.1381 B10.1393 
N217 X199.400 Y4.640 Z8.105 A302.6816 B9.9962 
N218 X199.405 Y4.646 Z8.115 A300.2109 B9.7921 
N219 X199.412 Y4.654 Z8.125 A297.7264 B9.5249 
N220 X199.420 Y4.664 Z8.134 A295.2290 B9.1922 
N221 X199.429 Y4.677 Z8.140 A292.7204 B8.8007 
N222 X199.437 Y4.693 Z8.144 A290.2028 B8.4273 
N223 X199.446 Y4.711 Z8.145 A287.6787 B8.0069 
N224 X199.454 Y4.732 Z8.140 A285.1538 B7.5413 
N225 X199.463 Y4.756 Z8.130 A282.6379 B7.0335 
N226 X199.471 Y4.783 Z8.111 A280.1460 B6.4884 
N227 X199.478 Y4.812 Z8.082 A277.7005 B5.9132 
N228 X199.484 Y4.843 Z8.041 A275.3305 B5.3181 
N229 X199.487 Y4.874 Z7.986 A273.0658 B4.7145 
N230 X199.487 Y4.905 Z7.913 A270.9333 B4.1146 
N231 X199.484 Y4.934 Z7.823 A268.9545 B3.5293 
N232 X199.477 Y4.958 Z7.714 A267.1344 B2.9659 
N233 X199.467 Y4.978 Z7.587 A265.4524 B2.4241 
N234 X199.453 Y4.992 Z7.445 A263.8551 B1.8940 
N235 X199.438 Y4.999 Z7.292 A262.2420 B1.3523 
N236 X199.422 Y5.001 Z7.135 A260.4278 B0.7525 
N237 X199.409 Y5.001 Z6.987 A258.1337 B0.0213 
N238 X199.401 Y5.003 Z6.857 A255.1040 B-0.9099 
N239 X199.398 Y5.014 Z6.750 A251.2219 B-2.0707 
N240 X199.401 Y5.040 Z6.659 A246.5484 B-3.4257 
N241 X199.405 Y5.083 Z6.575 A241.3174 B-4.8455 
N242 X199.403 Y5.139 Z6.481 A235.8922 B-6.0517 
N243 X199.416 Y5.194 Z6.355 A230.9026 B-7.7539 
N244 X199.426 Y5.235 Z6.190 A226.6729 B-9.3300 
N245 X199.416 Y5.247 Z5.988 A223.3238 B-10.2496 
N246 X199.396 Y5.228 Z5.755 A220.8621 B-10.7520 
N247 X199.371 Y5.181 Z5.499 A219.0620 B-11.0174 
N248 X199.343 Y5.117 Z5.232 A217.6051 B-11.1604 
N249 X199.316 Y5.043 Z4.962 A216.2279 B-11.2384 
N250 X199.291 Y4.964 Z4.691 A214.7896 B-11.2697 
N251 X199.267 Y4.882 Z4.422 A213.2596 B-11.2557 
N252 X199.245 Y4.795 Z4.154 A211.6742 B-11.2372 
N253 X199.227 Y4.702 Z3.887 A210.0879 B-11.2301 
N254 X199.213 Y4.600 Z3.619 A208.5625 B-11.2353 
N255 X199.203 Y4.488 Z3.352 A207.1650 B-11.2535 
N256 X199.196 Y4.364 Z3.083 A205.9537 B-11.2864 
N257 X199.193 Y4.232 Z2.827 A204.9983 B-11.3339 
N258 X199.191 Y4.097 Z2.587 A204.2953 B-11.3771 
N259 X199.189 Y3.951 Z2.349 A203.7452 B-11.4139 
N260 X199.186 Y3.798 Z2.114 A203.2846 B-11.4474 
N261 X199.183 Y3.639 Z1.884 A202.8585 B-11.4800 
N262 X199.180 Y3.476 Z1.659 A202.4309 B-11.5133 
N263 X199.177 Y3.310 Z1.441 A201.9839 B-11.5480 
N264 X199.174 Y3.141 Z1.229 A201.5106 B-11.5846 
N265 X199.171 Y2.970 Z1.024 A201.0096 B-11.6229 
N266 X199.168 Y2.796 Z0.825 A200.4813 B-11.6629 
N267 X199.165 Y2.619 Z0.633 A199.9267 B-11.7046 
N268 X199.162 Y2.440 Z0.448 A199.3468 B-11.7479 
N269 X199.158 Y2.258 Z0.270 A198.7427 B-11.7928 
N270 X199.155 Y2.075 Z0.099 A198.1158 B-11.8391 
N271 X199.151 Y1.889 Z-0.065 A197.4678 B-11.8867 
N272 X199.148 Y1.700 Z-0.222 A196.8001 B-11.9356 
N273 X199.144 Y1.510 Z-0.372 A196.1147 B-11.9857 
N274 X199.140 Y1.317 Z-0.515 A195.4134 B-12.0368 
N275 X199.137 Y1.122 Z-0.651 A194.6979 B-12.0890 
N276 X199.133 Y0.925 Z-0.781 A193.9697 B-12.1420 
N277 X199.129 Y0.725 Z-0.903 A193.2299 B-12.1960 
N278 X199.125 Y0.523 Z-1.019 A192.4773 B-12.2507 
N279 X199.121 Y0.318 Z-1.128 A191.7058 B-12.3066 
N280 X199.117 Y0.113 Z-1.229 A190.8999 B-12.3641 
N281 X199.113 Y-0.093 Z-1.324 A190.0310 B-12.4243 
N282 X199.109 Y-0.298 Z-1.412 A189.0601 B-12.4886 
N283 X199.105 Y-0.500 Z-1.492 A187.9497 B-12.5581 
N284 X199.102 Y-0.698 Z-1.565 A186.6806 B-12.6336 
N285 X199.098 Y-0.894 Z-1.632 A185.2625 B-12.7142 
N286 X199.095 Y-1.088 Z-1.693 A183.7299 B-12.7987 
N287 X199.091 Y-1.281 Z-1.748 A182.1265 B-12.8852 
N288 X199.088 Y-1.477 Z-1.797 A180.4901 B-12.9722 
N289 X199.084 Y-1.675 Z-1.841 A178.8459 B-13.0586 
N290 X199.081 Y-1.876 Z-1.880 A177.2075 B-13.1438 
N291 X199.077 Y-2.081 Z-1.913 A175.5816 B-13.2275 
N292 X199.074 Y-2.290 Z-1.940 A173.9718 B-13.3094 
N293 X199.070 Y-2.502 Z-1.961 A172.3801 B-13.3893 
N294 X199.066 Y-2.719 Z-1.976 A170.8086 B-13.4672 
N295 X199.063 Y-2.940 Z-1.985 A169.2589 B-13.5428 
N296 X199.059 Y-3.164 Z-1.987 A167.7326 B-13.6160 
N297 X199.056 Y-3.394 Z-1.983 A166.2311 B-13.6867 
N298 X199.052 Y-3.627 Z-1.973 A164.7561 B-13.7548 
N299 X199.049 Y-3.865 Z-1.955 A163.3091 B-13.8201 
N300 X199.045 Y-4.107 Z-1.931 A161.8915 B-13.8827 
N301 X199.042 Y-4.354 Z-1.899 A160.5045 B-13.9424 
N302 X199.038 Y-4.605 Z-1.860 A159.1491 B-13.9991 
N303 X199.035 Y-4.860 Z-1.814 A157.8259 B-14.0529 
N304 X199.032 Y-5.120 Z-1.761 A156.5353 B-14.1037 
N305 X199.029 Y-5.384 Z-1.700 A155.2775 B-14.1515 
N306 X199.027 Y-5.652 Z-1.631 A154.0527 B-14.1963 
N307 X199.024 Y-5.924 Z-1.554 A152.8602 B-14.2381 
N308 X199.022 Y-6.200 Z-1.470 A151.6993 B-14.2770 
N309 X199.020 Y-6.480 Z-1.378 A150.5695 B-14.3130 
N310 X199.018 Y-6.764 Z-1.278 A149.4719 B-14.3496 
N311 X199.017 Y-7.052 Z-1.170 A148.4072 B-14.3832 
N312 X199.016 Y-7.343 Z-1.055 A147.3780 B-14.4132 
N313 X199.015 Y-7.639 Z-0.931 A146.3875 B-14.4397 
N314 X199.015 Y-7.938 Z-0.799 A145.4380 B-14.4629 
N315 X199.016 Y-8.240 Z-0.659 A144.5305 B-14.4830 
N316 X199.016 Y-8.546 Z-0.511 A143.6643 B-14.5003 
N317 X199.016 Y-8.856 Z-0.356 A142.8370 B-14.5148 
N318 X199.017 Y-9.169 Z-0.192 A142.0459 B-14.5268 
N319 X199.019 Y-9.485 Z-0.022 A141.2890 B-14.5365 
N320 X199.021 Y-9.803 Z0.156 A140.5646 B-14.5440 
N321 X199.024 Y-10.125 Z0.340 A139.8721 B-14.5493 
N322 X199.027 Y-10.448 Z0.532 A139.2108 B-14.5528 
N323 X199.031 Y-10.774 Z0.730 A138.5801 B-14.5545 
N324 X199.036 Y-11.102 Z0.934 A137.9795 B-14.5545 
N325 X199.041 Y-11.432 Z1.144 A137.4085 B-14.5531 
N326 X199.047 Y-11.763 Z1.360 A136.8662 B-14.5503 
N327 X199.053 Y-12.096 Z1.581 A136.3523 B-14.5462 
N328 X199.060 Y-12.429 Z1.808 A135.8660 B-14.5411 
N329 X199.068 Y-12.764 Z2.039 A135.4069 B-14.5350 
N330 X199.076 Y-13.098 Z2.274 A134.9752 B-14.5280 
N331 X199.085 Y-13.434 Z2.514 A134.5714 B-14.5205 
N332 X199.094 Y-13.769 Z2.757 A134.1960 B-14.5124 
N333 X199.104 Y-14.104 Z3.003 A133.8487 B-14.5040 
N334 X199.115 Y-14.438 Z3.251 A133.5278 B-14.4954 
N335 X199.130 Y-14.771 Z3.502 A133.2303 B-14.4866 
N336 X199.148 Y-15.103 Z3.754 A132.9533 B-14.4775 
N337 X199.170 Y-15.432 Z4.007 A132.6950 B-14.4684 
N338 X199.195 Y-15.759 Z4.260 A132.4547 B-14.4591 
N339 X199.223 Y-16.082 Z4.512 A132.2324 B-14.4498 
N340 X199.253 Y-16.400 Z4.763 A132.0284 B-14.4407 
N341 X199.285 Y-16.714 Z5.012 A131.8427 B-14.4318 
N342 X199.320 Y-17.021 Z5.257 A131.6754 B-14.4234 
N343 X199.356 Y-17.321 Z5.497 A131.5270 B-14.4154 
N344 X199.394 Y-17.613 Z5.732 A131.3979 B-14.4081 
N345 X199.434 Y-17.895 Z5.960 A131.2872 B-14.4015 
N346 X199.474 Y-18.166 Z6.180 A131.1929 B-14.3955 
N347 X199.514 Y-18.425 Z6.391 A131.1118 B-14.3902 
N348 X199.554 Y-18.671 Z6.592 A131.0410 B-14.3853 
N349 X199.594 Y-18.904 Z6.783 A130.9778 B-14.3807 
N350 X199.632 Y-19.123 Z6.962 A130.9209 B-14.3765 
N351 X199.670 Y-19.327 Z7.130 A130.8703 B-14.3726 
N352 X199.706 Y-19.517 Z7.286 A130.8271 B-14.3691 
N353 X199.741 Y-19.693 Z7.431 A130.7834 B-14.3656 
N354 X199.773 Y-19.848 Z7.559 A130.4700 B-14.3429 
N355 X199.797 Y-19.939 Z7.628 A128.2253 B-14.1803 
N356 X197.921 Y-27.747 Z1.669 
N357 G00 X193.229 Y-47.268 Z-13.229 
N358 X190.009 Y-58.269 Z-36.274 
N359 X199.392 Y-19.228 Z-6.479 
N360 G01 X199.447 Y-17.520 Z-3.858 F337 
N361 X199.608 Y-16.702 Z-0.843 
N362 X199.858 Y-16.853 Z2.272 
N363 X200.172 Y-17.960 Z5.182 
N364 M342 ; chlodziwo woda
N365 X200.521 Y-19.913 Z7.601 
N366 X200.534 Y-19.959 Z7.622 A124.5923 B-13.9095 
N367 X200.539 Y-19.992 Z7.633 A120.8371 B-13.6210 
N368 X200.536 Y-20.019 Z7.640 A117.2146 B-13.3358 
N369 X200.525 Y-20.042 Z7.647 A113.7752 B-13.0598 
N370 X200.511 Y-20.063 Z7.653 A110.5163 B-12.7946 
N371 X200.493 Y-20.081 Z7.658 A107.4184 B-12.5402 
N372 X200.473 Y-20.099 Z7.664 A104.4572 B-12.2958 
N373 X200.451 Y-20.115 Z7.670 A101.6084 B-12.0601 
N374 X200.427 Y-20.130 Z7.676 A98.8491 B-11.8321 
N375 X200.402 Y-20.144 Z7.682 A96.1593 B-11.6108 
N376 X200.377 Y-20.158 Z7.688 A93.5225 B-11.3953 
N377 X200.351 Y-20.171 Z7.694 A90.9255 B-11.1850 
N378 X200.325 Y-20.184 Z7.701 A88.3583 B-10.9797 
N379 X200.300 Y-20.196 Z7.707 A85.8135 B-10.7792 
N380 X200.275 Y-20.208 Z7.714 A83.2855 B-10.5834 
N381 X200.250 Y-20.220 Z7.722 A80.7702 B-10.3927 
N382 X200.227 Y-20.231 Z7.729 A78.2642 B-10.2070 
N383 X200.205 Y-20.243 Z7.737 A75.7649 B-10.0268 
N384 X200.185 Y-20.254 Z7.745 A73.2704 B-9.8523 
N385 X200.168 Y-20.265 Z7.754 A70.7791 B-9.6839 
N386 X200.153 Y-20.275 Z7.762 A68.2902 B-9.5220 
N387 X200.141 Y-20.286 Z7.771 A65.8029 B-9.3669 
N388 X200.132 Y-20.296 Z7.781 A63.3174 B-9.2191 
N389 X200.126 Y-20.306 Z7.790 A60.8340 B-9.0791 
N390 X200.123 Y-20.316 Z7.800 A58.3527 B-8.9472 
N391 X200.121 Y-20.326 Z7.811 A55.8724 B-8.8238 
N392 X200.121 Y-20.335 Z7.821 A53.3917 B-8.7022 
N393 X200.122 Y-20.345 Z7.832 A50.9101 B-8.6037 
N394 X200.124 Y-20.354 Z7.843 A48.4251 B-8.5075 
N395 X200.127 Y-20.363 Z7.855 A45.9362 B-8.4211 
N396 X200.131 Y-20.373 Z7.868 A43.4441 B-8.3446 
N397 X200.138 Y-20.381 Z7.880 A40.9505 B-8.2783 
N398 X200.149 Y-20.389 Z7.893 A38.4585 B-8.2225 
N399 X200.162 Y-20.397 Z7.906 A35.9690 B-8.1773 
N400 X200.178 Y-20.405 Z7.919 A33.4817 B-8.1428 
N401 X200.196 Y-20.412 Z7.933 A30.9957 B-8.1190 
N402 X200.214 Y-20.420 Z7.948 A28.5110 B-8.1058 
N403 X200.234 Y-20.426 Z7.962 A26.0281 B-8.1033 
N404 X200.255 Y-20.433 Z7.978 A23.5479 B-8.1113 
N405 X200.277 Y-20.438 Z7.993 A21.0709 B-8.1297 
N406 X200.298 Y-20.444 Z8.009 A18.5971 B-8.1584 
N407 X200.320 Y-20.449 Z8.026 A16.1260 B-8.1971 
N408 X200.341 Y-20.453 Z8.043 A13.6572 B-8.2458 
N409 X200.361 Y-20.457 Z8.060 A11.1900 B-8.3042 
N410 X200.380 Y-20.460 Z8.078 A8.7231 B-8.3721 
N411 X200.398 Y-20.463 Z8.096 A6.2549 B-8.4493 
N412 X200.413 Y-20.464 Z8.115 A3.7826 B-8.5357 
N413 X200.427 Y-20.465 Z8.134 A1.3028 B-8.6311 
N414 X200.439 Y-20.465 Z8.153 A358.8105 B-8.7356 
N415 X200.448 Y-20.464 Z8.173 A356.2997 B-8.8493 
N416 X200.454 Y-20.462 Z8.193 A353.7624 B-8.9722 
N417 X200.458 Y-20.459 Z8.214 A351.1894 B-9.1049 
N418 X200.459 Y-20.455 Z8.235 A348.5699 B-9.2478 
N419 X200.456 Y-20.449 Z8.255 A345.8911 B-9.4015 
N420 X200.450 Y-20.441 Z8.277 A343.1396 B-9.5668 
N421 X200.441 Y-20.431 Z8.300 A340.3010 B-9.7447 
N422 X200.428 Y-20.418 Z8.322 A337.3621 B-9.9360 
N423 X200.412 Y-20.402 Z8.345 A334.3132 B-10.1412 
N424 X200.391 Y-20.382 Z8.367 A331.1564 B-10.3602 
N425 X200.366 Y-20.354 Z8.386 A327.9266 B-10.5902 
N426 X200.338 Y-20.314 Z8.398 A324.7838 B-10.8191 
N427 X200.303 Y-20.236 Z8.381 A322.5297 B-10.9876 
N428 X200.265 Y-20.087 Z8.303 A322.2305 B-11.0167 
N429 X200.227 Y-19.909 Z8.204 A322.4695 B-11.0081 
N430 X200.192 Y-19.719 Z8.099 A322.7262 B-10.9993 
N431 X200.160 Y-19.515 Z7.988 A322.9874 B-10.9914 
N432 X200.132 Y-19.298 Z7.870 A323.2607 B-10.9837 
N433 X200.108 Y-19.066 Z7.747 A323.5492 B-10.9763 
N434 X200.089 Y-18.821 Z7.618 A323.8586 B-10.9688 
N435 X200.076 Y-18.562 Z7.483 A324.1990 B-10.9608 
N436 X200.064 Y-18.290 Z7.344 A324.5818 B-10.9515 
N437 X200.051 Y-18.005 Z7.200 A325.0185 B-10.9396 
N438 X200.038 Y-17.708 Z7.053 A325.5177 B-10.9254 
N439 X200.026 Y-17.399 Z6.903 A326.0794 B-10.9093 
N440 X200.013 Y-17.080 Z6.752 A326.6965 B-10.8919 
N441 X200.001 Y-16.752 Z6.601 A327.3596 B-10.8740 
N442 X199.989 Y-16.416 Z6.452 A328.0612 B-10.8559 
N443 X199.977 Y-16.074 Z6.304 A328.8004 B-10.8380 
N444 X199.966 Y-15.727 Z6.160 A329.5805 B-10.8200 
N445 X199.955 Y-15.376 Z6.019 A330.4043 B-10.8021 
N446 X199.944 Y-15.022 Z5.883 A331.2734 B-10.7842 
N447 X199.935 Y-14.664 Z5.752 A332.1889 B-10.7664 
N448 X199.925 Y-14.305 Z5.627 A333.1516 B-10.7487 
N449 X199.917 Y-13.944 Z5.508 A334.1620 B-10.7313 
N450 X199.909 Y-13.583 Z5.395 A335.2210 B-10.7143 
N451 X199.901 Y-13.220 Z5.290 A336.3294 B-10.6978 
N452 X199.894 Y-12.858 Z5.192 A337.4866 B-10.6820 
N453 X199.888 Y-12.495 Z5.101 A338.6912 B-10.6670 
N454 X199.882 Y-12.132 Z5.019 A339.9405 B-10.6530 
N455 X199.877 Y-11.769 Z4.944 A341.2313 B-10.6405 
N456 X199.872 Y-11.406 Z4.879 A342.5603 B-10.6294 
N457 X199.868 Y-11.044 Z4.821 A343.9239 B-10.6201 
N458 X199.864 Y-10.681 Z4.773 A345.3189 B-10.6128 
N459 X199.861 Y-10.318 Z4.734 A346.7417 B-10.6077 
N460 X199.858 Y-9.956 Z4.703 A348.1882 B-10.6049 
N461 X199.856 Y-9.593 Z4.682 A349.6541 B-10.6046 
N462 X199.855 Y-9.229 Z4.671 A351.1344 B-10.6070 
N463 X199.852 Y-8.865 Z4.668 A352.6240 B-10.6122 
N464 X199.852 Y-8.500 Z4.676 A354.1180 B-10.6203 
N465 X199.853 Y-8.134 Z4.693 A355.6113 B-10.6313 
N466 X199.853 Y-7.767 Z4.720 A357.0986 B-10.6455 
N467 X199.854 Y-7.399 Z4.757 A358.5730 B-10.6627 
N468 X199.854 Y-7.029 Z4.805 A0.0256 B-10.6831 
N469 X199.857 Y-6.657 Z4.862 A1.4447 B-10.7066 
N470 X199.858 Y-6.285 Z4.929 A2.8165 B-10.7332 
N471 X199.860 Y-5.912 Z5.006 A4.1281 B-10.7627 
N472 X199.863 Y-5.538 Z5.093 A5.3690 B-10.7949 
N473 X199.866 Y-5.164 Z5.188 A6.5310 B-10.8297 
N474 X199.870 Y-4.790 Z5.292 A7.6074 B-10.8666 
N475 X199.873 Y-4.417 Z5.404 A8.5905 B-10.9053 
N476 X199.878 Y-4.044 Z5.523 A9.4712 B-10.9455 
N477 X199.882 Y-3.673 Z5.649 A10.2397 B-10.9869 
N478 X199.887 Y-3.305 Z5.779 A10.8887 B-11.0290 
N479 X199.891 Y-2.941 Z5.913 A11.4160 B-11.0714 
N480 X199.896 Y-2.580 Z6.050 A11.8246 B-11.1138 
N481 X199.901 Y-2.224 Z6.188 A12.1215 B-11.1559 
N482 X199.907 Y-1.873 Z6.327 A12.3151 B-11.1975 
N483 X199.912 Y-1.527 Z6.466 A12.4136 B-11.2386 
N484 X199.911 Y-1.186 Z6.602 A12.3994 B-11.0636 
N485 X199.904 Y-0.829 Z6.745 A12.1877 B-10.6273 
N486 X199.903 Y-0.479 Z6.884 A11.9132 B-10.1907 
N487 X199.905 Y-0.138 Z7.019 A11.5760 B-9.6900 
N488 X199.911 Y0.195 Z7.150 A11.1784 B-9.1870 
N489 X199.923 Y0.518 Z7.274 A10.7114 B-8.6787 
N490 X199.943 Y0.829 Z7.392 A10.1647 B-8.1623 
N491 X199.968 Y1.128 Z7.502 A9.5277 B-7.6345 
N492 X199.999 Y1.415 Z7.603 A8.7936 B-7.0919 
N493 X200.034 Y1.689 Z7.696 A7.9655 B-6.5324 
