N10 ; PROGRAM NAME: 1373236
N11 ; ORDER       : 13732
N12 ; OPER. NAME  : Side Milling:132
N13 ; OPER. DESCR.: Side Milling/rowek zgr
N14 ; OPER. TYPE  : sideMill
N15 ; GEO. OPTION : 1
N16 ; MACHINE     : SH_HX151_24_SIM840D
N17 ;             : STARRAG_HECKERT_5axis_finish_milling_machine
N18 ; CONTROL     : SINUMERIK 840D
N19 ; created:   2021-11-09 15:27:59.296586
;-------DODATKOWE DANE-------------------
; PROGRAMISTA : Mariusz Orzechowski
; PARTID      : 132T008743P1005_-
;  ap         : 2.5
;  ae         : 5.0
;  lean_angle : 0.0
;  fin_offset : 0.3
;----------------------------------------
N20 ;----------------------------------------
RAPORT("T13732","Side Milling:132")
N21 TRAFOOF
N22 D0
N23 G90 G94
N24 STOPRE
N25 M9 ; chlodziwo wyl
N26 ; --- Side Milling:132 - Side Milling/rowek zgr ---
N28 ;ToolChange : concat=None ,current_tdmid=None, PP.tdmId=959056
N29 MSG(" TLID=959056 D=6.0 R=0.6 Ang=0.0 Len=100.0 ")
N30 TRAFOOF
N31 D0
N32 G0 G53 Z290 B0
N33 G0 X200
N34 G0 Y150
N35 T="7759056"
N36 G0 X500
RAPORT("T13732","ToolChangeStart 7759056")
N37 M6
RAPORT("T13732","ToolChangeEnd")
N38 ; (Preloading tool)
N39 T="7759057"
N40 G0 X200
N41 STOPRE
N42 S3713 M03
N43 STOPRE
N44 TOL(0.1,1,1)
N45 G0 X148.084 A311.0000
N46 TRAORI
N47 G54 D1
N48 ;tol5=0.15
STOPRE
E_ZDARZ=500002
;ACS_ROUGH_SLOT=7759056
STOPRE
;UWAGA : ZMIENIONA TOLERANCJA OSI A i B, ruchy osi A i B beda usuniete : TOL5=0.15
N49 ; DELTA A > 40.1
N50 TRAFOOF
N51 STOPRE
N52 G0 G53 D0 Z265.000
N53 G1 G53 A311.0000 F10000
N54 TRAORI
N55 G54 D1
N56 TRANS 
N57 G00 X148.084 Y34.370 Z50.566 A311.0000 B0.0000 
N58 M342 ; chlodziwo woda
N59 X148.084 Y-3.366 Z17.763 
N60 ;on NNTE
N61 D1 
N62 G01 X148.073 Y-2.710 Z17.008 F148
N63 G01 X148.073 Y-2.710 Z17.008 F148 
N64 X148.072 Y-2.677 Z16.971 
N65 X148.072 Y-2.645 Z16.934 
N66 X148.071 Y-2.613 Z16.897 
N67 X148.070 Y-2.581 Z16.860 
N68 X148.070 Y-2.548 Z16.823 
N69 X148.069 Y-2.516 Z16.786 
N70 X148.069 Y-2.484 Z16.749 
N71 X148.068 Y-2.452 Z16.712 
N72 X148.068 Y-2.419 Z16.674 
N73 X148.067 Y-2.387 Z16.637 
N74 X148.066 Y-2.355 Z16.600 
N75 X148.066 Y-2.323 Z16.563 
N76 X148.065 Y-2.290 Z16.526 
N77 X148.065 Y-2.258 Z16.489 
N78 X148.064 Y-2.226 Z16.452 
N79 X148.063 Y-2.194 Z16.415 
N80 X148.063 Y-2.161 Z16.378 
N81 X148.062 Y-2.129 Z16.340 
N82 X148.062 Y-2.097 Z16.303 
N83 X148.061 Y-2.064 Z16.266 
N84 X148.061 Y-2.032 Z16.229 
N85 X148.060 Y-2.000 Z16.192 
N86 X148.059 Y-1.968 Z16.155 
N87 X148.059 Y-1.935 Z16.118 
N88 X148.058 Y-1.903 Z16.081 
N89 X148.058 Y-1.871 Z16.044 
N90 X148.057 Y-1.839 Z16.006 
N91 X148.057 Y-1.806 Z15.969 
N92 X148.056 Y-1.774 Z15.932 
N93 X148.055 Y-1.742 Z15.895 
N94 X148.055 Y-1.710 Z15.858 
N95 X148.054 Y-1.677 Z15.821 
N96 X148.054 Y-1.645 Z15.784 
N97 X148.053 Y-1.613 Z15.747 
N98 X148.052 Y-1.581 Z15.709 
N99 X148.052 Y-1.548 Z15.672 
N100 X148.051 Y-1.516 Z15.635 
N101 X148.051 Y-1.484 Z15.598 
N102 X148.050 Y-1.451 Z15.561 
N103 X148.050 Y-1.419 Z15.524 
N104 X148.049 Y-1.387 Z15.487 
N105 X148.048 Y-1.355 Z15.450 
N106 X148.048 Y-1.322 Z15.413 
N107 X148.047 Y-1.290 Z15.375 
N108 X148.047 Y-1.258 Z15.338 
N109 X148.046 Y-1.226 Z15.301 
N110 X148.046 Y-1.193 Z15.264 
N111 X148.045 Y-1.161 Z15.227 
N112 X148.044 Y-1.129 Z15.190 
N113 X148.044 Y-1.097 Z15.153 
N114 X148.043 Y-1.064 Z15.116 
N115 X148.043 Y-1.032 Z15.079 
N116 X148.042 Y-1.000 Z15.041 
N117 X148.042 Y-0.968 Z15.004 
N118 X148.041 Y-0.935 Z14.967 
N119 X148.040 Y-0.903 Z14.930 
N120 X148.040 Y-0.871 Z14.893 
N121 X148.039 Y-0.838 Z14.856 
N122 X148.039 Y-0.806 Z14.819 
N123 X148.038 Y-0.774 Z14.782 
N124 X148.037 Y-0.742 Z14.745 
N125 X148.037 Y-0.709 Z14.707 
N126 X148.036 Y-0.677 Z14.670 
N127 X148.036 Y-0.645 Z14.633 
N128 X148.035 Y-0.613 Z14.596 
N129 X148.035 Y-0.580 Z14.559 
N130 X148.034 Y-0.548 Z14.522 
N131 X148.033 Y-0.516 Z14.485 
N132 X148.033 Y-0.484 Z14.448 
N133 X148.032 Y-0.451 Z14.410 
N134 X148.032 Y-0.419 Z14.373 
N135 X148.031 Y-0.387 Z14.336 
N136 X148.031 Y-0.355 Z14.299 
N137 X148.030 Y-0.322 Z14.262 
N138 X148.029 Y-0.290 Z14.225 
N139 X148.029 Y-0.258 Z14.188 
N140 X148.028 Y-0.225 Z14.151 
N141 X148.028 Y-0.193 Z14.114 
N142 X148.027 Y-0.161 Z14.076 
N143 X148.026 Y-0.129 Z14.039 
N144 X148.026 Y-0.096 Z14.002 
N145 X148.025 Y-0.064 Z13.965 
N146 X148.025 Y-0.032 Z13.928 
N147 X148.024 Y0.000 Z13.891 
N148 X148.024 Y0.033 Z13.854 
N149 X148.023 Y0.065 Z13.817 
N150 X148.022 Y0.097 Z13.780 
N151 X148.022 Y0.129 Z13.742 
N152 X148.021 Y0.162 Z13.705 
N153 X148.021 Y0.194 Z13.668 
N154 X148.020 Y0.226 Z13.631 
N155 X148.020 Y0.258 Z13.594 
N156 X148.019 Y0.291 Z13.557 
N157 X148.018 Y0.323 Z13.520 
N158 X148.018 Y0.355 Z13.483 
N159 X148.017 Y0.388 Z13.446 
N160 X148.017 Y0.420 Z13.408 
N161 X148.016 Y0.452 Z13.371 
N162 X148.016 Y0.484 Z13.334 
N163 X148.015 Y0.517 Z13.297 
N164 X148.014 Y0.549 Z13.260 
N165 X148.014 Y0.581 Z13.223 
N166 X148.013 Y0.613 Z13.186 
N167 X148.013 Y0.646 Z13.149 
N168 X148.012 Y0.678 Z13.111 
N169 X148.011 Y0.710 Z13.074 
N170 X148.011 Y0.742 Z13.037 
N171 X148.010 Y0.775 Z13.000 
N172 X148.010 Y0.807 Z12.963 
N173 X148.009 Y0.839 Z12.926 
N174 X148.009 Y0.871 Z12.889 
N175 X148.008 Y0.904 Z12.852 
N176 X148.007 Y0.936 Z12.815 
N177 X148.007 Y0.968 Z12.777 
N178 X148.006 Y1.001 Z12.740 
N179 X148.006 Y1.033 Z12.703 
N180 X148.005 Y1.065 Z12.666 
N181 X148.005 Y1.097 Z12.629 
N182 X148.004 Y1.130 Z12.592 
N183 X148.003 Y1.162 Z12.555 
N184 X148.003 Y1.194 Z12.518 
N185 X148.002 Y1.226 Z12.481 
N186 X148.002 Y1.259 Z12.443 
N187 X148.001 Y1.291 Z12.406 
N188 X148.000 Y1.323 Z12.369 
N189 X148.000 Y1.356 Z12.332 
N190 X147.999 Y1.388 Z12.294 
N191 X147.999 Y1.421 Z12.257 
N192 X147.998 Y1.453 Z12.220 
N193 X147.998 Y1.485 Z12.183 
N194 X147.997 Y1.518 Z12.146 
N195 X147.996 Y1.550 Z12.108 
N196 X147.996 Y1.582 Z12.071 
N197 X147.995 Y1.615 Z12.034 
N198 X147.995 Y1.647 Z11.997 
N199 X147.994 Y1.679 Z11.959 
N200 X147.994 Y1.712 Z11.922 
N201 X147.993 Y1.744 Z11.885 
N202 X147.992 Y1.776 Z11.848 
N203 X147.992 Y1.809 Z11.810 
N204 X147.991 Y1.841 Z11.773 
N205 X147.991 Y1.874 Z11.736 
N206 X147.990 Y1.906 Z11.699 
N207 X147.989 Y1.938 Z11.662 
N208 X147.989 Y1.971 Z11.624 
N209 X147.988 Y2.003 Z11.587 
N210 X147.988 Y2.035 Z11.550 
N211 X147.987 Y2.068 Z11.513 
N212 X147.987 Y2.100 Z11.475 
N213 X147.986 Y2.132 Z11.438 
N214 X147.985 Y2.165 Z11.401 
N215 X147.985 Y2.197 Z11.364 
N216 X147.984 Y2.230 Z11.327 
N217 X147.984 Y2.262 Z11.289 
N218 X147.983 Y2.294 Z11.252 
N219 X147.983 Y2.327 Z11.215 
N220 X147.982 Y2.359 Z11.178 
N221 X147.981 Y2.391 Z11.140 
N222 X147.981 Y2.424 Z11.103 
N223 X147.980 Y2.456 Z11.066 
N224 X147.980 Y2.488 Z11.029 
N225 X147.979 Y2.521 Z10.992 
N226 X147.978 Y2.553 Z10.954 
N227 X147.978 Y2.585 Z10.917 
N228 X147.977 Y2.618 Z10.880 
N229 X147.977 Y2.650 Z10.843 
N230 X147.976 Y2.683 Z10.805 
N231 X147.976 Y2.715 Z10.768 
N232 X147.975 Y2.747 Z10.731 
N233 X147.974 Y2.780 Z10.694 
N234 X147.974 Y2.812 Z10.656 
N235 X147.973 Y2.844 Z10.619 
N236 X147.973 Y2.877 Z10.582 
N237 X147.972 Y2.909 Z10.545 
N238 X147.971 Y2.941 Z10.508 
N239 X147.971 Y2.974 Z10.470 
N240 X147.970 Y3.006 Z10.433 
N241 X147.970 Y3.039 Z10.396 
N242 X147.969 Y3.071 Z10.359 
N243 X147.969 Y3.103 Z10.321 
N244 X147.968 Y3.136 Z10.284 
N245 X147.967 Y3.168 Z10.247 
N246 X147.967 Y3.200 Z10.210 
N247 X147.966 Y3.233 Z10.173 
N248 X147.966 Y3.265 Z10.135 
N249 X147.965 Y3.297 Z10.098 
N250 X147.965 Y3.330 Z10.061 
N251 X147.964 Y3.362 Z10.024 
N252 X147.963 Y3.394 Z9.986 
N253 X147.963 Y3.427 Z9.949 
N254 X147.962 Y3.459 Z9.912 
N255 X147.962 Y3.492 Z9.875 
N256 X147.961 Y3.524 Z9.837 
N257 X147.960 Y3.556 Z9.800 
N258 X147.960 Y3.589 Z9.763 
N259 X147.959 Y3.621 Z9.726 
N260 X147.959 Y3.653 Z9.689 
N261 X147.958 Y3.686 Z9.651 
N262 X147.958 Y3.718 Z9.614 
N263 X147.957 Y3.750 Z9.577 
N264 X147.957 Y3.783 Z9.540 
N265 X147.957 Y3.815 Z9.502 
N266 X147.957 Y3.848 Z9.465 
N267 X147.957 Y3.880 Z9.428 
N268 X147.957 Y3.912 Z9.391 
N269 X147.957 Y3.945 Z9.354 
N270 X147.957 Y3.977 Z9.316 
N271 X147.957 Y4.009 Z9.279 
N272 X147.957 Y4.042 Z9.242 
N273 X147.957 Y4.074 Z9.205 
N274 X147.957 Y4.106 Z9.167 
N275 X147.957 Y4.139 Z9.130 
N276 X147.957 Y4.171 Z9.093 
N277 X147.957 Y4.204 Z9.056 
N278 X147.957 Y4.236 Z9.018 
N279 X147.957 Y4.268 Z8.981 
N280 X147.957 Y4.301 Z8.944 
N281 X147.957 Y4.333 Z8.907 
N282 X147.957 Y4.365 Z8.870 
N283 X147.957 Y4.398 Z8.832 
N284 X147.957 Y4.430 Z8.795 
N285 X147.957 Y4.462 Z8.758 
N286 X147.957 Y4.495 Z8.721 
N287 X147.957 Y4.527 Z8.683 
N288 X147.957 Y4.559 Z8.646 
N289 X147.957 Y4.592 Z8.609 
N290 X147.957 Y4.624 Z8.572 
N291 X147.957 Y4.657 Z8.535 
N292 X147.957 Y4.689 Z8.497 
N293 X147.957 Y4.721 Z8.460 
N294 X147.957 Y4.754 Z8.423 
N295 X147.957 Y4.786 Z8.386 
N296 X147.957 Y4.818 Z8.348 
N297 X147.957 Y4.851 Z8.311 
N298 X147.957 Y4.883 Z8.274 
N299 X147.957 Y4.915 Z8.237 
N300 X147.957 Y4.948 Z8.199 
N301 X147.957 Y4.980 Z8.162 
N302 X147.957 Y5.013 Z8.125 
N303 X147.957 Y5.045 Z8.088 
N304 X147.957 Y5.077 Z8.051 
N305 X147.957 Y5.110 Z8.013 
N306 X147.957 Y5.142 Z7.976 
N307 X147.957 Y5.174 Z7.939 
N308 X147.957 Y5.207 Z7.902 
N309 X147.957 Y5.239 Z7.864 
N310 X147.957 Y5.271 Z7.827 
N311 X147.957 Y5.304 Z7.790 
N312 X147.957 Y5.336 Z7.753 
N313 X147.957 Y5.369 Z7.715 
N314 X147.957 Y5.401 Z7.678 
N315 X147.957 Y5.433 Z7.641 
N316 X147.957 Y5.466 Z7.604 
N317 X147.957 Y5.498 Z7.567 
N318 X147.957 Y5.530 Z7.529 
N319 X147.957 Y5.563 Z7.492 
N320 X147.957 Y5.595 Z7.455 
N321 X147.957 Y5.627 Z7.418 
N322 X147.957 Y5.660 Z7.380 
N323 X147.957 Y5.692 Z7.343 
N324 X147.957 Y5.725 Z7.306 
N325 X147.957 Y5.757 Z7.269 
N326 X147.957 Y5.789 Z7.232 
N327 X147.957 Y5.822 Z7.194 
N328 X147.957 Y5.854 Z7.157 
N329 X147.957 Y5.886 Z7.120 
N330 X147.957 Y5.919 Z7.083 
N331 X147.957 Y5.951 Z7.045 
N332 X147.957 Y5.983 Z7.008 
N333 X147.957 Y6.016 Z6.971 
N334 X147.957 Y6.048 Z6.934 
N335 X147.957 Y6.081 Z6.896 
N336 X147.957 Y6.113 Z6.859 
N337 X147.957 Y6.145 Z6.822 
N338 X147.957 Y6.178 Z6.785 
N339 X147.957 Y6.210 Z6.748 
N340 X147.957 Y6.242 Z6.710 
N341 X147.957 Y6.275 Z6.673 
N342 X147.957 Y6.307 Z6.636 
N343 X147.957 Y6.339 Z6.599 
N344 X147.957 Y6.372 Z6.561 
N345 X147.957 Y6.404 Z6.524 
N346 X147.957 Y6.437 Z6.487 
N347 X147.957 Y6.469 Z6.450 
N348 X147.957 Y6.501 Z6.412 
N349 X147.957 Y6.534 Z6.375 
N350 X147.957 Y6.566 Z6.338 
N351 X147.957 Y6.598 Z6.301 
N352 X147.957 Y6.631 Z6.264 
N353 X147.957 Y6.663 Z6.226 
N354 X147.958 Y6.695 Z6.189 
N355 X147.959 Y6.728 Z6.152 
N356 X147.959 Y6.760 Z6.115 
N357 X147.960 Y6.792 Z6.077 
N358 X147.961 Y6.825 Z6.040 
N359 X147.962 Y6.857 Z6.003 
N360 X147.963 Y6.890 Z5.966 
N361 X147.963 Y6.922 Z5.929 
N362 X147.964 Y6.954 Z5.891 
N363 X147.965 Y6.987 Z5.854 
N364 X147.966 Y7.019 Z5.817 
N365 X147.967 Y7.051 Z5.780 
N366 X147.967 Y7.084 Z5.742 
N367 X147.968 Y7.116 Z5.705 
N368 X147.969 Y7.148 Z5.668 
N369 X147.970 Y7.181 Z5.631 
N370 X147.970 Y7.213 Z5.594 
N371 X147.971 Y7.245 Z5.556 
N372 X147.972 Y7.278 Z5.519 
N373 X147.973 Y7.310 Z5.482 
N374 X147.974 Y7.343 Z5.445 
N375 X147.974 Y7.375 Z5.407 
N376 X147.975 Y7.407 Z5.370 
N377 X147.976 Y7.440 Z5.333 
N378 X147.977 Y7.472 Z5.296 
N379 X147.978 Y7.504 Z5.259 
N380 X147.978 Y7.537 Z5.221 
N381 X147.979 Y7.569 Z5.184 
N382 X147.980 Y7.601 Z5.147 
N383 X147.981 Y7.634 Z5.110 
N384 X147.982 Y7.666 Z5.072 
N385 X147.982 Y7.699 Z5.035 
N386 X147.983 Y7.731 Z4.998 
N387 X147.984 Y7.763 Z4.961 
N388 X147.985 Y7.796 Z4.924 
N389 X147.985 Y7.828 Z4.886 
N390 X147.986 Y7.860 Z4.849 
N391 X147.987 Y7.893 Z4.812 
N392 X147.988 Y7.925 Z4.775 
N393 X147.989 Y7.957 Z4.737 
N394 X147.989 Y7.990 Z4.700 
N395 X147.990 Y8.022 Z4.663 
N396 X147.991 Y8.054 Z4.626 
N397 X147.992 Y8.087 Z4.588 
N398 X147.993 Y8.119 Z4.551 
N399 X147.993 Y8.152 Z4.514 
N400 X147.994 Y8.184 Z4.477 
N401 X147.995 Y8.216 Z4.440 
N402 X147.996 Y8.249 Z4.402 
N403 X147.997 Y8.281 Z4.365 
N404 X147.997 Y8.313 Z4.328 
N405 X147.998 Y8.346 Z4.291 
N406 X147.999 Y8.378 Z4.253 
N407 X148.000 Y8.410 Z4.216 
N408 X148.000 Y8.443 Z4.179 
N409 X148.001 Y8.475 Z4.142 
N410 X148.002 Y8.507 Z4.105 
N411 X148.003 Y8.540 Z4.067 
N412 X148.004 Y8.572 Z4.030 
N413 X148.004 Y8.605 Z3.993 
N414 X148.005 Y8.637 Z3.956 
N415 X148.006 Y8.669 Z3.918 
N416 X148.007 Y8.702 Z3.881 
N417 X148.008 Y8.734 Z3.844 
N418 X148.008 Y8.766 Z3.807 
N419 X148.009 Y8.799 Z3.770 
N420 X148.010 Y8.831 Z3.732 
N421 X148.011 Y8.863 Z3.695 
N422 X148.011 Y8.896 Z3.658 
N423 X148.012 Y8.928 Z3.621 
N424 X148.013 Y8.960 Z3.583 
N425 X148.014 Y8.993 Z3.546 
N426 X148.015 Y9.025 Z3.509 
N427 X148.015 Y9.058 Z3.472 
N428 X148.016 Y9.090 Z3.435 
N429 X148.017 Y9.122 Z3.397 
N430 X148.018 Y9.155 Z3.360 
N431 X148.019 Y9.187 Z3.323 
N432 X148.019 Y9.219 Z3.286 
N433 X148.020 Y9.252 Z3.248 
N434 X148.021 Y9.284 Z3.211 
N435 X148.022 Y9.316 Z3.174 
N436 X148.023 Y9.349 Z3.137 
N437 X148.023 Y9.381 Z3.100 
N438 X148.024 Y9.413 Z3.062 
N439 X148.025 Y9.446 Z3.025 
N440 X148.026 Y9.478 Z2.988 
N441 X148.026 Y9.511 Z2.951 
N442 X148.027 Y9.543 Z2.913 
N443 X148.028 Y9.575 Z2.876 
N444 X148.029 Y9.608 Z2.839 
N445 X148.030 Y9.640 Z2.802 
N446 X148.030 Y9.672 Z2.765 
N447 X148.031 Y9.705 Z2.727 
N448 X148.032 Y9.737 Z2.690 
N449 X148.033 Y9.769 Z2.653 
N450 X148.034 Y9.802 Z2.616 
N451 X148.034 Y9.834 Z2.578 
N452 X148.035 Y9.867 Z2.541 
N453 X148.036 Y9.899 Z2.504 
N454 X148.037 Y9.931 Z2.467 
N455 X148.038 Y9.964 Z2.430 
N456 X148.038 Y9.996 Z2.392 
N457 X148.039 Y10.028 Z2.355 
N458 X148.040 Y10.061 Z2.318 
N459 X148.041 Y10.093 Z2.281 
N460 X148.041 Y10.125 Z2.243 
N461 X148.042 Y10.158 Z2.206 
N462 X148.043 Y10.190 Z2.169 
N463 X148.044 Y10.222 Z2.132 
N464 X148.045 Y10.255 Z2.094 
N465 X148.045 Y10.287 Z2.057 
N466 X148.046 Y10.320 Z2.020 
N467 X148.047 Y10.352 Z1.983 
N468 X148.048 Y10.384 Z1.946 
N469 X148.049 Y10.417 Z1.908 
N470 X148.049 Y10.449 Z1.871 
N471 X148.050 Y10.481 Z1.834 
N472 X148.051 Y10.514 Z1.797 
N473 X148.052 Y10.546 Z1.759 
N474 X148.053 Y10.578 Z1.722 
N475 X148.053 Y10.611 Z1.685 
N476 X148.054 Y10.643 Z1.648 
N477 X148.055 Y10.675 Z1.611 
N478 X148.056 Y10.708 Z1.573 
N479 X148.056 Y10.740 Z1.536 
N480 X148.057 Y10.773 Z1.499 
N481 X148.058 Y10.805 Z1.462 
N482 X148.059 Y10.837 Z1.424 
N483 X148.060 Y10.870 Z1.387 
N484 X148.060 Y10.902 Z1.350 
N485 X148.061 Y10.934 Z1.313 
N486 X148.062 Y10.967 Z1.276 
N487 X148.063 Y10.999 Z1.238 
N488 X148.064 Y11.031 Z1.201 
N489 X148.064 Y11.064 Z1.164 
N490 X148.065 Y11.096 Z1.127 
N491 X148.066 Y11.128 Z1.089 
N492 X148.067 Y11.161 Z1.052 
N493 X148.068 Y11.193 Z1.015 
N494 X148.069 Y11.226 Z0.978 
N495 X148.071 Y11.258 Z0.941 
N496 X148.072 Y11.290 Z0.903 
N497 X148.074 Y11.323 Z0.866 
N498 X148.076 Y11.355 Z0.829 
N499 X148.077 Y11.387 Z0.792 
N500 X148.079 Y11.420 Z0.755 
N501 X148.080 Y11.452 Z0.717 
N502 X148.082 Y11.484 Z0.680 
N503 X148.084 Y11.517 Z0.643 
N504 X148.085 Y11.549 Z0.606 
N505 X148.087 Y11.581 Z0.568 
N506 X148.088 Y11.614 Z0.531 
N507 X148.090 Y11.646 Z0.494 
N508 X148.092 Y11.678 Z0.457 
N509 X148.093 Y11.711 Z0.420 
N510 X148.095 Y11.743 Z0.382 
N511 X148.096 Y11.775 Z0.345 
N512 X148.098 Y11.808 Z0.308 
N513 X148.100 Y11.840 Z0.271 
N514 X148.101 Y11.872 Z0.234 
N515 X148.103 Y11.905 Z0.196 
N516 X148.104 Y11.937 Z0.159 
N517 X148.106 Y11.969 Z0.122 
N518 X148.108 Y12.002 Z0.085 
N519 X148.109 Y12.034 Z0.048 
N520 X148.111 Y12.067 Z0.010 
N521 X148.112 Y12.099 Z-0.027 
N522 X148.114 Y12.131 Z-0.064 
N523 X148.116 Y12.164 Z-0.101 
N524 X148.117 Y12.196 Z-0.138 
N525 X148.119 Y12.228 Z-0.176 
N526 X148.120 Y12.261 Z-0.213 
N527 X148.122 Y12.293 Z-0.250 
N528 X148.124 Y12.325 Z-0.287 
N529 X148.125 Y12.358 Z-0.325 
N530 X148.127 Y12.390 Z-0.362 
N531 X148.128 Y12.422 Z-0.399 
N532 X148.130 Y12.455 Z-0.436 
N533 X148.132 Y12.487 Z-0.473 
N534 X148.133 Y12.519 Z-0.511 
N535 X148.135 Y12.552 Z-0.548 
N536 X148.136 Y12.584 Z-0.585 
N537 X148.138 Y12.616 Z-0.622 
N538 X148.140 Y12.649 Z-0.659 
N539 X148.141 Y12.681 Z-0.697 
N540 X148.143 Y12.713 Z-0.734 
N541 X148.144 Y12.746 Z-0.771 
N542 X148.146 Y12.778 Z-0.808 
N543 X148.148 Y12.810 Z-0.845 
N544 X148.149 Y12.843 Z-0.883 
N545 X148.151 Y12.875 Z-0.920 
N546 X148.152 Y12.907 Z-0.957 
N547 X148.154 Y12.940 Z-0.994 
N548 X148.156 Y12.972 Z-1.031 
N549 X148.157 Y13.005 Z-1.069 
N550 X148.159 Y13.037 Z-1.106 
N551 X148.160 Y13.069 Z-1.143 
N552 X148.162 Y13.102 Z-1.180 
N553 X148.164 Y13.134 Z-1.218 
N554 X148.165 Y13.166 Z-1.255 
N555 X148.167 Y13.199 Z-1.292 
N556 X148.169 Y13.231 Z-1.329 
N557 X148.170 Y13.263 Z-1.366 
N558 X148.172 Y13.296 Z-1.404 
N559 X148.173 Y13.328 Z-1.441 
N560 X148.175 Y13.360 Z-1.478 
N561 X148.177 Y13.393 Z-1.515 
N562 X148.178 Y13.425 Z-1.552 
N563 X148.180 Y13.457 Z-1.590 
N564 X148.181 Y13.490 Z-1.627 
N565 X148.183 Y13.522 Z-1.664 
N566 X148.185 Y13.554 Z-1.701 
N567 X148.186 Y13.587 Z-1.738 
N568 X148.188 Y13.619 Z-1.776 
N569 X148.189 Y13.651 Z-1.813 
N570 X148.191 Y13.684 Z-1.850 
N571 X148.193 Y13.716 Z-1.887 
N572 X148.194 Y13.748 Z-1.925 
N573 X148.196 Y13.781 Z-1.962 
N574 X148.197 Y13.813 Z-1.999 
N575 X148.199 Y13.846 Z-2.036 
N576 X148.201 Y13.878 Z-2.073 
N577 X148.202 Y13.910 Z-2.111 
N578 X148.204 Y13.943 Z-2.148 
N579 X148.205 Y13.975 Z-2.185 
N580 X148.207 Y14.007 Z-2.222 
N581 X148.209 Y14.040 Z-2.259 
N582 X148.210 Y14.072 Z-2.297 
N583 X148.212 Y14.104 Z-2.334 
N584 X148.213 Y14.137 Z-2.371 
N585 X148.215 Y14.169 Z-2.408 
N586 X148.217 Y14.201 Z-2.445 
N587 X148.218 Y14.234 Z-2.483 
N588 X148.220 Y14.266 Z-2.520 
N589 X148.221 Y14.298 Z-2.557 
N590 X148.223 Y14.331 Z-2.594 
N591 X148.226 Y14.363 Z-2.631 
N592 X148.228 Y14.395 Z-2.669 
N593 X148.230 Y14.428 Z-2.706 
N594 X148.232 Y14.460 Z-2.743 
N595 X148.234 Y14.492 Z-2.780 
N596 X148.237 Y14.525 Z-2.817 
N597 X148.239 Y14.557 Z-2.855 
N598 X148.241 Y14.589 Z-2.892 
N599 X148.243 Y14.622 Z-2.929 
N600 X148.245 Y14.654 Z-2.966 
N601 X148.248 Y14.686 Z-3.003 
N602 X148.250 Y14.719 Z-3.041 
N603 X148.252 Y14.751 Z-3.078 
N604 X148.254 Y14.783 Z-3.115 
N605 X148.256 Y14.816 Z-3.152 
N606 X148.259 Y14.848 Z-3.189 
N607 X148.261 Y14.880 Z-3.227 
N608 X148.263 Y14.913 Z-3.264 
N609 X148.265 Y14.945 Z-3.301 
N610 X148.267 Y14.977 Z-3.338 
N611 X148.270 Y15.010 Z-3.375 
N612 X148.272 Y15.042 Z-3.412 
N613 X148.274 Y15.074 Z-3.450 
N614 X148.276 Y15.107 Z-3.487 
N615 X148.278 Y15.139 Z-3.524 
N616 X148.281 Y15.171 Z-3.561 
N617 X148.283 Y15.204 Z-3.598 
N618 X148.285 Y15.236 Z-3.636 
N619 X148.287 Y15.268 Z-3.673 
N620 X148.289 Y15.301 Z-3.710 
N621 X148.292 Y15.333 Z-3.747 
N622 X148.294 Y15.365 Z-3.784 
N623 X148.296 Y15.398 Z-3.822 
N624 X148.298 Y15.430 Z-3.859 
N625 X148.300 Y15.462 Z-3.896 
N626 X148.302 Y15.495 Z-3.933 
N627 X148.305 Y15.527 Z-3.970 
N628 X148.307 Y15.559 Z-4.008 
N629 X148.309 Y15.592 Z-4.045 
N630 X148.311 Y15.624 Z-4.082 
N631 X148.313 Y15.656 Z-4.119 
N632 X148.316 Y15.689 Z-4.156 
N633 X148.318 Y15.721 Z-4.193 
N634 X148.320 Y15.753 Z-4.231 
N635 X148.322 Y15.786 Z-4.268 
N636 X148.324 Y15.818 Z-4.305 
N637 X148.327 Y15.850 Z-4.342 
N638 X148.329 Y15.883 Z-4.379 
N639 X148.331 Y15.915 Z-4.417 
N640 X148.333 Y15.947 Z-4.454 
N641 X148.335 Y15.980 Z-4.491 
N642 X148.338 Y16.012 Z-4.528 
N643 X148.340 Y16.044 Z-4.565 
N644 X148.342 Y16.077 Z-4.603 
N645 X148.344 Y16.109 Z-4.640 
N646 X148.346 Y16.141 Z-4.677 
N647 X148.349 Y16.174 Z-4.714 
N648 X148.351 Y16.206 Z-4.751 
N649 X148.353 Y16.238 Z-4.789 
N650 X148.355 Y16.270 Z-4.826 
N651 X148.357 Y16.303 Z-4.863 
N652 X148.360 Y16.335 Z-4.900 
N653 X148.362 Y16.367 Z-4.937 
N654 X148.364 Y16.400 Z-4.975 
N655 X148.366 Y16.432 Z-5.012 
N656 X148.368 Y16.464 Z-5.049 
N657 X148.371 Y16.497 Z-5.086 
N658 X148.373 Y16.529 Z-5.123 
N659 X148.375 Y16.561 Z-5.160 
N660 X148.377 Y16.594 Z-5.198 
N661 X148.379 Y16.626 Z-5.235 
N662 X148.381 Y16.658 Z-5.272 
N663 X148.384 Y16.691 Z-5.309 
N664 X148.386 Y16.723 Z-5.346 
N665 X148.388 Y16.755 Z-5.384 
N666 X148.390 Y16.788 Z-5.421 
N667 X148.392 Y16.820 Z-5.458 
N668 X148.395 Y16.852 Z-5.495 
N669 X148.397 Y16.884 Z-5.532 
N670 X148.399 Y16.917 Z-5.569 
N671 X148.401 Y16.949 Z-5.606 
N672 X148.403 Y16.981 Z-5.643 
N673 X148.406 Y17.013 Z-5.680 
N674 X148.408 Y17.046 Z-5.717 
N675 X148.410 Y17.078 Z-5.754 
N676 X148.412 Y17.110 Z-5.792 
N677 X148.414 Y17.142 Z-5.829 
N678 X148.417 Y17.174 Z-5.866 
N679 X148.419 Y17.207 Z-5.903 
N680 X148.421 Y17.239 Z-5.940 
N681 X148.423 Y17.271 Z-5.977 
N682 X148.425 Y17.303 Z-6.014 
N683 X148.427 Y17.336 Z-6.051 
N684 X148.430 Y17.368 Z-6.088 
N685 X148.432 Y17.400 Z-6.125 
N686 X148.434 Y17.432 Z-6.162 
N687 X148.436 Y17.465 Z-6.199 
N688 X148.438 Y17.497 Z-6.236 
N689 X148.441 Y17.529 Z-6.274 
N690 X148.443 Y17.561 Z-6.311 
N691 X148.445 Y17.594 Z-6.348 
N692 X148.447 Y17.626 Z-6.385 
N693 X148.449 Y17.658 Z-6.422 
N694 X148.452 Y17.690 Z-6.459 
N695 X148.454 Y17.722 Z-6.496 
N696 X148.456 Y17.755 Z-6.533 
N697 X148.458 Y17.787 Z-6.570 
N698 X148.460 Y17.819 Z-6.607 
N699 X148.462 Y17.851 Z-6.644 
N700 X148.465 Y17.884 Z-6.681 
N701 X148.467 Y17.916 Z-6.719 
N702 X148.469 Y17.948 Z-6.756 
N703 X148.471 Y17.980 Z-6.793 
N704 X148.473 Y18.013 Z-6.830 
N705 X148.476 Y18.045 Z-6.867 
N706 X148.478 Y18.077 Z-6.904 
N707 X148.480 Y18.109 Z-6.941 
N708 X148.482 Y18.141 Z-6.978 
N709 X148.484 Y18.174 Z-7.015 
N710 X148.487 Y18.206 Z-7.052 
N711 X148.489 Y18.238 Z-7.089 
N712 X148.491 Y18.270 Z-7.126 
N713 X148.493 Y18.303 Z-7.163 
N714 X148.495 Y18.335 Z-7.201 
N715 X148.497 Y18.367 Z-7.238 
N716 X148.500 Y18.399 Z-7.275 
N717 X148.502 Y18.432 Z-7.312 
N718 X148.504 Y18.464 Z-7.349 
N719 X148.506 Y18.496 Z-7.386 
N720 X148.508 Y18.528 Z-7.423 
N721 X148.511 Y18.561 Z-7.460 
N722 X148.513 Y18.593 Z-7.497 
N723 X148.515 Y18.625 Z-7.534 
N724 X148.517 Y18.657 Z-7.571 
N725 X148.519 Y18.689 Z-7.608 
N726 X148.522 Y18.722 Z-7.646 
N727 G40 X148.966 Y25.276 Z-15.185 F148
N728 X148.966 Y25.276 Z-15.185 
N729 G00 X148.966 Y32.823 Z-8.625 
N730 X148.084 Y2.785 Z23.110 
N731 X148.084 Y-4.762 Z16.549 
N732 ;on NNTE
N733 D1 
N734 G01 G41 X148.073 Y-4.106 Z15.795 F148
N735 G01 X148.073 Y-4.106 Z15.795 F148 
N736 X148.072 Y-4.074 Z15.758 
N737 X148.072 Y-4.041 Z15.721 
N738 X148.071 Y-4.009 Z15.683 
N739 X148.070 Y-3.977 Z15.646 
N740 X148.070 Y-3.945 Z15.609 
N741 X148.069 Y-3.912 Z15.572 
N742 X148.069 Y-3.880 Z15.535 
N743 X148.068 Y-3.848 Z15.498 
N744 X148.068 Y-3.816 Z15.461 
N745 X148.067 Y-3.783 Z15.424 
N746 X148.066 Y-3.751 Z15.387 
N747 X148.066 Y-3.719 Z15.349 
N748 X148.065 Y-3.687 Z15.312 
N749 X148.065 Y-3.654 Z15.275 
N750 X148.064 Y-3.622 Z15.238 
N751 X148.063 Y-3.590 Z15.201 
N752 X148.063 Y-3.557 Z15.164 
N753 X148.062 Y-3.525 Z15.127 
N754 X148.062 Y-3.493 Z15.090 
N755 X148.061 Y-3.461 Z15.052 
N756 X148.061 Y-3.428 Z15.015 
N757 X148.060 Y-3.396 Z14.978 
N758 X148.059 Y-3.364 Z14.941 
N759 X148.059 Y-3.332 Z14.904 
N760 X148.058 Y-3.299 Z14.867 
N761 X148.058 Y-3.267 Z14.830 
N762 X148.057 Y-3.235 Z14.793 
N763 X148.057 Y-3.203 Z14.756 
N764 X148.056 Y-3.170 Z14.718 
N765 X148.055 Y-3.138 Z14.681 
N766 X148.055 Y-3.106 Z14.644 
N767 X148.054 Y-3.074 Z14.607 
N768 X148.054 Y-3.041 Z14.570 
N769 X148.053 Y-3.009 Z14.533 
N770 X148.052 Y-2.977 Z14.496 
N771 X148.052 Y-2.944 Z14.459 
N772 X148.051 Y-2.912 Z14.422 
N773 X148.051 Y-2.880 Z14.384 
N774 X148.050 Y-2.848 Z14.347 
N775 X148.050 Y-2.815 Z14.310 
N776 X148.049 Y-2.783 Z14.273 
N777 X148.048 Y-2.751 Z14.236 
N778 X148.048 Y-2.719 Z14.199 
N779 X148.047 Y-2.686 Z14.162 
N780 X148.047 Y-2.654 Z14.125 
N781 X148.046 Y-2.622 Z14.088 
N782 X148.046 Y-2.590 Z14.050 
N783 X148.045 Y-2.557 Z14.013 
N784 X148.044 Y-2.525 Z13.976 
N785 X148.044 Y-2.493 Z13.939 
N786 X148.043 Y-2.461 Z13.902 
N787 X148.043 Y-2.428 Z13.865 
N788 X148.042 Y-2.396 Z13.828 
N789 X148.042 Y-2.364 Z13.791 
N790 X148.041 Y-2.331 Z13.753 
N791 X148.040 Y-2.299 Z13.716 
N792 X148.040 Y-2.267 Z13.679 
N793 X148.039 Y-2.235 Z13.642 
N794 X148.039 Y-2.202 Z13.605 
N795 X148.038 Y-2.170 Z13.568 
N796 X148.037 Y-2.138 Z13.531 
N797 X148.037 Y-2.106 Z13.494 
N798 X148.036 Y-2.073 Z13.457 
N799 X148.036 Y-2.041 Z13.419 
N800 X148.035 Y-2.009 Z13.382 
N801 X148.035 Y-1.977 Z13.345 
N802 X148.034 Y-1.944 Z13.308 
N803 X148.033 Y-1.912 Z13.271 
N804 X148.033 Y-1.880 Z13.234 
N805 X148.032 Y-1.848 Z13.197 
N806 X148.032 Y-1.815 Z13.160 
N807 X148.031 Y-1.783 Z13.123 
N808 X148.031 Y-1.751 Z13.085 
N809 X148.030 Y-1.718 Z13.048 
N810 X148.029 Y-1.686 Z13.011 
N811 X148.029 Y-1.654 Z12.974 
N812 X148.028 Y-1.622 Z12.937 
N813 X148.028 Y-1.589 Z12.900 
N814 X148.027 Y-1.557 Z12.863 
N815 X148.026 Y-1.525 Z12.826 
N816 X148.026 Y-1.493 Z12.789 
N817 X148.025 Y-1.460 Z12.751 
N818 X148.025 Y-1.428 Z12.714 
N819 X148.024 Y-1.396 Z12.677 
N820 X148.024 Y-1.364 Z12.640 
N821 X148.023 Y-1.331 Z12.603 
N822 X148.022 Y-1.299 Z12.566 
N823 X148.022 Y-1.267 Z12.529 
N824 X148.021 Y-1.235 Z12.492 
N825 X148.021 Y-1.202 Z12.454 
N826 X148.020 Y-1.170 Z12.417 
N827 X148.020 Y-1.138 Z12.380 
N828 X148.019 Y-1.105 Z12.343 
N829 X148.018 Y-1.073 Z12.306 
N830 X148.018 Y-1.041 Z12.269 
N831 X148.017 Y-1.009 Z12.232 
N832 X148.017 Y-0.976 Z12.195 
N833 X148.016 Y-0.944 Z12.158 
N834 X148.016 Y-0.912 Z12.120 
N835 X148.015 Y-0.880 Z12.083 
N836 X148.014 Y-0.847 Z12.046 
N837 X148.014 Y-0.815 Z12.009 
N838 X148.013 Y-0.783 Z11.972 
N839 X148.013 Y-0.751 Z11.935 
N840 X148.012 Y-0.718 Z11.898 
N841 X148.011 Y-0.686 Z11.861 
N842 X148.011 Y-0.654 Z11.824 
N843 X148.010 Y-0.622 Z11.786 
N844 X148.010 Y-0.589 Z11.749 
N845 X148.009 Y-0.557 Z11.712 
N846 X148.009 Y-0.525 Z11.675 
N847 X148.008 Y-0.492 Z11.638 
N848 X148.007 Y-0.460 Z11.601 
N849 X148.007 Y-0.428 Z11.564 
N850 X148.006 Y-0.396 Z11.527 
N851 X148.006 Y-0.363 Z11.490 
N852 X148.005 Y-0.331 Z11.452 
N853 X148.005 Y-0.299 Z11.415 
N854 X148.004 Y-0.267 Z11.378 
N855 X148.003 Y-0.234 Z11.341 
N856 X148.003 Y-0.202 Z11.304 
N857 X148.002 Y-0.170 Z11.267 
N858 X148.002 Y-0.137 Z11.230 
N859 X148.001 Y-0.105 Z11.192 
N860 X148.000 Y-0.073 Z11.155 
N861 X148.000 Y-0.040 Z11.118 
N862 X147.999 Y-0.008 Z11.081 
N863 X147.999 Y0.024 Z11.043 
N864 X147.998 Y0.057 Z11.006 
N865 X147.998 Y0.089 Z10.969 
N866 X147.997 Y0.121 Z10.932 
N867 X147.996 Y0.154 Z10.895 
N868 X147.996 Y0.186 Z10.857 
N869 X147.995 Y0.218 Z10.820 
N870 X147.995 Y0.251 Z10.783 
N871 X147.994 Y0.283 Z10.746 
N872 X147.994 Y0.316 Z10.708 
N873 X147.993 Y0.348 Z10.671 
N874 X147.992 Y0.380 Z10.634 
N875 X147.992 Y0.413 Z10.597 
N876 X147.991 Y0.445 Z10.560 
N877 X147.991 Y0.477 Z10.522 
N878 X147.990 Y0.510 Z10.485 
N879 X147.989 Y0.542 Z10.448 
N880 X147.989 Y0.574 Z10.411 
N881 X147.988 Y0.607 Z10.373 
N882 X147.988 Y0.639 Z10.336 
N883 X147.987 Y0.672 Z10.299 
N884 X147.987 Y0.704 Z10.262 
N885 X147.986 Y0.736 Z10.225 
N886 X147.985 Y0.769 Z10.187 
N887 X147.985 Y0.801 Z10.150 
N888 X147.984 Y0.833 Z10.113 
N889 X147.984 Y0.866 Z10.076 
N890 X147.983 Y0.898 Z10.038 
N891 X147.983 Y0.930 Z10.001 
N892 X147.982 Y0.963 Z9.964 
N893 X147.981 Y0.995 Z9.927 
N894 X147.981 Y1.027 Z9.889 
N895 X147.980 Y1.060 Z9.852 
N896 X147.980 Y1.092 Z9.815 
N897 X147.979 Y1.125 Z9.778 
N898 X147.978 Y1.157 Z9.741 
N899 X147.978 Y1.189 Z9.703 
N900 X147.977 Y1.222 Z9.666 
N901 X147.977 Y1.254 Z9.629 
N902 X147.976 Y1.286 Z9.592 
N903 X147.976 Y1.319 Z9.554 
N904 X147.975 Y1.351 Z9.517 
N905 X147.974 Y1.383 Z9.480 
N906 X147.974 Y1.416 Z9.443 
N907 X147.973 Y1.448 Z9.406 
N908 X147.973 Y1.481 Z9.368 
N909 X147.972 Y1.513 Z9.331 
N910 X147.971 Y1.545 Z9.294 
N911 X147.971 Y1.578 Z9.257 
N912 X147.970 Y1.610 Z9.219 
N913 X147.970 Y1.642 Z9.182 
N914 X147.969 Y1.675 Z9.145 
N915 X147.969 Y1.707 Z9.108 
N916 X147.968 Y1.739 Z9.071 
N917 X147.967 Y1.772 Z9.033 
N918 X147.967 Y1.804 Z8.996 
N919 X147.966 Y1.836 Z8.959 
N920 X147.966 Y1.869 Z8.922 
N921 X147.965 Y1.901 Z8.884 
N922 X147.965 Y1.934 Z8.847 
N923 X147.964 Y1.966 Z8.810 
N924 X147.963 Y1.998 Z8.773 
N925 X147.963 Y2.031 Z8.735 
N926 X147.962 Y2.063 Z8.698 
N927 X147.962 Y2.095 Z8.661 
N928 X147.961 Y2.128 Z8.624 
N929 X147.960 Y2.160 Z8.587 
N930 X147.960 Y2.192 Z8.549 
N931 X147.959 Y2.225 Z8.512 
N932 X147.959 Y2.257 Z8.475 
N933 X147.958 Y2.290 Z8.438 
N934 X147.958 Y2.322 Z8.400 
N935 X147.957 Y2.354 Z8.363 
N936 X147.957 Y2.387 Z8.326 
N937 X147.957 Y2.419 Z8.289 
N938 X147.957 Y2.451 Z8.252 
N939 X147.957 Y2.484 Z8.214 
N940 X147.957 Y2.516 Z8.177 
N941 X147.957 Y2.548 Z8.140 
N942 X147.957 Y2.581 Z8.103 
N943 X147.957 Y2.613 Z8.065 
N944 X147.957 Y2.645 Z8.028 
N945 X147.957 Y2.678 Z7.991 
N946 X147.957 Y2.710 Z7.954 
N947 X147.957 Y2.743 Z7.916 
N948 X147.957 Y2.775 Z7.879 
N949 X147.957 Y2.807 Z7.842 
N950 X147.957 Y2.840 Z7.805 
N951 X147.957 Y2.872 Z7.768 
N952 X147.957 Y2.904 Z7.730 
N953 X147.957 Y2.937 Z7.693 
N954 X147.957 Y2.969 Z7.656 
N955 X147.957 Y3.001 Z7.619 
N956 X147.957 Y3.034 Z7.581 
N957 X147.957 Y3.066 Z7.544 
N958 X147.957 Y3.099 Z7.507 
N959 X147.957 Y3.131 Z7.470 
N960 X147.957 Y3.163 Z7.432 
N961 X147.957 Y3.196 Z7.395 
N962 X147.957 Y3.228 Z7.358 
N963 X147.957 Y3.260 Z7.321 
N964 X147.957 Y3.293 Z7.284 
N965 X147.957 Y3.325 Z7.246 
N966 X147.957 Y3.357 Z7.209 
N967 X147.957 Y3.390 Z7.172 
N968 X147.957 Y3.422 Z7.135 
N969 X147.957 Y3.455 Z7.097 
N970 X147.957 Y3.487 Z7.060 
N971 X147.957 Y3.519 Z7.023 
N972 X147.957 Y3.552 Z6.986 
N973 X147.957 Y3.584 Z6.949 
N974 X147.957 Y3.616 Z6.911 
N975 X147.957 Y3.649 Z6.874 
N976 X147.957 Y3.681 Z6.837 
N977 X147.957 Y3.713 Z6.800 
N978 X147.957 Y3.746 Z6.762 
N979 X147.957 Y3.778 Z6.725 
N980 X147.957 Y3.811 Z6.688 
N981 X147.957 Y3.843 Z6.651 
N982 X147.957 Y3.875 Z6.613 
N983 X147.957 Y3.908 Z6.576 
N984 X147.957 Y3.940 Z6.539 
N985 X147.957 Y3.972 Z6.502 
N986 X147.957 Y4.005 Z6.465 
N987 X147.957 Y4.037 Z6.427 
N988 X147.957 Y4.069 Z6.390 
N989 X147.957 Y4.102 Z6.353 
N990 X147.957 Y4.134 Z6.316 
N991 X147.957 Y4.167 Z6.278 
N992 X147.957 Y4.199 Z6.241 
N993 X147.957 Y4.231 Z6.204 
N994 X147.957 Y4.264 Z6.167 
N995 X147.957 Y4.296 Z6.129 
N996 X147.957 Y4.328 Z6.092 
N997 X147.957 Y4.361 Z6.055 
N998 X147.957 Y4.393 Z6.018 
N999 X147.957 Y4.425 Z5.981 
N1000 X147.957 Y4.458 Z5.943 
N1001 X147.957 Y4.490 Z5.906 
N1002 X147.957 Y4.523 Z5.869 
N1003 X147.957 Y4.555 Z5.832 
N1004 X147.957 Y4.587 Z5.794 
N1005 X147.957 Y4.620 Z5.757 
N1006 X147.957 Y4.652 Z5.720 
N1007 X147.957 Y4.684 Z5.683 
N1008 X147.957 Y4.717 Z5.646 
N1009 X147.957 Y4.749 Z5.608 
N1010 X147.957 Y4.781 Z5.571 
N1011 X147.957 Y4.814 Z5.534 
N1012 X147.957 Y4.846 Z5.497 
N1013 X147.957 Y4.878 Z5.459 
N1014 X147.957 Y4.911 Z5.422 
N1015 X147.957 Y4.943 Z5.385 
N1016 X147.957 Y4.976 Z5.348 
N1017 X147.957 Y5.008 Z5.310 
N1018 X147.957 Y5.040 Z5.273 
N1019 X147.957 Y5.073 Z5.236 
N1020 X147.957 Y5.105 Z5.199 
N1021 X147.957 Y5.137 Z5.162 
N1022 X147.957 Y5.170 Z5.124 
N1023 X147.957 Y5.202 Z5.087 
N1024 X147.957 Y5.234 Z5.050 
N1025 X147.957 Y5.267 Z5.013 
N1026 X147.958 Y5.299 Z4.975 
N1027 X147.959 Y5.332 Z4.938 
N1028 X147.959 Y5.364 Z4.901 
N1029 X147.960 Y5.396 Z4.864 
N1030 X147.961 Y5.429 Z4.827 
N1031 X147.962 Y5.461 Z4.789 
N1032 X147.963 Y5.493 Z4.752 
N1033 X147.963 Y5.526 Z4.715 
N1034 X147.964 Y5.558 Z4.678 
N1035 X147.965 Y5.590 Z4.640 
N1036 X147.966 Y5.623 Z4.603 
N1037 X147.967 Y5.655 Z4.566 
N1038 X147.967 Y5.687 Z4.529 
N1039 X147.968 Y5.720 Z4.492 
N1040 X147.969 Y5.752 Z4.454 
N1041 X147.970 Y5.785 Z4.417 
N1042 X147.970 Y5.817 Z4.380 
N1043 X147.971 Y5.849 Z4.343 
N1044 X147.972 Y5.882 Z4.305 
N1045 X147.973 Y5.914 Z4.268 
N1046 X147.974 Y5.946 Z4.231 
N1047 X147.974 Y5.979 Z4.194 
N1048 X147.975 Y6.011 Z4.156 
N1049 X147.976 Y6.043 Z4.119 
N1050 X147.977 Y6.076 Z4.082 
N1051 X147.978 Y6.108 Z4.045 
N1052 X147.978 Y6.141 Z4.008 
N1053 X147.979 Y6.173 Z3.970 
N1054 X147.980 Y6.205 Z3.933 
N1055 X147.981 Y6.238 Z3.896 
N1056 X147.982 Y6.270 Z3.859 
N1057 X147.982 Y6.302 Z3.821 
N1058 X147.983 Y6.335 Z3.784 
N1059 X147.984 Y6.367 Z3.747 
N1060 X147.985 Y6.399 Z3.710 
N1061 X147.985 Y6.432 Z3.673 
N1062 X147.986 Y6.464 Z3.635 
N1063 X147.987 Y6.496 Z3.598 
N1064 X147.988 Y6.529 Z3.561 
N1065 X147.989 Y6.561 Z3.524 
N1066 X147.989 Y6.594 Z3.486 
N1067 X147.990 Y6.626 Z3.449 
N1068 X147.991 Y6.658 Z3.412 
N1069 X147.992 Y6.691 Z3.375 
N1070 X147.993 Y6.723 Z3.338 
N1071 X147.993 Y6.755 Z3.300 
N1072 X147.994 Y6.788 Z3.263 
N1073 X147.995 Y6.820 Z3.226 
N1074 X147.996 Y6.852 Z3.189 
N1075 X147.997 Y6.885 Z3.151 
N1076 X147.997 Y6.917 Z3.114 
N1077 X147.998 Y6.949 Z3.077 
N1078 X147.999 Y6.982 Z3.040 
N1079 X148.000 Y7.014 Z3.003 
N1080 X148.000 Y7.047 Z2.965 
N1081 X148.001 Y7.079 Z2.928 
N1082 X148.002 Y7.111 Z2.891 
N1083 X148.003 Y7.144 Z2.854 
N1084 X148.004 Y7.176 Z2.816 
N1085 X148.004 Y7.208 Z2.779 
N1086 X148.005 Y7.241 Z2.742 
N1087 X148.006 Y7.273 Z2.705 
N1088 X148.007 Y7.305 Z2.668 
N1089 X148.008 Y7.338 Z2.630 
N1090 X148.008 Y7.370 Z2.593 
N1091 X148.009 Y7.402 Z2.556 
N1092 X148.010 Y7.435 Z2.519 
N1093 X148.011 Y7.467 Z2.481 
N1094 X148.011 Y7.500 Z2.444 
N1095 X148.012 Y7.532 Z2.407 
N1096 X148.013 Y7.564 Z2.370 
N1097 X148.014 Y7.597 Z2.333 
N1098 X148.015 Y7.629 Z2.295 
N1099 X148.015 Y7.661 Z2.258 
N1100 X148.016 Y7.694 Z2.221 
N1101 X148.017 Y7.726 Z2.184 
N1102 X148.018 Y7.758 Z2.146 
N1103 X148.019 Y7.791 Z2.109 
N1104 X148.019 Y7.823 Z2.072 
N1105 X148.020 Y7.855 Z2.035 
N1106 X148.021 Y7.888 Z1.998 
N1107 X148.022 Y7.920 Z1.960 
N1108 X148.023 Y7.953 Z1.923 
N1109 X148.023 Y7.985 Z1.886 
N1110 X148.024 Y8.017 Z1.849 
N1111 X148.025 Y8.050 Z1.811 
N1112 X148.026 Y8.082 Z1.774 
N1113 X148.026 Y8.114 Z1.737 
N1114 X148.027 Y8.147 Z1.700 
N1115 X148.028 Y8.179 Z1.662 
N1116 X148.029 Y8.211 Z1.625 
N1117 X148.030 Y8.244 Z1.588 
N1118 X148.030 Y8.276 Z1.551 
N1119 X148.031 Y8.309 Z1.514 
N1120 X148.032 Y8.341 Z1.476 
N1121 X148.033 Y8.373 Z1.439 
N1122 X148.034 Y8.406 Z1.402 
N1123 X148.034 Y8.438 Z1.365 
N1124 X148.035 Y8.470 Z1.327 
N1125 X148.036 Y8.503 Z1.290 
N1126 X148.037 Y8.535 Z1.253 
N1127 X148.038 Y8.567 Z1.216 
N1128 X148.038 Y8.600 Z1.179 
N1129 X148.039 Y8.632 Z1.141 
N1130 X148.040 Y8.664 Z1.104 
N1131 X148.041 Y8.697 Z1.067 
N1132 X148.041 Y8.729 Z1.030 
N1133 X148.042 Y8.762 Z0.992 
N1134 X148.043 Y8.794 Z0.955 
N1135 X148.044 Y8.826 Z0.918 
N1136 X148.045 Y8.859 Z0.881 
N1137 X148.045 Y8.891 Z0.844 
N1138 X148.046 Y8.923 Z0.806 
N1139 X148.047 Y8.956 Z0.769 
N1140 X148.048 Y8.988 Z0.732 
N1141 X148.049 Y9.020 Z0.695 
N1142 X148.049 Y9.053 Z0.657 
N1143 X148.050 Y9.085 Z0.620 
N1144 X148.051 Y9.117 Z0.583 
N1145 X148.052 Y9.150 Z0.546 
N1146 X148.053 Y9.182 Z0.509 
N1147 X148.053 Y9.215 Z0.471 
N1148 X148.054 Y9.247 Z0.434 
N1149 X148.055 Y9.279 Z0.397 
N1150 X148.056 Y9.312 Z0.360 
N1151 X148.056 Y9.344 Z0.322 
N1152 X148.057 Y9.376 Z0.285 
N1153 X148.058 Y9.409 Z0.248 
N1154 X148.059 Y9.441 Z0.211 
N1155 X148.060 Y9.473 Z0.174 
N1156 X148.060 Y9.506 Z0.136 
N1157 X148.061 Y9.538 Z0.099 
N1158 X148.062 Y9.570 Z0.062 
N1159 X148.063 Y9.603 Z0.025 
N1160 X148.064 Y9.635 Z-0.013 
N1161 X148.064 Y9.668 Z-0.050 
N1162 X148.065 Y9.700 Z-0.087 
N1163 X148.066 Y9.732 Z-0.124 
N1164 X148.067 Y9.765 Z-0.161 
N1165 X148.068 Y9.797 Z-0.199 
N1166 X148.069 Y9.829 Z-0.236 
N1167 X148.071 Y9.862 Z-0.273 
N1168 X148.072 Y9.894 Z-0.310 
N1169 X148.074 Y9.926 Z-0.348 
N1170 X148.076 Y9.959 Z-0.385 
N1171 X148.077 Y9.991 Z-0.422 
N1172 X148.079 Y10.023 Z-0.459 
N1173 X148.080 Y10.056 Z-0.496 
N1174 X148.082 Y10.088 Z-0.534 
N1175 X148.084 Y10.120 Z-0.571 
N1176 X148.085 Y10.153 Z-0.608 
N1177 X148.087 Y10.185 Z-0.645 
N1178 X148.088 Y10.217 Z-0.682 
N1179 X148.090 Y10.250 Z-0.720 
N1180 X148.092 Y10.282 Z-0.757 
N1181 X148.093 Y10.315 Z-0.794 
N1182 X148.095 Y10.347 Z-0.831 
N1183 X148.096 Y10.379 Z-0.868 
N1184 X148.098 Y10.412 Z-0.906 
N1185 X148.100 Y10.444 Z-0.943 
N1186 X148.101 Y10.476 Z-0.980 
N1187 X148.103 Y10.509 Z-1.017 
N1188 X148.104 Y10.541 Z-1.055 
N1189 X148.106 Y10.573 Z-1.092 
N1190 X148.108 Y10.606 Z-1.129 
N1191 X148.109 Y10.638 Z-1.166 
N1192 X148.111 Y10.670 Z-1.203 
N1193 X148.112 Y10.703 Z-1.241 
N1194 X148.114 Y10.735 Z-1.278 
N1195 X148.116 Y10.767 Z-1.315 
N1196 X148.117 Y10.800 Z-1.352 
N1197 X148.119 Y10.832 Z-1.389 
N1198 X148.120 Y10.864 Z-1.427 
N1199 X148.122 Y10.897 Z-1.464 
N1200 X148.124 Y10.929 Z-1.501 
N1201 X148.125 Y10.961 Z-1.538 
N1202 X148.127 Y10.994 Z-1.575 
N1203 X148.128 Y11.026 Z-1.613 
N1204 X148.130 Y11.058 Z-1.650 
N1205 X148.132 Y11.091 Z-1.687 
N1206 X148.133 Y11.123 Z-1.724 
N1207 X148.135 Y11.155 Z-1.761 
N1208 X148.136 Y11.188 Z-1.799 
N1209 X148.138 Y11.220 Z-1.836 
N1210 X148.140 Y11.253 Z-1.873 
N1211 X148.141 Y11.285 Z-1.910 
N1212 X148.143 Y11.317 Z-1.948 
N1213 X148.144 Y11.350 Z-1.985 
N1214 X148.146 Y11.382 Z-2.022 
N1215 X148.148 Y11.414 Z-2.059 
N1216 X148.149 Y11.447 Z-2.096 
N1217 X148.151 Y11.479 Z-2.134 
N1218 X148.152 Y11.511 Z-2.171 
N1219 X148.154 Y11.544 Z-2.208 
N1220 X148.156 Y11.576 Z-2.245 
N1221 X148.157 Y11.608 Z-2.282 
N1222 X148.159 Y11.641 Z-2.320 
N1223 X148.160 Y11.673 Z-2.357 
N1224 X148.162 Y11.705 Z-2.394 
N1225 X148.164 Y11.738 Z-2.431 
N1226 X148.165 Y11.770 Z-2.468 
N1227 X148.167 Y11.802 Z-2.506 
N1228 X148.169 Y11.835 Z-2.543 
N1229 X148.170 Y11.867 Z-2.580 
N1230 X148.172 Y11.899 Z-2.617 
N1231 X148.173 Y11.932 Z-2.654 
N1232 X148.175 Y11.964 Z-2.692 
N1233 X148.177 Y11.996 Z-2.729 
N1234 X148.178 Y12.029 Z-2.766 
N1235 X148.180 Y12.061 Z-2.803 
N1236 X148.181 Y12.093 Z-2.841 
N1237 X148.183 Y12.126 Z-2.878 
N1238 X148.185 Y12.158 Z-2.915 
N1239 X148.186 Y12.191 Z-2.952 
N1240 X148.188 Y12.223 Z-2.989 
N1241 X148.189 Y12.255 Z-3.027 
N1242 X148.191 Y12.288 Z-3.064 
N1243 X148.193 Y12.320 Z-3.101 
N1244 X148.194 Y12.352 Z-3.138 
N1245 X148.196 Y12.385 Z-3.175 
N1246 X148.197 Y12.417 Z-3.213 
N1247 X148.199 Y12.449 Z-3.250 
N1248 X148.201 Y12.482 Z-3.287 
N1249 X148.202 Y12.514 Z-3.324 
N1250 X148.204 Y12.546 Z-3.361 
N1251 X148.205 Y12.579 Z-3.399 
N1252 X148.207 Y12.611 Z-3.436 
N1253 X148.209 Y12.643 Z-3.473 
N1254 X148.210 Y12.676 Z-3.510 
N1255 X148.212 Y12.708 Z-3.548 
N1256 X148.213 Y12.740 Z-3.585 
N1257 X148.215 Y12.773 Z-3.622 
N1258 X148.217 Y12.805 Z-3.659 
N1259 X148.218 Y12.837 Z-3.696 
N1260 X148.220 Y12.870 Z-3.734 
N1261 X148.221 Y12.902 Z-3.771 
N1262 X148.223 Y12.934 Z-3.808 
N1263 X148.226 Y12.967 Z-3.845 
N1264 X148.228 Y12.999 Z-3.882 
N1265 X148.230 Y13.031 Z-3.920 
N1266 X148.232 Y13.064 Z-3.957 
N1267 X148.234 Y13.096 Z-3.994 
N1268 X148.237 Y13.128 Z-4.031 
N1269 X148.239 Y13.161 Z-4.068 
N1270 X148.241 Y13.193 Z-4.105 
N1271 X148.243 Y13.225 Z-4.143 
N1272 X148.245 Y13.258 Z-4.180 
N1273 X148.248 Y13.290 Z-4.217 
N1274 X148.250 Y13.322 Z-4.254 
N1275 X148.252 Y13.355 Z-4.291 
N1276 X148.254 Y13.387 Z-4.329 
N1277 X148.256 Y13.419 Z-4.366 
N1278 X148.259 Y13.452 Z-4.403 
N1279 X148.261 Y13.484 Z-4.440 
N1280 X148.263 Y13.516 Z-4.477 
N1281 X148.265 Y13.549 Z-4.515 
N1282 X148.267 Y13.581 Z-4.552 
N1283 X148.270 Y13.613 Z-4.589 
N1284 X148.272 Y13.646 Z-4.626 
N1285 X148.274 Y13.678 Z-4.663 
N1286 X148.276 Y13.710 Z-4.701 
N1287 X148.278 Y13.743 Z-4.738 
N1288 X148.281 Y13.775 Z-4.775 
N1289 X148.283 Y13.807 Z-4.812 
N1290 X148.285 Y13.840 Z-4.849 
N1291 X148.287 Y13.872 Z-4.887 
N1292 X148.289 Y13.904 Z-4.924 
N1293 X148.292 Y13.937 Z-4.961 
N1294 X148.294 Y13.969 Z-4.998 
N1295 X148.296 Y14.001 Z-5.035 
N1296 X148.298 Y14.034 Z-5.072 
N1297 X148.300 Y14.066 Z-5.110 
N1298 X148.302 Y14.098 Z-5.147 
N1299 X148.305 Y14.131 Z-5.184 
N1300 X148.307 Y14.163 Z-5.221 
N1301 X148.309 Y14.195 Z-5.258 
N1302 X148.311 Y14.228 Z-5.296 
N1303 X148.313 Y14.260 Z-5.333 
N1304 X148.316 Y14.292 Z-5.370 
N1305 X148.318 Y14.325 Z-5.407 
N1306 X148.320 Y14.357 Z-5.444 
N1307 X148.322 Y14.389 Z-5.482 
N1308 X148.324 Y14.422 Z-5.519 
N1309 X148.327 Y14.454 Z-5.556 
N1310 X148.329 Y14.486 Z-5.593 
N1311 X148.331 Y14.519 Z-5.630 
N1312 X148.333 Y14.551 Z-5.668 
N1313 X148.335 Y14.583 Z-5.705 
N1314 X148.338 Y14.616 Z-5.742 
N1315 X148.340 Y14.648 Z-5.779 
N1316 X148.342 Y14.680 Z-5.816 
N1317 X148.344 Y14.713 Z-5.854 
N1318 X148.346 Y14.745 Z-5.891 
N1319 X148.349 Y14.777 Z-5.928 
N1320 X148.351 Y14.810 Z-5.965 
N1321 X148.353 Y14.842 Z-6.002 
N1322 X148.355 Y14.874 Z-6.039 
N1323 X148.357 Y14.907 Z-6.077 
N1324 X148.360 Y14.939 Z-6.114 
N1325 X148.362 Y14.971 Z-6.151 
N1326 X148.364 Y15.004 Z-6.188 
N1327 X148.366 Y15.036 Z-6.225 
N1328 X148.368 Y15.068 Z-6.263 
N1329 X148.371 Y15.101 Z-6.300 
N1330 X148.373 Y15.133 Z-6.337 
N1331 X148.375 Y15.165 Z-6.374 
N1332 X148.377 Y15.198 Z-6.411 
N1333 X148.379 Y15.230 Z-6.449 
N1334 X148.381 Y15.262 Z-6.486 
N1335 X148.384 Y15.295 Z-6.523 
N1336 X148.386 Y15.327 Z-6.560 
N1337 X148.388 Y15.359 Z-6.597 
N1338 X148.390 Y15.391 Z-6.634 
N1339 X148.392 Y15.424 Z-6.672 
N1340 X148.395 Y15.456 Z-6.709 
N1341 X148.397 Y15.488 Z-6.746 
N1342 X148.399 Y15.520 Z-6.783 
N1343 X148.401 Y15.553 Z-6.820 
N1344 X148.403 Y15.585 Z-6.857 
N1345 X148.406 Y15.617 Z-6.894 
N1346 X148.408 Y15.649 Z-6.931 
N1347 X148.410 Y15.682 Z-6.968 
N1348 X148.412 Y15.714 Z-7.005 
N1349 X148.414 Y15.746 Z-7.042 
N1350 X148.417 Y15.778 Z-7.079 
N1351 X148.419 Y15.810 Z-7.116 
N1352 X148.421 Y15.843 Z-7.154 
N1353 X148.423 Y15.875 Z-7.191 
N1354 X148.425 Y15.907 Z-7.228 
N1355 X148.427 Y15.939 Z-7.265 
N1356 X148.430 Y15.972 Z-7.302 
N1357 X148.432 Y16.004 Z-7.339 
N1358 X148.434 Y16.036 Z-7.376 
N1359 X148.436 Y16.068 Z-7.413 
N1360 X148.438 Y16.101 Z-7.450 
N1361 X148.441 Y16.133 Z-7.487 
N1362 X148.443 Y16.165 Z-7.524 
N1363 X148.445 Y16.197 Z-7.561 
N1364 X148.447 Y16.230 Z-7.599 
N1365 X148.449 Y16.262 Z-7.636 
N1366 X148.452 Y16.294 Z-7.673 
N1367 X148.454 Y16.326 Z-7.710 
N1368 X148.456 Y16.358 Z-7.747 
N1369 X148.458 Y16.391 Z-7.784 
N1370 X148.460 Y16.423 Z-7.821 
N1371 X148.462 Y16.455 Z-7.858 
N1372 X148.465 Y16.487 Z-7.895 
N1373 X148.467 Y16.520 Z-7.932 
N1374 X148.469 Y16.552 Z-7.969 
N1375 X148.471 Y16.584 Z-8.006 
N1376 X148.473 Y16.616 Z-8.043 
N1377 X148.476 Y16.649 Z-8.081 
N1378 X148.478 Y16.681 Z-8.118 
N1379 X148.480 Y16.713 Z-8.155 
N1380 X148.482 Y16.745 Z-8.192 
N1381 X148.484 Y16.777 Z-8.229 
N1382 X148.487 Y16.810 Z-8.266 
N1383 X148.489 Y16.842 Z-8.303 
N1384 X148.491 Y16.874 Z-8.340 
N1385 X148.493 Y16.906 Z-8.377 
N1386 X148.495 Y16.939 Z-8.414 
N1387 X148.497 Y16.971 Z-8.451 
N1388 X148.500 Y17.003 Z-8.488 
N1389 X148.502 Y17.035 Z-8.526 
N1390 X148.504 Y17.068 Z-8.563 
N1391 X148.506 Y17.100 Z-8.600 
N1392 X148.508 Y17.132 Z-8.637 
N1393 X148.511 Y17.164 Z-8.674 
N1394 X148.513 Y17.197 Z-8.711 
N1395 X148.515 Y17.229 Z-8.748 
N1396 X148.517 Y17.261 Z-8.785 
N1397 X148.519 Y17.293 Z-8.822 
N1398 X148.522 Y17.325 Z-8.859 
N1399 G40 X148.966 Y23.880 Z-16.399 F148
N1400 X148.966 Y23.880 Z-16.399 
N1401 G00 X148.966 Y61.615 Z16.404 
RAPORT("T13732","Side Milling:132 End")
N1403 ;trailer : concat=None
; points cnt = 1330
N1404 MSG (" --- GROUPED OF SUBPROGRAM --- ")
N1405 FGROUP()
N1406 TRAFOOF
N10 ; PROGRAM NAME: 1373236
N11 ; ORDER       : 13732
N12 ; OPER. NAME  : Side Milling:133
N13 ; OPER. DESCR.: rough slot NGA
N14 ; OPER. TYPE  : sideMill
N15 ; GEO. OPTION : 1
N16 ; MACHINE     : SH_HX151_24_SIM840D
N17 ;             : STARRAG_HECKERT_5axis_finish_milling_machine
N18 ; CONTROL     : SINUMERIK 840D
N19 ; created:   2021-11-09 15:28:05.172154
;-------DODATKOWE DANE-------------------
; PROGRAMISTA : Mariusz Orzechowski
; PARTID      : 132T008743P1005_-
;  ap         : 2.5
;  ae         : 5.0
;  lean_angle : 0.0
;  fin_offset : 0.3
;----------------------------------------
N20 ;----------------------------------------
RAPORT("T13732","Side Milling:133")
N21 TRAFOOF
N22 D0
N23 G0 G90 G94 Z260.0
N24 STOPRE
N25 M9 ; chlodziwo wyl
N26 ; --- Side Milling:133 - rough slot NGA ---
N28 ;ToolChange : concat=None ,current_tdmid=None, PP.tdmId=959056
N29 TRAFOOF
N30 D0
N31 G0 G54 Z270.0
N32 S3713 M03
N33 STOPRE
N34 TOL(0.1,1,1)
N35 G0  A131.0000
N36 TRAORI
N37 G54 D1
N38 ;tol5=0.15
STOPRE
E_ZDARZ=500002
;ACS_ROUGH_SLOT=7759056
STOPRE
;UWAGA : ZMIENIONA TOLERANCJA OSI A i B, ruchy osi A i B beda usuniete : TOL5=0.15
N39 ; DELTA A > 40.1
N40 TRAFOOF
N41 STOPRE
N42 G0 G53 D0 Z265.000
N43 G1 G53 A131.0000 F10000
N44 TRAORI
N45 G54 D1
N46 TRANS 
N47 G00 X148.258 Y-34.870 Z-49.982 A131.0000 B0.0000 
N48 M342 ; chlodziwo woda
N49 X148.258 Y2.866 Z-17.179 
N50 ;on NNTA
N51 D3 
N52 G01 G41 X148.236 Y2.210 Z-16.424 F148
N53 G01 X148.236 Y2.210 Z-16.424 F148 
N54 X148.235 Y2.178 Z-16.387 
N55 X148.234 Y2.145 Z-16.350 
N56 X148.233 Y2.113 Z-16.313 
N57 X148.231 Y2.081 Z-16.276 
N58 X148.230 Y2.049 Z-16.239 
N59 X148.229 Y2.016 Z-16.201 
N60 X148.228 Y1.984 Z-16.164 
N61 X148.227 Y1.952 Z-16.127 
N62 X148.226 Y1.920 Z-16.090 
N63 X148.225 Y1.887 Z-16.053 
N64 X148.224 Y1.855 Z-16.016 
N65 X148.223 Y1.823 Z-15.979 
N66 X148.222 Y1.791 Z-15.942 
N67 X148.221 Y1.758 Z-15.905 
N68 X148.219 Y1.726 Z-15.867 
N69 X148.218 Y1.694 Z-15.830 
N70 X148.217 Y1.662 Z-15.793 
N71 X148.216 Y1.629 Z-15.756 
N72 X148.215 Y1.597 Z-15.719 
N73 X148.214 Y1.565 Z-15.682 
N74 X148.213 Y1.533 Z-15.645 
N75 X148.212 Y1.500 Z-15.608 
N76 X148.211 Y1.468 Z-15.571 
N77 X148.210 Y1.436 Z-15.534 
N78 X148.208 Y1.404 Z-15.496 
N79 X148.207 Y1.371 Z-15.459 
N80 X148.206 Y1.339 Z-15.422 
N81 X148.205 Y1.307 Z-15.385 
N82 X148.204 Y1.275 Z-15.348 
N83 X148.203 Y1.242 Z-15.311 
N84 X148.202 Y1.210 Z-15.274 
N85 X148.201 Y1.178 Z-15.237 
N86 X148.200 Y1.145 Z-15.200 
N87 X148.199 Y1.113 Z-15.162 
N88 X148.198 Y1.081 Z-15.125 
N89 X148.196 Y1.049 Z-15.088 
N90 X148.195 Y1.016 Z-15.051 
N91 X148.194 Y0.984 Z-15.014 
N92 X148.193 Y0.952 Z-14.977 
N93 X148.192 Y0.920 Z-14.940 
N94 X148.191 Y0.887 Z-14.903 
N95 X148.190 Y0.855 Z-14.866 
N96 X148.189 Y0.823 Z-14.828 
N97 X148.188 Y0.791 Z-14.791 
N98 X148.187 Y0.758 Z-14.754 
N99 X148.186 Y0.726 Z-14.717 
N100 X148.184 Y0.694 Z-14.680 
N101 X148.183 Y0.662 Z-14.643 
N102 X148.182 Y0.629 Z-14.606 
N103 X148.181 Y0.597 Z-14.569 
N104 X148.180 Y0.565 Z-14.532 
N105 X148.179 Y0.533 Z-14.494 
N106 X148.178 Y0.500 Z-14.457 
N107 X148.177 Y0.468 Z-14.420 
N108 X148.176 Y0.436 Z-14.383 
N109 X148.175 Y0.404 Z-14.346 
N110 X148.174 Y0.371 Z-14.309 
N111 X148.172 Y0.339 Z-14.272 
N112 X148.171 Y0.307 Z-14.235 
N113 X148.170 Y0.275 Z-14.198 
N114 X148.169 Y0.242 Z-14.161 
N115 X148.168 Y0.210 Z-14.123 
N116 X148.167 Y0.178 Z-14.086 
N117 X148.166 Y0.146 Z-14.049 
N118 X148.165 Y0.113 Z-14.012 
N119 X148.164 Y0.081 Z-13.975 
N120 X148.163 Y0.049 Z-13.938 
N121 X148.162 Y0.016 Z-13.901 
N122 X148.160 Y-0.016 Z-13.864 
N123 X148.159 Y-0.048 Z-13.827 
N124 X148.158 Y-0.080 Z-13.789 
N125 X148.157 Y-0.113 Z-13.752 
N126 X148.156 Y-0.145 Z-13.715 
N127 X148.155 Y-0.177 Z-13.678 
N128 X148.154 Y-0.209 Z-13.641 
N129 X148.153 Y-0.242 Z-13.604 
N130 X148.152 Y-0.274 Z-13.567 
N131 X148.151 Y-0.306 Z-13.530 
N132 X148.150 Y-0.338 Z-13.493 
N133 X148.148 Y-0.371 Z-13.455 
N134 X148.147 Y-0.403 Z-13.418 
N135 X148.146 Y-0.435 Z-13.381 
N136 X148.145 Y-0.467 Z-13.344 
N137 X148.144 Y-0.500 Z-13.307 
N138 X148.143 Y-0.532 Z-13.270 
N139 X148.142 Y-0.564 Z-13.233 
N140 X148.141 Y-0.596 Z-13.196 
N141 X148.140 Y-0.629 Z-13.159 
N142 X148.139 Y-0.661 Z-13.122 
N143 X148.138 Y-0.693 Z-13.084 
N144 X148.136 Y-0.725 Z-13.047 
N145 X148.135 Y-0.758 Z-13.010 
N146 X148.134 Y-0.790 Z-12.973 
N147 X148.133 Y-0.822 Z-12.936 
N148 X148.132 Y-0.854 Z-12.899 
N149 X148.131 Y-0.887 Z-12.862 
N150 X148.130 Y-0.919 Z-12.825 
N151 X148.129 Y-0.951 Z-12.788 
N152 X148.128 Y-0.983 Z-12.750 
N153 X148.127 Y-1.016 Z-12.713 
N154 X148.125 Y-1.048 Z-12.676 
N155 X148.124 Y-1.080 Z-12.639 
N156 X148.123 Y-1.113 Z-12.602 
N157 X148.122 Y-1.145 Z-12.565 
N158 X148.121 Y-1.177 Z-12.528 
N159 X148.120 Y-1.209 Z-12.491 
N160 X148.119 Y-1.242 Z-12.454 
N161 X148.118 Y-1.274 Z-12.416 
N162 X148.117 Y-1.306 Z-12.379 
N163 X148.116 Y-1.338 Z-12.342 
N164 X148.115 Y-1.371 Z-12.305 
N165 X148.113 Y-1.403 Z-12.268 
N166 X148.112 Y-1.435 Z-12.231 
N167 X148.111 Y-1.467 Z-12.194 
N168 X148.110 Y-1.500 Z-12.157 
N169 X148.109 Y-1.532 Z-12.120 
N170 X148.108 Y-1.564 Z-12.082 
N171 X148.107 Y-1.596 Z-12.045 
N172 X148.106 Y-1.629 Z-12.008 
N173 X148.105 Y-1.661 Z-11.971 
N174 X148.104 Y-1.693 Z-11.934 
N175 X148.103 Y-1.725 Z-11.897 
N176 X148.101 Y-1.758 Z-11.860 
N177 X148.100 Y-1.790 Z-11.823 
N178 X148.099 Y-1.822 Z-11.785 
N179 X148.098 Y-1.855 Z-11.748 
N180 X148.097 Y-1.887 Z-11.711 
N181 X148.096 Y-1.920 Z-11.674 
N182 X148.095 Y-1.952 Z-11.636 
N183 X148.094 Y-1.984 Z-11.599 
N184 X148.093 Y-2.017 Z-11.562 
N185 X148.092 Y-2.049 Z-11.525 
N186 X148.091 Y-2.081 Z-11.488 
N187 X148.089 Y-2.114 Z-11.450 
N188 X148.088 Y-2.146 Z-11.413 
N189 X148.087 Y-2.178 Z-11.376 
N190 X148.086 Y-2.211 Z-11.339 
N191 X148.085 Y-2.243 Z-11.301 
N192 X148.084 Y-2.275 Z-11.264 
N193 X148.083 Y-2.308 Z-11.227 
N194 X148.082 Y-2.340 Z-11.190 
N195 X148.081 Y-2.373 Z-11.153 
N196 X148.080 Y-2.405 Z-11.115 
N197 X148.078 Y-2.437 Z-11.078 
N198 X148.077 Y-2.470 Z-11.041 
N199 X148.076 Y-2.502 Z-11.004 
N200 X148.075 Y-2.534 Z-10.966 
N201 X148.074 Y-2.567 Z-10.929 
N202 X148.073 Y-2.599 Z-10.892 
N203 X148.072 Y-2.631 Z-10.855 
N204 X148.071 Y-2.664 Z-10.818 
N205 X148.070 Y-2.696 Z-10.780 
N206 X148.069 Y-2.728 Z-10.743 
N207 X148.068 Y-2.761 Z-10.706 
N208 X148.066 Y-2.793 Z-10.669 
N209 X148.065 Y-2.825 Z-10.631 
N210 X148.064 Y-2.858 Z-10.594 
N211 X148.063 Y-2.890 Z-10.557 
N212 X148.062 Y-2.923 Z-10.520 
N213 X148.061 Y-2.955 Z-10.483 
N214 X148.060 Y-2.987 Z-10.445 
N215 X148.059 Y-3.020 Z-10.408 
N216 X148.058 Y-3.052 Z-10.371 
N217 X148.057 Y-3.084 Z-10.334 
N218 X148.055 Y-3.117 Z-10.296 
N219 X148.054 Y-3.149 Z-10.259 
N220 X148.053 Y-3.181 Z-10.222 
N221 X148.052 Y-3.214 Z-10.185 
N222 X148.051 Y-3.246 Z-10.148 
N223 X148.050 Y-3.278 Z-10.110 
N224 X148.049 Y-3.311 Z-10.073 
N225 X148.048 Y-3.343 Z-10.036 
N226 X148.047 Y-3.376 Z-9.999 
N227 X148.046 Y-3.408 Z-9.962 
N228 X148.044 Y-3.440 Z-9.924 
N229 X148.043 Y-3.473 Z-9.887 
N230 X148.042 Y-3.505 Z-9.850 
N231 X148.041 Y-3.537 Z-9.813 
N232 X148.040 Y-3.570 Z-9.775 
N233 X148.039 Y-3.602 Z-9.738 
N234 X148.038 Y-3.634 Z-9.701 
N235 X148.037 Y-3.667 Z-9.664 
N236 X148.036 Y-3.699 Z-9.627 
N237 X148.035 Y-3.731 Z-9.589 
N238 X148.034 Y-3.764 Z-9.552 
N239 X148.032 Y-3.796 Z-9.515 
N240 X148.031 Y-3.828 Z-9.478 
N241 X148.030 Y-3.861 Z-9.440 
N242 X148.029 Y-3.893 Z-9.403 
N243 X148.028 Y-3.926 Z-9.366 
N244 X148.027 Y-3.958 Z-9.329 
N245 X148.026 Y-3.990 Z-9.292 
N246 X148.025 Y-4.023 Z-9.254 
N247 X148.024 Y-4.055 Z-9.217 
N248 X148.023 Y-4.087 Z-9.180 
N249 X148.021 Y-4.120 Z-9.143 
N250 X148.020 Y-4.152 Z-9.105 
N251 X148.019 Y-4.184 Z-9.068 
N252 X148.018 Y-4.217 Z-9.031 
N253 X148.017 Y-4.249 Z-8.994 
N254 X148.016 Y-4.281 Z-8.957 
N255 X148.015 Y-4.314 Z-8.919 
N256 X148.014 Y-4.346 Z-8.882 
N257 X148.013 Y-4.379 Z-8.845 
N258 X148.012 Y-4.411 Z-8.808 
N259 X148.011 Y-4.443 Z-8.770 
N260 X148.009 Y-4.476 Z-8.733 
N261 X148.008 Y-4.508 Z-8.696 
N262 X148.007 Y-4.540 Z-8.659 
N263 X148.006 Y-4.573 Z-8.622 
N264 X148.005 Y-4.605 Z-8.584 
N265 X148.004 Y-4.637 Z-8.547 
N266 X148.003 Y-4.670 Z-8.510 
N267 X148.002 Y-4.702 Z-8.473 
N268 X148.001 Y-4.734 Z-8.435 
N269 X148.000 Y-4.767 Z-8.398 
N270 X147.998 Y-4.799 Z-8.361 
N271 X147.997 Y-4.831 Z-8.324 
N272 X147.996 Y-4.864 Z-8.287 
N273 X147.995 Y-4.896 Z-8.249 
N274 X147.994 Y-4.929 Z-8.212 
N275 X147.993 Y-4.961 Z-8.175 
N276 X147.992 Y-4.993 Z-8.138 
N277 X147.991 Y-5.026 Z-8.100 
N278 X147.990 Y-5.058 Z-8.063 
N279 X147.989 Y-5.090 Z-8.026 
N280 X147.989 Y-5.123 Z-7.989 
N281 X147.989 Y-5.155 Z-7.952 
N282 X147.988 Y-5.187 Z-7.914 
N283 X147.988 Y-5.220 Z-7.877 
N284 X147.987 Y-5.252 Z-7.840 
N285 X147.987 Y-5.285 Z-7.803 
N286 X147.986 Y-5.317 Z-7.765 
N287 X147.986 Y-5.349 Z-7.728 
N288 X147.985 Y-5.382 Z-7.691 
N289 X147.985 Y-5.414 Z-7.654 
N290 X147.985 Y-5.446 Z-7.617 
N291 X147.984 Y-5.479 Z-7.579 
N292 X147.984 Y-5.511 Z-7.542 
N293 X147.983 Y-5.543 Z-7.505 
N294 X147.983 Y-5.576 Z-7.468 
N295 X147.982 Y-5.608 Z-7.430 
N296 X147.982 Y-5.640 Z-7.393 
N297 X147.981 Y-5.673 Z-7.356 
N298 X147.981 Y-5.705 Z-7.319 
N299 X147.980 Y-5.738 Z-7.281 
N300 X147.980 Y-5.770 Z-7.244 
N301 X147.980 Y-5.802 Z-7.207 
N302 X147.979 Y-5.835 Z-7.170 
N303 X147.979 Y-5.867 Z-7.133 
N304 X147.978 Y-5.899 Z-7.095 
N305 X147.978 Y-5.932 Z-7.058 
N306 X147.977 Y-5.964 Z-7.021 
N307 X147.977 Y-5.996 Z-6.984 
N308 X147.976 Y-6.029 Z-6.946 
N309 X147.976 Y-6.061 Z-6.909 
N310 X147.976 Y-6.094 Z-6.872 
N311 X147.975 Y-6.126 Z-6.835 
N312 X147.975 Y-6.158 Z-6.798 
N313 X147.974 Y-6.191 Z-6.760 
N314 X147.974 Y-6.223 Z-6.723 
N315 X147.973 Y-6.255 Z-6.686 
N316 X147.973 Y-6.288 Z-6.649 
N317 X147.972 Y-6.320 Z-6.611 
N318 X147.972 Y-6.352 Z-6.574 
N319 X147.972 Y-6.385 Z-6.537 
N320 X147.971 Y-6.417 Z-6.500 
N321 X147.971 Y-6.450 Z-6.462 
N322 X147.970 Y-6.482 Z-6.425 
N323 X147.970 Y-6.514 Z-6.388 
N324 X147.969 Y-6.547 Z-6.351 
N325 X147.969 Y-6.579 Z-6.314 
N326 X147.968 Y-6.611 Z-6.276 
N327 X147.968 Y-6.644 Z-6.239 
N328 X147.968 Y-6.676 Z-6.202 
N329 X147.967 Y-6.708 Z-6.165 
N330 X147.967 Y-6.741 Z-6.127 
N331 X147.966 Y-6.773 Z-6.090 
N332 X147.966 Y-6.806 Z-6.053 
N333 X147.965 Y-6.838 Z-6.016 
N334 X147.965 Y-6.870 Z-5.979 
N335 X147.964 Y-6.903 Z-5.941 
N336 X147.964 Y-6.935 Z-5.904 
N337 X147.964 Y-6.967 Z-5.867 
N338 X147.963 Y-7.000 Z-5.830 
N339 X147.963 Y-7.032 Z-5.792 
N340 X147.962 Y-7.064 Z-5.755 
N341 X147.962 Y-7.097 Z-5.718 
N342 X147.961 Y-7.129 Z-5.681 
N343 X147.961 Y-7.161 Z-5.643 
N344 X147.960 Y-7.194 Z-5.606 
N345 X147.960 Y-7.226 Z-5.569 
N346 X147.960 Y-7.259 Z-5.532 
N347 X147.959 Y-7.291 Z-5.495 
N348 X147.959 Y-7.323 Z-5.457 
N349 X147.958 Y-7.356 Z-5.420 
N350 X147.958 Y-7.388 Z-5.383 
N351 X147.957 Y-7.420 Z-5.346 
N352 X147.957 Y-7.453 Z-5.308 
N353 X147.956 Y-7.485 Z-5.271 
N354 X147.956 Y-7.517 Z-5.234 
N355 X147.956 Y-7.550 Z-5.197 
N356 X147.955 Y-7.582 Z-5.159 
N357 X147.955 Y-7.615 Z-5.122 
N358 X147.954 Y-7.647 Z-5.085 
N359 X147.954 Y-7.679 Z-5.048 
N360 X147.953 Y-7.712 Z-5.011 
N361 X147.953 Y-7.744 Z-4.973 
N362 X147.952 Y-7.776 Z-4.936 
N363 X147.952 Y-7.809 Z-4.899 
N364 X147.952 Y-7.841 Z-4.862 
N365 X147.952 Y-7.873 Z-4.824 
N366 X147.952 Y-7.906 Z-4.787 
N367 X147.952 Y-7.938 Z-4.750 
N368 X147.952 Y-7.971 Z-4.713 
N369 X147.953 Y-8.003 Z-4.676 
N370 X147.953 Y-8.035 Z-4.638 
N371 X147.953 Y-8.068 Z-4.601 
N372 X147.953 Y-8.100 Z-4.564 
N373 X147.953 Y-8.132 Z-4.527 
N374 X147.954 Y-8.165 Z-4.489 
N375 X147.954 Y-8.197 Z-4.452 
N376 X147.954 Y-8.229 Z-4.415 
N377 X147.954 Y-8.262 Z-4.378 
N378 X147.954 Y-8.294 Z-4.340 
N379 X147.955 Y-8.327 Z-4.303 
N380 X147.955 Y-8.359 Z-4.266 
N381 X147.955 Y-8.391 Z-4.229 
N382 X147.955 Y-8.424 Z-4.192 
N383 X147.955 Y-8.456 Z-4.154 
N384 X147.956 Y-8.488 Z-4.117 
N385 X147.956 Y-8.521 Z-4.080 
N386 X147.956 Y-8.553 Z-4.043 
N387 X147.956 Y-8.585 Z-4.005 
N388 X147.956 Y-8.618 Z-3.968 
N389 X147.957 Y-8.650 Z-3.931 
N390 X147.957 Y-8.683 Z-3.894 
N391 X147.957 Y-8.715 Z-3.856 
N392 X147.957 Y-8.747 Z-3.819 
N393 X147.957 Y-8.780 Z-3.782 
N394 X147.958 Y-8.812 Z-3.745 
N395 X147.958 Y-8.844 Z-3.708 
N396 X147.958 Y-8.877 Z-3.670 
N397 X147.958 Y-8.909 Z-3.633 
N398 X147.958 Y-8.941 Z-3.596 
N399 X147.959 Y-8.974 Z-3.559 
N400 X147.959 Y-9.006 Z-3.521 
N401 X147.959 Y-9.039 Z-3.484 
N402 X147.959 Y-9.071 Z-3.447 
N403 X147.959 Y-9.103 Z-3.410 
N404 X147.959 Y-9.136 Z-3.373 
N405 X147.960 Y-9.168 Z-3.335 
N406 X147.960 Y-9.200 Z-3.298 
N407 X147.960 Y-9.233 Z-3.261 
N408 X147.960 Y-9.265 Z-3.224 
N409 X147.960 Y-9.297 Z-3.186 
N410 X147.961 Y-9.330 Z-3.149 
N411 X147.961 Y-9.362 Z-3.112 
N412 X147.961 Y-9.394 Z-3.075 
N413 X147.961 Y-9.427 Z-3.037 
N414 X147.961 Y-9.459 Z-3.000 
N415 X147.962 Y-9.492 Z-2.963 
N416 X147.962 Y-9.524 Z-2.926 
N417 X147.962 Y-9.556 Z-2.889 
N418 X147.962 Y-9.589 Z-2.851 
N419 X147.962 Y-9.621 Z-2.814 
N420 X147.963 Y-9.653 Z-2.777 
N421 X147.963 Y-9.686 Z-2.740 
N422 X147.963 Y-9.718 Z-2.702 
N423 X147.963 Y-9.750 Z-2.665 
N424 X147.963 Y-9.783 Z-2.628 
N425 X147.964 Y-9.815 Z-2.591 
N426 X147.964 Y-9.848 Z-2.553 
N427 X147.964 Y-9.880 Z-2.516 
N428 X147.964 Y-9.912 Z-2.479 
N429 X147.964 Y-9.945 Z-2.442 
N430 X147.965 Y-9.977 Z-2.405 
N431 X147.965 Y-10.009 Z-2.367 
N432 X147.965 Y-10.042 Z-2.330 
N433 X147.965 Y-10.074 Z-2.293 
N434 X147.965 Y-10.106 Z-2.256 
N435 X147.966 Y-10.139 Z-2.218 
N436 X147.966 Y-10.171 Z-2.181 
N437 X147.966 Y-10.204 Z-2.144 
N438 X147.966 Y-10.236 Z-2.107 
N439 X147.966 Y-10.268 Z-2.069 
N440 X147.967 Y-10.301 Z-2.032 
N441 X147.967 Y-10.333 Z-1.995 
N442 X147.967 Y-10.365 Z-1.958 
N443 X147.967 Y-10.398 Z-1.921 
N444 X147.967 Y-10.430 Z-1.883 
N445 X147.968 Y-10.462 Z-1.846 
N446 X147.968 Y-10.495 Z-1.809 
N447 X147.968 Y-10.527 Z-1.772 
N448 X147.968 Y-10.560 Z-1.734 
N449 X147.968 Y-10.592 Z-1.697 
N450 X147.968 Y-10.624 Z-1.660 
N451 X147.969 Y-10.657 Z-1.623 
N452 X147.969 Y-10.689 Z-1.586 
N453 X147.969 Y-10.721 Z-1.548 
N454 X147.969 Y-10.754 Z-1.511 
N455 X147.969 Y-10.786 Z-1.474 
N456 X147.970 Y-10.818 Z-1.437 
N457 X147.970 Y-10.851 Z-1.399 
N458 X147.970 Y-10.883 Z-1.362 
N459 X147.970 Y-10.916 Z-1.325 
N460 X147.970 Y-10.948 Z-1.288 
N461 X147.971 Y-10.980 Z-1.250 
N462 X147.971 Y-11.013 Z-1.213 
N463 X147.971 Y-11.045 Z-1.176 
N464 X147.971 Y-11.077 Z-1.139 
N465 X147.972 Y-11.110 Z-1.102 
N466 X147.973 Y-11.142 Z-1.064 
N467 X147.974 Y-11.174 Z-1.027 
N468 X147.975 Y-11.207 Z-0.990 
N469 X147.976 Y-11.239 Z-0.953 
N470 X147.977 Y-11.272 Z-0.915 
N471 X147.978 Y-11.304 Z-0.878 
N472 X147.979 Y-11.336 Z-0.841 
N473 X147.980 Y-11.369 Z-0.804 
N474 X147.980 Y-11.401 Z-0.767 
N475 X147.981 Y-11.433 Z-0.729 
N476 X147.982 Y-11.466 Z-0.692 
N477 X147.983 Y-11.498 Z-0.655 
N478 X147.984 Y-11.530 Z-0.618 
N479 X147.985 Y-11.563 Z-0.580 
N480 X147.986 Y-11.595 Z-0.543 
N481 X147.987 Y-11.627 Z-0.506 
N482 X147.988 Y-11.660 Z-0.469 
N483 X147.989 Y-11.692 Z-0.432 
N484 X147.990 Y-11.725 Z-0.394 
N485 X147.991 Y-11.757 Z-0.357 
N486 X147.992 Y-11.789 Z-0.320 
N487 X147.993 Y-11.822 Z-0.283 
N488 X147.994 Y-11.854 Z-0.245 
N489 X147.995 Y-11.886 Z-0.208 
N490 X147.995 Y-11.919 Z-0.171 
N491 X147.996 Y-11.951 Z-0.134 
N492 X147.997 Y-11.983 Z-0.097 
N493 X147.998 Y-12.016 Z-0.059 
N494 X147.999 Y-12.048 Z-0.022 
N495 X148.000 Y-12.080 Z0.015 
N496 X148.001 Y-12.113 Z0.052 
N497 X148.002 Y-12.145 Z0.090 
N498 X148.003 Y-12.178 Z0.127 
N499 X148.004 Y-12.210 Z0.164 
N500 X148.005 Y-12.242 Z0.201 
N501 X148.006 Y-12.275 Z0.238 
N502 X148.007 Y-12.307 Z0.276 
N503 X148.008 Y-12.339 Z0.313 
N504 X148.009 Y-12.372 Z0.350 
N505 X148.010 Y-12.404 Z0.387 
N506 X148.010 Y-12.436 Z0.425 
N507 X148.011 Y-12.469 Z0.462 
N508 X148.012 Y-12.501 Z0.499 
N509 X148.013 Y-12.533 Z0.536 
N510 X148.014 Y-12.566 Z0.573 
N511 X148.015 Y-12.598 Z0.611 
N512 X148.016 Y-12.631 Z0.648 
N513 X148.017 Y-12.663 Z0.685 
N514 X148.018 Y-12.695 Z0.722 
N515 X148.019 Y-12.728 Z0.760 
N516 X148.020 Y-12.760 Z0.797 
N517 X148.021 Y-12.792 Z0.834 
N518 X148.022 Y-12.825 Z0.871 
N519 X148.023 Y-12.857 Z0.908 
N520 X148.024 Y-12.889 Z0.946 
N521 X148.025 Y-12.922 Z0.983 
N522 X148.025 Y-12.954 Z1.020 
N523 X148.026 Y-12.986 Z1.057 
N524 X148.027 Y-13.019 Z1.095 
N525 X148.028 Y-13.051 Z1.132 
N526 X148.029 Y-13.084 Z1.169 
N527 X148.030 Y-13.116 Z1.206 
N528 X148.031 Y-13.148 Z1.243 
N529 X148.032 Y-13.181 Z1.281 
N530 X148.033 Y-13.213 Z1.318 
N531 X148.034 Y-13.245 Z1.355 
N532 X148.035 Y-13.278 Z1.392 
N533 X148.036 Y-13.310 Z1.430 
N534 X148.037 Y-13.342 Z1.467 
N535 X148.038 Y-13.375 Z1.504 
N536 X148.039 Y-13.407 Z1.541 
N537 X148.040 Y-13.439 Z1.578 
N538 X148.040 Y-13.472 Z1.616 
N539 X148.041 Y-13.504 Z1.653 
N540 X148.042 Y-13.537 Z1.690 
N541 X148.043 Y-13.569 Z1.727 
N542 X148.044 Y-13.601 Z1.765 
N543 X148.045 Y-13.634 Z1.802 
N544 X148.046 Y-13.666 Z1.839 
N545 X148.047 Y-13.698 Z1.876 
N546 X148.048 Y-13.731 Z1.914 
N547 X148.049 Y-13.763 Z1.951 
N548 X148.050 Y-13.795 Z1.988 
N549 X148.051 Y-13.828 Z2.025 
N550 X148.052 Y-13.860 Z2.062 
N551 X148.053 Y-13.892 Z2.100 
N552 X148.054 Y-13.925 Z2.137 
N553 X148.055 Y-13.957 Z2.174 
N554 X148.055 Y-13.990 Z2.211 
N555 X148.056 Y-14.022 Z2.249 
N556 X148.057 Y-14.054 Z2.286 
N557 X148.058 Y-14.087 Z2.323 
N558 X148.059 Y-14.119 Z2.360 
N559 X148.060 Y-14.151 Z2.397 
N560 X148.061 Y-14.184 Z2.435 
N561 X148.062 Y-14.216 Z2.472 
N562 X148.063 Y-14.248 Z2.509 
N563 X148.064 Y-14.281 Z2.546 
N564 X148.065 Y-14.313 Z2.584 
N565 X148.066 Y-14.345 Z2.621 
N566 X148.067 Y-14.378 Z2.658 
N567 X148.068 Y-14.410 Z2.695 
N568 X148.069 Y-14.443 Z2.732 
N569 X148.070 Y-14.475 Z2.770 
N570 X148.070 Y-14.507 Z2.807 
N571 X148.071 Y-14.540 Z2.844 
N572 X148.072 Y-14.572 Z2.881 
N573 X148.073 Y-14.604 Z2.919 
N574 X148.074 Y-14.637 Z2.956 
N575 X148.075 Y-14.669 Z2.993 
N576 X148.076 Y-14.701 Z3.030 
N577 X148.077 Y-14.734 Z3.067 
N578 X148.078 Y-14.766 Z3.105 
N579 X148.079 Y-14.798 Z3.142 
N580 X148.080 Y-14.831 Z3.179 
N581 X148.082 Y-14.863 Z3.216 
N582 X148.083 Y-14.895 Z3.253 
N583 X148.085 Y-14.928 Z3.291 
N584 X148.087 Y-14.960 Z3.328 
N585 X148.088 Y-14.993 Z3.365 
N586 X148.090 Y-15.025 Z3.402 
N587 X148.091 Y-15.057 Z3.440 
N588 X148.093 Y-15.090 Z3.477 
N589 X148.095 Y-15.122 Z3.514 
N590 X148.096 Y-15.154 Z3.551 
N591 X148.098 Y-15.187 Z3.588 
N592 X148.099 Y-15.219 Z3.626 
N593 X148.101 Y-15.251 Z3.663 
N594 X148.103 Y-15.284 Z3.700 
N595 X148.104 Y-15.316 Z3.737 
N596 X148.106 Y-15.348 Z3.774 
N597 X148.107 Y-15.381 Z3.812 
N598 X148.109 Y-15.413 Z3.849 
N599 X148.111 Y-15.445 Z3.886 
N600 X148.112 Y-15.478 Z3.923 
N601 X148.114 Y-15.510 Z3.960 
N602 X148.115 Y-15.542 Z3.998 
N603 X148.117 Y-15.575 Z4.035 
N604 X148.119 Y-15.607 Z4.072 
N605 X148.120 Y-15.639 Z4.109 
N606 X148.122 Y-15.672 Z4.147 
N607 X148.123 Y-15.704 Z4.184 
N608 X148.125 Y-15.736 Z4.221 
N609 X148.127 Y-15.769 Z4.258 
N610 X148.128 Y-15.801 Z4.295 
N611 X148.130 Y-15.834 Z4.333 
N612 X148.131 Y-15.866 Z4.370 
N613 X148.133 Y-15.898 Z4.407 
N614 X148.134 Y-15.931 Z4.444 
N615 X148.136 Y-15.963 Z4.481 
N616 X148.138 Y-15.995 Z4.519 
N617 X148.139 Y-16.028 Z4.556 
N618 X148.141 Y-16.060 Z4.593 
N619 X148.142 Y-16.092 Z4.630 
N620 X148.144 Y-16.125 Z4.667 
N621 X148.146 Y-16.157 Z4.705 
N622 X148.147 Y-16.189 Z4.742 
N623 X148.149 Y-16.222 Z4.779 
N624 X148.150 Y-16.254 Z4.816 
N625 X148.152 Y-16.286 Z4.854 
N626 X148.154 Y-16.319 Z4.891 
N627 X148.155 Y-16.351 Z4.928 
N628 X148.157 Y-16.383 Z4.965 
N629 X148.158 Y-16.416 Z5.002 
N630 X148.160 Y-16.448 Z5.040 
N631 X148.162 Y-16.480 Z5.077 
N632 X148.163 Y-16.513 Z5.114 
N633 X148.165 Y-16.545 Z5.151 
N634 X148.166 Y-16.577 Z5.188 
N635 X148.168 Y-16.610 Z5.226 
N636 X148.170 Y-16.642 Z5.263 
N637 X148.171 Y-16.675 Z5.300 
N638 X148.173 Y-16.707 Z5.337 
N639 X148.174 Y-16.739 Z5.374 
N640 X148.176 Y-16.772 Z5.412 
N641 X148.178 Y-16.804 Z5.449 
N642 X148.179 Y-16.836 Z5.486 
N643 X148.181 Y-16.869 Z5.523 
N644 X148.182 Y-16.901 Z5.561 
N645 X148.184 Y-16.933 Z5.598 
N646 X148.186 Y-16.966 Z5.635 
N647 X148.187 Y-16.998 Z5.672 
N648 X148.189 Y-17.030 Z5.709 
N649 X148.190 Y-17.063 Z5.747 
N650 X148.192 Y-17.095 Z5.784 
N651 X148.193 Y-17.127 Z5.821 
N652 X148.195 Y-17.160 Z5.858 
N653 X148.197 Y-17.192 Z5.895 
N654 X148.198 Y-17.224 Z5.933 
N655 X148.200 Y-17.257 Z5.970 
N656 X148.201 Y-17.289 Z6.007 
N657 X148.203 Y-17.321 Z6.044 
N658 X148.205 Y-17.353 Z6.081 
N659 X148.206 Y-17.386 Z6.118 
N660 X148.208 Y-17.418 Z6.155 
N661 X148.209 Y-17.450 Z6.192 
N662 X148.211 Y-17.482 Z6.229 
N663 X148.213 Y-17.515 Z6.267 
N664 X148.214 Y-17.547 Z6.304 
N665 X148.216 Y-17.579 Z6.341 
N666 X148.217 Y-17.611 Z6.378 
N667 X148.219 Y-17.644 Z6.415 
N668 X148.221 Y-17.676 Z6.452 
N669 X148.222 Y-17.708 Z6.489 
N670 X148.224 Y-17.740 Z6.526 
N671 X148.225 Y-17.773 Z6.563 
N672 X148.227 Y-17.805 Z6.600 
N673 X148.228 Y-17.837 Z6.638 
N674 X148.230 Y-17.869 Z6.675 
N675 X148.232 Y-17.902 Z6.712 
N676 X148.233 Y-17.934 Z6.749 
N677 X148.235 Y-17.966 Z6.786 
N678 X148.236 Y-17.998 Z6.823 
N679 X148.238 Y-18.031 Z6.860 
N680 X148.240 Y-18.063 Z6.897 
N681 X148.241 Y-18.095 Z6.934 
N682 X148.243 Y-18.127 Z6.971 
N683 X148.244 Y-18.160 Z7.009 
N684 X148.246 Y-18.192 Z7.046 
N685 X148.248 Y-18.224 Z7.083 
N686 X148.249 Y-18.256 Z7.120 
N687 X148.251 Y-18.289 Z7.157 
N688 X148.252 Y-18.321 Z7.194 
N689 X148.254 Y-18.353 Z7.231 
N690 X148.255 Y-18.385 Z7.268 
N691 X148.257 Y-18.418 Z7.305 
N692 X148.259 Y-18.450 Z7.342 
N693 X148.260 Y-18.482 Z7.380 
N694 X148.262 Y-18.514 Z7.417 
N695 X148.263 Y-18.547 Z7.454 
N696 X148.265 Y-18.579 Z7.491 
N697 X148.267 Y-18.611 Z7.528 
N698 X148.268 Y-18.643 Z7.565 
N699 X148.270 Y-18.676 Z7.602 
N700 X148.271 Y-18.708 Z7.639 
N701 X148.273 Y-18.740 Z7.676 
N702 X148.275 Y-18.772 Z7.713 
N703 X148.276 Y-18.805 Z7.750 
N704 X148.278 Y-18.837 Z7.788 
N705 X148.279 Y-18.869 Z7.825 
N706 X148.281 Y-18.901 Z7.862 
N707 X148.282 Y-18.934 Z7.899 
N708 X148.284 Y-18.966 Z7.936 
N709 X148.286 Y-18.998 Z7.973 
N710 X148.287 Y-19.030 Z8.010 
N711 X148.289 Y-19.063 Z8.047 
N712 X148.290 Y-19.095 Z8.084 
N713 X148.292 Y-19.127 Z8.121 
N714 X148.294 Y-19.159 Z8.159 
N715 X148.295 Y-19.192 Z8.196 
N716 X148.297 Y-19.224 Z8.233 
N717 G40 X148.620 Y-25.781 Z15.776 F148
N718 X148.620 Y-25.781 Z15.776 
N719 G00 X148.620 Y-33.328 Z9.215 
N720 X148.258 Y-3.285 Z-22.526 
N721 X148.258 Y4.262 Z-15.965 
N722 ;on NNTA
N723 D3 
N724 G01 G41 X148.236 Y3.606 Z-15.210 F148
N725 G01 X148.236 Y3.606 Z-15.210 F148 
N726 X148.235 Y3.574 Z-15.173 
N727 X148.234 Y3.542 Z-15.136 
N728 X148.233 Y3.509 Z-15.099 
N729 X148.231 Y3.477 Z-15.062 
N730 X148.230 Y3.445 Z-15.025 
N731 X148.229 Y3.413 Z-14.988 
N732 X148.228 Y3.380 Z-14.951 
N733 X148.227 Y3.348 Z-14.914 
N734 X148.226 Y3.316 Z-14.876 
N735 X148.225 Y3.284 Z-14.839 
N736 X148.224 Y3.251 Z-14.802 
N737 X148.223 Y3.219 Z-14.765 
N738 X148.222 Y3.187 Z-14.728 
N739 X148.221 Y3.155 Z-14.691 
N740 X148.219 Y3.122 Z-14.654 
N741 X148.218 Y3.090 Z-14.617 
N742 X148.217 Y3.058 Z-14.580 
N743 X148.216 Y3.026 Z-14.542 
N744 X148.215 Y2.993 Z-14.505 
N745 X148.214 Y2.961 Z-14.468 
N746 X148.213 Y2.929 Z-14.431 
N747 X148.212 Y2.897 Z-14.394 
N748 X148.211 Y2.864 Z-14.357 
N749 X148.210 Y2.832 Z-14.320 
N750 X148.208 Y2.800 Z-14.283 
N751 X148.207 Y2.768 Z-14.246 
N752 X148.206 Y2.735 Z-14.208 
N753 X148.205 Y2.703 Z-14.171 
N754 X148.204 Y2.671 Z-14.134 
N755 X148.203 Y2.638 Z-14.097 
N756 X148.202 Y2.606 Z-14.060 
N757 X148.201 Y2.574 Z-14.023 
N758 X148.200 Y2.542 Z-13.986 
N759 X148.199 Y2.509 Z-13.949 
N760 X148.198 Y2.477 Z-13.912 
N761 X148.196 Y2.445 Z-13.875 
N762 X148.195 Y2.413 Z-13.837 
N763 X148.194 Y2.380 Z-13.800 
N764 X148.193 Y2.348 Z-13.763 
N765 X148.192 Y2.316 Z-13.726 
N766 X148.191 Y2.284 Z-13.689 
N767 X148.190 Y2.251 Z-13.652 
N768 X148.189 Y2.219 Z-13.615 
N769 X148.188 Y2.187 Z-13.578 
N770 X148.187 Y2.155 Z-13.541 
N771 X148.186 Y2.122 Z-13.503 
N772 X148.184 Y2.090 Z-13.466 
N773 X148.183 Y2.058 Z-13.429 
N774 X148.182 Y2.026 Z-13.392 
N775 X148.181 Y1.993 Z-13.355 
N776 X148.180 Y1.961 Z-13.318 
N777 X148.179 Y1.929 Z-13.281 
N778 X148.178 Y1.897 Z-13.244 
N779 X148.177 Y1.864 Z-13.207 
N780 X148.176 Y1.832 Z-13.169 
N781 X148.175 Y1.800 Z-13.132 
N782 X148.174 Y1.768 Z-13.095 
N783 X148.172 Y1.735 Z-13.058 
N784 X148.171 Y1.703 Z-13.021 
N785 X148.170 Y1.671 Z-12.984 
N786 X148.169 Y1.639 Z-12.947 
N787 X148.168 Y1.606 Z-12.910 
N788 X148.167 Y1.574 Z-12.873 
N789 X148.166 Y1.542 Z-12.835 
N790 X148.165 Y1.509 Z-12.798 
N791 X148.164 Y1.477 Z-12.761 
N792 X148.163 Y1.445 Z-12.724 
N793 X148.162 Y1.413 Z-12.687 
N794 X148.160 Y1.380 Z-12.650 
N795 X148.159 Y1.348 Z-12.613 
N796 X148.158 Y1.316 Z-12.576 
N797 X148.157 Y1.284 Z-12.539 
N798 X148.156 Y1.251 Z-12.502 
N799 X148.155 Y1.219 Z-12.464 
N800 X148.154 Y1.187 Z-12.427 
N801 X148.153 Y1.155 Z-12.390 
N802 X148.152 Y1.122 Z-12.353 
N803 X148.151 Y1.090 Z-12.316 
N804 X148.150 Y1.058 Z-12.279 
N805 X148.148 Y1.026 Z-12.242 
N806 X148.147 Y0.993 Z-12.205 
N807 X148.146 Y0.961 Z-12.168 
N808 X148.145 Y0.929 Z-12.130 
N809 X148.144 Y0.897 Z-12.093 
N810 X148.143 Y0.864 Z-12.056 
N811 X148.142 Y0.832 Z-12.019 
N812 X148.141 Y0.800 Z-11.982 
N813 X148.140 Y0.768 Z-11.945 
N814 X148.139 Y0.735 Z-11.908 
N815 X148.138 Y0.703 Z-11.871 
N816 X148.136 Y0.671 Z-11.834 
N817 X148.135 Y0.639 Z-11.796 
N818 X148.134 Y0.606 Z-11.759 
N819 X148.133 Y0.574 Z-11.722 
N820 X148.132 Y0.542 Z-11.685 
N821 X148.131 Y0.509 Z-11.648 
N822 X148.130 Y0.477 Z-11.611 
N823 X148.129 Y0.445 Z-11.574 
N824 X148.128 Y0.413 Z-11.537 
N825 X148.127 Y0.380 Z-11.500 
N826 X148.125 Y0.348 Z-11.463 
N827 X148.124 Y0.316 Z-11.425 
N828 X148.123 Y0.284 Z-11.388 
N829 X148.122 Y0.251 Z-11.351 
N830 X148.121 Y0.219 Z-11.314 
N831 X148.120 Y0.187 Z-11.277 
N832 X148.119 Y0.155 Z-11.240 
N833 X148.118 Y0.122 Z-11.203 
N834 X148.117 Y0.090 Z-11.166 
N835 X148.116 Y0.058 Z-11.129 
N836 X148.115 Y0.026 Z-11.091 
N837 X148.113 Y-0.007 Z-11.054 
N838 X148.112 Y-0.039 Z-11.017 
N839 X148.111 Y-0.071 Z-10.980 
N840 X148.110 Y-0.103 Z-10.943 
N841 X148.109 Y-0.136 Z-10.906 
N842 X148.108 Y-0.168 Z-10.869 
N843 X148.107 Y-0.200 Z-10.832 
N844 X148.106 Y-0.232 Z-10.795 
N845 X148.105 Y-0.265 Z-10.757 
N846 X148.104 Y-0.297 Z-10.720 
N847 X148.103 Y-0.329 Z-10.683 
N848 X148.101 Y-0.362 Z-10.646 
N849 X148.100 Y-0.394 Z-10.609 
N850 X148.099 Y-0.426 Z-10.572 
N851 X148.098 Y-0.459 Z-10.534 
N852 X148.097 Y-0.491 Z-10.497 
N853 X148.096 Y-0.523 Z-10.460 
N854 X148.095 Y-0.556 Z-10.423 
N855 X148.094 Y-0.588 Z-10.385 
N856 X148.093 Y-0.620 Z-10.348 
N857 X148.092 Y-0.653 Z-10.311 
N858 X148.091 Y-0.685 Z-10.274 
N859 X148.089 Y-0.717 Z-10.237 
N860 X148.088 Y-0.750 Z-10.199 
N861 X148.087 Y-0.782 Z-10.162 
N862 X148.086 Y-0.815 Z-10.125 
N863 X148.085 Y-0.847 Z-10.088 
N864 X148.084 Y-0.879 Z-10.051 
N865 X148.083 Y-0.912 Z-10.013 
N866 X148.082 Y-0.944 Z-9.976 
N867 X148.081 Y-0.976 Z-9.939 
N868 X148.080 Y-1.009 Z-9.902 
N869 X148.078 Y-1.041 Z-9.864 
N870 X148.077 Y-1.073 Z-9.827 
N871 X148.076 Y-1.106 Z-9.790 
N872 X148.075 Y-1.138 Z-9.753 
N873 X148.074 Y-1.170 Z-9.716 
N874 X148.073 Y-1.203 Z-9.678 
N875 X148.072 Y-1.235 Z-9.641 
N876 X148.071 Y-1.267 Z-9.604 
N877 X148.070 Y-1.300 Z-9.567 
N878 X148.069 Y-1.332 Z-9.529 
N879 X148.068 Y-1.365 Z-9.492 
N880 X148.066 Y-1.397 Z-9.455 
N881 X148.065 Y-1.429 Z-9.418 
N882 X148.064 Y-1.462 Z-9.381 
N883 X148.063 Y-1.494 Z-9.343 
N884 X148.062 Y-1.526 Z-9.306 
N885 X148.061 Y-1.559 Z-9.269 
N886 X148.060 Y-1.591 Z-9.232 
N887 X148.059 Y-1.623 Z-9.194 
N888 X148.058 Y-1.656 Z-9.157 
N889 X148.057 Y-1.688 Z-9.120 
N890 X148.055 Y-1.720 Z-9.083 
N891 X148.054 Y-1.753 Z-9.046 
N892 X148.053 Y-1.785 Z-9.008 
N893 X148.052 Y-1.818 Z-8.971 
N894 X148.051 Y-1.850 Z-8.934 
N895 X148.050 Y-1.882 Z-8.897 
N896 X148.049 Y-1.915 Z-8.859 
N897 X148.048 Y-1.947 Z-8.822 
N898 X148.047 Y-1.979 Z-8.785 
N899 X148.046 Y-2.012 Z-8.748 
N900 X148.044 Y-2.044 Z-8.711 
N901 X148.043 Y-2.076 Z-8.673 
N902 X148.042 Y-2.109 Z-8.636 
N903 X148.041 Y-2.141 Z-8.599 
N904 X148.040 Y-2.173 Z-8.562 
N905 X148.039 Y-2.206 Z-8.524 
N906 X148.038 Y-2.238 Z-8.487 
N907 X148.037 Y-2.270 Z-8.450 
N908 X148.036 Y-2.303 Z-8.413 
N909 X148.035 Y-2.335 Z-8.376 
N910 X148.034 Y-2.368 Z-8.338 
N911 X148.032 Y-2.400 Z-8.301 
N912 X148.031 Y-2.432 Z-8.264 
N913 X148.030 Y-2.465 Z-8.227 
N914 X148.029 Y-2.497 Z-8.189 
N915 X148.028 Y-2.529 Z-8.152 
N916 X148.027 Y-2.562 Z-8.115 
N917 X148.026 Y-2.594 Z-8.078 
N918 X148.025 Y-2.626 Z-8.041 
N919 X148.024 Y-2.659 Z-8.003 
N920 X148.023 Y-2.691 Z-7.966 
N921 X148.021 Y-2.723 Z-7.929 
N922 X148.020 Y-2.756 Z-7.892 
N923 X148.019 Y-2.788 Z-7.855 
N924 X148.018 Y-2.821 Z-7.817 
N925 X148.017 Y-2.853 Z-7.780 
N926 X148.016 Y-2.885 Z-7.743 
N927 X148.015 Y-2.918 Z-7.706 
N928 X148.014 Y-2.950 Z-7.668 
N929 X148.013 Y-2.982 Z-7.631 
N930 X148.012 Y-3.015 Z-7.594 
N931 X148.011 Y-3.047 Z-7.557 
N932 X148.009 Y-3.079 Z-7.520 
N933 X148.008 Y-3.112 Z-7.482 
N934 X148.007 Y-3.144 Z-7.445 
N935 X148.006 Y-3.176 Z-7.408 
N936 X148.005 Y-3.209 Z-7.371 
N937 X148.004 Y-3.241 Z-7.333 
N938 X148.003 Y-3.273 Z-7.296 
N939 X148.002 Y-3.306 Z-7.259 
N940 X148.001 Y-3.338 Z-7.222 
N941 X148.000 Y-3.371 Z-7.185 
N942 X147.998 Y-3.403 Z-7.147 
N943 X147.997 Y-3.435 Z-7.110 
N944 X147.996 Y-3.468 Z-7.073 
N945 X147.995 Y-3.500 Z-7.036 
N946 X147.994 Y-3.532 Z-6.998 
N947 X147.993 Y-3.565 Z-6.961 
N948 X147.992 Y-3.597 Z-6.924 
N949 X147.991 Y-3.629 Z-6.887 
N950 X147.990 Y-3.662 Z-6.850 
N951 X147.989 Y-3.694 Z-6.812 
N952 X147.989 Y-3.726 Z-6.775 
N953 X147.989 Y-3.759 Z-6.738 
N954 X147.988 Y-3.791 Z-6.701 
N955 X147.988 Y-3.824 Z-6.663 
N956 X147.987 Y-3.856 Z-6.626 
N957 X147.987 Y-3.888 Z-6.589 
N958 X147.986 Y-3.921 Z-6.552 
N959 X147.986 Y-3.953 Z-6.515 
N960 X147.985 Y-3.985 Z-6.477 
N961 X147.985 Y-4.018 Z-6.440 
N962 X147.985 Y-4.050 Z-6.403 
N963 X147.984 Y-4.082 Z-6.366 
N964 X147.984 Y-4.115 Z-6.328 
N965 X147.983 Y-4.147 Z-6.291 
N966 X147.983 Y-4.180 Z-6.254 
N967 X147.982 Y-4.212 Z-6.217 
N968 X147.982 Y-4.244 Z-6.179 
N969 X147.981 Y-4.277 Z-6.142 
N970 X147.981 Y-4.309 Z-6.105 
N971 X147.980 Y-4.341 Z-6.068 
N972 X147.980 Y-4.374 Z-6.031 
N973 X147.980 Y-4.406 Z-5.993 
N974 X147.979 Y-4.438 Z-5.956 
N975 X147.979 Y-4.471 Z-5.919 
N976 X147.978 Y-4.503 Z-5.882 
N977 X147.978 Y-4.536 Z-5.844 
N978 X147.977 Y-4.568 Z-5.807 
N979 X147.977 Y-4.600 Z-5.770 
N980 X147.976 Y-4.633 Z-5.733 
N981 X147.976 Y-4.665 Z-5.695 
N982 X147.976 Y-4.697 Z-5.658 
N983 X147.975 Y-4.730 Z-5.621 
N984 X147.975 Y-4.762 Z-5.584 
N985 X147.974 Y-4.794 Z-5.547 
N986 X147.974 Y-4.827 Z-5.509 
N987 X147.973 Y-4.859 Z-5.472 
N988 X147.973 Y-4.892 Z-5.435 
N989 X147.972 Y-4.924 Z-5.398 
N990 X147.972 Y-4.956 Z-5.360 
N991 X147.972 Y-4.989 Z-5.323 
N992 X147.971 Y-5.021 Z-5.286 
N993 X147.971 Y-5.053 Z-5.249 
N994 X147.970 Y-5.086 Z-5.212 
N995 X147.970 Y-5.118 Z-5.174 
N996 X147.969 Y-5.150 Z-5.137 
N997 X147.969 Y-5.183 Z-5.100 
N998 X147.968 Y-5.215 Z-5.063 
N999 X147.968 Y-5.247 Z-5.025 
N1000 X147.968 Y-5.280 Z-4.988 
N1001 X147.967 Y-5.312 Z-4.951 
N1002 X147.967 Y-5.345 Z-4.914 
N1003 X147.966 Y-5.377 Z-4.876 
N1004 X147.966 Y-5.409 Z-4.839 
N1005 X147.965 Y-5.442 Z-4.802 
N1006 X147.965 Y-5.474 Z-4.765 
N1007 X147.964 Y-5.506 Z-4.728 
N1008 X147.964 Y-5.539 Z-4.690 
N1009 X147.964 Y-5.571 Z-4.653 
N1010 X147.963 Y-5.603 Z-4.616 
N1011 X147.963 Y-5.636 Z-4.579 
N1012 X147.962 Y-5.668 Z-4.541 
N1013 X147.962 Y-5.701 Z-4.504 
N1014 X147.961 Y-5.733 Z-4.467 
N1015 X147.961 Y-5.765 Z-4.430 
N1016 X147.960 Y-5.798 Z-4.393 
N1017 X147.960 Y-5.830 Z-4.355 
N1018 X147.960 Y-5.862 Z-4.318 
N1019 X147.959 Y-5.895 Z-4.281 
N1020 X147.959 Y-5.927 Z-4.244 
N1021 X147.958 Y-5.959 Z-4.206 
N1022 X147.958 Y-5.992 Z-4.169 
N1023 X147.957 Y-6.024 Z-4.132 
N1024 X147.957 Y-6.057 Z-4.095 
N1025 X147.956 Y-6.089 Z-4.057 
N1026 X147.956 Y-6.121 Z-4.020 
N1027 X147.956 Y-6.154 Z-3.983 
N1028 X147.955 Y-6.186 Z-3.946 
N1029 X147.955 Y-6.218 Z-3.909 
N1030 X147.954 Y-6.251 Z-3.871 
N1031 X147.954 Y-6.283 Z-3.834 
N1032 X147.953 Y-6.315 Z-3.797 
N1033 X147.953 Y-6.348 Z-3.760 
N1034 X147.952 Y-6.380 Z-3.722 
N1035 X147.952 Y-6.413 Z-3.685 
N1036 X147.952 Y-6.445 Z-3.648 
N1037 X147.952 Y-6.477 Z-3.611 
N1038 X147.952 Y-6.510 Z-3.574 
N1039 X147.952 Y-6.542 Z-3.536 
N1040 X147.952 Y-6.574 Z-3.499 
N1041 X147.953 Y-6.607 Z-3.462 
N1042 X147.953 Y-6.639 Z-3.425 
N1043 X147.953 Y-6.671 Z-3.387 
N1044 X147.953 Y-6.704 Z-3.350 
N1045 X147.953 Y-6.736 Z-3.313 
N1046 X147.954 Y-6.768 Z-3.276 
N1047 X147.954 Y-6.801 Z-3.238 
N1048 X147.954 Y-6.833 Z-3.201 
N1049 X147.954 Y-6.866 Z-3.164 
N1050 X147.954 Y-6.898 Z-3.127 
N1051 X147.955 Y-6.930 Z-3.090 
N1052 X147.955 Y-6.963 Z-3.052 
N1053 X147.955 Y-6.995 Z-3.015 
N1054 X147.955 Y-7.027 Z-2.978 
N1055 X147.955 Y-7.060 Z-2.941 
N1056 X147.956 Y-7.092 Z-2.903 
N1057 X147.956 Y-7.124 Z-2.866 
N1058 X147.956 Y-7.157 Z-2.829 
N1059 X147.956 Y-7.189 Z-2.792 
N1060 X147.956 Y-7.222 Z-2.754 
N1061 X147.957 Y-7.254 Z-2.717 
N1062 X147.957 Y-7.286 Z-2.680 
N1063 X147.957 Y-7.319 Z-2.643 
N1064 X147.957 Y-7.351 Z-2.606 
N1065 X147.957 Y-7.383 Z-2.568 
N1066 X147.958 Y-7.416 Z-2.531 
N1067 X147.958 Y-7.448 Z-2.494 
N1068 X147.958 Y-7.480 Z-2.457 
N1069 X147.958 Y-7.513 Z-2.419 
N1070 X147.958 Y-7.545 Z-2.382 
N1071 X147.959 Y-7.578 Z-2.345 
N1072 X147.959 Y-7.610 Z-2.308 
N1073 X147.959 Y-7.642 Z-2.270 
N1074 X147.959 Y-7.675 Z-2.233 
N1075 X147.959 Y-7.707 Z-2.196 
N1076 X147.959 Y-7.739 Z-2.159 
N1077 X147.960 Y-7.772 Z-2.122 
N1078 X147.960 Y-7.804 Z-2.084 
N1079 X147.960 Y-7.836 Z-2.047 
N1080 X147.960 Y-7.869 Z-2.010 
N1081 X147.960 Y-7.901 Z-1.973 
N1082 X147.961 Y-7.934 Z-1.935 
N1083 X147.961 Y-7.966 Z-1.898 
N1084 X147.961 Y-7.998 Z-1.861 
N1085 X147.961 Y-8.031 Z-1.824 
N1086 X147.961 Y-8.063 Z-1.787 
N1087 X147.962 Y-8.095 Z-1.749 
N1088 X147.962 Y-8.128 Z-1.712 
N1089 X147.962 Y-8.160 Z-1.675 
N1090 X147.962 Y-8.192 Z-1.638 
N1091 X147.962 Y-8.225 Z-1.600 
N1092 X147.963 Y-8.257 Z-1.563 
N1093 X147.963 Y-8.290 Z-1.526 
N1094 X147.963 Y-8.322 Z-1.489 
N1095 X147.963 Y-8.354 Z-1.451 
N1096 X147.963 Y-8.387 Z-1.414 
N1097 X147.964 Y-8.419 Z-1.377 
N1098 X147.964 Y-8.451 Z-1.340 
N1099 X147.964 Y-8.484 Z-1.303 
N1100 X147.964 Y-8.516 Z-1.265 
N1101 X147.964 Y-8.548 Z-1.228 
N1102 X147.965 Y-8.581 Z-1.191 
N1103 X147.965 Y-8.613 Z-1.154 
N1104 X147.965 Y-8.646 Z-1.116 
N1105 X147.965 Y-8.678 Z-1.079 
N1106 X147.965 Y-8.710 Z-1.042 
N1107 X147.966 Y-8.743 Z-1.005 
N1108 X147.966 Y-8.775 Z-0.967 
N1109 X147.966 Y-8.807 Z-0.930 
N1110 X147.966 Y-8.840 Z-0.893 
N1111 X147.966 Y-8.872 Z-0.856 
N1112 X147.967 Y-8.904 Z-0.819 
N1113 X147.967 Y-8.937 Z-0.781 
N1114 X147.967 Y-8.969 Z-0.744 
N1115 X147.967 Y-9.002 Z-0.707 
N1116 X147.967 Y-9.034 Z-0.670 
N1117 X147.968 Y-9.066 Z-0.632 
N1118 X147.968 Y-9.099 Z-0.595 
N1119 X147.968 Y-9.131 Z-0.558 
N1120 X147.968 Y-9.163 Z-0.521 
N1121 X147.968 Y-9.196 Z-0.483 
N1122 X147.968 Y-9.228 Z-0.446 
N1123 X147.969 Y-9.260 Z-0.409 
N1124 X147.969 Y-9.293 Z-0.372 
N1125 X147.969 Y-9.325 Z-0.335 
N1126 X147.969 Y-9.358 Z-0.297 
N1127 X147.969 Y-9.390 Z-0.260 
N1128 X147.970 Y-9.422 Z-0.223 
N1129 X147.970 Y-9.455 Z-0.186 
N1130 X147.970 Y-9.487 Z-0.148 
N1131 X147.970 Y-9.519 Z-0.111 
N1132 X147.970 Y-9.552 Z-0.074 
N1133 X147.971 Y-9.584 Z-0.037 
N1134 X147.971 Y-9.616 Z0.000 
N1135 X147.971 Y-9.649 Z0.038 
N1136 X147.971 Y-9.681 Z0.075 
N1137 X147.972 Y-9.714 Z0.112 
N1138 X147.973 Y-9.746 Z0.149 
N1139 X147.974 Y-9.778 Z0.187 
N1140 X147.975 Y-9.811 Z0.224 
N1141 X147.976 Y-9.843 Z0.261 
N1142 X147.977 Y-9.875 Z0.298 
N1143 X147.978 Y-9.908 Z0.336 
N1144 X147.979 Y-9.940 Z0.373 
N1145 X147.980 Y-9.972 Z0.410 
N1146 X147.980 Y-10.005 Z0.447 
N1147 X147.981 Y-10.037 Z0.484 
N1148 X147.982 Y-10.069 Z0.522 
N1149 X147.983 Y-10.102 Z0.559 
N1150 X147.984 Y-10.134 Z0.596 
N1151 X147.985 Y-10.167 Z0.633 
N1152 X147.986 Y-10.199 Z0.671 
N1153 X147.987 Y-10.231 Z0.708 
N1154 X147.988 Y-10.264 Z0.745 
N1155 X147.989 Y-10.296 Z0.782 
N1156 X147.990 Y-10.328 Z0.819 
N1157 X147.991 Y-10.361 Z0.857 
N1158 X147.992 Y-10.393 Z0.894 
N1159 X147.993 Y-10.425 Z0.931 
N1160 X147.994 Y-10.458 Z0.968 
N1161 X147.995 Y-10.490 Z1.006 
N1162 X147.995 Y-10.522 Z1.043 
N1163 X147.996 Y-10.555 Z1.080 
N1164 X147.997 Y-10.587 Z1.117 
N1165 X147.998 Y-10.620 Z1.154 
N1166 X147.999 Y-10.652 Z1.192 
N1167 X148.000 Y-10.684 Z1.229 
N1168 X148.001 Y-10.717 Z1.266 
N1169 X148.002 Y-10.749 Z1.303 
N1170 X148.003 Y-10.781 Z1.341 
N1171 X148.004 Y-10.814 Z1.378 
N1172 X148.005 Y-10.846 Z1.415 
N1173 X148.006 Y-10.878 Z1.452 
N1174 X148.007 Y-10.911 Z1.489 
N1175 X148.008 Y-10.943 Z1.527 
N1176 X148.009 Y-10.975 Z1.564 
N1177 X148.010 Y-11.008 Z1.601 
N1178 X148.010 Y-11.040 Z1.638 
N1179 X148.011 Y-11.073 Z1.676 
N1180 X148.012 Y-11.105 Z1.713 
N1181 X148.013 Y-11.137 Z1.750 
N1182 X148.014 Y-11.170 Z1.787 
N1183 X148.015 Y-11.202 Z1.824 
N1184 X148.016 Y-11.234 Z1.862 
N1185 X148.017 Y-11.267 Z1.899 
N1186 X148.018 Y-11.299 Z1.936 
N1187 X148.019 Y-11.331 Z1.973 
N1188 X148.020 Y-11.364 Z2.011 
N1189 X148.021 Y-11.396 Z2.048 
N1190 X148.022 Y-11.428 Z2.085 
N1191 X148.023 Y-11.461 Z2.122 
N1192 X148.024 Y-11.493 Z2.159 
N1193 X148.025 Y-11.526 Z2.197 
N1194 X148.025 Y-11.558 Z2.234 
N1195 X148.026 Y-11.590 Z2.271 
N1196 X148.027 Y-11.623 Z2.308 
N1197 X148.028 Y-11.655 Z2.346 
N1198 X148.029 Y-11.687 Z2.383 
N1199 X148.030 Y-11.720 Z2.420 
N1200 X148.031 Y-11.752 Z2.457 
N1201 X148.032 Y-11.784 Z2.494 
N1202 X148.033 Y-11.817 Z2.532 
N1203 X148.034 Y-11.849 Z2.569 
N1204 X148.035 Y-11.881 Z2.606 
N1205 X148.036 Y-11.914 Z2.643 
N1206 X148.037 Y-11.946 Z2.681 
N1207 X148.038 Y-11.979 Z2.718 
N1208 X148.039 Y-12.011 Z2.755 
N1209 X148.040 Y-12.043 Z2.792 
N1210 X148.040 Y-12.076 Z2.829 
N1211 X148.041 Y-12.108 Z2.867 
N1212 X148.042 Y-12.140 Z2.904 
N1213 X148.043 Y-12.173 Z2.941 
N1214 X148.044 Y-12.205 Z2.978 
N1215 X148.045 Y-12.237 Z3.016 
N1216 X148.046 Y-12.270 Z3.053 
N1217 X148.047 Y-12.302 Z3.090 
N1218 X148.048 Y-12.334 Z3.127 
N1219 X148.049 Y-12.367 Z3.164 
N1220 X148.050 Y-12.399 Z3.202 
N1221 X148.051 Y-12.432 Z3.239 
N1222 X148.052 Y-12.464 Z3.276 
N1223 X148.053 Y-12.496 Z3.313 
N1224 X148.054 Y-12.529 Z3.351 
N1225 X148.055 Y-12.561 Z3.388 
N1226 X148.055 Y-12.593 Z3.425 
N1227 X148.056 Y-12.626 Z3.462 
N1228 X148.057 Y-12.658 Z3.499 
N1229 X148.058 Y-12.690 Z3.537 
N1230 X148.059 Y-12.723 Z3.574 
N1231 X148.060 Y-12.755 Z3.611 
N1232 X148.061 Y-12.787 Z3.648 
N1233 X148.062 Y-12.820 Z3.686 
N1234 X148.063 Y-12.852 Z3.723 
N1235 X148.064 Y-12.885 Z3.760 
N1236 X148.065 Y-12.917 Z3.797 
N1237 X148.066 Y-12.949 Z3.834 
N1238 X148.067 Y-12.982 Z3.872 
N1239 X148.068 Y-13.014 Z3.909 
N1240 X148.069 Y-13.046 Z3.946 
N1241 X148.070 Y-13.079 Z3.983 
N1242 X148.070 Y-13.111 Z4.021 
N1243 X148.071 Y-13.143 Z4.058 
N1244 X148.072 Y-13.176 Z4.095 
N1245 X148.073 Y-13.208 Z4.132 
N1246 X148.074 Y-13.240 Z4.169 
N1247 X148.075 Y-13.273 Z4.207 
N1248 X148.076 Y-13.305 Z4.244 
N1249 X148.077 Y-13.338 Z4.281 
N1250 X148.078 Y-13.370 Z4.318 
N1251 X148.079 Y-13.402 Z4.356 
N1252 X148.080 Y-13.435 Z4.393 
N1253 X148.082 Y-13.467 Z4.430 
N1254 X148.083 Y-13.499 Z4.467 
N1255 X148.085 Y-13.532 Z4.504 
N1256 X148.087 Y-13.564 Z4.542 
N1257 X148.088 Y-13.596 Z4.579 
N1258 X148.090 Y-13.629 Z4.616 
N1259 X148.091 Y-13.661 Z4.653 
N1260 X148.093 Y-13.693 Z4.690 
N1261 X148.095 Y-13.726 Z4.728 
N1262 X148.096 Y-13.758 Z4.765 
N1263 X148.098 Y-13.790 Z4.802 
N1264 X148.099 Y-13.823 Z4.839 
N1265 X148.101 Y-13.855 Z4.877 
N1266 X148.103 Y-13.887 Z4.914 
N1267 X148.104 Y-13.920 Z4.951 
N1268 X148.106 Y-13.952 Z4.988 
N1269 X148.107 Y-13.984 Z5.025 
N1270 X148.109 Y-14.017 Z5.063 
N1271 X148.111 Y-14.049 Z5.100 
N1272 X148.112 Y-14.081 Z5.137 
N1273 X148.114 Y-14.114 Z5.174 
N1274 X148.115 Y-14.146 Z5.211 
N1275 X148.117 Y-14.179 Z5.249 
N1276 X148.119 Y-14.211 Z5.286 
N1277 X148.120 Y-14.243 Z5.323 
N1278 X148.122 Y-14.276 Z5.360 
N1279 X148.123 Y-14.308 Z5.397 
N1280 X148.125 Y-14.340 Z5.435 
N1281 X148.127 Y-14.373 Z5.472 
N1282 X148.128 Y-14.405 Z5.509 
N1283 X148.130 Y-14.437 Z5.546 
N1284 X148.131 Y-14.470 Z5.583 
N1285 X148.133 Y-14.502 Z5.621 
N1286 X148.134 Y-14.534 Z5.658 
N1287 X148.136 Y-14.567 Z5.695 
N1288 X148.138 Y-14.599 Z5.732 
N1289 X148.139 Y-14.631 Z5.770 
N1290 X148.141 Y-14.664 Z5.807 
N1291 X148.142 Y-14.696 Z5.844 
N1292 X148.144 Y-14.728 Z5.881 
N1293 X148.146 Y-14.761 Z5.918 
N1294 X148.147 Y-14.793 Z5.956 
N1295 X148.149 Y-14.825 Z5.993 
N1296 X148.150 Y-14.858 Z6.030 
N1297 X148.152 Y-14.890 Z6.067 
N1298 X148.154 Y-14.922 Z6.104 
N1299 X148.155 Y-14.955 Z6.142 
N1300 X148.157 Y-14.987 Z6.179 
N1301 X148.158 Y-15.020 Z6.216 
N1302 X148.160 Y-15.052 Z6.253 
N1303 X148.162 Y-15.084 Z6.290 
N1304 X148.163 Y-15.117 Z6.328 
N1305 X148.165 Y-15.149 Z6.365 
N1306 X148.166 Y-15.181 Z6.402 
N1307 X148.168 Y-15.214 Z6.439 
N1308 X148.170 Y-15.246 Z6.477 
N1309 X148.171 Y-15.278 Z6.514 
N1310 X148.173 Y-15.311 Z6.551 
N1311 X148.174 Y-15.343 Z6.588 
N1312 X148.176 Y-15.375 Z6.625 
N1313 X148.178 Y-15.408 Z6.663 
N1314 X148.179 Y-15.440 Z6.700 
N1315 X148.181 Y-15.472 Z6.737 
N1316 X148.182 Y-15.505 Z6.774 
N1317 X148.184 Y-15.537 Z6.811 
N1318 X148.186 Y-15.569 Z6.849 
N1319 X148.187 Y-15.602 Z6.886 
N1320 X148.189 Y-15.634 Z6.923 
N1321 X148.190 Y-15.666 Z6.960 
N1322 X148.192 Y-15.699 Z6.997 
N1323 X148.193 Y-15.731 Z7.035 
N1324 X148.195 Y-15.763 Z7.072 
N1325 X148.197 Y-15.796 Z7.109 
N1326 X148.198 Y-15.828 Z7.146 
N1327 X148.200 Y-15.861 Z7.184 
N1328 X148.201 Y-15.893 Z7.221 
N1329 X148.203 Y-15.925 Z7.258 
N1330 X148.205 Y-15.957 Z7.295 
N1331 X148.206 Y-15.990 Z7.332 
N1332 X148.208 Y-16.022 Z7.369 
N1333 X148.209 Y-16.054 Z7.406 
N1334 X148.211 Y-16.086 Z7.443 
N1335 X148.213 Y-16.119 Z7.480 
N1336 X148.214 Y-16.151 Z7.517 
N1337 X148.216 Y-16.183 Z7.554 
N1338 X148.217 Y-16.215 Z7.592 
N1339 X148.219 Y-16.248 Z7.629 
N1340 X148.221 Y-16.280 Z7.666 
N1341 X148.222 Y-16.312 Z7.703 
N1342 X148.224 Y-16.344 Z7.740 
N1343 X148.225 Y-16.377 Z7.777 
N1344 X148.227 Y-16.409 Z7.814 
N1345 X148.228 Y-16.441 Z7.851 
N1346 X148.230 Y-16.473 Z7.888 
N1347 X148.232 Y-16.506 Z7.925 
N1348 X148.233 Y-16.538 Z7.963 
N1349 X148.235 Y-16.570 Z8.000 
N1350 X148.236 Y-16.602 Z8.037 
N1351 X148.238 Y-16.634 Z8.074 
N1352 X148.240 Y-16.667 Z8.111 
N1353 X148.241 Y-16.699 Z8.148 
N1354 X148.243 Y-16.731 Z8.185 
N1355 X148.244 Y-16.763 Z8.222 
N1356 X148.246 Y-16.796 Z8.259 
N1357 X148.248 Y-16.828 Z8.296 
N1358 X148.249 Y-16.860 Z8.334 
N1359 X148.251 Y-16.892 Z8.371 
N1360 X148.252 Y-16.925 Z8.408 
N1361 X148.254 Y-16.957 Z8.445 
N1362 X148.255 Y-16.989 Z8.482 
N1363 X148.257 Y-17.021 Z8.519 
N1364 X148.259 Y-17.054 Z8.556 
N1365 X148.260 Y-17.086 Z8.593 
N1366 X148.262 Y-17.118 Z8.630 
N1367 X148.263 Y-17.150 Z8.667 
N1368 X148.265 Y-17.183 Z8.705 
N1369 X148.267 Y-17.215 Z8.742 
N1370 X148.268 Y-17.247 Z8.779 
N1371 X148.270 Y-17.279 Z8.816 
N1372 X148.271 Y-17.312 Z8.853 
N1373 X148.273 Y-17.344 Z8.890 
N1374 X148.275 Y-17.376 Z8.927 
N1375 X148.276 Y-17.408 Z8.964 
N1376 X148.278 Y-17.441 Z9.001 
N1377 X148.279 Y-17.473 Z9.038 
N1378 X148.281 Y-17.505 Z9.075 
N1379 X148.282 Y-17.537 Z9.113 
N1380 X148.284 Y-17.570 Z9.150 
N1381 X148.286 Y-17.602 Z9.187 
N1382 X148.287 Y-17.634 Z9.224 
N1383 X148.289 Y-17.666 Z9.261 
N1384 X148.290 Y-17.699 Z9.298 
N1385 X148.292 Y-17.731 Z9.335 
N1386 X148.294 Y-17.763 Z9.372 
N1387 X148.295 Y-17.795 Z9.409 
N1388 X148.297 Y-17.828 Z9.446 
N1389 G40 X148.620 Y-24.385 Z16.990 F148
N1390 X148.620 Y-24.385 Z16.990 
N1391 G00 X148.620 Y-62.120 Z-15.813 
RAPORT("T13732","Side Milling:133 End")
N1393 ;trailer : concat=None
; points cnt = 1330
N1394 M9 ; chlodziwo wyl.
N1395 M9 ; chlodziwo wyl.
N1396 MSG (" --- KONIEC PROGRAMU --- ")
N1397 TRANS
N1398 G54
N1399 FGROUP()
N1400 TRAFOOF
N1401 STOPRE
N1402 G0 G53 D0 Z290.0 M9 M5
N1403 G0 G53 Y150 A0 B0
N1404 
