N10 ; PROGRAM NAME: 1373239
N11 ; ORDER       : 13732
N12 ; OPER. NAME  : Side Milling:144
N13 ; OPER. DESCR.: Side Milling/czolo nozki po luku wk
N14 ; OPER. TYPE  : sideMill
N15 ; GEO. OPTION : 1
N16 ; MACHINE     : SH_HX151_24_SIM840D
N17 ;             : STARRAG_HECKERT_5axis_finish_milling_machine
N18 ; CONTROL     : SINUMERIK 840D
N19 ; created:   2021-11-09 14:58:01.600492
;-------DODATKOWE DANE-------------------
; PROGRAMISTA : Mariusz Orzechowski
; PARTID      : 132T008743P1005_-
;  ap         : 22.0
;  ae         : 0.05
;  lean_angle : 0.0
;  fin_offset : -6.0
;----------------------------------------
N20 ;----------------------------------------
RAPORT("T13732","Side Milling:144")
N21 TRAFOOF
N22 D0
N23 G90 G94
N24 STOPRE
N25 M9 ; chlodziwo wyl
N26 ; --- Side Milling:144 - Side Milling/czolo nozki po luku wk ---
N28 ;ToolChange : concat=None ,current_tdmid=None, PP.tdmId=958050
N29 MSG(" TLID=958050 D=9.5 R=1.0 Ang=0.0 Len=129.0 ")
N30 TRAFOOF
N31 D0
N32 G0 G53 Z290 B0
N33 G0 X200
N34 G0 Y150
N35 T="7758050"
N36 G0 X500
RAPORT("T13732","ToolChangeStart 7758050")
N37 M6
RAPORT("T13732","ToolChangeEnd")
N38 ; (Preloading tool)
N39 T="7757453"
N40 G0 X200
N41 STOPRE
N42 S2546 M03
N43 STOPRE
N44 TOL(0.1,1,1)
N45 G0 X134.526 A311.0000
N46 TRAORI
N47 G54 D1
N48 ;tol5=0.15
N49 D1 
STOPRE
E_ZDARZ=300007
;ACS_FINISH_ROOT_FRONT=7758050
STOPRE
;UWAGA : ZMIENIONA TOLERANCJA OSI A i B, ruchy osi A i B beda usuniete : TOL5=0.15
N50 ; DELTA A > 40.1
N51 TRAFOOF
N52 STOPRE
N53 G0 G53 D0 Z265.000
N54 G1 G53 A311.0000 F10000
N55 TRAORI
N56 G54 D1
N57 TRANS 
N58 G00 X134.526 Y28.109 Z51.442 A311.0000 BBBB0.0000 
N59 M342 ; chlodziwo woda
N60 X134.526 Y-9.626 Z18.639 
N61 ;finish FSE
N62 G01 G41 X134.501 Y-8.970 Z17.885 FF318
N63 G01 X134.501 Y-8.970 Z17.885 F318 
N64 X134.498 Y-8.867 Z17.766 
N65 X134.494 Y-8.763 Z17.646 
N66 X134.490 Y-8.660 Z17.527 
N67 X134.486 Y-8.556 Z17.408 A5
N68 X134.482 Y-8.452 Z17.289 
N69 X134.478 Y-8.349 Z17.170 
N70 X134.474 Y-8.245 Z17.051 
N71 X134.471 Y-8.142 Z16.932 
N72 X134.467 Y-8.038 Z16.813 
N73 X134.463 Y-7.935 Z16.693 
N74 X134.459 Y-7.831 Z16.574 
N75 X134.455 Y-7.728 Z16.455 
N76 X134.451 Y-7.624 Z16.336 
N77 X134.448 Y-7.520 Z16.217 
N78 X134.444 Y-7.417 Z16.098 B1
N79 X134.440 Y-7.313 Z15.979 
N80 X134.436 Y-7.210 Z15.860 
N81 X134.432 Y-7.106 Z15.740 
N82 X134.428 Y-7.003 Z15.621 
N83 X134.424 Y-6.899 Z15.502 
N84 X134.421 Y-6.795 Z15.382 
N85 X134.417 Y-6.691 Z15.263 
N86 X134.413 Y-6.587 Z15.143 
N87 X134.409 Y-6.483 Z15.024 
N88 X134.405 Y-6.380 Z14.905 
N89 X134.401 Y-6.276 Z14.785 
N90 X134.397 Y-6.172 Z14.666 
N91 X134.394 Y-6.068 Z14.546 
N92 X134.390 Y-5.964 Z14.427 
N93 X134.386 Y-5.860 Z14.307 
N94 X134.382 Y-5.757 Z14.188 
N95 X134.378 Y-5.653 Z14.068 
N96 X134.374 Y-5.549 Z13.949 
N97 X134.370 Y-5.445 Z13.829 
N98 X134.367 Y-5.341 Z13.710 
N99 X134.363 Y-5.237 Z13.590 
N100 X134.359 Y-5.133 Z13.471 
N101 X134.355 Y-5.030 Z13.352 
N102 X134.351 Y-4.926 Z13.232 
N103 X134.347 Y-4.822 Z13.113 
N104 X134.344 Y-4.718 Z12.993 
N105 X134.340 Y-4.614 Z12.874 
N106 X134.336 Y-4.510 Z12.754 
N107 X134.332 Y-4.407 Z12.635 
N108 X134.328 Y-4.303 Z12.515 
N109 X134.324 Y-4.199 Z12.396 
N110 X134.320 Y-4.095 Z12.276 
N111 X134.317 Y-3.991 Z12.157 
N112 X134.313 Y-3.887 Z12.037 
N113 X134.309 Y-3.783 Z11.917 
N114 X134.305 Y-3.678 Z11.797 
N115 X134.301 Y-3.574 Z11.677 
N116 X134.297 Y-3.469 Z11.557 
N117 X134.294 Y-3.365 Z11.436 
N118 X134.290 Y-3.260 Z11.316 
N119 X134.287 Y-3.156 Z11.196 
N120 X134.283 Y-3.051 Z11.076 
N121 X134.280 Y-2.947 Z10.956 
N122 X134.277 Y-2.842 Z10.835 
N123 X134.273 Y-2.738 Z10.715 
N124 X134.270 Y-2.633 Z10.595 
N125 X134.267 Y-2.529 Z10.475 
N126 X134.264 Y-2.424 Z10.355 
N127 X134.261 Y-2.320 Z10.234 
N128 X134.258 Y-2.215 Z10.114 
N129 X134.256 Y-2.111 Z9.994 
N130 X134.253 Y-2.006 Z9.874 
N131 X134.250 Y-1.902 Z9.753 
N132 X134.248 Y-1.797 Z9.633 
N133 X134.245 Y-1.693 Z9.513 
N134 X134.243 Y-1.588 Z9.393 
N135 X134.240 Y-1.484 Z9.273 
N136 X134.238 Y-1.379 Z9.152 
N137 X134.236 Y-1.275 Z9.032 
N138 X134.233 Y-1.170 Z8.912 
N139 X134.231 Y-1.066 Z8.792 
N140 X134.229 Y-0.961 Z8.671 
N141 X134.227 Y-0.857 Z8.551 
N142 X134.225 Y-0.752 Z8.431 
N143 X134.224 Y-0.648 Z8.311 
N144 X134.222 Y-0.543 Z8.190 
N145 X134.220 Y-0.439 Z8.070 
N146 X134.218 Y-0.334 Z7.950 
N147 X134.217 Y-0.230 Z7.830 
N148 X134.215 Y-0.125 Z7.710 
N149 X134.214 Y-0.021 Z7.589 
N150 X134.213 Y0.084 Z7.469 
N151 X134.211 Y0.188 Z7.349 
N152 X134.210 Y0.293 Z7.229 
N153 X134.209 Y0.397 Z7.108 
N154 X134.208 Y0.502 Z6.988 
N155 X134.207 Y0.607 Z6.868 
N156 X134.206 Y0.711 Z6.748 
N157 X134.205 Y0.816 Z6.627 
N158 X134.204 Y0.920 Z6.507 
N159 X134.204 Y1.025 Z6.387 
N160 X134.203 Y1.129 Z6.267 
N161 X134.202 Y1.234 Z6.146 
N162 X134.202 Y1.338 Z6.026 
N163 X134.201 Y1.443 Z5.906 
N164 X134.201 Y1.547 Z5.786 
N165 X134.201 Y1.652 Z5.666 
N166 X134.200 Y1.756 Z5.545 
N167 X134.200 Y1.861 Z5.425 
N168 X134.200 Y1.965 Z5.305 
N169 X134.200 Y2.070 Z5.185 
N170 X134.200 Y2.174 Z5.064 
N171 X134.200 Y2.279 Z4.944 
N172 X134.200 Y2.383 Z4.824 
N173 X134.201 Y2.488 Z4.704 
N174 X134.201 Y2.592 Z4.583 
N175 X134.201 Y2.697 Z4.463 
N176 X134.202 Y2.801 Z4.343 
N177 X134.202 Y2.906 Z4.223 
N178 X134.203 Y3.011 Z4.102 
N179 X134.203 Y3.115 Z3.982 
N180 X134.204 Y3.220 Z3.862 
N181 X134.205 Y3.324 Z3.742 
N182 X134.206 Y3.429 Z3.621 
N183 X134.207 Y3.533 Z3.501 
N184 X134.208 Y3.638 Z3.381 
N185 X134.209 Y3.742 Z3.261 
N186 X134.210 Y3.847 Z3.141 
N187 X134.211 Y3.951 Z3.020 
N188 X134.212 Y4.056 Z2.900 
N189 X134.214 Y4.160 Z2.780 
N190 X134.215 Y4.265 Z2.660 
N191 X134.217 Y4.369 Z2.539 
N192 X134.218 Y4.474 Z2.419 
N193 X134.220 Y4.578 Z2.299 
N194 X134.221 Y4.683 Z2.179 
N195 X134.223 Y4.787 Z2.058 
N196 X134.225 Y4.892 Z1.938 
N197 X134.227 Y4.996 Z1.818 
N198 X134.229 Y5.101 Z1.698 
N199 X134.231 Y5.205 Z1.578 
N200 X134.233 Y5.310 Z1.457 
N201 X134.235 Y5.414 Z1.337 
N202 X134.237 Y5.519 Z1.217 
N203 X134.240 Y5.623 Z1.097 
N204 X134.242 Y5.728 Z0.976 
N205 X134.245 Y5.832 Z0.856 
N206 X134.247 Y5.937 Z0.736 
N207 X134.250 Y6.041 Z0.616 
N208 X134.252 Y6.146 Z0.495 
N209 X134.255 Y6.251 Z0.375 
N210 X134.258 Y6.355 Z0.255 
N211 X134.261 Y6.460 Z0.135 
N212 X134.264 Y6.564 Z0.015 
N213 X134.267 Y6.669 Z-0.106 
N214 X134.270 Y6.773 Z-0.226 
N215 X134.273 Y6.878 Z-0.346 
N216 X134.276 Y6.982 Z-0.466 
N217 X134.279 Y7.087 Z-0.586 
N218 X134.283 Y7.191 Z-0.707 
N219 X134.286 Y7.296 Z-0.827 
N220 X134.290 Y7.400 Z-0.947 
N221 X134.293 Y7.505 Z-1.067 
N222 X134.297 Y7.609 Z-1.188 
N223 X134.300 Y7.714 Z-1.308 
N224 X134.304 Y7.818 Z-1.428 
N225 X134.308 Y7.922 Z-1.548 
N226 X134.312 Y8.027 Z-1.668 
N227 X134.316 Y8.131 Z-1.789 
N228 X134.320 Y8.236 Z-1.909 
N229 X134.324 Y8.340 Z-2.029 
N230 X134.328 Y8.445 Z-2.149 
N231 X134.332 Y8.549 Z-2.269 
N232 X134.337 Y8.654 Z-2.390 
N233 X134.341 Y8.758 Z-2.510 
N234 X134.346 Y8.863 Z-2.630 
N235 X134.350 Y8.967 Z-2.750 
N236 X134.355 Y9.072 Z-2.870 
N237 X134.359 Y9.176 Z-2.990 
N238 X134.364 Y9.281 Z-3.111 
N239 X134.369 Y9.385 Z-3.231 
N240 X134.374 Y9.490 Z-3.351 
N241 X134.379 Y9.594 Z-3.471 
N242 X134.384 Y9.699 Z-3.591 
N243 X134.389 Y9.803 Z-3.712 
N244 X134.394 Y9.908 Z-3.832 
N245 X134.399 Y10.012 Z-3.952 
N246 X134.404 Y10.117 Z-4.072 
N247 X134.410 Y10.221 Z-4.192 
N248 X134.415 Y10.325 Z-4.312 
N249 X134.421 Y10.430 Z-4.433 
N250 X134.426 Y10.534 Z-4.553 
N251 X134.432 Y10.639 Z-4.673 
N252 X134.437 Y10.743 Z-4.793 
N253 X134.443 Y10.848 Z-4.913 
N254 X134.449 Y10.952 Z-5.033 
N255 X134.455 Y11.057 Z-5.154 
N256 X134.461 Y11.161 Z-5.274 
N257 X134.467 Y11.266 Z-5.394 
N258 X134.473 Y11.370 Z-5.514 
N259 X134.479 Y11.474 Z-5.634 
N260 X134.486 Y11.579 Z-5.754 
N261 X134.492 Y11.683 Z-5.874 
N262 X134.498 Y11.788 Z-5.995 
N263 X134.505 Y11.892 Z-6.115 
N264 X134.511 Y11.997 Z-6.235 
N265 X134.518 Y12.101 Z-6.355 
N266 X134.524 Y12.205 Z-6.475 
N267 X134.531 Y12.310 Z-6.595 
N268 X134.538 Y12.414 Z-6.715 
N269 X134.545 Y12.519 Z-6.836 
N270 X134.552 Y12.623 Z-6.956 
N271 X134.559 Y12.728 Z-7.076 
N272 X134.566 Y12.832 Z-7.196 
N273 X134.573 Y12.936 Z-7.316 
N274 X134.580 Y13.041 Z-7.436 
N275 X134.587 Y13.145 Z-7.556 
N276 X134.595 Y13.250 Z-7.676 
N277 X134.602 Y13.354 Z-7.796 
N278 X134.610 Y13.459 Z-7.917 
N279 X134.617 Y13.563 Z-8.037 
N280 X134.625 Y13.667 Z-8.157 
N281 X134.633 Y13.772 Z-8.277 
N282 X134.640 Y13.876 Z-8.397 
N283 X134.648 Y13.981 Z-8.517 
N284 X134.656 Y14.085 Z-8.637 
N285 X134.664 Y14.189 Z-8.757 
N286 X134.672 Y14.294 Z-8.877 
N287 X134.680 Y14.398 Z-8.997 
N288 X134.688 Y14.502 Z-9.118 
N289 X134.697 Y14.607 Z-9.238 
N290 X134.705 Y14.711 Z-9.358 
N291 X134.713 Y14.816 Z-9.478 
N292 X134.722 Y14.920 Z-9.598 
N293 X134.730 Y15.024 Z-9.718 
N294 X134.739 Y15.129 Z-9.838 
N295 X134.748 Y15.233 Z-9.958 
N296 X134.756 Y15.337 Z-10.078 
N297 X134.765 Y15.442 Z-10.198 
N298 X134.774 Y15.546 Z-10.318 
N299 X134.783 Y15.651 Z-10.438 
N300 X134.792 Y15.755 Z-10.558 
N301 X134.801 Y15.859 Z-10.678 
N302 X134.810 Y15.964 Z-10.798 
N303 X134.819 Y16.068 Z-10.918 
N304 X134.829 Y16.172 Z-11.038 
N305 X134.838 Y16.277 Z-11.158 
N306 X134.847 Y16.381 Z-11.278 
N307 X134.857 Y16.485 Z-11.398 
N308 X134.866 Y16.590 Z-11.519 
N309 X134.876 Y16.694 Z-11.639 
N310 X134.886 Y16.798 Z-11.759 
N311 X134.896 Y16.903 Z-11.879 
N312 X134.905 Y17.007 Z-11.999 
N313 X134.915 Y17.111 Z-12.119 
N314 X134.925 Y17.216 Z-12.239 
N315 X134.935 Y17.320 Z-12.359 
N316 X134.945 Y17.424 Z-12.479 
N317 X134.956 Y17.528 Z-12.599 
N318 X134.966 Y17.633 Z-12.719 
N319 X134.976 Y17.737 Z-12.839 
N320 X134.987 Y17.841 Z-12.959 
N321 X134.997 Y17.946 Z-13.079 
N322 X135.008 Y18.050 Z-13.198 
N323 X135.018 Y18.154 Z-13.318 
N324 X135.029 Y18.259 Z-13.438 
N325 X135.040 Y18.363 Z-13.558 
N326 X135.050 Y18.467 Z-13.678 
N327 X135.061 Y18.571 Z-13.798 
N328 X135.072 Y18.676 Z-13.918 
N329 X135.083 Y18.780 Z-14.038 
N330 X135.094 Y18.884 Z-14.158 
N331 X135.105 Y18.988 Z-14.277 
N332 X135.116 Y19.091 Z-14.397 
N333 X135.127 Y19.195 Z-14.516 
N334 X135.138 Y19.299 Z-14.635 
N335 X135.149 Y19.402 Z-14.754 
N336 X135.160 Y19.506 Z-14.873 
N337 X135.171 Y19.610 Z-14.993 
N338 X135.182 Y19.713 Z-15.112 
N339 X135.193 Y19.817 Z-15.231 
N340 X135.204 Y19.920 Z-15.350 
N341 X135.215 Y20.024 Z-15.469 
N342 X135.226 Y20.128 Z-15.589 
N343 X135.237 Y20.231 Z-15.708 
N344 X135.248 Y20.335 Z-15.827 
N345 X135.259 Y20.439 Z-15.946 
N346 X135.270 Y20.542 Z-16.066 
N347 X135.281 Y20.646 Z-16.185 
N348 X135.292 Y20.750 Z-16.304 
N349 X135.303 Y20.853 Z-16.423 
N350 X135.314 Y20.957 Z-16.542 
N351 X135.325 Y21.060 Z-16.662 
N352 X135.336 Y21.164 Z-16.781 
N353 X135.347 Y21.268 Z-16.900 
N354 X135.358 Y21.371 Z-17.019 
N355 X135.369 Y21.475 Z-17.138 
N356 X135.380 Y21.579 Z-17.258 
N357 X135.391 Y21.682 Z-17.377 
N358 X135.402 Y21.786 Z-17.496 
N359 X135.413 Y21.889 Z-17.615 
N360 X135.423 Y21.993 Z-17.734 
N361 G40 X135.493 Y22.648 Z-18.487 F318
N362 X135.493 Y22.648 Z-18.487 
N363 G00 X135.493 Y45.289 Z1.194 
N364 X134.576 Y13.016 Z38.320 
N365 X134.576 Y-9.625 Z18.638 
N366 ;finish FSE
N367 G01 G41 X134.551 Y-8.969 Z17.884 F318
N368 G01 X134.551 Y-8.969 Z17.884 F318 
N369 X134.548 Y-8.866 Z17.765 
N370 X134.544 Y-8.762 Z17.646 
N371 X134.540 Y-8.659 Z17.526 
N372 X134.536 Y-8.555 Z17.407 
N373 X134.532 Y-8.452 Z17.288 
N374 X134.528 Y-8.348 Z17.169 
N375 X134.524 Y-8.245 Z17.050 
N376 X134.521 Y-8.141 Z16.931 
N377 X134.517 Y-8.037 Z16.812 
N378 X134.513 Y-7.934 Z16.693 
N379 X134.509 Y-7.830 Z16.573 
N380 X134.505 Y-7.727 Z16.454 
N381 X134.501 Y-7.623 Z16.335 
N382 X134.498 Y-7.520 Z16.216 
N383 X134.494 Y-7.416 Z16.097 
N384 X134.490 Y-7.313 Z15.978 
N385 X134.486 Y-7.209 Z15.859 
N386 X134.482 Y-7.105 Z15.739 
N387 X134.478 Y-7.002 Z15.620 
N388 X134.474 Y-6.898 Z15.501 
N389 X134.471 Y-6.794 Z15.381 
N390 X134.467 Y-6.690 Z15.262 
N391 X134.463 Y-6.586 Z15.143 
N392 X134.459 Y-6.483 Z15.023 
N393 X134.455 Y-6.379 Z14.904 
N394 X134.451 Y-6.275 Z14.784 
N395 X134.447 Y-6.171 Z14.665 
N396 X134.444 Y-6.067 Z14.545 
N397 X134.440 Y-5.963 Z14.426 
N398 X134.436 Y-5.860 Z14.306 
N399 X134.432 Y-5.756 Z14.187 
N400 X134.428 Y-5.652 Z14.067 
N401 X134.424 Y-5.548 Z13.948 
N402 X134.420 Y-5.444 Z13.828 
N403 X134.417 Y-5.340 Z13.709 
N404 X134.413 Y-5.236 Z13.590 
N405 X134.409 Y-5.133 Z13.470 
N406 X134.405 Y-5.029 Z13.351 
N407 X134.401 Y-4.925 Z13.231 
N408 X134.397 Y-4.821 Z13.112 
N409 X134.393 Y-4.717 Z12.992 
N410 X134.390 Y-4.613 Z12.873 
N411 X134.386 Y-4.510 Z12.753 
N412 X134.382 Y-4.406 Z12.634 
N413 X134.378 Y-4.302 Z12.514 
N414 X134.374 Y-4.198 Z12.395 
N415 X134.370 Y-4.094 Z12.275 
N416 X134.367 Y-3.990 Z12.156 
N417 X134.363 Y-3.886 Z12.037 
N418 X134.359 Y-3.782 Z11.916 
N419 X134.355 Y-3.678 Z11.796 
N420 X134.351 Y-3.573 Z11.676 
N421 X134.347 Y-3.469 Z11.556 
N422 X134.344 Y-3.364 Z11.436 
N423 X134.340 Y-3.260 Z11.315 
N424 X134.337 Y-3.155 Z11.195 
N425 X134.333 Y-3.051 Z11.075 
N426 X134.330 Y-2.946 Z10.955 
N427 X134.327 Y-2.842 Z10.835 
N428 X134.323 Y-2.737 Z10.714 
N429 X134.320 Y-2.633 Z10.594 
N430 X134.317 Y-2.528 Z10.474 
N431 X134.314 Y-2.424 Z10.354 
N432 X134.311 Y-2.319 Z10.234 
N433 X134.308 Y-2.215 Z10.113 
N434 X134.306 Y-2.110 Z9.993 
N435 X134.303 Y-2.006 Z9.873 
N436 X134.300 Y-1.901 Z9.753 
N437 X134.298 Y-1.797 Z9.633 
N438 X134.295 Y-1.692 Z9.512 
N439 X134.293 Y-1.588 Z9.392 
N440 X134.290 Y-1.483 Z9.272 
N441 X134.288 Y-1.379 Z9.152 
N442 X134.286 Y-1.274 Z9.032 
N443 X134.283 Y-1.170 Z8.911 
N444 X134.281 Y-1.065 Z8.791 
N445 X134.279 Y-0.961 Z8.671 
N446 X134.277 Y-0.856 Z8.551 
N447 X134.275 Y-0.752 Z8.431 
N448 X134.274 Y-0.647 Z8.310 
N449 X134.272 Y-0.543 Z8.190 
N450 X134.270 Y-0.438 Z8.070 
N451 X134.268 Y-0.334 Z7.950 
N452 X134.267 Y-0.229 Z7.829 
N453 X134.265 Y-0.125 Z7.709 
N454 X134.264 Y-0.020 Z7.589 
N455 X134.263 Y0.084 Z7.469 
N456 X134.261 Y0.189 Z7.349 
N457 X134.260 Y0.293 Z7.228 
N458 X134.259 Y0.398 Z7.108 
N459 X134.258 Y0.502 Z6.988 
N460 X134.257 Y0.607 Z6.868 
N461 X134.256 Y0.711 Z6.747 
N462 X134.255 Y0.816 Z6.627 
N463 X134.254 Y0.920 Z6.507 
N464 X134.254 Y1.025 Z6.387 
N465 X134.253 Y1.129 Z6.267 
N466 X134.252 Y1.234 Z6.146 
N467 X134.252 Y1.338 Z6.026 
N468 X134.251 Y1.443 Z5.906 
N469 X134.251 Y1.547 Z5.786 
N470 X134.251 Y1.652 Z5.665 
N471 X134.250 Y1.756 Z5.545 
N472 X134.250 Y1.861 Z5.425 
N473 X134.250 Y1.965 Z5.305 
N474 X134.250 Y2.070 Z5.185 
N475 X134.250 Y2.174 Z5.064 
N476 X134.250 Y2.279 Z4.944 
N477 X134.250 Y2.383 Z4.824 
N478 X134.251 Y2.488 Z4.704 
N479 X134.251 Y2.592 Z4.583 
N480 X134.251 Y2.697 Z4.463 
N481 X134.252 Y2.801 Z4.343 
N482 X134.252 Y2.906 Z4.223 
N483 X134.253 Y3.010 Z4.103 
N484 X134.253 Y3.115 Z3.982 
N485 X134.254 Y3.219 Z3.862 
N486 X134.255 Y3.324 Z3.742 
N487 X134.256 Y3.428 Z3.622 
N488 X134.257 Y3.533 Z3.501 
N489 X134.258 Y3.637 Z3.381 
N490 X134.259 Y3.742 Z3.261 
N491 X134.260 Y3.846 Z3.141 
N492 X134.261 Y3.951 Z3.021 
N493 X134.262 Y4.055 Z2.900 
N494 X134.264 Y4.160 Z2.780 
N495 X134.265 Y4.264 Z2.660 
N496 X134.267 Y4.369 Z2.540 
N497 X134.268 Y4.473 Z2.420 
N498 X134.270 Y4.578 Z2.299 
N499 X134.271 Y4.682 Z2.179 
N500 X134.273 Y4.787 Z2.059 
N501 X134.275 Y4.891 Z1.939 
N502 X134.277 Y4.996 Z1.818 
N503 X134.279 Y5.100 Z1.698 
N504 X134.281 Y5.205 Z1.578 
N505 X134.283 Y5.309 Z1.458 
N506 X134.285 Y5.414 Z1.338 
N507 X134.287 Y5.518 Z1.217 
N508 X134.290 Y5.623 Z1.097 
N509 X134.292 Y5.727 Z0.977 
N510 X134.295 Y5.832 Z0.857 
N511 X134.297 Y5.936 Z0.737 
N512 X134.300 Y6.041 Z0.616 
N513 X134.302 Y6.145 Z0.496 
N514 X134.305 Y6.250 Z0.376 
N515 X134.308 Y6.354 Z0.256 
N516 X134.311 Y6.459 Z0.136 
N517 X134.314 Y6.563 Z0.015 
N518 X134.317 Y6.668 Z-0.105 
N519 X134.320 Y6.772 Z-0.225 
N520 X134.323 Y6.877 Z-0.345 
N521 X134.326 Y6.981 Z-0.465 
N522 X134.329 Y7.086 Z-0.586 
N523 X134.333 Y7.190 Z-0.706 
N524 X134.336 Y7.295 Z-0.826 
N525 X134.339 Y7.399 Z-0.946 
N526 X134.343 Y7.504 Z-1.066 
N527 X134.347 Y7.608 Z-1.187 
N528 X134.350 Y7.713 Z-1.307 
N529 X134.354 Y7.817 Z-1.427 
N530 X134.358 Y7.922 Z-1.547 
N531 X134.362 Y8.026 Z-1.667 
N532 X134.366 Y8.131 Z-1.788 
N533 X134.370 Y8.235 Z-1.908 
N534 X134.374 Y8.340 Z-2.028 
N535 X134.378 Y8.444 Z-2.148 
N536 X134.382 Y8.549 Z-2.268 
N537 X134.387 Y8.653 Z-2.389 
N538 X134.391 Y8.757 Z-2.509 
N539 X134.395 Y8.862 Z-2.629 
N540 X134.400 Y8.966 Z-2.749 
N541 X134.405 Y9.071 Z-2.869 
N542 X134.409 Y9.175 Z-2.989 
N543 X134.414 Y9.280 Z-3.110 
N544 X134.419 Y9.384 Z-3.230 
N545 X134.424 Y9.489 Z-3.350 
N546 X134.429 Y9.593 Z-3.470 
N547 X134.434 Y9.698 Z-3.590 
N548 X134.439 Y9.802 Z-3.710 
N549 X134.444 Y9.907 Z-3.831 
N550 X134.449 Y10.011 Z-3.951 
N551 X134.454 Y10.115 Z-4.071 
N552 X134.460 Y10.220 Z-4.191 
N553 X134.465 Y10.324 Z-4.311 
N554 X134.471 Y10.429 Z-4.431 
N555 X134.476 Y10.533 Z-4.551 
N556 X134.482 Y10.638 Z-4.672 
N557 X134.487 Y10.742 Z-4.792 
N558 X134.493 Y10.847 Z-4.912 
N559 X134.499 Y10.951 Z-5.032 
N560 X134.505 Y11.055 Z-5.152 
N561 X134.511 Y11.160 Z-5.272 
N562 X134.517 Y11.264 Z-5.392 
N563 X134.523 Y11.369 Z-5.513 
N564 X134.529 Y11.473 Z-5.633 
N565 X134.535 Y11.578 Z-5.753 
N566 X134.542 Y11.682 Z-5.873 
N567 X134.548 Y11.786 Z-5.993 
N568 X134.555 Y11.891 Z-6.113 
N569 X134.561 Y11.995 Z-6.233 
N570 X134.568 Y12.100 Z-6.353 
N571 X134.574 Y12.204 Z-6.474 
N572 X134.581 Y12.309 Z-6.594 
N573 X134.588 Y12.413 Z-6.714 
N574 X134.595 Y12.517 Z-6.834 
N575 X134.602 Y12.622 Z-6.954 
N576 X134.609 Y12.726 Z-7.074 
N577 X134.616 Y12.831 Z-7.194 
N578 X134.623 Y12.935 Z-7.314 
N579 X134.630 Y13.039 Z-7.434 
N580 X134.637 Y13.144 Z-7.555 
N581 X134.645 Y13.248 Z-7.675 
N582 X134.652 Y13.353 Z-7.795 
N583 X134.660 Y13.457 Z-7.915 
N584 X134.667 Y13.561 Z-8.035 
N585 X134.675 Y13.666 Z-8.155 
N586 X134.683 Y13.770 Z-8.275 
N587 X134.690 Y13.875 Z-8.395 
N588 X134.698 Y13.979 Z-8.515 
N589 X134.706 Y14.083 Z-8.635 
N590 X134.714 Y14.188 Z-8.755 
N591 X134.722 Y14.292 Z-8.875 
N592 X134.730 Y14.396 Z-8.995 
N593 X134.738 Y14.501 Z-9.116 
N594 X134.747 Y14.605 Z-9.236 
N595 X134.755 Y14.709 Z-9.356 
N596 X134.763 Y14.814 Z-9.476 
N597 X134.772 Y14.918 Z-9.596 
N598 X134.780 Y15.023 Z-9.716 
N599 X134.789 Y15.127 Z-9.836 
N600 X134.798 Y15.231 Z-9.956 
N601 X134.806 Y15.336 Z-10.076 
N602 X134.815 Y15.440 Z-10.196 
N603 X134.824 Y15.544 Z-10.316 
N604 X134.833 Y15.649 Z-10.436 
N605 X134.842 Y15.753 Z-10.556 
N606 X134.851 Y15.857 Z-10.676 
N607 X134.860 Y15.962 Z-10.796 
N608 X134.869 Y16.066 Z-10.916 
N609 X134.879 Y16.170 Z-11.036 
N610 X134.888 Y16.275 Z-11.156 
N611 X134.897 Y16.379 Z-11.276 
N612 X134.907 Y16.483 Z-11.396 
N613 X134.916 Y16.588 Z-11.516 
N614 X134.926 Y16.692 Z-11.636 
N615 X134.936 Y16.796 Z-11.756 
N616 X134.945 Y16.901 Z-11.876 
N617 X134.955 Y17.005 Z-11.996 
N618 X134.965 Y17.109 Z-12.116 
N619 X134.975 Y17.214 Z-12.236 
N620 X134.985 Y17.318 Z-12.356 
N621 X134.995 Y17.422 Z-12.476 
N622 X135.006 Y17.526 Z-12.596 
N623 X135.016 Y17.631 Z-12.716 
N624 X135.026 Y17.735 Z-12.836 
N625 X135.036 Y17.839 Z-12.956 
N626 X135.047 Y17.944 Z-13.076 
N627 X135.057 Y18.048 Z-13.196 
N628 X135.068 Y18.152 Z-13.316 
N629 X135.079 Y18.256 Z-13.436 
N630 X135.089 Y18.361 Z-13.556 
N631 X135.100 Y18.465 Z-13.676 
N632 X135.111 Y18.569 Z-13.796 
N633 X135.122 Y18.673 Z-13.916 
N634 X135.133 Y18.778 Z-14.036 
N635 X135.144 Y18.882 Z-14.156 
N636 X135.155 Y18.986 Z-14.275 
N637 X135.166 Y19.089 Z-14.394 
N638 X135.177 Y19.193 Z-14.513 
N639 X135.188 Y19.296 Z-14.632 
N640 X135.199 Y19.400 Z-14.752 
N641 X135.210 Y19.504 Z-14.871 
N642 X135.221 Y19.607 Z-14.990 
N643 X135.232 Y19.711 Z-15.109 
N644 X135.243 Y19.815 Z-15.228 
N645 X135.254 Y19.918 Z-15.348 
N646 X135.265 Y20.022 Z-15.467 
N647 X135.276 Y20.125 Z-15.586 
N648 X135.287 Y20.229 Z-15.705 
N649 X135.298 Y20.333 Z-15.824 
N650 X135.309 Y20.436 Z-15.944 
N651 X135.320 Y20.540 Z-16.063 
N652 X135.331 Y20.644 Z-16.182 
N653 X135.342 Y20.747 Z-16.301 
N654 X135.353 Y20.851 Z-16.420 
N655 X135.364 Y20.954 Z-16.540 
N656 X135.375 Y21.058 Z-16.659 
N657 X135.386 Y21.162 Z-16.778 
N658 X135.397 Y21.265 Z-16.897 
N659 X135.408 Y21.369 Z-17.017 
N660 X135.418 Y21.473 Z-17.136 
N661 X135.429 Y21.576 Z-17.255 
N662 X135.440 Y21.680 Z-17.374 
N663 X135.451 Y21.783 Z-17.493 
N664 X135.462 Y21.887 Z-17.613 
N665 X135.473 Y21.991 Z-17.732 
N666 G40 X135.543 Y22.645 Z-18.485 F318
N667 X135.543 Y22.645 Z-18.485 
N668 G00 X135.543 Y60.381 Z14.318 
RAPORT("T13732","Side Milling:144 End")
N670 ;trailer : concat=None
; points cnt = 598
N671 MSG (" --- GROUPED OF SUBPROGRAM --- ")
N672 FGROUP()
N673 TRAFOOF
N10 ; PROGRAM NAME: 1373239
N11 ; ORDER       : 13732
N12 ; OPER. NAME  : Side Milling:145
N13 ; OPER. DESCR.: finish face root outlet FSA
N14 ; OPER. TYPE  : sideMill
N15 ; GEO. OPTION : 1
N16 ; MACHINE     : SH_HX151_24_SIM840D
N17 ;             : STARRAG_HECKERT_5axis_finish_milling_machine
N18 ; CONTROL     : SINUMERIK 840D
N19 ; created:   2021-11-09 14:58:03.682185
;-------DODATKOWE DANE-------------------
; PROGRAMISTA : Mariusz Orzechowski
; PARTID      : 132T008743P1005_-
;  ap         : 22.0
;  ae         : 0.05
;  lean_angle : 0.0
;  fin_offset : -6.0
;----------------------------------------
N20 ;----------------------------------------
RAPORT("T13732","Side Milling:145")
N21 TRAFOOF
N22 D0
N23 G0 G90 G94 Z260.0
N24 STOPRE
N25 M9 ; chlodziwo wyl
N26 ; --- Side Milling:145 - finish face root outlet FSA ---
N28 ;ToolChange : concat=None ,current_tdmid=None, PP.tdmId=958050
N29 TRAFOOF
N30 D0
N31 G0 G54 Z270.0
N32 S2546 M03
N33 STOPRE
N34 TOL(0.1,1,1)
N35 G0  A131.0000
N36 TRAORI
N37 G54 D2
N38 ;tol5=0.15
N39 D2 
STOPRE
E_ZDARZ=300007
;ACS_FINISH_ROOT_FRONT=7758050
STOPRE
;UWAGA : ZMIENIONA TOLERANCJA OSI A i B, ruchy osi A i B beda usuniete : TOL5=0.15
N40 ; DELTA A > 40.1
N41 TRAFOOF
N42 STOPRE
N43 G0 G53 D0 Z265.000
N44 G1 G53 A131.0000 F10000
N45 TRAORI
N46 G54 D2
N47 TRANS 
N48 G00 X134.811 Y-28.060 Z-51.489 A131.0000 B0.0000 
N49 M342 ; chlodziwo woda
N50 X134.811 Y9.675 Z-18.686 
N51 ;FSA_1
N52 G01 G41 X134.773 Y9.020 Z-17.932 F318
N53 G01 X134.773 Y9.020 Z-17.932 F318 
N54 X134.767 Y8.916 Z-17.813 
N55 X134.761 Y8.813 Z-17.694 
N56 X134.755 Y8.709 Z-17.575 
N57 X134.749 Y8.606 Z-17.456 
N58 X134.742 Y8.502 Z-17.337 
N59 X134.736 Y8.398 Z-17.218 
N60 X134.730 Y8.295 Z-17.098 
N61 X134.724 Y8.191 Z-16.979 
N62 X134.718 Y8.088 Z-16.860 
N63 X134.712 Y7.984 Z-16.741 
N64 X134.706 Y7.881 Z-16.622 
N65 X134.700 Y7.777 Z-16.503 
N66 X134.694 Y7.674 Z-16.384 
N67 X134.688 Y7.570 Z-16.265 
N68 X134.682 Y7.467 Z-16.146 
N69 X134.676 Y7.363 Z-16.027 
N70 X134.670 Y7.260 Z-15.908 
N71 X134.664 Y7.156 Z-15.789 
N72 X134.658 Y7.053 Z-15.670 
N73 X134.652 Y6.949 Z-15.550 
N74 X134.646 Y6.845 Z-15.431 
N75 X134.640 Y6.741 Z-15.311 
N76 X134.634 Y6.638 Z-15.192 
N77 X134.628 Y6.534 Z-15.072 
N78 X134.622 Y6.430 Z-14.953 
N79 X134.616 Y6.326 Z-14.834 
N80 X134.610 Y6.222 Z-14.714 
N81 X134.603 Y6.119 Z-14.595 
N82 X134.597 Y6.015 Z-14.475 
N83 X134.591 Y5.911 Z-14.356 
N84 X134.585 Y5.807 Z-14.237 
N85 X134.579 Y5.703 Z-14.117 
N86 X134.573 Y5.600 Z-13.998 
N87 X134.567 Y5.496 Z-13.878 
N88 X134.561 Y5.392 Z-13.759 
N89 X134.555 Y5.288 Z-13.640 
N90 X134.549 Y5.184 Z-13.520 
N91 X134.543 Y5.081 Z-13.401 
N92 X134.537 Y4.977 Z-13.281 
N93 X134.531 Y4.873 Z-13.162 
N94 X134.525 Y4.769 Z-13.043 
N95 X134.519 Y4.665 Z-12.923 
N96 X134.513 Y4.562 Z-12.804 
N97 X134.507 Y4.458 Z-12.684 
N98 X134.501 Y4.354 Z-12.565 
N99 X134.495 Y4.250 Z-12.445 
N100 X134.488 Y4.146 Z-12.326 
N101 X134.482 Y4.043 Z-12.207 
N102 X134.476 Y3.939 Z-12.087 
N103 X134.470 Y3.834 Z-11.967 
N104 X134.464 Y3.730 Z-11.847 
N105 X134.458 Y3.625 Z-11.727 
N106 X134.452 Y3.521 Z-11.607 
N107 X134.446 Y3.417 Z-11.486 
N108 X134.441 Y3.312 Z-11.366 
N109 X134.435 Y3.208 Z-11.246 
N110 X134.429 Y3.103 Z-11.126 
N111 X134.424 Y2.999 Z-11.006 
N112 X134.418 Y2.894 Z-10.886 
N113 X134.413 Y2.790 Z-10.765 
N114 X134.407 Y2.685 Z-10.645 
N115 X134.402 Y2.581 Z-10.525 
N116 X134.397 Y2.476 Z-10.405 
N117 X134.391 Y2.372 Z-10.285 
N118 X134.386 Y2.267 Z-10.165 
N119 X134.381 Y2.163 Z-10.044 
N120 X134.376 Y2.059 Z-9.924 
N121 X134.371 Y1.954 Z-9.804 
N122 X134.367 Y1.850 Z-9.684 
N123 X134.362 Y1.745 Z-9.564 
N124 X134.357 Y1.641 Z-9.444 
N125 X134.353 Y1.536 Z-9.323 
N126 X134.348 Y1.432 Z-9.203 
N127 X134.343 Y1.327 Z-9.083 
N128 X134.339 Y1.223 Z-8.963 
N129 X134.335 Y1.118 Z-8.843 
N130 X134.330 Y1.014 Z-8.722 
N131 X134.326 Y0.909 Z-8.602 
N132 X134.322 Y0.805 Z-8.482 
N133 X134.318 Y0.700 Z-8.362 
N134 X134.314 Y0.596 Z-8.242 
N135 X134.310 Y0.491 Z-8.121 
N136 X134.306 Y0.387 Z-8.001 
N137 X134.302 Y0.282 Z-7.881 
N138 X134.299 Y0.178 Z-7.761 
N139 X134.295 Y0.073 Z-7.641 
N140 X134.291 Y-0.031 Z-7.520 
N141 X134.288 Y-0.136 Z-7.400 
N142 X134.284 Y-0.240 Z-7.280 
N143 X134.281 Y-0.345 Z-7.160 
N144 X134.278 Y-0.449 Z-7.039 
N145 X134.275 Y-0.554 Z-6.919 
N146 X134.271 Y-0.658 Z-6.799 
N147 X134.268 Y-0.763 Z-6.679 
N148 X134.265 Y-0.867 Z-6.559 
N149 X134.262 Y-0.972 Z-6.438 
N150 X134.259 Y-1.076 Z-6.318 
N151 X134.257 Y-1.181 Z-6.198 
N152 X134.254 Y-1.285 Z-6.078 
N153 X134.251 Y-1.390 Z-5.957 
N154 X134.248 Y-1.494 Z-5.837 
N155 X134.246 Y-1.599 Z-5.717 
N156 X134.243 Y-1.703 Z-5.597 
N157 X134.241 Y-1.808 Z-5.477 
N158 X134.239 Y-1.912 Z-5.356 
N159 X134.236 Y-2.017 Z-5.236 
N160 X134.234 Y-2.121 Z-5.116 
N161 X134.232 Y-2.226 Z-4.996 
N162 X134.230 Y-2.330 Z-4.875 
N163 X134.228 Y-2.435 Z-4.755 
N164 X134.226 Y-2.539 Z-4.635 
N165 X134.224 Y-2.644 Z-4.515 
N166 X134.222 Y-2.748 Z-4.395 
N167 X134.221 Y-2.853 Z-4.274 
N168 X134.219 Y-2.957 Z-4.154 
N169 X134.217 Y-3.062 Z-4.034 
N170 X134.216 Y-3.166 Z-3.914 
N171 X134.214 Y-3.271 Z-3.793 
N172 X134.213 Y-3.375 Z-3.673 
N173 X134.212 Y-3.480 Z-3.553 
N174 X134.211 Y-3.585 Z-3.433 
N175 X134.209 Y-3.689 Z-3.312 
N176 X134.208 Y-3.794 Z-3.192 
N177 X134.207 Y-3.898 Z-3.072 
N178 X134.206 Y-4.003 Z-2.952 
N179 X134.205 Y-4.107 Z-2.831 
N180 X134.205 Y-4.212 Z-2.711 
N181 X134.204 Y-4.316 Z-2.591 
N182 X134.203 Y-4.421 Z-2.471 
N183 X134.202 Y-4.525 Z-2.350 
N184 X134.202 Y-4.630 Z-2.230 
N185 X134.201 Y-4.734 Z-2.110 
N186 X134.201 Y-4.839 Z-1.990 
N187 X134.201 Y-4.943 Z-1.870 
N188 X134.200 Y-5.048 Z-1.749 
N189 X134.200 Y-5.152 Z-1.629 
N190 X134.200 Y-5.257 Z-1.509 
N191 X134.200 Y-5.361 Z-1.389 
N192 X134.200 Y-5.466 Z-1.268 
N193 X134.200 Y-5.570 Z-1.148 
N194 X134.200 Y-5.675 Z-1.028 
N195 X134.200 Y-5.780 Z-0.908 
N196 X134.201 Y-5.884 Z-0.787 
N197 X134.201 Y-5.989 Z-0.667 
N198 X134.202 Y-6.093 Z-0.547 
N199 X134.202 Y-6.198 Z-0.427 
N200 X134.203 Y-6.302 Z-0.306 
N201 X134.203 Y-6.407 Z-0.186 
N202 X134.204 Y-6.511 Z-0.066 
N203 X134.205 Y-6.616 Z0.054 
N204 X134.205 Y-6.720 Z0.175 
N205 X134.206 Y-6.825 Z0.295 
N206 X134.207 Y-6.929 Z0.415 
N207 X134.208 Y-7.034 Z0.535 
N208 X134.210 Y-7.138 Z0.656 
N209 X134.211 Y-7.243 Z0.776 
N210 X134.212 Y-7.347 Z0.896 
N211 X134.213 Y-7.452 Z1.016 
N212 X134.215 Y-7.556 Z1.136 
N213 X134.216 Y-7.661 Z1.257 
N214 X134.218 Y-7.765 Z1.377 
N215 X134.219 Y-7.870 Z1.497 
N216 X134.221 Y-7.974 Z1.617 
N217 X134.223 Y-8.079 Z1.738 
N218 X134.224 Y-8.183 Z1.858 
N219 X134.226 Y-8.288 Z1.978 
N220 X134.228 Y-8.393 Z2.098 
N221 X134.230 Y-8.497 Z2.219 
N222 X134.232 Y-8.602 Z2.339 
N223 X134.234 Y-8.706 Z2.459 
N224 X134.237 Y-8.811 Z2.579 
N225 X134.239 Y-8.915 Z2.699 
N226 X134.241 Y-9.020 Z2.820 
N227 X134.244 Y-9.124 Z2.940 
N228 X134.246 Y-9.229 Z3.060 
N229 X134.249 Y-9.333 Z3.180 
N230 X134.251 Y-9.438 Z3.301 
N231 X134.254 Y-9.542 Z3.421 
N232 X134.257 Y-9.647 Z3.541 
N233 X134.260 Y-9.751 Z3.661 
N234 X134.263 Y-9.856 Z3.781 
N235 X134.266 Y-9.960 Z3.902 
N236 X134.269 Y-10.065 Z4.022 
N237 X134.272 Y-10.169 Z4.142 
N238 X134.275 Y-10.274 Z4.262 
N239 X134.278 Y-10.378 Z4.383 
N240 X134.282 Y-10.483 Z4.503 
N241 X134.285 Y-10.587 Z4.623 
N242 X134.288 Y-10.692 Z4.743 
N243 X134.292 Y-10.796 Z4.863 
N244 X134.295 Y-10.901 Z4.984 
N245 X134.299 Y-11.005 Z5.104 
N246 X134.303 Y-11.110 Z5.224 
N247 X134.307 Y-11.214 Z5.344 
N248 X134.311 Y-11.319 Z5.464 
N249 X134.315 Y-11.423 Z5.585 
N250 X134.319 Y-11.528 Z5.705 
N251 X134.323 Y-11.632 Z5.825 
N252 X134.327 Y-11.737 Z5.945 
N253 X134.331 Y-11.841 Z6.065 
N254 X134.335 Y-11.946 Z6.186 
N255 X134.340 Y-12.050 Z6.306 
N256 X134.344 Y-12.155 Z6.426 
N257 X134.349 Y-12.259 Z6.546 
N258 X134.353 Y-12.364 Z6.666 
N259 X134.358 Y-12.468 Z6.787 
N260 X134.363 Y-12.572 Z6.907 
N261 X134.367 Y-12.677 Z7.027 
N262 X134.372 Y-12.781 Z7.147 
N263 X134.377 Y-12.886 Z7.267 
N264 X134.382 Y-12.990 Z7.388 
N265 X134.387 Y-13.095 Z7.508 
N266 X134.392 Y-13.199 Z7.628 
N267 X134.397 Y-13.304 Z7.748 
N268 X134.403 Y-13.408 Z7.868 
N269 X134.408 Y-13.513 Z7.988 
N270 X134.413 Y-13.617 Z8.109 
N271 X134.419 Y-13.722 Z8.229 
N272 X134.424 Y-13.826 Z8.349 
N273 X134.430 Y-13.931 Z8.469 
N274 X134.436 Y-14.035 Z8.589 
N275 X134.441 Y-14.139 Z8.709 
N276 X134.447 Y-14.244 Z8.830 
N277 X134.453 Y-14.348 Z8.950 
N278 X134.459 Y-14.453 Z9.070 
N279 X134.465 Y-14.557 Z9.190 
N280 X134.471 Y-14.662 Z9.310 
N281 X134.477 Y-14.766 Z9.430 
N282 X134.483 Y-14.871 Z9.551 
N283 X134.490 Y-14.975 Z9.671 
N284 X134.496 Y-15.079 Z9.791 
N285 X134.503 Y-15.184 Z9.911 
N286 X134.509 Y-15.288 Z10.031 
N287 X134.516 Y-15.393 Z10.151 
N288 X134.522 Y-15.497 Z10.271 
N289 X134.529 Y-15.602 Z10.391 
N290 X134.536 Y-15.706 Z10.512 
N291 X134.543 Y-15.811 Z10.632 
N292 X134.549 Y-15.915 Z10.752 
N293 X134.556 Y-16.019 Z10.872 
N294 X134.564 Y-16.124 Z10.992 
N295 X134.571 Y-16.228 Z11.112 
N296 X134.578 Y-16.333 Z11.232 
N297 X134.585 Y-16.437 Z11.352 
N298 X134.592 Y-16.541 Z11.473 
N299 X134.600 Y-16.646 Z11.593 
N300 X134.607 Y-16.750 Z11.713 
N301 X134.615 Y-16.855 Z11.833 
N302 X134.622 Y-16.959 Z11.953 
N303 X134.630 Y-17.063 Z12.073 
N304 X134.638 Y-17.168 Z12.193 
N305 X134.646 Y-17.272 Z12.313 
N306 X134.654 Y-17.377 Z12.433 
N307 X134.661 Y-17.481 Z12.553 
N308 X134.669 Y-17.585 Z12.674 
N309 X134.678 Y-17.690 Z12.794 
N310 X134.686 Y-17.794 Z12.914 
N311 X134.694 Y-17.899 Z13.034 
N312 X134.702 Y-18.003 Z13.154 
N313 X134.711 Y-18.107 Z13.274 
N314 X134.719 Y-18.212 Z13.394 
N315 X134.728 Y-18.316 Z13.514 
N316 X134.736 Y-18.420 Z13.634 
N317 X134.745 Y-18.525 Z13.754 
N318 X134.753 Y-18.629 Z13.874 
N319 X134.762 Y-18.734 Z13.994 
N320 X134.771 Y-18.838 Z14.114 
N321 X134.780 Y-18.942 Z14.234 
N322 X134.789 Y-19.045 Z14.353 
N323 X134.797 Y-19.149 Z14.472 
N324 X134.806 Y-19.253 Z14.592 
N325 X134.815 Y-19.357 Z14.711 
N326 X134.824 Y-19.460 Z14.830 
N327 X134.832 Y-19.564 Z14.950 
N328 X134.841 Y-19.668 Z15.069 
N329 X134.850 Y-19.771 Z15.188 
N330 X134.859 Y-19.875 Z15.308 
N331 X134.867 Y-19.979 Z15.427 
N332 X134.876 Y-20.083 Z15.546 
N333 X134.885 Y-20.186 Z15.665 
N334 X134.894 Y-20.290 Z15.785 
N335 X134.903 Y-20.394 Z15.904 
N336 X134.911 Y-20.497 Z16.023 
N337 X134.920 Y-20.601 Z16.143 
N338 X134.929 Y-20.705 Z16.262 
N339 X134.938 Y-20.809 Z16.381 
N340 X134.946 Y-20.912 Z16.501 
N341 X134.955 Y-21.016 Z16.620 
N342 X134.964 Y-21.120 Z16.739 
N343 X134.973 Y-21.223 Z16.859 
N344 X134.981 Y-21.327 Z16.978 
N345 X134.990 Y-21.431 Z17.097 
N346 X134.999 Y-21.535 Z17.217 
N347 X135.008 Y-21.638 Z17.336 
N348 X135.016 Y-21.742 Z17.455 
N349 X135.025 Y-21.846 Z17.574 
N350 X135.034 Y-21.949 Z17.694 
N351 G40 X135.089 Y-22.605 Z18.447 F318
N352 X135.089 Y-22.605 Z18.447 
N353 G00 X135.089 Y-45.246 Z-1.234 
N354 X134.861 Y-12.967 Z-38.366 
N355 X134.861 Y9.674 Z-18.685 
N356 ;FSA_1
N357 G01 G41 X134.823 Y9.018 Z-17.931 F318
N358 G01 X134.823 Y9.018 Z-17.931 F318 
N359 X134.817 Y8.915 Z-17.811 
N360 X134.811 Y8.811 Z-17.692 
N361 X134.805 Y8.708 Z-17.573 
N362 X134.798 Y8.604 Z-17.454 
N363 X134.792 Y8.501 Z-17.335 
N364 X134.786 Y8.397 Z-17.216 
N365 X134.780 Y8.294 Z-17.097 
N366 X134.774 Y8.190 Z-16.978 
N367 X134.768 Y8.087 Z-16.859 
N368 X134.762 Y7.983 Z-16.740 
N369 X134.756 Y7.880 Z-16.621 
N370 X134.750 Y7.776 Z-16.502 
N371 X134.744 Y7.673 Z-16.383 
N372 X134.738 Y7.569 Z-16.263 
N373 X134.732 Y7.466 Z-16.144 
N374 X134.726 Y7.362 Z-16.025 
N375 X134.720 Y7.259 Z-15.906 
N376 X134.714 Y7.155 Z-15.787 
N377 X134.708 Y7.052 Z-15.668 
N378 X134.702 Y6.948 Z-15.549 
N379 X134.696 Y6.844 Z-15.429 
N380 X134.690 Y6.740 Z-15.310 
N381 X134.684 Y6.636 Z-15.190 
N382 X134.678 Y6.533 Z-15.071 
N383 X134.672 Y6.429 Z-14.952 
N384 X134.666 Y6.325 Z-14.832 
N385 X134.659 Y6.221 Z-14.713 
N386 X134.653 Y6.117 Z-14.593 
N387 X134.647 Y6.014 Z-14.474 
N388 X134.641 Y5.910 Z-14.355 
N389 X134.635 Y5.806 Z-14.235 
N390 X134.629 Y5.702 Z-14.116 
N391 X134.623 Y5.598 Z-13.996 
N392 X134.617 Y5.495 Z-13.877 
N393 X134.611 Y5.391 Z-13.758 
N394 X134.605 Y5.287 Z-13.638 
N395 X134.599 Y5.183 Z-13.519 
N396 X134.593 Y5.079 Z-13.399 
N397 X134.587 Y4.976 Z-13.280 
N398 X134.581 Y4.872 Z-13.160 
N399 X134.575 Y4.768 Z-13.041 
N400 X134.569 Y4.664 Z-12.922 
N401 X134.563 Y4.560 Z-12.802 
N402 X134.557 Y4.457 Z-12.683 
N403 X134.551 Y4.353 Z-12.563 
N404 X134.544 Y4.249 Z-12.444 
N405 X134.538 Y4.145 Z-12.325 
N406 X134.532 Y4.041 Z-12.205 
N407 X134.526 Y3.938 Z-12.086 
N408 X134.520 Y3.833 Z-11.966 
N409 X134.514 Y3.729 Z-11.846 
N410 X134.508 Y3.624 Z-11.725 
N411 X134.502 Y3.520 Z-11.605 
N412 X134.496 Y3.415 Z-11.485 
N413 X134.491 Y3.311 Z-11.365 
N414 X134.485 Y3.206 Z-11.245 
N415 X134.479 Y3.102 Z-11.125 
N416 X134.474 Y2.998 Z-11.005 
N417 X134.468 Y2.893 Z-10.884 
N418 X134.463 Y2.789 Z-10.764 
N419 X134.457 Y2.684 Z-10.644 
N420 X134.452 Y2.580 Z-10.524 
N421 X134.447 Y2.475 Z-10.404 
N422 X134.441 Y2.371 Z-10.284 
N423 X134.436 Y2.266 Z-10.163 
N424 X134.431 Y2.162 Z-10.043 
N425 X134.426 Y2.058 Z-9.923 
N426 X134.421 Y1.953 Z-9.803 
N427 X134.417 Y1.849 Z-9.683 
N428 X134.412 Y1.744 Z-9.563 
N429 X134.407 Y1.640 Z-9.442 
N430 X134.403 Y1.535 Z-9.322 
N431 X134.398 Y1.431 Z-9.202 
N432 X134.393 Y1.326 Z-9.082 
N433 X134.389 Y1.222 Z-8.962 
N434 X134.385 Y1.117 Z-8.842 
N435 X134.380 Y1.013 Z-8.721 
N436 X134.376 Y0.908 Z-8.601 
N437 X134.372 Y0.804 Z-8.481 
N438 X134.368 Y0.699 Z-8.361 
N439 X134.364 Y0.595 Z-8.241 
N440 X134.360 Y0.491 Z-8.120 
N441 X134.356 Y0.386 Z-8.000 
N442 X134.352 Y0.282 Z-7.880 
N443 X134.349 Y0.177 Z-7.760 
N444 X134.345 Y0.073 Z-7.640 
N445 X134.341 Y-0.032 Z-7.519 
N446 X134.338 Y-0.136 Z-7.399 
N447 X134.334 Y-0.241 Z-7.279 
N448 X134.331 Y-0.345 Z-7.159 
N449 X134.328 Y-0.450 Z-7.039 
N450 X134.325 Y-0.554 Z-6.918 
N451 X134.321 Y-0.659 Z-6.798 
N452 X134.318 Y-0.763 Z-6.678 
N453 X134.315 Y-0.868 Z-6.558 
N454 X134.312 Y-0.972 Z-6.438 
N455 X134.309 Y-1.077 Z-6.317 
N456 X134.307 Y-1.181 Z-6.197 
N457 X134.304 Y-1.286 Z-6.077 
N458 X134.301 Y-1.390 Z-5.957 
N459 X134.298 Y-1.495 Z-5.837 
N460 X134.296 Y-1.599 Z-5.716 
N461 X134.293 Y-1.704 Z-5.596 
N462 X134.291 Y-1.808 Z-5.476 
N463 X134.289 Y-1.913 Z-5.356 
N464 X134.286 Y-2.017 Z-5.236 
N465 X134.284 Y-2.122 Z-5.115 
N466 X134.282 Y-2.226 Z-4.995 
N467 X134.280 Y-2.331 Z-4.875 
N468 X134.278 Y-2.435 Z-4.755 
N469 X134.276 Y-2.540 Z-4.635 
N470 X134.274 Y-2.644 Z-4.514 
N471 X134.272 Y-2.749 Z-4.394 
N472 X134.271 Y-2.853 Z-4.274 
N473 X134.269 Y-2.958 Z-4.154 
N474 X134.267 Y-3.062 Z-4.033 
N475 X134.266 Y-3.167 Z-3.913 
N476 X134.264 Y-3.271 Z-3.793 
N477 X134.263 Y-3.376 Z-3.673 
N478 X134.262 Y-3.480 Z-3.553 
N479 X134.261 Y-3.585 Z-3.432 
N480 X134.259 Y-3.689 Z-3.312 
N481 X134.258 Y-3.794 Z-3.192 
N482 X134.257 Y-3.898 Z-3.072 
N483 X134.256 Y-4.003 Z-2.951 
N484 X134.255 Y-4.107 Z-2.831 
N485 X134.255 Y-4.212 Z-2.711 
N486 X134.254 Y-4.316 Z-2.591 
N487 X134.253 Y-4.421 Z-2.471 
N488 X134.252 Y-4.525 Z-2.350 
N489 X134.252 Y-4.630 Z-2.230 
N490 X134.251 Y-4.734 Z-2.110 
N491 X134.251 Y-4.839 Z-1.990 
N492 X134.251 Y-4.943 Z-1.869 
N493 X134.250 Y-5.048 Z-1.749 
N494 X134.250 Y-5.152 Z-1.629 
N495 X134.250 Y-5.257 Z-1.509 
N496 X134.250 Y-5.361 Z-1.389 
N497 X134.250 Y-5.466 Z-1.268 
N498 X134.250 Y-5.570 Z-1.148 
N499 X134.250 Y-5.675 Z-1.028 
N500 X134.250 Y-5.779 Z-0.908 
N501 X134.251 Y-5.884 Z-0.787 
N502 X134.251 Y-5.988 Z-0.667 
N503 X134.252 Y-6.093 Z-0.547 
N504 X134.252 Y-6.197 Z-0.427 
N505 X134.253 Y-6.302 Z-0.307 
N506 X134.253 Y-6.407 Z-0.186 
N507 X134.254 Y-6.511 Z-0.066 
N508 X134.255 Y-6.616 Z0.054 
N509 X134.255 Y-6.720 Z0.174 
N510 X134.256 Y-6.825 Z0.295 
N511 X134.257 Y-6.929 Z0.415 
N512 X134.258 Y-7.034 Z0.535 
N513 X134.260 Y-7.138 Z0.655 
N514 X134.261 Y-7.243 Z0.775 
N515 X134.262 Y-7.347 Z0.896 
N516 X134.263 Y-7.452 Z1.016 
N517 X134.265 Y-7.556 Z1.136 
N518 X134.266 Y-7.661 Z1.256 
N519 X134.268 Y-7.765 Z1.377 
N520 X134.269 Y-7.870 Z1.497 
N521 X134.271 Y-7.974 Z1.617 
N522 X134.273 Y-8.079 Z1.737 
N523 X134.274 Y-8.183 Z1.857 
N524 X134.276 Y-8.288 Z1.978 
N525 X134.278 Y-8.392 Z2.098 
N526 X134.280 Y-8.497 Z2.218 
N527 X134.282 Y-8.601 Z2.338 
N528 X134.284 Y-8.706 Z2.458 
N529 X134.287 Y-8.810 Z2.579 
N530 X134.289 Y-8.915 Z2.699 
N531 X134.291 Y-9.019 Z2.819 
N532 X134.294 Y-9.124 Z2.939 
N533 X134.296 Y-9.228 Z3.060 
N534 X134.299 Y-9.333 Z3.180 
N535 X134.301 Y-9.437 Z3.300 
N536 X134.304 Y-9.542 Z3.420 
N537 X134.307 Y-9.646 Z3.540 
N538 X134.310 Y-9.751 Z3.661 
N539 X134.313 Y-9.855 Z3.781 
N540 X134.316 Y-9.960 Z3.901 
N541 X134.319 Y-10.064 Z4.021 
N542 X134.322 Y-10.169 Z4.141 
N543 X134.325 Y-10.273 Z4.262 
N544 X134.328 Y-10.377 Z4.382 
N545 X134.331 Y-10.482 Z4.502 
N546 X134.335 Y-10.586 Z4.622 
N547 X134.338 Y-10.691 Z4.742 
N548 X134.342 Y-10.795 Z4.863 
N549 X134.345 Y-10.900 Z4.983 
N550 X134.349 Y-11.004 Z5.103 
N551 X134.353 Y-11.109 Z5.223 
N552 X134.357 Y-11.213 Z5.343 
N553 X134.361 Y-11.318 Z5.464 
N554 X134.365 Y-11.422 Z5.584 
N555 X134.369 Y-11.527 Z5.704 
N556 X134.373 Y-11.631 Z5.824 
N557 X134.377 Y-11.736 Z5.944 
N558 X134.381 Y-11.840 Z6.064 
N559 X134.385 Y-11.945 Z6.185 
N560 X134.390 Y-12.049 Z6.305 
N561 X134.394 Y-12.154 Z6.425 
N562 X134.399 Y-12.258 Z6.545 
N563 X134.403 Y-12.363 Z6.665 
N564 X134.408 Y-12.467 Z6.786 
N565 X134.412 Y-12.571 Z6.906 
N566 X134.417 Y-12.676 Z7.026 
N567 X134.422 Y-12.780 Z7.146 
N568 X134.427 Y-12.885 Z7.266 
N569 X134.432 Y-12.989 Z7.386 
N570 X134.437 Y-13.094 Z7.507 
N571 X134.442 Y-13.198 Z7.627 
N572 X134.447 Y-13.303 Z7.747 
N573 X134.453 Y-13.407 Z7.867 
N574 X134.458 Y-13.512 Z7.987 
N575 X134.463 Y-13.616 Z8.107 
N576 X134.469 Y-13.720 Z8.227 
N577 X134.474 Y-13.825 Z8.348 
N578 X134.480 Y-13.929 Z8.468 
N579 X134.486 Y-14.034 Z8.588 
N580 X134.491 Y-14.138 Z8.708 
N581 X134.497 Y-14.243 Z8.828 
N582 X134.503 Y-14.347 Z8.948 
N583 X134.509 Y-14.452 Z9.068 
N584 X134.515 Y-14.556 Z9.189 
N585 X134.521 Y-14.660 Z9.309 
N586 X134.527 Y-14.765 Z9.429 
N587 X134.533 Y-14.869 Z9.549 
N588 X134.540 Y-14.974 Z9.669 
N589 X134.546 Y-15.078 Z9.789 
N590 X134.553 Y-15.183 Z9.909 
N591 X134.559 Y-15.287 Z10.030 
N592 X134.566 Y-15.391 Z10.150 
N593 X134.572 Y-15.496 Z10.270 
N594 X134.579 Y-15.600 Z10.390 
N595 X134.586 Y-15.705 Z10.510 
N596 X134.593 Y-15.809 Z10.630 
N597 X134.599 Y-15.913 Z10.750 
N598 X134.606 Y-16.018 Z10.870 
N599 X134.613 Y-16.122 Z10.990 
N600 X134.621 Y-16.227 Z11.111 
N601 X134.628 Y-16.331 Z11.231 
N602 X134.635 Y-16.436 Z11.351 
N603 X134.642 Y-16.540 Z11.471 
N604 X134.650 Y-16.644 Z11.591 
N605 X134.657 Y-16.749 Z11.711 
N606 X134.665 Y-16.853 Z11.831 
N607 X134.672 Y-16.957 Z11.951 
N608 X134.680 Y-17.062 Z12.071 
N609 X134.688 Y-17.166 Z12.191 
N610 X134.696 Y-17.271 Z12.311 
N611 X134.703 Y-17.375 Z12.432 
N612 X134.711 Y-17.479 Z12.552 
N613 X134.719 Y-17.584 Z12.672 
N614 X134.728 Y-17.688 Z12.792 
N615 X134.736 Y-17.793 Z12.912 
N616 X134.744 Y-17.897 Z13.032 
N617 X134.752 Y-18.001 Z13.152 
N618 X134.761 Y-18.106 Z13.272 
N619 X134.769 Y-18.210 Z13.392 
N620 X134.777 Y-18.314 Z13.512 
N621 X134.786 Y-18.419 Z13.632 
N622 X134.795 Y-18.523 Z13.752 
N623 X134.803 Y-18.627 Z13.872 
N624 X134.812 Y-18.732 Z13.992 
N625 X134.821 Y-18.836 Z14.112 
N626 X134.830 Y-18.940 Z14.232 
N627 X134.839 Y-19.044 Z14.351 
N628 X134.847 Y-19.147 Z14.470 
N629 X134.856 Y-19.251 Z14.590 
N630 X134.865 Y-19.355 Z14.709 
N631 X134.874 Y-19.458 Z14.828 
N632 X134.882 Y-19.562 Z14.948 
N633 X134.891 Y-19.666 Z15.067 
N634 X134.900 Y-19.770 Z15.186 
N635 X134.909 Y-19.873 Z15.305 
N636 X134.917 Y-19.977 Z15.425 
N637 X134.926 Y-20.081 Z15.544 
N638 X134.935 Y-20.184 Z15.663 
N639 X134.944 Y-20.288 Z15.783 
N640 X134.952 Y-20.392 Z15.902 
N641 X134.961 Y-20.496 Z16.021 
N642 X134.970 Y-20.599 Z16.141 
N643 X134.979 Y-20.703 Z16.260 
N644 X134.987 Y-20.807 Z16.379 
N645 X134.996 Y-20.910 Z16.499 
N646 X135.005 Y-21.014 Z16.618 
N647 X135.014 Y-21.118 Z16.737 
N648 X135.023 Y-21.222 Z16.857 
N649 X135.031 Y-21.325 Z16.976 
N650 X135.040 Y-21.429 Z17.095 
N651 X135.049 Y-21.533 Z17.214 
N652 X135.058 Y-21.636 Z17.334 
N653 X135.066 Y-21.740 Z17.453 
N654 X135.075 Y-21.844 Z17.572 
N655 X135.084 Y-21.948 Z17.692 
N656 G40 X135.139 Y-22.603 Z18.445 F318
N657 X135.139 Y-22.603 Z18.445 
N658 G00 X135.139 Y-60.338 Z-14.358 
RAPORT("T13732","Side Milling:145 End")
N660 ;trailer : concat=None
; points cnt = 598
N661 M9 ; chlodziwo wyl.
N662 M9 ; chlodziwo wyl.
N663 MSG (" --- KONIEC PROGRAMU --- ")
N664 TRANS
N665 G54
N666 FGROUP()
N667 TRAFOOF
N668 STOPRE
N669 G0 G53 D0 Z290.0 M9 M5
N670 G0 G53 Y150 A0 B0
N671 M17
