N10 ; PROGRAM NAME: 1373260
N11 ; ORDER       : 13732
N12 ; OPER. NAME  : Contact Milling:146
N13 ; OPER. DESCR.: Contact Milling/podciecie pod ceche
N14 ; OPER. TYPE  : contactMill
N15 ; GEO. OPTION : 1
N16 ; MACHINE     : SH_HX151_24_SIM840D
N17 ;             : STARRAG_HECKERT_5axis_finish_milling_machine
N18 ; CONTROL     : SINUMERIK 840D
N19 ; created:   2021-11-10 08:22:21.674220
;-------DODATKOWE DANE-------------------
; PROGRAMISTA : Mariusz Orzechowski
; PARTID      : 132T008743P1005_-
;  ap         : 1.0
;  ae         : 5.0
;  lean_angle : 0.01
;  tilt_angle : 0.0
;  fin_offset : -0.15
;----------------------------------------
N20 ;----------------------------------------
RAPORT("T13732","Contact Milling:146")
N21 TRAFOOF
N22 D0
N23 G90 G94
N24 STOPRE
N25 M9 ; chlodziwo wyl
N26 ; --- Contact Milling:146 - Contact Milling/podciecie pod ceche ---
N28 ;ToolChange : concat=None ,current_tdmid=None, PP.tdmId=957453
N29 MSG(" TLID=957453 D=5.0 R=0.0 Ang=0.0 Len=109.0 ")
N30 TRAFOOF
N31 D0
N32 G0 G53 Z290 B0
N33 G0 X200
N34 G0 Y150
N35 T="7757453"
N36 G0 X500
RAPORT("T13732","ToolChangeStart 7757453")
N37 M6
RAPORT("T13732","ToolChangeEnd")
; (nastepne narzedzie)
N35 T="7758677"
G0 X200
N38 ; (Preloading tool)
; usunieto N39 T="7758677"
N40 G0 X200
N41 STOPRE
N42 S5092 M03
N43 STOPRE
N44 TOL(0.01,1,1)
N45 G0 X138.208 A0.0000
N46 TRAORI
N47 G54 D1
N48 D3 
N49 XXXX138.208 Y-7.959 Z46.011 A0.0001 B0.0131 
N50 M342 ; chlodziwo woda
N51 X138.203 Y-7.959 Z16.011 
N52 G01 X138.202 Y-7.959 Z10.011 F198 
N53 X138.251 Y-7.959 Z9.702 
N54 X138.393 Y-7.959 Z9.423 
N55 X138.614 Y-7.959 Z9.202 
N56 X138.893 Y-7.959 Z9.060 
N57 X139.202 Y-7.959 Z9.011 
N58 X139.251 Y-7.959 Z9.011 
N59 X139.301 Y-7.959 Z9.011 
N60 X139.350 Y-7.959 Z9.011 
N61 X139.400 Y-7.959 Z9.011 
N62 X139.449 Y-7.959 Z9.011 
N63 X139.499 Y-7.959 Z9.011 F197 
N64 X139.548 Y-7.959 Z9.011 F198 
N65 X139.598 Y-7.959 Z9.011 
N66 X139.647 Y-7.959 Z9.011 
N67 X139.697 Y-7.959 Z9.011 
N68 X139.746 Y-7.959 Z9.011 
N69 X139.796 Y-7.959 Z9.011 
N70 X139.845 Y-7.959 Z9.011 
N71 X139.895 Y-7.959 Z9.011 
N72 X139.944 Y-7.959 Z9.011 
N73 X139.994 Y-7.959 Z9.011 
N74 X140.043 Y-7.959 Z9.011 
N75 X140.093 Y-7.959 Z9.011 
N76 X140.142 Y-7.959 Z9.011 
N77 X140.192 Y-7.959 Z9.011 
N78 X140.241 Y-7.959 Z9.011 
N79 X140.291 Y-7.959 Z9.011 
N80 X140.341 Y-7.959 Z9.011 
N81 X140.390 Y-7.959 Z9.011 
N82 X140.440 Y-7.959 Z9.011 
N83 X140.489 Y-7.959 Z9.011 
N84 X140.539 Y-7.959 Z9.011 
N85 X140.588 Y-7.959 Z9.011 
N86 X140.638 Y-7.959 Z9.011 
N87 X140.687 Y-7.959 Z9.011 F197 
N88 X140.737 Y-7.959 Z9.011 F198 
N89 X140.786 Y-7.959 Z9.011 
N90 X140.836 Y-7.959 Z9.011 
N91 X140.885 Y-7.959 Z9.011 
N92 X140.935 Y-7.959 Z9.011 
N93 X140.984 Y-7.959 Z9.011 
N94 X141.034 Y-7.959 Z9.011 
N95 X141.083 Y-7.959 Z9.011 
N96 X141.133 Y-7.959 Z9.011 
N97 X141.182 Y-7.959 Z9.011 
N98 X141.232 Y-7.959 Z9.011 
N99 X141.281 Y-7.959 Z9.011 
N100 X141.331 Y-7.959 Z9.011 
N101 X141.380 Y-7.959 Z9.011 
N102 X141.430 Y-7.959 Z9.011 
N103 X141.479 Y-7.959 Z9.011 
N104 X141.529 Y-7.959 Z9.011 
N105 X141.578 Y-7.959 Z9.011 
N106 X141.628 Y-7.959 Z9.011 
N107 X141.677 Y-7.959 Z9.011 
N108 X141.727 Y-7.959 Z9.011 
N109 X141.776 Y-7.959 Z9.011 
N110 X141.826 Y-7.959 Z9.011 
N111 X141.875 Y-7.959 Z9.011 
N112 X141.925 Y-7.959 Z9.011 
N113 X141.974 Y-7.959 Z9.011 
N114 X142.024 Y-7.959 Z9.011 
N115 X142.073 Y-7.959 Z9.011 
N116 X142.123 Y-7.959 Z9.011 
N117 X142.172 Y-7.959 Z9.011 
N118 X142.222 Y-7.959 Z9.011 
N119 X142.271 Y-7.959 Z9.011 
N120 X142.321 Y-7.959 Z9.011 
N121 X142.370 Y-7.959 Z9.011 
N122 X142.420 Y-7.959 Z9.011 
N123 X142.469 Y-7.959 Z9.011 
N124 X142.519 Y-7.959 Z9.011 
N125 X142.568 Y-7.959 Z9.011 
N126 X142.618 Y-7.959 Z9.011 
N127 X142.667 Y-7.959 Z9.011 
N128 X142.717 Y-7.959 Z9.011 
N129 X142.766 Y-7.959 Z9.011 
N130 X142.816 Y-7.959 Z9.011 
N131 X142.865 Y-7.959 Z9.011 
N132 X142.915 Y-7.959 Z9.011 
N133 X142.964 Y-7.959 Z9.011 
N134 X143.014 Y-7.959 Z9.011 
N135 X143.063 Y-7.959 Z9.011 
N136 X143.113 Y-7.959 Z9.011 
N137 X143.162 Y-7.959 Z9.011 
N138 X143.212 Y-7.959 Z9.011 
N139 X143.261 Y-7.959 Z9.011 
N140 X143.311 Y-7.959 Z9.011 
N141 X143.360 Y-7.959 Z9.011 
N142 X143.410 Y-7.959 Z9.011 
N143 X143.459 Y-7.959 Z9.011 
N144 X143.509 Y-7.959 Z9.011 
N145 X143.558 Y-7.959 Z9.011 
N146 X143.608 Y-7.959 Z9.011 
N147 X143.657 Y-7.959 Z9.011 
N148 X143.707 Y-7.959 Z9.011 
N149 X143.756 Y-7.959 Z9.011 
N150 X143.806 Y-7.959 Z9.011 
N151 X143.855 Y-7.959 Z9.011 
N152 X143.905 Y-7.959 Z9.011 
N153 X143.954 Y-7.959 Z9.011 
N154 X144.004 Y-7.959 Z9.011 
N155 X144.053 Y-7.959 Z9.011 
N156 X144.103 Y-7.959 Z9.011 
N157 X144.152 Y-7.959 Z9.011 
N158 X144.202 Y-7.959 Z9.011 
N159 X144.252 Y-7.959 Z9.011 
N160 X144.302 Y-7.959 Z9.011 F197 
N161 X144.352 Y-7.959 Z9.011 
N162 X144.402 Y-7.959 Z9.011 F198 
N163 X144.452 Y-7.959 Z9.011 
N164 X144.502 Y-7.959 Z9.011 
N165 X144.552 Y-7.959 Z9.011 
N166 X144.602 Y-7.959 Z9.011 
N167 X144.652 Y-7.959 Z9.011 
N168 X144.702 Y-7.959 Z9.011 
N169 X144.752 Y-7.959 Z9.011 
N170 X144.802 Y-7.959 Z9.011 
N171 X144.852 Y-7.959 Z9.011 
N172 X144.902 Y-7.959 Z9.011 
N173 X144.952 Y-7.959 Z9.011 
N174 X145.002 Y-7.959 Z9.011 
N175 X145.052 Y-7.959 Z9.011 
N176 X145.102 Y-7.959 Z9.011 
N177 X145.152 Y-7.959 Z9.011 
N178 X145.202 Y-7.959 Z9.011 
N179 X145.252 Y-7.959 Z9.011 
N180 X145.302 Y-7.959 Z9.011 
N181 X145.352 Y-7.959 Z9.011 
N182 X145.402 Y-7.959 Z9.011 
N183 X145.452 Y-7.959 Z9.011 
N184 X145.502 Y-7.959 Z9.011 
N185 X145.552 Y-7.959 Z9.011 
N186 X145.602 Y-7.959 Z9.011 
N187 X145.652 Y-7.959 Z9.011 
N188 X145.702 Y-7.959 Z9.011 
N189 X145.752 Y-7.959 Z9.011 
N190 X145.802 Y-7.959 Z9.011 
N191 X145.852 Y-7.959 Z9.011 
N192 X145.902 Y-7.959 Z9.011 
N193 X145.952 Y-7.959 Z9.011 
N194 X146.002 Y-7.959 Z9.011 
N195 X146.052 Y-7.959 Z9.011 
N196 X146.102 Y-7.959 Z9.011 
N197 X146.152 Y-7.959 Z9.011 
N198 X146.202 Y-7.959 Z9.011 
N199 X146.252 Y-7.959 Z9.011 
N200 X146.302 Y-7.959 Z9.011 
N201 X146.352 Y-7.959 Z9.011 
N202 X146.402 Y-7.959 Z9.011 
N203 X146.452 Y-7.959 Z9.011 
N204 X146.502 Y-7.959 Z9.011 
N205 X146.552 Y-7.959 Z9.011 
N206 X146.602 Y-7.959 Z9.011 
N207 X146.652 Y-7.959 Z9.011 
N208 X146.702 Y-7.959 Z9.011 
N209 X146.752 Y-7.959 Z9.011 
N210 X146.801 Y-7.959 Z9.011 
N211 X146.851 Y-7.959 Z9.011 
N212 X146.901 Y-7.959 Z9.011 
N213 X146.951 Y-7.959 Z9.011 
N214 X147.000 Y-7.959 Z9.011 
N215 X147.050 Y-7.959 Z9.011 
N216 X147.100 Y-7.959 Z9.011 
N217 X147.149 Y-7.959 Z9.011 
N218 X147.199 Y-7.959 Z9.011 
N219 X147.249 Y-7.959 Z9.011 
N220 X147.299 Y-7.959 Z9.011 
N221 X147.348 Y-7.959 Z9.011 
N222 X147.398 Y-7.959 Z9.011 
N223 X147.448 Y-7.959 Z9.011 
N224 X147.497 Y-7.959 Z9.011 
N225 X147.547 Y-7.959 Z9.011 
N226 X147.597 Y-7.959 Z9.011 
N227 X147.647 Y-7.959 Z9.011 
N228 X147.696 Y-7.959 Z9.011 
N229 X147.746 Y-7.959 Z9.011 
N230 X147.796 Y-7.959 Z9.011 
N231 X147.846 Y-7.959 Z9.011 
N232 X147.895 Y-7.959 Z9.011 
N233 X147.945 Y-7.959 Z9.011 
N234 X147.995 Y-7.959 Z9.011 
N235 X148.044 Y-7.959 Z9.011 
N236 X148.094 Y-7.959 Z9.011 
N237 X148.144 Y-7.959 Z9.011 
N238 X148.194 Y-7.959 Z9.011 
N239 X148.243 Y-7.959 Z9.011 
N240 X148.293 Y-7.959 Z9.011 
N241 X148.343 Y-7.959 Z9.011 
N242 X148.393 Y-7.959 Z9.011 
N243 X148.442 Y-7.959 Z9.011 
N244 X148.492 Y-7.959 Z9.011 
N245 X148.542 Y-7.959 Z9.011 
N246 X148.591 Y-7.959 Z9.011 
N247 X148.641 Y-7.959 Z9.011 
N248 X148.691 Y-7.959 Z9.011 
N249 X148.741 Y-7.959 Z9.011 
N250 X148.790 Y-7.959 Z9.011 
N251 X148.840 Y-7.959 Z9.011 
N252 X148.890 Y-7.959 Z9.011 
N253 X148.939 Y-7.959 Z9.011 
N254 X148.989 Y-7.959 Z9.011 
N255 X149.039 Y-7.959 Z9.011 
N256 X149.089 Y-7.959 Z9.011 
N257 X149.138 Y-7.959 Z9.011 
N258 X149.188 Y-7.959 Z9.011 
N259 X149.238 Y-7.959 Z9.011 
N260 X149.288 Y-7.959 Z9.011 
N261 X149.337 Y-7.959 Z9.011 F197 
N262 X149.387 Y-7.959 Z9.011 F198 
N263 X149.437 Y-7.959 Z9.011 
N264 X149.486 Y-7.959 Z9.011 
N265 X149.536 Y-7.959 Z9.011 
N266 X149.586 Y-7.959 Z9.011 
N267 X149.636 Y-7.959 Z9.011 
N268 X149.685 Y-7.959 Z9.011 
N269 X149.735 Y-7.959 Z9.011 
N270 X149.785 Y-7.959 Z9.011 
N271 X149.834 Y-7.959 Z9.011 
N272 X149.884 Y-7.959 Z9.011 
N273 X149.934 Y-7.959 Z9.011 
N274 X149.984 Y-7.959 Z9.011 
N275 X150.033 Y-7.959 Z9.011 
N276 X150.083 Y-7.959 Z9.011 
N277 X150.133 Y-7.959 Z9.011 
N278 X150.183 Y-7.959 Z9.011 
N279 X150.232 Y-7.959 Z9.011 
N280 X150.282 Y-7.959 Z9.011 
N281 X150.332 Y-7.959 Z9.011 
N282 X150.381 Y-7.959 Z9.011 
N283 X150.431 Y-7.959 Z9.011 
N284 X150.481 Y-7.959 Z9.011 
N285 X150.531 Y-7.959 Z9.011 
N286 X150.580 Y-7.959 Z9.011 
N287 X150.630 Y-7.959 Z9.011 
N288 X150.680 Y-7.959 Z9.011 
N289 X150.730 Y-7.959 Z9.011 
N290 X150.779 Y-7.959 Z9.011 
N291 X150.829 Y-7.959 Z9.011 
N292 X150.879 Y-7.959 Z9.011 
N293 X150.928 Y-7.959 Z9.011 
N294 X150.978 Y-7.959 Z9.011 
N295 X151.028 Y-7.959 Z9.011 
N296 X151.078 Y-7.959 Z9.011 
N297 X151.127 Y-7.959 Z9.011 
N298 X151.177 Y-7.959 Z9.011 
N299 X151.227 Y-7.959 Z9.011 
N300 X151.276 Y-7.959 Z9.011 
N301 X151.326 Y-7.959 Z9.011 
N302 X151.376 Y-7.959 Z9.011 
N303 X151.426 Y-7.959 Z9.011 
N304 X151.475 Y-7.959 Z9.011 
N305 X151.525 Y-7.959 Z9.011 
N306 X151.575 Y-7.959 Z9.011 
N307 X151.625 Y-7.959 Z9.011 
N308 X151.674 Y-7.959 Z9.011 
N309 X151.724 Y-7.959 Z9.011 
N310 X151.774 Y-7.959 Z9.011 
N311 X151.823 Y-7.959 Z9.011 
N312 X151.873 Y-7.959 Z9.011 
N313 X151.923 Y-7.959 Z9.011 
N314 X151.973 Y-7.959 Z9.011 
N315 X152.022 Y-7.959 Z9.011 
N316 X152.072 Y-7.959 Z9.011 
N317 X152.122 Y-7.959 Z9.011 
N318 X152.172 Y-7.959 Z9.011 
N319 X152.221 Y-7.959 Z9.011 
N320 X152.271 Y-7.959 Z9.011 
N321 X152.321 Y-7.959 Z9.011 
N322 X152.370 Y-7.959 Z9.011 
N323 X152.420 Y-7.959 Z9.011 
N324 X152.470 Y-7.959 Z9.011 
N325 X152.520 Y-7.959 Z9.011 
N326 X152.569 Y-7.959 Z9.011 
N327 X152.619 Y-7.959 Z9.011 
N328 X152.669 Y-7.959 Z9.011 
N329 X152.718 Y-7.959 Z9.011 
N330 X152.768 Y-7.959 Z9.011 
N331 X152.818 Y-7.959 Z9.011 
N332 X152.868 Y-7.959 Z9.011 
N333 X152.917 Y-7.959 Z9.011 
N334 X152.967 Y-7.959 Z9.011 
N335 X153.017 Y-7.959 Z9.011 
N336 X153.067 Y-7.959 Z9.011 
N337 X153.116 Y-7.959 Z9.011 
N338 X153.166 Y-7.959 Z9.011 
N339 X153.216 Y-7.959 Z9.011 
N340 X153.265 Y-7.959 Z9.011 
N341 X153.315 Y-7.959 Z9.011 
N342 X153.365 Y-7.959 Z9.011 
N343 X153.415 Y-7.959 Z9.011 
N344 X153.464 Y-7.959 Z9.011 
N345 X153.514 Y-7.959 Z9.011 
N346 X153.564 Y-7.959 Z9.011 
N347 X153.613 Y-7.959 Z9.011 
N348 X153.663 Y-7.959 Z9.011 
N349 X153.713 Y-7.959 Z9.011 
N350 X153.763 Y-7.959 Z9.011 
N351 X153.812 Y-7.959 Z9.011 
N352 X153.862 Y-7.959 Z9.011 
N353 X153.912 Y-7.959 Z9.011 
N354 X153.962 Y-7.959 Z9.011 
N355 X154.011 Y-7.959 Z9.011 
N356 X154.061 Y-7.959 Z9.011 
N357 X154.111 Y-7.959 Z9.011 
N358 X154.160 Y-7.959 Z9.011 
N359 X154.210 Y-7.959 Z9.011 
N360 X154.260 Y-7.959 Z9.011 
N361 X154.310 Y-7.959 Z9.011 
N362 X154.359 Y-7.959 Z9.011 
N363 X154.409 Y-7.959 Z9.011 
N364 X154.459 Y-7.959 Z9.011 
N365 X154.509 Y-7.959 Z9.011 
N366 X154.558 Y-7.959 Z9.011 
N367 X154.608 Y-7.959 Z9.011 
N368 X154.658 Y-7.959 Z9.011 
N369 X154.707 Y-7.959 Z9.011 
N370 X154.757 Y-7.959 Z9.011 
N371 X154.807 Y-7.959 Z9.011 
N372 X154.857 Y-7.959 Z9.011 
N373 X154.906 Y-7.959 Z9.011 
N374 X154.956 Y-7.959 Z9.011 
N375 X155.006 Y-7.959 Z9.011 
N376 X155.055 Y-7.959 Z9.011 
N377 X155.105 Y-7.959 Z9.011 
N378 X155.155 Y-7.959 Z9.011 
N379 X155.205 Y-7.959 Z9.011 
N380 X155.254 Y-7.959 Z9.011 
N381 X155.304 Y-7.959 Z9.011 
N382 X155.354 Y-7.959 Z9.011 
N383 X155.404 Y-7.959 Z9.011 
N384 X155.453 Y-7.959 Z9.011 
N385 X155.503 Y-7.959 Z9.011 
N386 X155.553 Y-7.959 Z9.011 
N387 X155.602 Y-7.959 Z9.011 
N388 X155.652 Y-7.959 Z9.011 
N389 X155.702 Y-7.959 Z9.011 
N390 X155.752 Y-7.959 Z9.011 
N391 X155.802 Y-7.959 Z9.011 F197 
N392 X155.852 Y-7.959 Z9.011 F198 
N393 X155.902 Y-7.959 Z9.011 
N394 X155.952 Y-7.959 Z9.011 
N395 X156.002 Y-7.959 Z9.011 
N396 X156.052 Y-7.959 Z9.011 
N397 X156.102 Y-7.959 Z9.011 
N398 X156.152 Y-7.959 Z9.011 
N399 X156.202 Y-7.959 Z9.011 
N400 X156.252 Y-7.959 Z9.011 
N401 X156.302 Y-7.959 Z9.011 
N402 X156.352 Y-7.959 Z9.011 
N403 X156.402 Y-7.959 Z9.011 
N404 X156.452 Y-7.959 Z9.011 
N405 X156.502 Y-7.959 Z9.011 
N406 X156.552 Y-7.959 Z9.011 
N407 X156.602 Y-7.959 Z9.011 
N408 X156.652 Y-7.959 Z9.011 
N409 X156.702 Y-7.959 Z9.011 
N410 X156.752 Y-7.959 Z9.011 
N411 X156.802 Y-7.959 Z9.011 
N412 X156.852 Y-7.959 Z9.011 
N413 X156.902 Y-7.959 Z9.011 
N414 X156.952 Y-7.959 Z9.011 
N415 X157.002 Y-7.959 Z9.011 
N416 X157.052 Y-7.959 Z9.011 
N417 X157.102 Y-7.959 Z9.011 
N418 X157.152 Y-7.959 Z9.011 
N419 X157.202 Y-7.959 Z9.011 
N420 X157.252 Y-7.959 Z9.011 
N421 X157.302 Y-7.959 Z9.011 
N422 X157.352 Y-7.959 Z9.011 
N423 X157.402 Y-7.959 Z9.011 
N424 X157.452 Y-7.959 Z9.011 
N425 X157.502 Y-7.959 Z9.011 
N426 X157.552 Y-7.959 Z9.011 
N427 X157.602 Y-7.959 Z9.011 
N428 X157.652 Y-7.959 Z9.011 
N429 X157.702 Y-7.959 Z9.011 
N430 X157.752 Y-7.959 Z9.011 
N431 X157.802 Y-7.959 Z9.011 
N432 X157.852 Y-7.959 Z9.011 
N433 X157.902 Y-7.959 Z9.011 
N434 X157.952 Y-7.959 Z9.011 
N435 X158.002 Y-7.959 Z9.011 
N436 X158.052 Y-7.959 Z9.011 
N437 X158.102 Y-7.959 Z9.011 
N438 X158.152 Y-7.959 Z9.011 
N439 X158.202 Y-7.959 Z9.011 
N440 X158.511 Y-7.959 Z9.060 
N441 X158.790 Y-7.959 Z9.202 
N442 X159.011 Y-7.959 Z9.423 
N443 X159.153 Y-7.959 Z9.701 
N444 X159.202 Y-7.959 Z10.010 
N445 G00 X159.211 Y-7.959 Z60.010 
RAPORT("T13732","Contact Milling:146 End")
N447 ;trailer : concat=None
; points cnt = 393
N448 M9 ; chlodziwo wyl.
N449 M9 ; chlodziwo wyl.
N450 MSG (" --- KONIEC PROGRAMU --- ")
N451 TRANS
N452 G54
N453 FGROUP()
N454 TRAFOOF
N455 STOPRE
N456 G0 G53 D0 Z290.0 M9 M5
N457 G0 G53 Y150 A0 B0
N458 M17
