N10 ; PROGRAM NAME: 1373237
N11 ; ORDER       : 13732
N12 ; OPER. NAME  : Side Milling:134
N13 ; OPER. DESCR.: Side Milling/rowek wyk
N14 ; OPER. TYPE  : sideMill
N15 ; GEO. OPTION : 3
N16 ; MACHINE     : SH_HX151_24_SIM840D
N17 ;             : STARRAG_HECKERT_5axis_finish_milling_machine
N18 ; CONTROL     : SINUMERIK 840D
N19 ; created:   2021-11-10 08:27:23.909254
;-------DODATKOWE DANE-------------------
; PROGRAMISTA : Mariusz Orzechowski
; PARTID      : 132T008743P1005_-
;  ap         : 5.0
;  ae         : 5.0
;  lean_angle : 0.0
;  fin_offset : 0.0
;----------------------------------------
N20 ;----------------------------------------
RAPORT("T13732","Side Milling:134")
N21 TRAFOOF
N22 D0
N23 G90 G94
N24 STOPRE
N25 M9 ; chlodziwo wyl
N26 ; --- Side Milling:134 - Side Milling/rowek wyk ---
N28 ;ToolChange : concat=None ,current_tdmid=None, PP.tdmId=959057
N29 MSG(" TLID=959057 D=6.0 R=0.6 Ang=0.0 Len=100.0 ")
N30 TRAFOOF
N31 D0
N32 G0 G53 Z290 B0
N33 G0 X200
N34 G0 Y150
N35 T="7759057"
N36 G0 X500
RAPORT("T13732","ToolChangeStart 7759057")
N37 M6
RAPORT("T13732","ToolChangeEnd")
N38 ; (Preloading tool)
N39 T="7759059"
N40 G0 X200
N41 STOPRE
N42 S3713 M03
N43 STOPRE
N44 TOL(0.1,1,1)
N45 G0 X149.453 A311.0000
N46 TRAORI
N47 G54 D1
N48 ;tol5=0.15
STOPRE
E_ZDARZ=300010
;ACS_FINISH_SLOT=7759057
STOPRE
;UWAGA : ZMIENIONA TOLERANCJA OSI A i B, ruchy osi A i B beda usuniete : TOL5=0.15
N49 ; DELTA A > 40.1
N50 TRAFOOF
N51 STOPRE
N52 G0 G53 D0 Z265.000
N53 G1 G53 A311.0000 F10000
N54 TRAORI
N55 G54 D1
N56 TRANS 
N57 G00 X149.453 Y66.019 Z10.881 AAA311.0000 B0.0000 
N58 M342 ; chlodziwo woda
N59 X149.453 Y28.283 Z-21.922 
N60 ;rowek od strony mocowania
N61 D2 
N62 G01 G41 X148.848 Y21.735 Z-14.389 F193
N63 G01 X148.848 Y21.735 Z-14.389 F193 
N64 X148.842 Y21.671 Z-14.316 
N65 X148.836 Y21.608 Z-14.243 
N66 X148.830 Y21.545 Z-14.170 
N67 X148.824 Y21.481 Z-14.097 
N68 X148.818 Y21.418 Z-14.024 
N69 X148.812 Y21.355 Z-13.951 
N70 X148.807 Y21.291 Z-13.879 
N71 X148.801 Y21.228 Z-13.806 
N72 X148.795 Y21.164 Z-13.733 
N73 X148.789 Y21.101 Z-13.660 
N74 X148.783 Y21.038 Z-13.587 
N75 X148.777 Y20.974 Z-13.514 
N76 X148.771 Y20.911 Z-13.441 
N77 X148.766 Y20.848 Z-13.368 
N78 X148.760 Y20.784 Z-13.295 
N79 X148.754 Y20.721 Z-13.222 
N80 X148.748 Y20.657 Z-13.150 
N81 X148.742 Y20.594 Z-13.077 
N82 X148.736 Y20.531 Z-13.004 
N83 X148.730 Y20.467 Z-12.931 
N84 X148.725 Y20.404 Z-12.858 
N85 X148.719 Y20.341 Z-12.785 
N86 X148.713 Y20.277 Z-12.712 
N87 X148.707 Y20.214 Z-12.639 
N88 X148.701 Y20.150 Z-12.566 
N89 X148.695 Y20.087 Z-12.493 
N90 X148.689 Y20.024 Z-12.420 
N91 X148.684 Y19.960 Z-12.348 
N92 X148.678 Y19.897 Z-12.275 
N93 X148.672 Y19.834 Z-12.202 
N94 X148.666 Y19.770 Z-12.129 
N95 X148.660 Y19.707 Z-12.056 
N96 X148.654 Y19.643 Z-11.983 
N97 X148.648 Y19.580 Z-11.910 
N98 X148.643 Y19.517 Z-11.837 
N99 X148.637 Y19.453 Z-11.764 
N100 X148.631 Y19.390 Z-11.691 
N101 X148.625 Y19.327 Z-11.619 
N102 X148.619 Y19.263 Z-11.546 
N103 X148.613 Y19.200 Z-11.473 
N104 X148.607 Y19.136 Z-11.400 
N105 X148.602 Y19.073 Z-11.327 
N106 X148.596 Y19.010 Z-11.254 
N107 X148.590 Y18.946 Z-11.181 
N108 X148.584 Y18.883 Z-11.108 
N109 X148.578 Y18.820 Z-11.035 
N110 X148.572 Y18.756 Z-10.962 
N111 X148.566 Y18.693 Z-10.890 
N112 X148.561 Y18.630 Z-10.817 
N113 X148.555 Y18.566 Z-10.744 
N114 X148.549 Y18.503 Z-10.671 
N115 X148.543 Y18.439 Z-10.598 
N116 X148.537 Y18.376 Z-10.525 
N117 X148.531 Y18.313 Z-10.452 
N118 X148.525 Y18.249 Z-10.379 
N119 X148.520 Y18.186 Z-10.306 
N120 X148.514 Y18.123 Z-10.233 
N121 X148.508 Y18.059 Z-10.161 
N122 X148.502 Y17.996 Z-10.088 
N123 X148.496 Y17.932 Z-10.015 
N124 X148.490 Y17.869 Z-9.942 
N125 X148.484 Y17.806 Z-9.869 
N126 X148.479 Y17.742 Z-9.796 
N127 X148.473 Y17.679 Z-9.724 
N128 X148.467 Y17.616 Z-9.651 
N129 X148.461 Y17.553 Z-9.578 
N130 X148.455 Y17.490 Z-9.505 
N131 X148.449 Y17.426 Z-9.433 
N132 X148.444 Y17.363 Z-9.360 
N133 X148.438 Y17.300 Z-9.287 
N134 X148.432 Y17.237 Z-9.215 
N135 X148.427 Y17.174 Z-9.142 
N136 X148.421 Y17.110 Z-9.069 
N137 X148.415 Y17.047 Z-8.996 
N138 X148.410 Y16.984 Z-8.924 
N139 X148.404 Y16.921 Z-8.851 
N140 X148.399 Y16.858 Z-8.778 
N141 X148.393 Y16.794 Z-8.706 
N142 X148.388 Y16.731 Z-8.633 
N143 X148.382 Y16.668 Z-8.560 
N144 X148.377 Y16.605 Z-8.487 
N145 X148.371 Y16.542 Z-8.415 
N146 X148.366 Y16.478 Z-8.342 
N147 X148.361 Y16.415 Z-8.269 
N148 X148.355 Y16.352 Z-8.197 
N149 X148.350 Y16.289 Z-8.124 
N150 X148.345 Y16.225 Z-8.051 
N151 X148.340 Y16.162 Z-7.978 
N152 X148.334 Y16.099 Z-7.906 
N153 X148.329 Y16.036 Z-7.833 
N154 X148.324 Y15.973 Z-7.760 
N155 X148.319 Y15.909 Z-7.687 
N156 X148.314 Y15.846 Z-7.615 
N157 X148.309 Y15.783 Z-7.542 
N158 X148.304 Y15.720 Z-7.469 
N159 X148.299 Y15.656 Z-7.397 
N160 X148.294 Y15.593 Z-7.324 
N161 X148.289 Y15.530 Z-7.251 
N162 X148.284 Y15.467 Z-7.178 
N163 X148.279 Y15.404 Z-7.106 
N164 X148.274 Y15.340 Z-7.033 
N165 X148.269 Y15.277 Z-6.960 
N166 X148.264 Y15.214 Z-6.887 
N167 X148.259 Y15.151 Z-6.815 
N168 X148.254 Y15.087 Z-6.742 
N169 X148.250 Y15.024 Z-6.669 
N170 X148.245 Y14.961 Z-6.596 
N171 X148.240 Y14.898 Z-6.524 
N172 X148.236 Y14.834 Z-6.451 
N173 X148.231 Y14.771 Z-6.378 
N174 X148.226 Y14.708 Z-6.305 
N175 X148.222 Y14.645 Z-6.233 
N176 X148.217 Y14.581 Z-6.160 
N177 X148.213 Y14.518 Z-6.087 
N178 X148.208 Y14.455 Z-6.014 
N179 X148.203 Y14.392 Z-5.942 
N180 X148.199 Y14.328 Z-5.869 
N181 X148.195 Y14.265 Z-5.796 
N182 X148.190 Y14.202 Z-5.723 
N183 X148.186 Y14.139 Z-5.651 
N184 X148.181 Y14.076 Z-5.578 
N185 X148.177 Y14.012 Z-5.505 
N186 X148.173 Y13.949 Z-5.432 
N187 X148.168 Y13.886 Z-5.360 
N188 X148.164 Y13.823 Z-5.287 
N189 X148.160 Y13.759 Z-5.214 
N190 X148.156 Y13.696 Z-5.141 
N191 X148.151 Y13.633 Z-5.069 
N192 X148.147 Y13.569 Z-4.996 
N193 X148.143 Y13.506 Z-4.923 
N194 X148.139 Y13.443 Z-4.850 
N195 X148.135 Y13.380 Z-4.777 
N196 X148.131 Y13.316 Z-4.705 
N197 X148.127 Y13.253 Z-4.632 
N198 X148.123 Y13.190 Z-4.559 
N199 X148.119 Y13.127 Z-4.486 
N200 X148.115 Y13.063 Z-4.414 
N201 X148.111 Y13.000 Z-4.341 
N202 X148.107 Y12.937 Z-4.268 
N203 X148.103 Y12.874 Z-4.195 
N204 X148.099 Y12.810 Z-4.122 
N205 X148.096 Y12.747 Z-4.050 
N206 X148.092 Y12.684 Z-3.977 
N207 X148.088 Y12.621 Z-3.904 
N208 X148.084 Y12.557 Z-3.831 
N209 X148.081 Y12.494 Z-3.759 
N210 X148.077 Y12.431 Z-3.686 
N211 X148.073 Y12.368 Z-3.613 
N212 X148.070 Y12.304 Z-3.540 
N213 X148.066 Y12.241 Z-3.467 
N214 X148.062 Y12.178 Z-3.395 
N215 X148.059 Y12.114 Z-3.322 
N216 X148.055 Y12.051 Z-3.249 
N217 X148.052 Y11.988 Z-3.176 
N218 X148.048 Y11.925 Z-3.104 
N219 X148.045 Y11.861 Z-3.031 
N220 X148.041 Y11.798 Z-2.958 
N221 X148.038 Y11.735 Z-2.885 
N222 X148.035 Y11.672 Z-2.812 
N223 X148.031 Y11.608 Z-2.740 
N224 X148.028 Y11.545 Z-2.667 
N225 X148.025 Y11.482 Z-2.594 
N226 X148.021 Y11.418 Z-2.521 
N227 X148.018 Y11.355 Z-2.448 
N228 X148.015 Y11.292 Z-2.376 
N229 X148.012 Y11.229 Z-2.303 
N230 X148.009 Y11.165 Z-2.230 
N231 X148.005 Y11.102 Z-2.157 
N232 X148.002 Y11.039 Z-2.084 
N233 X147.999 Y10.975 Z-2.012 
N234 X147.996 Y10.912 Z-1.939 
N235 X147.993 Y10.849 Z-1.866 
N236 X147.990 Y10.786 Z-1.793 
N237 X147.987 Y10.722 Z-1.720 
N238 X147.984 Y10.659 Z-1.648 
N239 X147.981 Y10.596 Z-1.575 
N240 X147.978 Y10.532 Z-1.502 
N241 X147.976 Y10.469 Z-1.429 
N242 X147.973 Y10.406 Z-1.356 
N243 X147.970 Y10.343 Z-1.284 
N244 X147.967 Y10.279 Z-1.211 
N245 X147.964 Y10.216 Z-1.138 
N246 X147.962 Y10.153 Z-1.065 
N247 X147.959 Y10.089 Z-0.992 
N248 X147.956 Y10.026 Z-0.920 
N249 X147.953 Y9.963 Z-0.847 
N250 X147.951 Y9.900 Z-0.774 
N251 X147.948 Y9.836 Z-0.701 
N252 X147.946 Y9.773 Z-0.628 
N253 X147.943 Y9.710 Z-0.556 
N254 X147.941 Y9.646 Z-0.483 
N255 X147.938 Y9.583 Z-0.410 
N256 X147.936 Y9.520 Z-0.337 
N257 X147.933 Y9.457 Z-0.264 
N258 X147.931 Y9.393 Z-0.192 
N259 X147.928 Y9.330 Z-0.119 
N260 X147.926 Y9.267 Z-0.046 
N261 X147.924 Y9.203 Z0.027 
N262 X147.921 Y9.140 Z0.100 
N263 X147.919 Y9.077 Z0.172 
N264 X147.917 Y9.014 Z0.245 
N265 X147.914 Y8.950 Z0.318 
N266 X147.912 Y8.887 Z0.391 
N267 X147.910 Y8.824 Z0.464 
N268 X147.908 Y8.760 Z0.537 
N269 X147.906 Y8.697 Z0.609 
N270 X147.904 Y8.634 Z0.682 
N271 X147.901 Y8.570 Z0.755 
N272 X147.899 Y8.507 Z0.828 
N273 X147.897 Y8.444 Z0.901 
N274 X147.895 Y8.381 Z0.973 
N275 X147.893 Y8.317 Z1.046 
N276 X147.891 Y8.254 Z1.119 
N277 X147.890 Y8.191 Z1.192 
N278 X147.888 Y8.127 Z1.265 
N279 X147.886 Y8.064 Z1.338 
N280 X147.884 Y8.001 Z1.410 
N281 X147.882 Y7.937 Z1.483 
N282 X147.880 Y7.874 Z1.556 
N283 X147.879 Y7.811 Z1.629 
N284 X147.877 Y7.748 Z1.702 
N285 X147.875 Y7.684 Z1.774 
N286 X147.873 Y7.621 Z1.847 
N287 X147.872 Y7.558 Z1.920 
N288 X147.870 Y7.494 Z1.993 
N289 X147.869 Y7.431 Z2.066 
N290 X147.867 Y7.368 Z2.139 
N291 X147.865 Y7.304 Z2.211 
N292 X147.864 Y7.241 Z2.284 
N293 X147.862 Y7.178 Z2.357 
N294 X147.861 Y7.114 Z2.430 
N295 X147.859 Y7.051 Z2.503 
N296 X147.858 Y6.988 Z2.576 
N297 X147.857 Y6.925 Z2.648 
N298 X147.855 Y6.861 Z2.721 
N299 X147.854 Y6.798 Z2.794 
N300 X147.853 Y6.735 Z2.867 
N301 X147.851 Y6.671 Z2.940 
N302 X147.850 Y6.608 Z3.013 
N303 X147.849 Y6.545 Z3.085 
N304 X147.848 Y6.481 Z3.158 
N305 X147.846 Y6.418 Z3.231 
N306 X147.845 Y6.355 Z3.304 
N307 X147.844 Y6.291 Z3.377 
N308 X147.843 Y6.228 Z3.449 
N309 X147.842 Y6.165 Z3.522 
N310 X147.841 Y6.102 Z3.595 
N311 X147.840 Y6.038 Z3.668 
N312 X147.839 Y5.975 Z3.741 
N313 X147.838 Y5.912 Z3.814 
N314 X147.837 Y5.848 Z3.886 
N315 X147.836 Y5.785 Z3.959 
N316 X147.835 Y5.722 Z4.032 
N317 X147.834 Y5.658 Z4.105 
N318 X147.833 Y5.595 Z4.178 
N319 X147.832 Y5.532 Z4.251 
N320 X147.832 Y5.468 Z4.323 
N321 X147.831 Y5.405 Z4.396 
N322 X147.830 Y5.342 Z4.469 
N323 X147.829 Y5.278 Z4.542 
N324 X147.829 Y5.215 Z4.615 
N325 X147.828 Y5.152 Z4.688 
N326 X147.827 Y5.089 Z4.760 
N327 X147.827 Y5.025 Z4.833 
N328 X147.826 Y4.962 Z4.906 
N329 X147.826 Y4.899 Z4.979 
N330 X147.825 Y4.835 Z5.052 
N331 X147.825 Y4.772 Z5.125 
N332 X147.824 Y4.709 Z5.197 
N333 X147.824 Y4.645 Z5.270 
N334 X147.823 Y4.582 Z5.343 
N335 X147.823 Y4.519 Z5.416 
N336 X147.822 Y4.455 Z5.489 
N337 X147.822 Y4.392 Z5.562 
N338 X147.822 Y4.329 Z5.634 
N339 X147.822 Y4.265 Z5.707 
N340 X147.821 Y4.202 Z5.780 
N341 X147.821 Y4.139 Z5.853 
N342 X147.821 Y4.076 Z5.926 
N343 X147.821 Y4.012 Z5.999 
N344 X147.820 Y3.949 Z6.071 
N345 X147.820 Y3.886 Z6.144 
N346 X147.820 Y3.822 Z6.217 
N347 X147.820 Y3.759 Z6.290 
N348 X147.820 Y3.696 Z6.363 
N349 X147.820 Y3.632 Z6.436 
N350 X147.820 Y3.569 Z6.508 
N351 X147.820 Y3.506 Z6.581 
N352 X147.820 Y3.442 Z6.654 
N353 X147.820 Y3.379 Z6.727 
N354 X147.820 Y3.316 Z6.800 
N355 X147.820 Y3.252 Z6.873 
N356 X147.821 Y3.189 Z6.945 
N357 X147.821 Y3.126 Z7.018 
N358 X147.821 Y3.063 Z7.091 
N359 X147.821 Y2.999 Z7.164 
N360 X147.821 Y2.936 Z7.237 
N361 X147.822 Y2.873 Z7.310 
N362 X147.822 Y2.809 Z7.382 
N363 X147.822 Y2.746 Z7.455 
N364 X147.823 Y2.683 Z7.528 
N365 X147.823 Y2.619 Z7.601 
N366 X147.823 Y2.556 Z7.674 
N367 X147.824 Y2.493 Z7.747 
N368 X147.824 Y2.429 Z7.819 
N369 X147.825 Y2.366 Z7.892 
N370 X147.825 Y2.303 Z7.965 
N371 X147.826 Y2.239 Z8.038 
N372 X147.827 Y2.176 Z8.111 
N373 X147.827 Y2.113 Z8.184 
N374 X147.828 Y2.050 Z8.256 
N375 X147.828 Y1.986 Z8.329 
N376 X147.829 Y1.923 Z8.402 
N377 X147.830 Y1.860 Z8.475 
N378 X147.831 Y1.796 Z8.548 
N379 X147.831 Y1.733 Z8.621 
N380 X147.832 Y1.670 Z8.693 
N381 X147.833 Y1.606 Z8.766 
N382 X147.834 Y1.543 Z8.839 
N383 X147.835 Y1.480 Z8.912 
N384 X147.836 Y1.416 Z8.985 
N385 X147.836 Y1.353 Z9.058 
N386 X147.837 Y1.290 Z9.130 
N387 X147.838 Y1.226 Z9.203 
N388 X147.839 Y1.163 Z9.276 
N389 X147.840 Y1.100 Z9.349 
N390 X147.841 Y1.037 Z9.422 
N391 X147.842 Y0.973 Z9.495 
N392 X147.844 Y0.910 Z9.568 
N393 X147.845 Y0.846 Z9.641 
N394 X147.846 Y0.783 Z9.714 
N395 X147.847 Y0.719 Z9.787 
N396 X147.848 Y0.656 Z9.860 
N397 X147.849 Y0.592 Z9.933 
N398 X147.850 Y0.529 Z10.006 
N399 X147.851 Y0.465 Z10.079 
N400 X147.852 Y0.402 Z10.152 
N401 X147.853 Y0.338 Z10.225 
N402 X147.854 Y0.275 Z10.298 
N403 X147.855 Y0.211 Z10.371 
N404 X147.856 Y0.148 Z10.444 
N405 X147.857 Y0.084 Z10.517 
N406 X147.858 Y0.021 Z10.590 
N407 X147.859 Y-0.043 Z10.663 
N408 X147.860 Y-0.106 Z10.736 
N409 X147.861 Y-0.169 Z10.809 
N410 X147.862 Y-0.233 Z10.882 
N411 X147.863 Y-0.296 Z10.955 
N412 X147.864 Y-0.360 Z11.028 
N413 X147.865 Y-0.423 Z11.101 
N414 X147.866 Y-0.487 Z11.174 
N415 X147.867 Y-0.550 Z11.247 
N416 X147.868 Y-0.614 Z11.320 
N417 X147.869 Y-0.677 Z11.393 
N418 X147.870 Y-0.741 Z11.466 
N419 X147.871 Y-0.804 Z11.539 
N420 X147.872 Y-0.868 Z11.612 
N421 X147.873 Y-0.931 Z11.686 
N422 X147.874 Y-0.995 Z11.759 
N423 G40 X147.875 Y-1.072 Z11.848 F408
N424 X147.875 Y-1.072 Z11.848 
N425 X147.879 Y-1.277 Z12.083 F1055 
N426 X147.885 Y-1.691 Z12.560 F1702 
N427 X147.895 Y-2.233 Z13.183 F1918 
N428 X147.906 Y-2.859 Z13.903 
N429 X147.917 Y-3.485 Z14.623 
N430 X147.930 Y-4.111 Z15.344 
N431 X147.945 Y-4.737 Z16.064 
N432 X147.962 Y-5.364 Z16.784 
N433 X147.983 Y-5.990 Z17.504 
N434 X148.009 Y-6.616 Z18.225 
N435 X148.044 Y-7.241 Z18.945 
N436 X148.096 Y-7.867 Z19.664 
N437 X148.204 Y-7.968 Z19.781 
N438 X148.217 Y-7.335 Z19.052 
N439 X148.217 Y-6.735 Z18.362 
N440 X148.212 Y-6.115 Z17.648 
N441 X148.204 Y-5.450 Z16.884 
N442 X148.196 Y-4.808 Z16.145 
N443 X148.187 Y-4.220 Z15.469 
N444 X148.179 Y-3.704 Z14.875 F1702 
N445 X148.172 Y-3.299 Z14.409 F1055 
N446 X148.169 Y-3.092 Z14.171 F408 
N447 ;rowek od strony piora
N448 D1 
N449 G01 G41 X148.168 Y-3.008 Z14.074 F193
N450 X148.168 Y-3.008 Z14.074 F193 
N451 X148.167 Y-2.944 Z14.001 
N452 X148.166 Y-2.881 Z13.928 
N453 X148.165 Y-2.818 Z13.855 
N454 X148.164 Y-2.754 Z13.782 
N455 X148.163 Y-2.691 Z13.709 
N456 X148.161 Y-2.627 Z13.636 
N457 X148.160 Y-2.564 Z13.563 
N458 X148.159 Y-2.500 Z13.490 
N459 X148.158 Y-2.437 Z13.417 
N460 X148.157 Y-2.373 Z13.344 
N461 X148.156 Y-2.310 Z13.271 
N462 X148.155 Y-2.246 Z13.198 
N463 X148.154 Y-2.183 Z13.125 
N464 X148.153 Y-2.119 Z13.052 
N465 X148.152 Y-2.056 Z12.979 
N466 X148.151 Y-1.992 Z12.906 
N467 X148.150 Y-1.929 Z12.833 
N468 X148.149 Y-1.865 Z12.760 
N469 X148.148 Y-1.802 Z12.687 
N470 X148.147 Y-1.738 Z12.614 
N471 X148.146 Y-1.675 Z12.541 
N472 X148.145 Y-1.611 Z12.468 
N473 X148.144 Y-1.548 Z12.395 
N474 X148.143 Y-1.484 Z12.322 
N475 X148.142 Y-1.421 Z12.249 
N476 X148.141 Y-1.357 Z12.176 
N477 X148.140 Y-1.294 Z12.103 
N478 X148.139 Y-1.230 Z12.030 
N479 X148.138 Y-1.167 Z11.956 
N480 X148.137 Y-1.103 Z11.883 
N481 X148.136 Y-1.040 Z11.810 
N482 X148.134 Y-0.976 Z11.737 
N483 X148.133 Y-0.913 Z11.664 
N484 X148.132 Y-0.849 Z11.591 
N485 X148.131 Y-0.786 Z11.518 
N486 X148.130 Y-0.722 Z11.445 
N487 X148.129 Y-0.659 Z11.372 
N488 X148.128 Y-0.596 Z11.299 
N489 X148.127 Y-0.532 Z11.226 
N490 X148.126 Y-0.469 Z11.153 
N491 X148.125 Y-0.405 Z11.080 
N492 X148.124 Y-0.342 Z11.007 
N493 X148.123 Y-0.278 Z10.934 
N494 X148.122 Y-0.215 Z10.861 
N495 X148.121 Y-0.151 Z10.788 
N496 X148.120 Y-0.088 Z10.715 
N497 X148.119 Y-0.024 Z10.642 
N498 X148.118 Y0.039 Z10.569 
N499 X148.117 Y0.103 Z10.496 
N500 X148.116 Y0.166 Z10.423 
N501 X148.115 Y0.230 Z10.350 
N502 X148.114 Y0.293 Z10.277 
N503 X148.113 Y0.357 Z10.204 
N504 X148.112 Y0.420 Z10.131 
N505 X148.111 Y0.484 Z10.058 
N506 X148.110 Y0.547 Z9.985 
N507 X148.108 Y0.611 Z9.912 
N508 X148.107 Y0.674 Z9.839 
N509 X148.106 Y0.738 Z9.766 
N510 X148.105 Y0.801 Z9.693 
N511 X148.104 Y0.865 Z9.619 
N512 X148.103 Y0.928 Z9.546 
N513 X148.102 Y0.992 Z9.474 
N514 X148.101 Y1.055 Z9.401 
N515 X148.100 Y1.118 Z9.328 
N516 X148.099 Y1.182 Z9.255 
N517 X148.098 Y1.245 Z9.182 
N518 X148.097 Y1.308 Z9.109 
N519 X148.096 Y1.372 Z9.036 
N520 X148.095 Y1.435 Z8.963 
N521 X148.094 Y1.498 Z8.891 
N522 X148.094 Y1.562 Z8.818 
N523 X148.093 Y1.625 Z8.745 
N524 X148.092 Y1.688 Z8.672 
N525 X148.091 Y1.752 Z8.599 
N526 X148.090 Y1.815 Z8.526 
N527 X148.090 Y1.878 Z8.453 
N528 X148.089 Y1.942 Z8.380 
N529 X148.088 Y2.005 Z8.308 
N530 X148.088 Y2.068 Z8.235 
N531 X148.087 Y2.132 Z8.162 
N532 X148.086 Y2.195 Z8.089 
N533 X148.086 Y2.259 Z8.016 
N534 X148.085 Y2.322 Z7.943 
N535 X148.085 Y2.385 Z7.870 
N536 X148.084 Y2.449 Z7.797 
N537 X148.084 Y2.512 Z7.724 
N538 X148.083 Y2.575 Z7.652 
N539 X148.083 Y2.639 Z7.579 
N540 X148.083 Y2.702 Z7.506 
N541 X148.082 Y2.765 Z7.433 
N542 X148.082 Y2.829 Z7.360 
N543 X148.082 Y2.892 Z7.287 
N544 X148.081 Y2.955 Z7.214 
N545 X148.081 Y3.019 Z7.141 
N546 X148.081 Y3.082 Z7.069 
N547 X148.081 Y3.146 Z6.996 
N548 X148.080 Y3.209 Z6.923 
N549 X148.080 Y3.272 Z6.850 
N550 X148.080 Y3.336 Z6.777 
N551 X148.080 Y3.399 Z6.704 
N552 X148.080 Y3.462 Z6.631 
N553 X148.080 Y3.526 Z6.558 
N554 X148.080 Y3.589 Z6.485 
N555 X148.080 Y3.652 Z6.413 
N556 X148.080 Y3.716 Z6.340 
N557 X148.080 Y3.779 Z6.267 
N558 X148.080 Y3.842 Z6.194 
N559 X148.080 Y3.906 Z6.121 
N560 X148.080 Y3.969 Z6.048 
N561 X148.081 Y4.032 Z5.975 
N562 X148.081 Y4.096 Z5.902 
N563 X148.081 Y4.159 Z5.830 
N564 X148.081 Y4.223 Z5.757 
N565 X148.082 Y4.286 Z5.684 
N566 X148.082 Y4.349 Z5.611 
N567 X148.082 Y4.413 Z5.538 
N568 X148.083 Y4.476 Z5.465 
N569 X148.083 Y4.539 Z5.392 
N570 X148.083 Y4.603 Z5.319 
N571 X148.084 Y4.666 Z5.247 
N572 X148.084 Y4.729 Z5.174 
N573 X148.085 Y4.793 Z5.101 
N574 X148.085 Y4.856 Z5.028 
N575 X148.086 Y4.919 Z4.955 
N576 X148.086 Y4.983 Z4.882 
N577 X148.087 Y5.046 Z4.809 
N578 X148.088 Y5.109 Z4.736 
N579 X148.088 Y5.173 Z4.663 
N580 X148.089 Y5.236 Z4.591 
N581 X148.090 Y5.300 Z4.518 
N582 X148.090 Y5.363 Z4.445 
N583 X148.091 Y5.426 Z4.372 
N584 X148.092 Y5.490 Z4.299 
N585 X148.093 Y5.553 Z4.226 
N586 X148.094 Y5.616 Z4.153 
N587 X148.094 Y5.680 Z4.080 
N588 X148.095 Y5.743 Z4.008 
N589 X148.096 Y5.806 Z3.935 
N590 X148.097 Y5.870 Z3.862 
N591 X148.098 Y5.933 Z3.789 
N592 X148.099 Y5.996 Z3.716 
N593 X148.100 Y6.060 Z3.643 
N594 X148.101 Y6.123 Z3.570 
N595 X148.102 Y6.186 Z3.497 
N596 X148.103 Y6.250 Z3.425 
N597 X148.104 Y6.313 Z3.352 
N598 X148.106 Y6.377 Z3.279 
N599 X148.107 Y6.440 Z3.206 
N600 X148.108 Y6.503 Z3.133 
N601 X148.109 Y6.567 Z3.060 
N602 X148.110 Y6.630 Z2.987 
N603 X148.112 Y6.693 Z2.914 
N604 X148.113 Y6.757 Z2.842 
N605 X148.114 Y6.820 Z2.769 
N606 X148.116 Y6.883 Z2.696 
N607 X148.117 Y6.947 Z2.623 
N608 X148.118 Y7.010 Z2.550 
N609 X148.120 Y7.073 Z2.477 
N610 X148.121 Y7.137 Z2.404 
N611 X148.123 Y7.200 Z2.331 
N612 X148.124 Y7.263 Z2.259 
N613 X148.126 Y7.327 Z2.186 
N614 X148.128 Y7.390 Z2.113 
N615 X148.129 Y7.453 Z2.040 
N616 X148.131 Y7.517 Z1.967 
N617 X148.132 Y7.580 Z1.894 
N618 X148.134 Y7.643 Z1.821 
N619 X148.136 Y7.707 Z1.748 
N620 X148.138 Y7.770 Z1.676 
N621 X148.139 Y7.834 Z1.603 
N622 X148.141 Y7.897 Z1.530 
N623 X148.143 Y7.960 Z1.457 
N624 X148.145 Y8.024 Z1.384 
N625 X148.147 Y8.087 Z1.311 
N626 X148.148 Y8.150 Z1.238 
N627 X148.150 Y8.214 Z1.166 
N628 X148.152 Y8.277 Z1.093 
N629 X148.154 Y8.340 Z1.020 
N630 X148.156 Y8.404 Z0.947 
N631 X148.158 Y8.467 Z0.874 
N632 X148.160 Y8.530 Z0.801 
N633 X148.162 Y8.594 Z0.728 
N634 X148.164 Y8.657 Z0.655 
N635 X148.167 Y8.720 Z0.583 
N636 X148.169 Y8.784 Z0.510 
N637 X148.171 Y8.847 Z0.437 
N638 X148.173 Y8.910 Z0.364 
N639 X148.175 Y8.974 Z0.291 
N640 X148.178 Y9.037 Z0.218 
N641 X148.180 Y9.100 Z0.145 
N642 X148.182 Y9.164 Z0.073 
N643 X148.185 Y9.227 Z-0.000 
N644 X148.187 Y9.290 Z-0.073 
N645 X148.189 Y9.354 Z-0.146 
N646 X148.192 Y9.417 Z-0.219 
N647 X148.194 Y9.480 Z-0.292 
N648 X148.197 Y9.544 Z-0.365 
N649 X148.199 Y9.607 Z-0.437 
N650 X148.202 Y9.670 Z-0.510 
N651 X148.204 Y9.734 Z-0.583 
N652 X148.207 Y9.797 Z-0.656 
N653 X148.209 Y9.860 Z-0.729 
N654 X148.212 Y9.924 Z-0.802 
N655 X148.215 Y9.987 Z-0.875 
N656 X148.217 Y10.050 Z-0.947 
N657 X148.220 Y10.114 Z-1.020 
N658 X148.223 Y10.177 Z-1.093 
N659 X148.225 Y10.240 Z-1.166 
N660 X148.228 Y10.304 Z-1.239 
N661 X148.231 Y10.367 Z-1.312 
N662 X148.234 Y10.430 Z-1.385 
N663 X148.237 Y10.494 Z-1.457 
N664 X148.240 Y10.557 Z-1.530 
N665 X148.243 Y10.620 Z-1.603 
N666 X148.245 Y10.684 Z-1.676 
N667 X148.248 Y10.747 Z-1.749 
N668 X148.251 Y10.810 Z-1.822 
N669 X148.254 Y10.874 Z-1.894 
N670 X148.258 Y10.937 Z-1.967 
N671 X148.261 Y11.000 Z-2.040 
N672 X148.264 Y11.064 Z-2.113 
N673 X148.267 Y11.127 Z-2.186 
N674 X148.270 Y11.190 Z-2.259 
N675 X148.273 Y11.254 Z-2.332 
N676 X148.276 Y11.317 Z-2.404 
N677 X148.280 Y11.380 Z-2.477 
N678 X148.283 Y11.443 Z-2.550 
N679 X148.286 Y11.507 Z-2.623 
N680 X148.289 Y11.570 Z-2.696 
N681 X148.293 Y11.633 Z-2.769 
N682 X148.296 Y11.697 Z-2.841 
N683 X148.299 Y11.760 Z-2.914 
N684 X148.303 Y11.823 Z-2.987 
N685 X148.306 Y11.887 Z-3.060 
N686 X148.310 Y11.950 Z-3.133 
N687 X148.313 Y12.013 Z-3.206 
N688 X148.317 Y12.077 Z-3.278 
N689 X148.320 Y12.140 Z-3.351 
N690 X148.324 Y12.203 Z-3.424 
N691 X148.328 Y12.267 Z-3.497 
N692 X148.331 Y12.330 Z-3.570 
N693 X148.335 Y12.393 Z-3.643 
N694 X148.339 Y12.456 Z-3.715 
N695 X148.342 Y12.520 Z-3.788 
N696 X148.346 Y12.583 Z-3.861 
N697 X148.350 Y12.646 Z-3.934 
N698 X148.353 Y12.710 Z-4.007 
N699 X148.357 Y12.773 Z-4.080 
N700 X148.361 Y12.836 Z-4.152 
N701 X148.365 Y12.900 Z-4.225 
N702 X148.369 Y12.963 Z-4.298 
N703 X148.373 Y13.026 Z-4.371 
N704 X148.377 Y13.090 Z-4.444 
N705 X148.381 Y13.153 Z-4.516 
N706 X148.385 Y13.216 Z-4.589 
N707 X148.389 Y13.279 Z-4.662 
N708 X148.393 Y13.343 Z-4.735 
N709 X148.397 Y13.406 Z-4.808 
N710 X148.401 Y13.469 Z-4.881 
N711 X148.405 Y13.533 Z-4.953 
N712 X148.409 Y13.596 Z-5.026 
N713 X148.413 Y13.659 Z-5.099 
N714 X148.418 Y13.723 Z-5.172 
N715 X148.422 Y13.786 Z-5.245 
N716 X148.426 Y13.849 Z-5.317 
N717 X148.430 Y13.912 Z-5.390 
N718 X148.435 Y13.976 Z-5.463 
N719 X148.439 Y14.039 Z-5.536 
N720 X148.443 Y14.102 Z-5.609 
N721 X148.448 Y14.166 Z-5.681 
N722 X148.452 Y14.229 Z-5.754 
N723 X148.457 Y14.292 Z-5.827 
N724 X148.461 Y14.355 Z-5.900 
N725 X148.466 Y14.419 Z-5.973 
N726 X148.470 Y14.482 Z-6.045 
N727 X148.475 Y14.545 Z-6.118 
N728 X148.479 Y14.609 Z-6.191 
N729 X148.484 Y14.672 Z-6.264 
N730 X148.489 Y14.735 Z-6.337 
N731 X148.493 Y14.798 Z-6.409 
N732 X148.498 Y14.862 Z-6.482 
N733 X148.503 Y14.925 Z-6.555 
N734 X148.507 Y14.988 Z-6.628 
N735 X148.512 Y15.052 Z-6.701 
N736 X148.517 Y15.115 Z-6.773 
N737 X148.522 Y15.178 Z-6.846 
N738 X148.527 Y15.241 Z-6.919 
N739 X148.531 Y15.305 Z-6.992 
N740 X148.536 Y15.368 Z-7.065 
N741 X148.541 Y15.431 Z-7.137 
N742 X148.546 Y15.494 Z-7.210 
N743 X148.551 Y15.558 Z-7.283 
N744 X148.556 Y15.621 Z-7.356 
N745 X148.561 Y15.684 Z-7.428 
N746 X148.566 Y15.748 Z-7.501 
N747 X148.571 Y15.811 Z-7.574 
N748 X148.576 Y15.874 Z-7.647 
N749 X148.582 Y15.937 Z-7.720 
N750 X148.587 Y16.001 Z-7.792 
N751 X148.592 Y16.064 Z-7.865 
N752 X148.597 Y16.127 Z-7.938 
N753 X148.602 Y16.190 Z-8.011 
N754 X148.608 Y16.254 Z-8.083 
N755 X148.613 Y16.317 Z-8.156 
N756 X148.618 Y16.380 Z-8.229 
N757 X148.624 Y16.443 Z-8.302 
N758 X148.629 Y16.507 Z-8.375 
N759 X148.634 Y16.570 Z-8.447 
N760 X148.640 Y16.633 Z-8.520 
N761 X148.645 Y16.696 Z-8.593 
N762 X148.651 Y16.760 Z-8.666 
N763 X148.656 Y16.823 Z-8.738 
N764 X148.662 Y16.886 Z-8.811 
N765 X148.667 Y16.949 Z-8.884 
N766 X148.673 Y17.013 Z-8.957 
N767 X148.678 Y17.076 Z-9.029 
N768 X148.684 Y17.139 Z-9.102 
N769 X148.690 Y17.202 Z-9.175 
N770 X148.695 Y17.266 Z-9.248 
N771 X148.701 Y17.329 Z-9.320 
N772 X148.707 Y17.392 Z-9.393 
N773 X148.713 Y17.455 Z-9.466 
N774 X148.718 Y17.519 Z-9.539 
N775 X148.724 Y17.582 Z-9.611 
N776 X148.730 Y17.645 Z-9.684 
N777 X148.736 Y17.708 Z-9.757 
N778 X148.742 Y17.772 Z-9.830 
N779 X148.748 Y17.835 Z-9.903 
N780 X148.753 Y17.898 Z-9.976 
N781 X148.759 Y17.962 Z-10.048 
N782 X148.765 Y18.025 Z-10.121 
N783 X148.771 Y18.088 Z-10.194 
N784 X148.777 Y18.152 Z-10.267 
N785 X148.783 Y18.215 Z-10.340 
N786 X148.789 Y18.279 Z-10.413 
N787 X148.794 Y18.342 Z-10.486 
N788 X148.800 Y18.405 Z-10.559 
N789 X148.806 Y18.469 Z-10.632 
N790 X148.812 Y18.532 Z-10.705 
N791 X148.818 Y18.595 Z-10.777 
N792 X148.824 Y18.659 Z-10.850 
N793 X148.829 Y18.722 Z-10.923 
N794 X148.835 Y18.786 Z-10.996 
N795 X148.841 Y18.849 Z-11.069 
N796 X148.847 Y18.912 Z-11.142 
N797 X148.853 Y18.976 Z-11.215 
N798 X148.859 Y19.039 Z-11.288 
N799 X148.865 Y19.102 Z-11.361 
N800 X148.870 Y19.166 Z-11.434 
N801 X148.876 Y19.229 Z-11.506 
N802 X148.882 Y19.293 Z-11.579 
N803 X148.888 Y19.356 Z-11.652 
N804 X148.894 Y19.419 Z-11.725 
N805 X148.900 Y19.483 Z-11.798 
N806 X148.905 Y19.546 Z-11.871 
N807 X148.911 Y19.609 Z-11.944 
N808 X148.917 Y19.673 Z-12.017 
N809 X148.923 Y19.736 Z-12.090 
N810 G40 X149.527 Y26.285 Z-19.623 F193
N811 X149.527 Y26.285 Z-19.623 
N812 G00 X149.527 Y64.020 Z13.180 
RAPORT("T13732","Side Milling:134 End")
N814 ;trailer : concat=None
; points cnt = 744
N815 MSG (" --- GROUPED OF SUBPROGRAM --- ")
N816 FGROUP()
N817 TRAFOOF
N10 ; PROGRAM NAME: 1373237
N11 ; ORDER       : 13732
N12 ; OPER. NAME  : Side Milling:135
N13 ; OPER. DESCR.: finish slot NGE
N14 ; OPER. TYPE  : sideMill
N15 ; GEO. OPTION : 3
N16 ; MACHINE     : SH_HX151_24_SIM840D
N17 ;             : STARRAG_HECKERT_5axis_finish_milling_machine
N18 ; CONTROL     : SINUMERIK 840D
N19 ; created:   2021-11-10 08:27:31.653923
;-------DODATKOWE DANE-------------------
; PROGRAMISTA : Mariusz Orzechowski
; PARTID      : 132T008743P1005_-
;  ap         : 5.0
;  ae         : 5.0
;  lean_angle : 0.0
;  fin_offset : 0.03
;----------------------------------------
N20 ;----------------------------------------
RAPORT("T13732","Side Milling:135")
N21 TRAFOOF
N22 D0
N23 G0 G90 G94 Z260.0
N24 STOPRE
N25 M9 ; chlodziwo wyl
N26 ; --- Side Milling:135 - finish slot NGE ---
N28 ;ToolChange : concat=None ,current_tdmid=None, PP.tdmId=959057
N29 TRAFOOF
N30 D0
N31 G0 G54 Z270.0
N32 S3713 M03
N33 STOPRE
N34 TOL(0.1,1,1)
N35 G0  A311.0000
N36 TRAORI
N37 G54 D1
N38 ;tol5=0.15
STOPRE
E_ZDARZ=300010
;ACS_FINISH_SLOT=7759057
STOPRE
;UWAGA : ZMIENIONA TOLERANCJA OSI A i B, ruchy osi A i B beda usuniete : TOL5=0.15
N39 ; DELTA A > 40.1
N40 TRAFOOF
N41 STOPRE
N42 G0 G53 D0 Z265.000
N43 G1 G53 A311.0000 F10000
N44 TRAORI
N45 G54 D1
N46 TRANS 
N47 G00 X149.433 Y66.042 Z10.900 A311.0000 B0.0000 
N48 M342 ; chlodziwo woda
N49 X149.433 Y28.307 Z-21.903 
N50 ;rowek od strony mocowania
N51 D2 
N52 G01 G41 X148.828 Y21.758 Z-14.370 F193
N53 G01 X148.828 Y21.758 Z-14.370 F193 
N54 X148.822 Y21.695 Z-14.297 
N55 X148.816 Y21.631 Z-14.224 
N56 X148.810 Y21.568 Z-14.151 
N57 X148.804 Y21.505 Z-14.078 
N58 X148.798 Y21.441 Z-14.006 
N59 X148.793 Y21.378 Z-13.933 
N60 X148.787 Y21.315 Z-13.860 
N61 X148.781 Y21.251 Z-13.787 
N62 X148.775 Y21.188 Z-13.714 
N63 X148.769 Y21.125 Z-13.641 
N64 X148.763 Y21.061 Z-13.568 
N65 X148.757 Y20.998 Z-13.495 
N66 X148.752 Y20.934 Z-13.422 
N67 X148.746 Y20.871 Z-13.349 
N68 X148.740 Y20.808 Z-13.277 
N69 X148.734 Y20.744 Z-13.204 
N70 X148.728 Y20.681 Z-13.131 
N71 X148.722 Y20.618 Z-13.058 
N72 X148.716 Y20.554 Z-12.985 
N73 X148.711 Y20.491 Z-12.912 
N74 X148.705 Y20.427 Z-12.839 
N75 X148.699 Y20.364 Z-12.766 
N76 X148.693 Y20.301 Z-12.693 
N77 X148.687 Y20.237 Z-12.620 
N78 X148.681 Y20.174 Z-12.548 
N79 X148.675 Y20.111 Z-12.475 
N80 X148.670 Y20.047 Z-12.402 
N81 X148.664 Y19.984 Z-12.329 
N82 X148.658 Y19.920 Z-12.256 
N83 X148.652 Y19.857 Z-12.183 
N84 X148.646 Y19.794 Z-12.110 
N85 X148.640 Y19.730 Z-12.037 
N86 X148.634 Y19.667 Z-11.964 
N87 X148.628 Y19.604 Z-11.891 
N88 X148.623 Y19.540 Z-11.819 
N89 X148.617 Y19.477 Z-11.746 
N90 X148.611 Y19.413 Z-11.673 
N91 X148.605 Y19.350 Z-11.600 
N92 X148.599 Y19.287 Z-11.527 
N93 X148.593 Y19.223 Z-11.454 
N94 X148.587 Y19.160 Z-11.381 
N95 X148.582 Y19.097 Z-11.308 
N96 X148.576 Y19.033 Z-11.235 
N97 X148.570 Y18.970 Z-11.162 
N98 X148.564 Y18.906 Z-11.089 
N99 X148.558 Y18.843 Z-11.017 
N100 X148.552 Y18.780 Z-10.944 
N101 X148.546 Y18.716 Z-10.871 
N102 X148.541 Y18.653 Z-10.798 
N103 X148.535 Y18.590 Z-10.725 
N104 X148.529 Y18.526 Z-10.652 
N105 X148.523 Y18.463 Z-10.579 
N106 X148.517 Y18.399 Z-10.506 
N107 X148.511 Y18.336 Z-10.433 
N108 X148.505 Y18.273 Z-10.360 
N109 X148.500 Y18.209 Z-10.288 
N110 X148.494 Y18.146 Z-10.215 
N111 X148.488 Y18.083 Z-10.142 
N112 X148.482 Y18.019 Z-10.069 
N113 X148.476 Y17.956 Z-9.996 
N114 X148.470 Y17.892 Z-9.923 
N115 X148.464 Y17.829 Z-9.850 
N116 X148.459 Y17.766 Z-9.777 
N117 X148.453 Y17.703 Z-9.705 
N118 X148.447 Y17.639 Z-9.632 
N119 X148.441 Y17.576 Z-9.559 
N120 X148.435 Y17.513 Z-9.487 
N121 X148.429 Y17.450 Z-9.414 
N122 X148.424 Y17.387 Z-9.341 
N123 X148.418 Y17.323 Z-9.269 
N124 X148.412 Y17.260 Z-9.196 
N125 X148.407 Y17.197 Z-9.123 
N126 X148.401 Y17.134 Z-9.050 
N127 X148.395 Y17.071 Z-8.978 
N128 X148.390 Y17.007 Z-8.905 
N129 X148.384 Y16.944 Z-8.832 
N130 X148.379 Y16.881 Z-8.759 
N131 X148.373 Y16.818 Z-8.687 
N132 X148.368 Y16.755 Z-8.614 
N133 X148.362 Y16.691 Z-8.541 
N134 X148.357 Y16.628 Z-8.469 
N135 X148.351 Y16.565 Z-8.396 
N136 X148.346 Y16.502 Z-8.323 
N137 X148.341 Y16.438 Z-8.250 
N138 X148.335 Y16.375 Z-8.178 
N139 X148.330 Y16.312 Z-8.105 
N140 X148.325 Y16.249 Z-8.032 
N141 X148.320 Y16.186 Z-7.960 
N142 X148.314 Y16.122 Z-7.887 
N143 X148.309 Y16.059 Z-7.814 
N144 X148.304 Y15.996 Z-7.741 
N145 X148.299 Y15.933 Z-7.669 
N146 X148.294 Y15.869 Z-7.596 
N147 X148.289 Y15.806 Z-7.523 
N148 X148.284 Y15.743 Z-7.450 
N149 X148.279 Y15.680 Z-7.378 
N150 X148.274 Y15.617 Z-7.305 
N151 X148.269 Y15.553 Z-7.232 
N152 X148.264 Y15.490 Z-7.159 
N153 X148.259 Y15.427 Z-7.087 
N154 X148.254 Y15.364 Z-7.014 
N155 X148.249 Y15.300 Z-6.941 
N156 X148.244 Y15.237 Z-6.868 
N157 X148.239 Y15.174 Z-6.796 
N158 X148.235 Y15.111 Z-6.723 
N159 X148.230 Y15.047 Z-6.650 
N160 X148.225 Y14.984 Z-6.577 
N161 X148.220 Y14.921 Z-6.505 
N162 X148.216 Y14.858 Z-6.432 
N163 X148.211 Y14.794 Z-6.359 
N164 X148.206 Y14.731 Z-6.286 
N165 X148.202 Y14.668 Z-6.214 
N166 X148.197 Y14.605 Z-6.141 
N167 X148.193 Y14.541 Z-6.068 
N168 X148.188 Y14.478 Z-5.995 
N169 X148.184 Y14.415 Z-5.923 
N170 X148.179 Y14.352 Z-5.850 
N171 X148.175 Y14.288 Z-5.777 
N172 X148.170 Y14.225 Z-5.704 
N173 X148.166 Y14.162 Z-5.632 
N174 X148.161 Y14.099 Z-5.559 
N175 X148.157 Y14.035 Z-5.486 
N176 X148.153 Y13.972 Z-5.413 
N177 X148.148 Y13.909 Z-5.341 
N178 X148.144 Y13.846 Z-5.268 
N179 X148.140 Y13.782 Z-5.195 
N180 X148.136 Y13.719 Z-5.122 
N181 X148.131 Y13.656 Z-5.049 
N182 X148.127 Y13.593 Z-4.977 
N183 X148.123 Y13.529 Z-4.904 
N184 X148.119 Y13.466 Z-4.831 
N185 X148.115 Y13.403 Z-4.758 
N186 X148.111 Y13.340 Z-4.686 
N187 X148.107 Y13.276 Z-4.613 
N188 X148.103 Y13.213 Z-4.540 
N189 X148.099 Y13.150 Z-4.467 
N190 X148.095 Y13.087 Z-4.395 
N191 X148.091 Y13.023 Z-4.322 
N192 X148.087 Y12.960 Z-4.249 
N193 X148.083 Y12.897 Z-4.176 
N194 X148.079 Y12.834 Z-4.103 
N195 X148.076 Y12.770 Z-4.031 
N196 X148.072 Y12.707 Z-3.958 
N197 X148.068 Y12.644 Z-3.885 
N198 X148.064 Y12.580 Z-3.812 
N199 X148.061 Y12.517 Z-3.740 
N200 X148.057 Y12.454 Z-3.667 
N201 X148.053 Y12.391 Z-3.594 
N202 X148.050 Y12.327 Z-3.521 
N203 X148.046 Y12.264 Z-3.448 
N204 X148.042 Y12.201 Z-3.376 
N205 X148.039 Y12.138 Z-3.303 
N206 X148.035 Y12.074 Z-3.230 
N207 X148.032 Y12.011 Z-3.157 
N208 X148.028 Y11.948 Z-3.084 
N209 X148.025 Y11.884 Z-3.012 
N210 X148.021 Y11.821 Z-2.939 
N211 X148.018 Y11.758 Z-2.866 
N212 X148.015 Y11.695 Z-2.793 
N213 X148.011 Y11.631 Z-2.720 
N214 X148.008 Y11.568 Z-2.648 
N215 X148.005 Y11.505 Z-2.575 
N216 X148.001 Y11.442 Z-2.502 
N217 X147.998 Y11.378 Z-2.429 
N218 X147.995 Y11.315 Z-2.356 
N219 X147.992 Y11.252 Z-2.284 
N220 X147.989 Y11.188 Z-2.211 
N221 X147.985 Y11.125 Z-2.138 
N222 X147.982 Y11.062 Z-2.065 
N223 X147.979 Y10.999 Z-1.992 
N224 X147.976 Y10.935 Z-1.920 
N225 X147.973 Y10.872 Z-1.847 
N226 X147.970 Y10.809 Z-1.774 
N227 X147.967 Y10.745 Z-1.701 
N228 X147.964 Y10.682 Z-1.628 
N229 X147.961 Y10.619 Z-1.556 
N230 X147.958 Y10.556 Z-1.483 
N231 X147.956 Y10.492 Z-1.410 
N232 X147.953 Y10.429 Z-1.337 
N233 X147.950 Y10.366 Z-1.264 
N234 X147.947 Y10.302 Z-1.192 
N235 X147.944 Y10.239 Z-1.119 
N236 X147.942 Y10.176 Z-1.046 
N237 X147.939 Y10.112 Z-0.973 
N238 X147.936 Y10.049 Z-0.900 
N239 X147.933 Y9.986 Z-0.828 
N240 X147.931 Y9.923 Z-0.755 
N241 X147.928 Y9.859 Z-0.682 
N242 X147.926 Y9.796 Z-0.609 
N243 X147.923 Y9.733 Z-0.536 
N244 X147.921 Y9.669 Z-0.464 
N245 X147.918 Y9.606 Z-0.391 
N246 X147.916 Y9.543 Z-0.318 
N247 X147.913 Y9.480 Z-0.245 
N248 X147.911 Y9.416 Z-0.172 
N249 X147.908 Y9.353 Z-0.099 
N250 X147.906 Y9.290 Z-0.027 
N251 X147.904 Y9.226 Z0.046 
N252 X147.901 Y9.163 Z0.119 
N253 X147.899 Y9.100 Z0.192 
N254 X147.897 Y9.036 Z0.265 
N255 X147.894 Y8.973 Z0.337 
N256 X147.892 Y8.910 Z0.410 
N257 X147.890 Y8.847 Z0.483 
N258 X147.888 Y8.783 Z0.556 
N259 X147.886 Y8.720 Z0.629 
N260 X147.884 Y8.657 Z0.702 
N261 X147.881 Y8.593 Z0.774 
N262 X147.879 Y8.530 Z0.847 
N263 X147.877 Y8.467 Z0.920 
N264 X147.875 Y8.403 Z0.993 
N265 X147.873 Y8.340 Z1.066 
N266 X147.871 Y8.277 Z1.138 
N267 X147.870 Y8.214 Z1.211 
N268 X147.868 Y8.150 Z1.284 
N269 X147.866 Y8.087 Z1.357 
N270 X147.864 Y8.024 Z1.430 
N271 X147.862 Y7.960 Z1.503 
N272 X147.860 Y7.897 Z1.575 
N273 X147.859 Y7.834 Z1.648 
N274 X147.857 Y7.770 Z1.721 
N275 X147.855 Y7.707 Z1.794 
N276 X147.853 Y7.644 Z1.867 
N277 X147.852 Y7.580 Z1.940 
N278 X147.850 Y7.517 Z2.012 
N279 X147.849 Y7.454 Z2.085 
N280 X147.847 Y7.391 Z2.158 
N281 X147.845 Y7.327 Z2.231 
N282 X147.844 Y7.264 Z2.304 
N283 X147.842 Y7.201 Z2.377 
N284 X147.841 Y7.137 Z2.449 
N285 X147.839 Y7.074 Z2.522 
N286 X147.838 Y7.011 Z2.595 
N287 X147.837 Y6.947 Z2.668 
N288 X147.835 Y6.884 Z2.741 
N289 X147.834 Y6.821 Z2.814 
N290 X147.833 Y6.757 Z2.886 
N291 X147.831 Y6.694 Z2.959 
N292 X147.830 Y6.631 Z3.032 
N293 X147.829 Y6.568 Z3.105 
N294 X147.828 Y6.504 Z3.178 
N295 X147.826 Y6.441 Z3.250 
N296 X147.825 Y6.378 Z3.323 
N297 X147.824 Y6.314 Z3.396 
N298 X147.823 Y6.251 Z3.469 
N299 X147.822 Y6.188 Z3.542 
N300 X147.821 Y6.124 Z3.615 
N301 X147.820 Y6.061 Z3.687 
N302 X147.819 Y5.998 Z3.760 
N303 X147.818 Y5.934 Z3.833 
N304 X147.817 Y5.871 Z3.906 
N305 X147.816 Y5.808 Z3.979 
N306 X147.815 Y5.744 Z4.052 
N307 X147.814 Y5.681 Z4.125 
N308 X147.813 Y5.618 Z4.197 
N309 X147.812 Y5.554 Z4.270 
N310 X147.812 Y5.491 Z4.343 
N311 X147.811 Y5.428 Z4.416 
N312 X147.810 Y5.365 Z4.489 
N313 X147.809 Y5.301 Z4.562 
N314 X147.809 Y5.238 Z4.634 
N315 X147.808 Y5.175 Z4.707 
N316 X147.807 Y5.111 Z4.780 
N317 X147.807 Y5.048 Z4.853 
N318 X147.806 Y4.985 Z4.926 
N319 X147.806 Y4.921 Z4.999 
N320 X147.805 Y4.858 Z5.071 
N321 X147.805 Y4.795 Z5.144 
N322 X147.804 Y4.731 Z5.217 
N323 X147.804 Y4.668 Z5.290 
N324 X147.803 Y4.605 Z5.363 
N325 X147.803 Y4.541 Z5.436 
N326 X147.802 Y4.478 Z5.508 
N327 X147.802 Y4.415 Z5.581 
N328 X147.802 Y4.351 Z5.654 
N329 X147.802 Y4.288 Z5.727 
N330 X147.801 Y4.225 Z5.800 
N331 X147.801 Y4.162 Z5.873 
N332 X147.801 Y4.098 Z5.945 
N333 X147.801 Y4.035 Z6.018 
N334 X147.800 Y3.972 Z6.091 
N335 X147.800 Y3.908 Z6.164 
N336 X147.800 Y3.845 Z6.237 
N337 X147.800 Y3.782 Z6.310 
N338 X147.800 Y3.718 Z6.382 
N339 X147.800 Y3.655 Z6.455 
N340 X147.800 Y3.592 Z6.528 
N341 X147.800 Y3.528 Z6.601 
N342 X147.800 Y3.465 Z6.674 
N343 X147.800 Y3.402 Z6.747 
N344 X147.800 Y3.338 Z6.819 
N345 X147.800 Y3.275 Z6.892 
N346 X147.801 Y3.212 Z6.965 
N347 X147.801 Y3.148 Z7.038 
N348 X147.801 Y3.085 Z7.111 
N349 X147.801 Y3.022 Z7.184 
N350 X147.801 Y2.959 Z7.256 
N351 X147.802 Y2.895 Z7.329 
N352 X147.802 Y2.832 Z7.402 
N353 X147.802 Y2.769 Z7.475 
N354 X147.803 Y2.705 Z7.548 
N355 X147.803 Y2.642 Z7.621 
N356 X147.803 Y2.579 Z7.694 
N357 X147.804 Y2.515 Z7.766 
N358 X147.804 Y2.452 Z7.839 
N359 X147.805 Y2.389 Z7.912 
N360 X147.805 Y2.325 Z7.985 
N361 X147.806 Y2.262 Z8.058 
N362 X147.807 Y2.199 Z8.131 
N363 X147.807 Y2.135 Z8.203 
N364 X147.808 Y2.072 Z8.276 
N365 X147.808 Y2.009 Z8.349 
N366 X147.809 Y1.945 Z8.422 
N367 X147.810 Y1.882 Z8.495 
N368 X147.811 Y1.819 Z8.568 
N369 X147.811 Y1.756 Z8.640 
N370 X147.812 Y1.692 Z8.713 
N371 X147.813 Y1.629 Z8.786 
N372 X147.814 Y1.566 Z8.859 
N373 X147.815 Y1.502 Z8.932 
N374 X147.816 Y1.439 Z9.005 
N375 X147.816 Y1.376 Z9.077 
N376 X147.817 Y1.312 Z9.150 
N377 X147.818 Y1.249 Z9.223 
N378 X147.819 Y1.186 Z9.296 
N379 X147.820 Y1.122 Z9.369 
N380 X147.821 Y1.059 Z9.442 
N381 X147.822 Y0.996 Z9.514 
N382 X147.824 Y0.932 Z9.587 
N383 X147.825 Y0.869 Z9.660 
N384 X147.826 Y0.805 Z9.734 
N385 X147.827 Y0.742 Z9.807 
N386 X147.828 Y0.678 Z9.880 
N387 X147.829 Y0.615 Z9.953 
N388 X147.830 Y0.551 Z10.026 
N389 X147.831 Y0.488 Z10.099 
N390 X147.832 Y0.424 Z10.172 
N391 X147.833 Y0.361 Z10.245 
N392 X147.834 Y0.297 Z10.318 
N393 X147.835 Y0.234 Z10.391 
N394 X147.836 Y0.170 Z10.464 
N395 X147.837 Y0.107 Z10.537 
N396 X147.838 Y0.043 Z10.610 
N397 X147.839 Y-0.020 Z10.683 
N398 X147.840 Y-0.084 Z10.756 
N399 X147.841 Y-0.147 Z10.829 
N400 X147.842 Y-0.210 Z10.902 
N401 X147.843 Y-0.274 Z10.975 
N402 X147.844 Y-0.337 Z11.048 
N403 X147.845 Y-0.401 Z11.121 
N404 X147.846 Y-0.464 Z11.194 
N405 X147.847 Y-0.528 Z11.267 
N406 X147.848 Y-0.591 Z11.340 
N407 X147.849 Y-0.655 Z11.413 
N408 X147.850 Y-0.718 Z11.486 
N409 X147.851 Y-0.782 Z11.559 
N410 X147.852 Y-0.845 Z11.632 
N411 X147.853 Y-0.909 Z11.705 
N412 X147.854 Y-0.972 Z11.778 
N413 G40 X147.855 Y-1.050 Z11.868 F408
N414 X147.855 Y-1.050 Z11.868 
N415 X147.859 Y-1.254 Z12.103 F1055 
N416 X147.865 Y-1.669 Z12.580 F1703 
N417 X147.875 Y-2.211 Z13.203 F1918 
N418 X147.886 Y-2.837 Z13.923 
N419 X147.898 Y-3.463 Z14.644 
N420 X147.911 Y-4.089 Z15.364 
N421 X147.926 Y-4.716 Z16.085 
N422 X147.944 Y-5.342 Z16.805 
N423 X147.967 Y-5.968 Z17.525 
N424 X147.996 Y-6.594 Z18.245 
N425 X148.035 Y-7.220 Z18.965 
N426 X148.093 Y-7.845 Z19.684 
N427 X148.217 Y-7.948 Z19.803 
N428 X148.234 Y-7.315 Z19.075 
N429 X148.235 Y-6.713 Z18.383 
N430 X148.231 Y-6.093 Z17.669 
N431 X148.224 Y-5.429 Z16.905 
N432 X148.216 Y-4.787 Z16.167 
N433 X148.207 Y-4.198 Z15.489 
N434 X148.199 Y-3.681 Z14.895 F1703 
N435 X148.192 Y-3.276 Z14.428 F1055 
N436 X148.189 Y-3.069 Z14.190 F408 
N437 ;rowek od strony piora
N438 D1 
N439 G01 G41 X148.188 Y-2.985 Z14.094 F193
N440 X148.188 Y-2.985 Z14.094 F193 
N441 X148.187 Y-2.922 Z14.021 
N442 X148.186 Y-2.858 Z13.948 
N443 X148.185 Y-2.795 Z13.875 
N444 X148.184 Y-2.731 Z13.802 
N445 X148.183 Y-2.668 Z13.729 
N446 X148.181 Y-2.604 Z13.656 
N447 X148.180 Y-2.541 Z13.583 
N448 X148.179 Y-2.477 Z13.510 
N449 X148.178 Y-2.414 Z13.437 
N450 X148.177 Y-2.350 Z13.364 
N451 X148.176 Y-2.287 Z13.291 
N452 X148.175 Y-2.223 Z13.218 
N453 X148.174 Y-2.160 Z13.145 
N454 X148.173 Y-2.096 Z13.071 
N455 X148.172 Y-2.033 Z12.998 
N456 X148.171 Y-1.969 Z12.925 
N457 X148.170 Y-1.906 Z12.852 
N458 X148.169 Y-1.842 Z12.779 
N459 X148.168 Y-1.779 Z12.706 
N460 X148.167 Y-1.715 Z12.633 
N461 X148.166 Y-1.652 Z12.560 
N462 X148.165 Y-1.588 Z12.487 
N463 X148.164 Y-1.525 Z12.414 
N464 X148.163 Y-1.462 Z12.341 
N465 X148.162 Y-1.398 Z12.268 
N466 X148.161 Y-1.335 Z12.195 
N467 X148.160 Y-1.271 Z12.122 
N468 X148.159 Y-1.208 Z12.049 
N469 X148.158 Y-1.144 Z11.976 
N470 X148.157 Y-1.081 Z11.903 
N471 X148.155 Y-1.017 Z11.830 
N472 X148.154 Y-0.954 Z11.757 
N473 X148.153 Y-0.890 Z11.684 
N474 X148.152 Y-0.827 Z11.611 
N475 X148.151 Y-0.763 Z11.538 
N476 X148.150 Y-0.700 Z11.465 
N477 X148.149 Y-0.636 Z11.392 
N478 X148.148 Y-0.573 Z11.319 
N479 X148.147 Y-0.509 Z11.246 
N480 X148.146 Y-0.446 Z11.173 
N481 X148.145 Y-0.382 Z11.100 
N482 X148.144 Y-0.319 Z11.027 
N483 X148.143 Y-0.255 Z10.954 
N484 X148.142 Y-0.192 Z10.881 
N485 X148.141 Y-0.128 Z10.807 
N486 X148.140 Y-0.065 Z10.734 
N487 X148.139 Y-0.001 Z10.661 
N488 X148.138 Y0.062 Z10.588 
N489 X148.137 Y0.126 Z10.515 
N490 X148.136 Y0.189 Z10.442 
N491 X148.135 Y0.253 Z10.369 
N492 X148.134 Y0.316 Z10.296 
N493 X148.133 Y0.380 Z10.223 
N494 X148.132 Y0.443 Z10.150 
N495 X148.131 Y0.507 Z10.077 
N496 X148.130 Y0.570 Z10.004 
N497 X148.128 Y0.634 Z9.931 
N498 X148.127 Y0.697 Z9.858 
N499 X148.126 Y0.760 Z9.785 
N500 X148.125 Y0.824 Z9.712 
N501 X148.124 Y0.887 Z9.639 
N502 X148.123 Y0.951 Z9.566 
N503 X148.122 Y1.014 Z9.493 
N504 X148.121 Y1.078 Z9.420 
N505 X148.120 Y1.141 Z9.347 
N506 X148.119 Y1.204 Z9.274 
N507 X148.118 Y1.268 Z9.202 
N508 X148.117 Y1.331 Z9.129 
N509 X148.116 Y1.394 Z9.056 
N510 X148.115 Y1.458 Z8.983 
N511 X148.114 Y1.521 Z8.910 
N512 X148.114 Y1.584 Z8.837 
N513 X148.113 Y1.648 Z8.764 
N514 X148.112 Y1.711 Z8.691 
N515 X148.111 Y1.774 Z8.619 
N516 X148.110 Y1.838 Z8.546 
N517 X148.110 Y1.901 Z8.473 
N518 X148.109 Y1.965 Z8.400 
N519 X148.108 Y2.028 Z8.327 
N520 X148.108 Y2.091 Z8.254 
N521 X148.107 Y2.155 Z8.181 
N522 X148.106 Y2.218 Z8.108 
N523 X148.106 Y2.281 Z8.036 
N524 X148.105 Y2.345 Z7.963 
N525 X148.105 Y2.408 Z7.890 
N526 X148.104 Y2.471 Z7.817 
N527 X148.104 Y2.535 Z7.744 
N528 X148.103 Y2.598 Z7.671 
N529 X148.103 Y2.661 Z7.598 
N530 X148.103 Y2.725 Z7.525 
N531 X148.102 Y2.788 Z7.453 
N532 X148.102 Y2.851 Z7.380 
N533 X148.102 Y2.915 Z7.307 
N534 X148.101 Y2.978 Z7.234 
N535 X148.101 Y3.041 Z7.161 
N536 X148.101 Y3.105 Z7.088 
N537 X148.101 Y3.168 Z7.015 
N538 X148.100 Y3.232 Z6.942 
N539 X148.100 Y3.295 Z6.870 
N540 X148.100 Y3.358 Z6.797 
N541 X148.100 Y3.422 Z6.724 
N542 X148.100 Y3.485 Z6.651 
N543 X148.100 Y3.548 Z6.578 
N544 X148.100 Y3.612 Z6.505 
N545 X148.100 Y3.675 Z6.432 
N546 X148.100 Y3.738 Z6.359 
N547 X148.100 Y3.802 Z6.287 
N548 X148.100 Y3.865 Z6.214 
N549 X148.100 Y3.928 Z6.141 
N550 X148.100 Y3.992 Z6.068 
N551 X148.101 Y4.055 Z5.995 
N552 X148.101 Y4.118 Z5.922 
N553 X148.101 Y4.182 Z5.849 
N554 X148.101 Y4.245 Z5.776 
N555 X148.102 Y4.308 Z5.704 
N556 X148.102 Y4.372 Z5.631 
N557 X148.102 Y4.435 Z5.558 
N558 X148.103 Y4.499 Z5.485 
N559 X148.103 Y4.562 Z5.412 
N560 X148.103 Y4.625 Z5.339 
N561 X148.104 Y4.689 Z5.266 
N562 X148.104 Y4.752 Z5.193 
N563 X148.105 Y4.815 Z5.121 
N564 X148.105 Y4.879 Z5.048 
N565 X148.106 Y4.942 Z4.975 
N566 X148.106 Y5.005 Z4.902 
N567 X148.107 Y5.069 Z4.829 
N568 X148.108 Y5.132 Z4.756 
N569 X148.108 Y5.195 Z4.683 
N570 X148.109 Y5.259 Z4.610 
N571 X148.110 Y5.322 Z4.538 
N572 X148.110 Y5.385 Z4.465 
N573 X148.111 Y5.449 Z4.392 
N574 X148.112 Y5.512 Z4.319 
N575 X148.113 Y5.575 Z4.246 
N576 X148.113 Y5.639 Z4.173 
N577 X148.114 Y5.702 Z4.100 
N578 X148.115 Y5.766 Z4.027 
N579 X148.116 Y5.829 Z3.955 
N580 X148.117 Y5.892 Z3.882 
N581 X148.118 Y5.956 Z3.809 
N582 X148.119 Y6.019 Z3.736 
N583 X148.120 Y6.082 Z3.663 
N584 X148.121 Y6.146 Z3.590 
N585 X148.122 Y6.209 Z3.517 
N586 X148.123 Y6.272 Z3.444 
N587 X148.124 Y6.336 Z3.372 
N588 X148.126 Y6.399 Z3.299 
N589 X148.127 Y6.462 Z3.226 
N590 X148.128 Y6.526 Z3.153 
N591 X148.129 Y6.589 Z3.080 
N592 X148.130 Y6.652 Z3.007 
N593 X148.132 Y6.716 Z2.934 
N594 X148.133 Y6.779 Z2.861 
N595 X148.134 Y6.842 Z2.789 
N596 X148.136 Y6.906 Z2.716 
N597 X148.137 Y6.969 Z2.643 
N598 X148.138 Y7.032 Z2.570 
N599 X148.140 Y7.096 Z2.497 
N600 X148.141 Y7.159 Z2.424 
N601 X148.143 Y7.223 Z2.351 
N602 X148.144 Y7.286 Z2.278 
N603 X148.146 Y7.349 Z2.206 
N604 X148.148 Y7.413 Z2.133 
N605 X148.149 Y7.476 Z2.060 
N606 X148.151 Y7.539 Z1.987 
N607 X148.152 Y7.603 Z1.914 
N608 X148.154 Y7.666 Z1.841 
N609 X148.156 Y7.729 Z1.768 
N610 X148.158 Y7.793 Z1.696 
N611 X148.159 Y7.856 Z1.623 
N612 X148.161 Y7.919 Z1.550 
N613 X148.163 Y7.983 Z1.477 
N614 X148.165 Y8.046 Z1.404 
N615 X148.167 Y8.109 Z1.331 
N616 X148.168 Y8.173 Z1.258 
N617 X148.170 Y8.236 Z1.186 
N618 X148.172 Y8.299 Z1.113 
N619 X148.174 Y8.363 Z1.040 
N620 X148.176 Y8.426 Z0.967 
N621 X148.178 Y8.489 Z0.894 
N622 X148.180 Y8.553 Z0.821 
N623 X148.182 Y8.616 Z0.748 
N624 X148.184 Y8.679 Z0.675 
N625 X148.187 Y8.743 Z0.603 
N626 X148.189 Y8.806 Z0.530 
N627 X148.191 Y8.869 Z0.457 
N628 X148.193 Y8.933 Z0.384 
N629 X148.195 Y8.996 Z0.311 
N630 X148.198 Y9.059 Z0.238 
N631 X148.200 Y9.123 Z0.165 
N632 X148.202 Y9.186 Z0.093 
N633 X148.205 Y9.249 Z0.020 
N634 X148.207 Y9.313 Z-0.053 
N635 X148.209 Y9.376 Z-0.126 
N636 X148.212 Y9.439 Z-0.199 
N637 X148.214 Y9.503 Z-0.272 
N638 X148.217 Y9.566 Z-0.345 
N639 X148.219 Y9.629 Z-0.417 
N640 X148.222 Y9.693 Z-0.490 
N641 X148.224 Y9.756 Z-0.563 
N642 X148.227 Y9.819 Z-0.636 
N643 X148.229 Y9.883 Z-0.709 
N644 X148.232 Y9.946 Z-0.782 
N645 X148.235 Y10.009 Z-0.854 
N646 X148.237 Y10.073 Z-0.927 
N647 X148.240 Y10.136 Z-1.000 
N648 X148.243 Y10.199 Z-1.073 
N649 X148.245 Y10.263 Z-1.146 
N650 X148.248 Y10.326 Z-1.219 
N651 X148.251 Y10.389 Z-1.292 
N652 X148.254 Y10.453 Z-1.364 
N653 X148.257 Y10.516 Z-1.437 
N654 X148.260 Y10.579 Z-1.510 
N655 X148.263 Y10.643 Z-1.583 
N656 X148.265 Y10.706 Z-1.656 
N657 X148.268 Y10.769 Z-1.729 
N658 X148.271 Y10.832 Z-1.801 
N659 X148.274 Y10.896 Z-1.874 
N660 X148.277 Y10.959 Z-1.947 
N661 X148.281 Y11.022 Z-2.020 
N662 X148.284 Y11.086 Z-2.093 
N663 X148.287 Y11.149 Z-2.166 
N664 X148.290 Y11.212 Z-2.239 
N665 X148.293 Y11.276 Z-2.311 
N666 X148.296 Y11.339 Z-2.384 
N667 X148.300 Y11.402 Z-2.457 
N668 X148.303 Y11.466 Z-2.530 
N669 X148.306 Y11.529 Z-2.603 
N670 X148.309 Y11.592 Z-2.676 
N671 X148.313 Y11.656 Z-2.748 
N672 X148.316 Y11.719 Z-2.821 
N673 X148.319 Y11.782 Z-2.894 
N674 X148.323 Y11.846 Z-2.967 
N675 X148.326 Y11.909 Z-3.040 
N676 X148.330 Y11.972 Z-3.113 
N677 X148.333 Y12.035 Z-3.185 
N678 X148.337 Y12.099 Z-3.258 
N679 X148.340 Y12.162 Z-3.331 
N680 X148.344 Y12.225 Z-3.404 
N681 X148.348 Y12.289 Z-3.477 
N682 X148.351 Y12.352 Z-3.549 
N683 X148.355 Y12.415 Z-3.622 
N684 X148.359 Y12.479 Z-3.695 
N685 X148.362 Y12.542 Z-3.768 
N686 X148.366 Y12.605 Z-3.841 
N687 X148.370 Y12.669 Z-3.914 
N688 X148.373 Y12.732 Z-3.986 
N689 X148.377 Y12.795 Z-4.059 
N690 X148.381 Y12.858 Z-4.132 
N691 X148.385 Y12.922 Z-4.205 
N692 X148.389 Y12.985 Z-4.278 
N693 X148.393 Y13.048 Z-4.351 
N694 X148.397 Y13.112 Z-4.423 
N695 X148.401 Y13.175 Z-4.496 
N696 X148.405 Y13.238 Z-4.569 
N697 X148.409 Y13.302 Z-4.642 
N698 X148.413 Y13.365 Z-4.715 
N699 X148.417 Y13.428 Z-4.787 
N700 X148.421 Y13.491 Z-4.860 
N701 X148.425 Y13.555 Z-4.933 
N702 X148.429 Y13.618 Z-5.006 
N703 X148.433 Y13.681 Z-5.079 
N704 X148.438 Y13.745 Z-5.151 
N705 X148.442 Y13.808 Z-5.224 
N706 X148.446 Y13.871 Z-5.297 
N707 X148.450 Y13.934 Z-5.370 
N708 X148.455 Y13.998 Z-5.443 
N709 X148.459 Y14.061 Z-5.515 
N710 X148.463 Y14.124 Z-5.588 
N711 X148.468 Y14.188 Z-5.661 
N712 X148.472 Y14.251 Z-5.734 
N713 X148.477 Y14.314 Z-5.807 
N714 X148.481 Y14.377 Z-5.879 
N715 X148.486 Y14.441 Z-5.952 
N716 X148.490 Y14.504 Z-6.025 
N717 X148.495 Y14.567 Z-6.098 
N718 X148.499 Y14.631 Z-6.171 
N719 X148.504 Y14.694 Z-6.243 
N720 X148.509 Y14.757 Z-6.316 
N721 X148.513 Y14.820 Z-6.389 
N722 X148.518 Y14.884 Z-6.462 
N723 X148.523 Y14.947 Z-6.535 
N724 X148.527 Y15.010 Z-6.607 
N725 X148.532 Y15.074 Z-6.680 
N726 X148.537 Y15.137 Z-6.753 
N727 X148.542 Y15.200 Z-6.826 
N728 X148.547 Y15.263 Z-6.899 
N729 X148.551 Y15.327 Z-6.971 
N730 X148.556 Y15.390 Z-7.044 
N731 X148.561 Y15.453 Z-7.117 
N732 X148.566 Y15.516 Z-7.190 
N733 X148.571 Y15.580 Z-7.262 
N734 X148.576 Y15.643 Z-7.335 
N735 X148.581 Y15.706 Z-7.408 
N736 X148.586 Y15.769 Z-7.481 
N737 X148.591 Y15.833 Z-7.554 
N738 X148.596 Y15.896 Z-7.626 
N739 X148.601 Y15.959 Z-7.699 
N740 X148.607 Y16.023 Z-7.772 
N741 X148.612 Y16.086 Z-7.845 
N742 X148.617 Y16.149 Z-7.917 
N743 X148.622 Y16.212 Z-7.990 
N744 X148.628 Y16.276 Z-8.063 
N745 X148.633 Y16.339 Z-8.136 
N746 X148.638 Y16.402 Z-8.209 
N747 X148.643 Y16.465 Z-8.281 
N748 X148.649 Y16.529 Z-8.354 
N749 X148.654 Y16.592 Z-8.427 
N750 X148.660 Y16.655 Z-8.500 
N751 X148.665 Y16.718 Z-8.572 
N752 X148.671 Y16.782 Z-8.645 
N753 X148.676 Y16.845 Z-8.718 
N754 X148.682 Y16.908 Z-8.791 
N755 X148.687 Y16.971 Z-8.863 
N756 X148.693 Y17.035 Z-8.936 
N757 X148.698 Y17.098 Z-9.009 
N758 X148.704 Y17.161 Z-9.082 
N759 X148.710 Y17.224 Z-9.154 
N760 X148.715 Y17.288 Z-9.227 
N761 X148.721 Y17.351 Z-9.300 
N762 X148.727 Y17.414 Z-9.373 
N763 X148.733 Y17.477 Z-9.445 
N764 X148.738 Y17.540 Z-9.518 
N765 X148.744 Y17.604 Z-9.591 
N766 X148.750 Y17.667 Z-9.664 
N767 X148.756 Y17.730 Z-9.736 
N768 X148.762 Y17.793 Z-9.809 
N769 X148.768 Y17.857 Z-9.882 
N770 X148.773 Y17.920 Z-9.955 
N771 X148.779 Y17.984 Z-10.028 
N772 X148.785 Y18.047 Z-10.101 
N773 X148.791 Y18.110 Z-10.174 
N774 X148.797 Y18.174 Z-10.247 
N775 X148.803 Y18.237 Z-10.319 
N776 X148.808 Y18.300 Z-10.392 
N777 X148.814 Y18.364 Z-10.465 
N778 X148.820 Y18.427 Z-10.538 
N779 X148.826 Y18.491 Z-10.611 
N780 X148.832 Y18.554 Z-10.684 
N781 X148.838 Y18.617 Z-10.757 
N782 X148.844 Y18.681 Z-10.830 
N783 X148.849 Y18.744 Z-10.903 
N784 X148.855 Y18.807 Z-10.976 
N785 X148.861 Y18.871 Z-11.048 
N786 X148.867 Y18.934 Z-11.121 
N787 X148.873 Y18.998 Z-11.194 
N788 X148.879 Y19.061 Z-11.267 
N789 X148.885 Y19.124 Z-11.340 
N790 X148.890 Y19.188 Z-11.413 
N791 X148.896 Y19.251 Z-11.486 
N792 X148.902 Y19.314 Z-11.559 
N793 X148.908 Y19.378 Z-11.632 
N794 X148.914 Y19.441 Z-11.705 
N795 X148.920 Y19.505 Z-11.777 
N796 X148.925 Y19.568 Z-11.850 
N797 X148.931 Y19.631 Z-11.923 
N798 X148.937 Y19.695 Z-11.996 
N799 X148.943 Y19.758 Z-12.069 
N800 G40 X149.547 Y26.307 Z-19.602 F193
N801 X149.547 Y26.307 Z-19.602 
N802 G00 X149.547 Y64.042 Z13.201 
RAPORT("T13732","Side Milling:135 End")
N804 ;trailer : concat=None
; points cnt = 744
N805 MSG (" --- GROUPED OF SUBPROGRAM --- ")
N806 FGROUP()
N807 TRAFOOF
N10 ; PROGRAM NAME: 1373237
N11 ; ORDER       : 13732
N12 ; OPER. NAME  : Side Milling:136
N13 ; OPER. DESCR.: semifinish slot NGA
N14 ; OPER. TYPE  : sideMill
N15 ; GEO. OPTION : 3
N16 ; MACHINE     : SH_HX151_24_SIM840D
N17 ;             : STARRAG_HECKERT_5axis_finish_milling_machine
N18 ; CONTROL     : SINUMERIK 840D
N19 ; created:   2021-11-10 08:27:37.628102
;-------DODATKOWE DANE-------------------
; PROGRAMISTA : Mariusz Orzechowski
; PARTID      : 132T008743P1005_-
;  ap         : 5.0
;  ae         : 5.0
;  lean_angle : 0.0
;  fin_offset : 0.0
;----------------------------------------
N20 ;----------------------------------------
RAPORT("T13732","Side Milling:136")
N21 TRAFOOF
N22 D0
N23 G0 G90 G94 Z260.0
N24 STOPRE
N25 M9 ; chlodziwo wyl
N26 ; --- Side Milling:136 - semifinish slot NGA ---
N28 ;ToolChange : concat=None ,current_tdmid=None, PP.tdmId=959057
N29 TRAFOOF
N30 D0
N31 G0 G54 Z270.0
N32 S3713 M03
N33 STOPRE
N34 TOL(0.1,1,1)
N35 G0  A131.0000
N36 TRAORI
N37 G54 D1
N38 ;tol5=0.15
STOPRE
E_ZDARZ=300010
;ACS_FINISH_SLOT=7759057
STOPRE
;UWAGA : ZMIENIONA TOLERANCJA OSI A i B, ruchy osi A i B beda usuniete : TOL5=0.15
N39 ; DELTA A > 40.1
N40 TRAFOOF
N41 STOPRE
N42 G0 G53 D0 Z265.000
N43 G1 G53 A131.0000 F10000
N44 TRAORI
N45 G54 D1
N46 TRANS 
N47 G00 X148.989 Y-66.304 Z-10.544 A131.0000 B0.0000 
N48 M342 ; chlodziwo woda
N49 X148.989 Y-28.568 Z22.259 
N50 ;rowek od strony mocowania
N51 D4 
N52 G01 G41 X148.515 Y-22.015 Z14.721 F193
N53 G01 X148.515 Y-22.015 Z14.721 F193 
N54 X148.510 Y-21.952 Z14.648 
N55 X148.506 Y-21.888 Z14.575 
N56 X148.501 Y-21.825 Z14.502 
N57 X148.496 Y-21.761 Z14.429 
N58 X148.492 Y-21.698 Z14.356 
N59 X148.487 Y-21.635 Z14.283 
N60 X148.483 Y-21.571 Z14.210 
N61 X148.478 Y-21.508 Z14.137 
N62 X148.473 Y-21.444 Z14.064 
N63 X148.469 Y-21.381 Z13.991 
N64 X148.464 Y-21.317 Z13.918 
N65 X148.460 Y-21.254 Z13.845 
N66 X148.455 Y-21.191 Z13.772 
N67 X148.450 Y-21.127 Z13.699 
N68 X148.446 Y-21.064 Z13.626 
N69 X148.441 Y-21.000 Z13.553 
N70 X148.437 Y-20.937 Z13.481 
N71 X148.432 Y-20.874 Z13.408 
N72 X148.427 Y-20.810 Z13.335 
N73 X148.423 Y-20.747 Z13.262 
N74 X148.418 Y-20.683 Z13.189 
N75 X148.414 Y-20.620 Z13.116 
N76 X148.409 Y-20.556 Z13.043 
N77 X148.404 Y-20.493 Z12.970 
N78 X148.400 Y-20.430 Z12.897 
N79 X148.395 Y-20.366 Z12.824 
N80 X148.391 Y-20.303 Z12.751 
N81 X148.386 Y-20.239 Z12.678 
N82 X148.381 Y-20.176 Z12.605 
N83 X148.377 Y-20.112 Z12.532 
N84 X148.372 Y-20.049 Z12.459 
N85 X148.368 Y-19.986 Z12.386 
N86 X148.363 Y-19.922 Z12.313 
N87 X148.359 Y-19.859 Z12.240 
N88 X148.354 Y-19.795 Z12.167 
N89 X148.349 Y-19.732 Z12.094 
N90 X148.345 Y-19.669 Z12.021 
N91 X148.340 Y-19.605 Z11.948 
N92 X148.336 Y-19.542 Z11.876 
N93 X148.331 Y-19.478 Z11.803 
N94 X148.326 Y-19.415 Z11.730 
N95 X148.322 Y-19.351 Z11.657 
N96 X148.317 Y-19.288 Z11.584 
N97 X148.313 Y-19.225 Z11.511 
N98 X148.308 Y-19.161 Z11.438 
N99 X148.303 Y-19.098 Z11.365 
N100 X148.299 Y-19.034 Z11.292 
N101 X148.294 Y-18.971 Z11.219 
N102 X148.290 Y-18.908 Z11.146 
N103 X148.285 Y-18.844 Z11.073 
N104 X148.280 Y-18.781 Z11.000 
N105 X148.276 Y-18.717 Z10.927 
N106 X148.271 Y-18.654 Z10.854 
N107 X148.267 Y-18.590 Z10.781 
N108 X148.262 Y-18.527 Z10.708 
N109 X148.257 Y-18.464 Z10.635 
N110 X148.253 Y-18.400 Z10.562 
N111 X148.248 Y-18.337 Z10.489 
N112 X148.244 Y-18.273 Z10.416 
N113 X148.239 Y-18.210 Z10.343 
N114 X148.234 Y-18.147 Z10.271 
N115 X148.230 Y-18.083 Z10.198 
N116 X148.225 Y-18.020 Z10.125 
N117 X148.221 Y-17.957 Z10.052 
N118 X148.216 Y-17.893 Z9.979 
N119 X148.212 Y-17.830 Z9.907 
N120 X148.207 Y-17.767 Z9.834 
N121 X148.203 Y-17.704 Z9.761 
N122 X148.198 Y-17.640 Z9.688 
N123 X148.194 Y-17.577 Z9.616 
N124 X148.189 Y-17.514 Z9.543 
N125 X148.185 Y-17.451 Z9.470 
N126 X148.180 Y-17.387 Z9.397 
N127 X148.176 Y-17.324 Z9.325 
N128 X148.172 Y-17.261 Z9.252 
N129 X148.167 Y-17.198 Z9.179 
N130 X148.163 Y-17.134 Z9.106 
N131 X148.159 Y-17.071 Z9.033 
N132 X148.155 Y-17.008 Z8.961 
N133 X148.151 Y-16.945 Z8.888 
N134 X148.146 Y-16.881 Z8.815 
N135 X148.142 Y-16.818 Z8.742 
N136 X148.138 Y-16.755 Z8.670 
N137 X148.134 Y-16.692 Z8.597 
N138 X148.130 Y-16.628 Z8.524 
N139 X148.126 Y-16.565 Z8.451 
N140 X148.122 Y-16.502 Z8.379 
N141 X148.118 Y-16.439 Z8.306 
N142 X148.114 Y-16.375 Z8.233 
N143 X148.110 Y-16.312 Z8.160 
N144 X148.106 Y-16.249 Z8.087 
N145 X148.102 Y-16.186 Z8.015 
N146 X148.099 Y-16.122 Z7.942 
N147 X148.095 Y-16.059 Z7.869 
N148 X148.091 Y-15.996 Z7.796 
N149 X148.087 Y-15.932 Z7.724 
N150 X148.083 Y-15.869 Z7.651 
N151 X148.080 Y-15.806 Z7.578 
N152 X148.076 Y-15.743 Z7.505 
N153 X148.072 Y-15.679 Z7.432 
N154 X148.069 Y-15.616 Z7.360 
N155 X148.065 Y-15.553 Z7.287 
N156 X148.062 Y-15.490 Z7.214 
N157 X148.058 Y-15.426 Z7.141 
N158 X148.054 Y-15.363 Z7.068 
N159 X148.051 Y-15.300 Z6.996 
N160 X148.048 Y-15.236 Z6.923 
N161 X148.044 Y-15.173 Z6.850 
N162 X148.041 Y-15.110 Z6.777 
N163 X148.037 Y-15.047 Z6.705 
N164 X148.034 Y-14.983 Z6.632 
N165 X148.031 Y-14.920 Z6.559 
N166 X148.027 Y-14.857 Z6.486 
N167 X148.024 Y-14.794 Z6.413 
N168 X148.021 Y-14.730 Z6.341 
N169 X148.017 Y-14.667 Z6.268 
N170 X148.014 Y-14.604 Z6.195 
N171 X148.011 Y-14.540 Z6.122 
N172 X148.008 Y-14.477 Z6.049 
N173 X148.005 Y-14.414 Z5.977 
N174 X148.002 Y-14.351 Z5.904 
N175 X147.999 Y-14.287 Z5.831 
N176 X147.995 Y-14.224 Z5.758 
N177 X147.992 Y-14.161 Z5.685 
N178 X147.989 Y-14.097 Z5.613 
N179 X147.987 Y-14.034 Z5.540 
N180 X147.984 Y-13.971 Z5.467 
N181 X147.981 Y-13.908 Z5.394 
N182 X147.978 Y-13.844 Z5.321 
N183 X147.975 Y-13.781 Z5.249 
N184 X147.972 Y-13.718 Z5.176 
N185 X147.969 Y-13.654 Z5.103 
N186 X147.966 Y-13.591 Z5.030 
N187 X147.964 Y-13.528 Z4.957 
N188 X147.961 Y-13.465 Z4.885 
N189 X147.958 Y-13.401 Z4.812 
N190 X147.956 Y-13.338 Z4.739 
N191 X147.953 Y-13.275 Z4.666 
N192 X147.950 Y-13.211 Z4.593 
N193 X147.948 Y-13.148 Z4.521 
N194 X147.945 Y-13.085 Z4.448 
N195 X147.942 Y-13.022 Z4.375 
N196 X147.940 Y-12.958 Z4.302 
N197 X147.937 Y-12.895 Z4.229 
N198 X147.935 Y-12.832 Z4.157 
N199 X147.933 Y-12.768 Z4.084 
N200 X147.930 Y-12.705 Z4.011 
N201 X147.928 Y-12.642 Z3.938 
N202 X147.925 Y-12.579 Z3.865 
N203 X147.923 Y-12.515 Z3.792 
N204 X147.921 Y-12.452 Z3.720 
N205 X147.918 Y-12.389 Z3.647 
N206 X147.916 Y-12.325 Z3.574 
N207 X147.914 Y-12.262 Z3.501 
N208 X147.912 Y-12.199 Z3.428 
N209 X147.910 Y-12.135 Z3.356 
N210 X147.907 Y-12.072 Z3.283 
N211 X147.905 Y-12.009 Z3.210 
N212 X147.903 Y-11.946 Z3.137 
N213 X147.901 Y-11.882 Z3.064 
N214 X147.899 Y-11.819 Z2.991 
N215 X147.897 Y-11.756 Z2.919 
N216 X147.895 Y-11.692 Z2.846 
N217 X147.893 Y-11.629 Z2.773 
N218 X147.891 Y-11.566 Z2.700 
N219 X147.889 Y-11.502 Z2.627 
N220 X147.887 Y-11.439 Z2.555 
N221 X147.885 Y-11.376 Z2.482 
N222 X147.884 Y-11.313 Z2.409 
N223 X147.882 Y-11.249 Z2.336 
N224 X147.880 Y-11.186 Z2.263 
N225 X147.878 Y-11.123 Z2.190 
N226 X147.876 Y-11.059 Z2.118 
N227 X147.875 Y-10.996 Z2.045 
N228 X147.873 Y-10.933 Z1.972 
N229 X147.871 Y-10.869 Z1.899 
N230 X147.870 Y-10.806 Z1.826 
N231 X147.868 Y-10.743 Z1.753 
N232 X147.867 Y-10.679 Z1.681 
N233 X147.865 Y-10.616 Z1.608 
N234 X147.864 Y-10.553 Z1.535 
N235 X147.862 Y-10.490 Z1.462 
N236 X147.861 Y-10.426 Z1.389 
N237 X147.859 Y-10.363 Z1.317 
N238 X147.858 Y-10.300 Z1.244 
N239 X147.856 Y-10.236 Z1.171 
N240 X147.855 Y-10.173 Z1.098 
N241 X147.854 Y-10.110 Z1.025 
N242 X147.852 Y-10.046 Z0.952 
N243 X147.851 Y-9.983 Z0.880 
N244 X147.850 Y-9.920 Z0.807 
N245 X147.848 Y-9.856 Z0.734 
N246 X147.847 Y-9.793 Z0.661 
N247 X147.846 Y-9.730 Z0.588 
N248 X147.845 Y-9.667 Z0.515 
N249 X147.844 Y-9.603 Z0.443 
N250 X147.843 Y-9.540 Z0.370 
N251 X147.842 Y-9.477 Z0.297 
N252 X147.841 Y-9.413 Z0.224 
N253 X147.839 Y-9.350 Z0.151 
N254 X147.838 Y-9.287 Z0.078 
N255 X147.837 Y-9.223 Z0.006 
N256 X147.837 Y-9.160 Z-0.067 
N257 X147.836 Y-9.097 Z-0.140 
N258 X147.835 Y-9.033 Z-0.213 
N259 X147.834 Y-8.970 Z-0.286 
N260 X147.833 Y-8.907 Z-0.359 
N261 X147.832 Y-8.844 Z-0.431 
N262 X147.831 Y-8.780 Z-0.504 
N263 X147.831 Y-8.717 Z-0.577 
N264 X147.830 Y-8.654 Z-0.650 
N265 X147.829 Y-8.590 Z-0.723 
N266 X147.829 Y-8.527 Z-0.796 
N267 X147.828 Y-8.464 Z-0.868 
N268 X147.827 Y-8.400 Z-0.941 
N269 X147.827 Y-8.337 Z-1.014 
N270 X147.826 Y-8.274 Z-1.087 
N271 X147.826 Y-8.210 Z-1.160 
N272 X147.825 Y-8.147 Z-1.233 
N273 X147.824 Y-8.084 Z-1.305 
N274 X147.824 Y-8.020 Z-1.378 
N275 X147.824 Y-7.957 Z-1.451 
N276 X147.823 Y-7.894 Z-1.524 
N277 X147.823 Y-7.830 Z-1.597 
N278 X147.822 Y-7.767 Z-1.670 
N279 X147.822 Y-7.704 Z-1.742 
N280 X147.822 Y-7.641 Z-1.815 
N281 X147.821 Y-7.577 Z-1.888 
N282 X147.821 Y-7.514 Z-1.961 
N283 X147.821 Y-7.451 Z-2.034 
N284 X147.821 Y-7.387 Z-2.107 
N285 X147.821 Y-7.324 Z-2.179 
N286 X147.820 Y-7.261 Z-2.252 
N287 X147.820 Y-7.197 Z-2.325 
N288 X147.820 Y-7.134 Z-2.398 
N289 X147.820 Y-7.071 Z-2.471 
N290 X147.820 Y-7.007 Z-2.544 
N291 X147.820 Y-6.944 Z-2.616 
N292 X147.820 Y-6.881 Z-2.689 
N293 X147.820 Y-6.817 Z-2.762 
N294 X147.820 Y-6.754 Z-2.835 
N295 X147.820 Y-6.691 Z-2.908 
N296 X147.820 Y-6.628 Z-2.981 
N297 X147.820 Y-6.564 Z-3.053 
N298 X147.821 Y-6.501 Z-3.126 
N299 X147.821 Y-6.438 Z-3.199 
N300 X147.821 Y-6.374 Z-3.272 
N301 X147.821 Y-6.311 Z-3.345 
N302 X147.821 Y-6.248 Z-3.418 
N303 X147.822 Y-6.184 Z-3.490 
N304 X147.822 Y-6.121 Z-3.563 
N305 X147.822 Y-6.058 Z-3.636 
N306 X147.823 Y-5.994 Z-3.709 
N307 X147.823 Y-5.931 Z-3.782 
N308 X147.824 Y-5.868 Z-3.855 
N309 X147.824 Y-5.804 Z-3.927 
N310 X147.825 Y-5.741 Z-4.000 
N311 X147.825 Y-5.678 Z-4.073 
N312 X147.826 Y-5.614 Z-4.146 
N313 X147.826 Y-5.551 Z-4.219 
N314 X147.827 Y-5.488 Z-4.292 
N315 X147.827 Y-5.425 Z-4.364 
N316 X147.828 Y-5.361 Z-4.437 
N317 X147.829 Y-5.298 Z-4.510 
N318 X147.829 Y-5.235 Z-4.583 
N319 X147.830 Y-5.171 Z-4.656 
N320 X147.831 Y-5.108 Z-4.729 
N321 X147.832 Y-5.045 Z-4.801 
N322 X147.832 Y-4.981 Z-4.874 
N323 X147.833 Y-4.918 Z-4.947 
N324 X147.834 Y-4.855 Z-5.020 
N325 X147.835 Y-4.791 Z-5.093 
N326 X147.836 Y-4.728 Z-5.166 
N327 X147.837 Y-4.665 Z-5.238 
N328 X147.838 Y-4.601 Z-5.311 
N329 X147.839 Y-4.538 Z-5.384 
N330 X147.840 Y-4.475 Z-5.457 
N331 X147.841 Y-4.412 Z-5.530 
N332 X147.842 Y-4.348 Z-5.603 
N333 X147.843 Y-4.285 Z-5.675 
N334 X147.844 Y-4.222 Z-5.748 
N335 X147.845 Y-4.158 Z-5.821 
N336 X147.846 Y-4.095 Z-5.894 
N337 X147.847 Y-4.032 Z-5.967 
N338 X147.849 Y-3.968 Z-6.040 
N339 X147.850 Y-3.905 Z-6.112 
N340 X147.851 Y-3.842 Z-6.185 
N341 X147.852 Y-3.778 Z-6.258 
N342 X147.854 Y-3.715 Z-6.331 
N343 X147.855 Y-3.652 Z-6.404 
N344 X147.856 Y-3.589 Z-6.477 
N345 X147.858 Y-3.525 Z-6.549 
N346 X147.859 Y-3.462 Z-6.622 
N347 X147.861 Y-3.399 Z-6.695 
N348 X147.862 Y-3.335 Z-6.768 
N349 X147.864 Y-3.272 Z-6.841 
N350 X147.865 Y-3.209 Z-6.913 
N351 X147.867 Y-3.145 Z-6.986 
N352 X147.868 Y-3.082 Z-7.059 
N353 X147.870 Y-3.019 Z-7.132 
N354 X147.872 Y-2.955 Z-7.205 
N355 X147.873 Y-2.892 Z-7.278 
N356 X147.875 Y-2.829 Z-7.350 
N357 X147.877 Y-2.766 Z-7.423 
N358 X147.878 Y-2.702 Z-7.496 
N359 X147.880 Y-2.639 Z-7.569 
N360 X147.882 Y-2.576 Z-7.642 
N361 X147.884 Y-2.512 Z-7.715 
N362 X147.886 Y-2.449 Z-7.787 
N363 X147.887 Y-2.386 Z-7.860 
N364 X147.889 Y-2.322 Z-7.933 
N365 X147.891 Y-2.259 Z-8.006 
N366 X147.893 Y-2.196 Z-8.079 
N367 X147.895 Y-2.133 Z-8.151 
N368 X147.897 Y-2.069 Z-8.224 
N369 X147.899 Y-2.006 Z-8.297 
N370 X147.901 Y-1.943 Z-8.370 
N371 X147.903 Y-1.879 Z-8.443 
N372 X147.905 Y-1.816 Z-8.516 
N373 X147.908 Y-1.753 Z-8.588 
N374 X147.910 Y-1.689 Z-8.661 
N375 X147.912 Y-1.626 Z-8.734 
N376 X147.914 Y-1.563 Z-8.807 
N377 X147.916 Y-1.500 Z-8.880 
N378 X147.919 Y-1.436 Z-8.952 
N379 X147.921 Y-1.373 Z-9.025 
N380 X147.923 Y-1.310 Z-9.098 
N381 X147.926 Y-1.246 Z-9.171 
N382 X147.928 Y-1.183 Z-9.244 
N383 X147.930 Y-1.119 Z-9.317 
N384 X147.933 Y-1.056 Z-9.390 
N385 X147.935 Y-0.992 Z-9.463 
N386 X147.937 Y-0.929 Z-9.536 
N387 X147.939 Y-0.866 Z-9.609 
N388 X147.942 Y-0.802 Z-9.682 
N389 X147.944 Y-0.739 Z-9.755 
N390 X147.946 Y-0.675 Z-9.828 
N391 X147.949 Y-0.612 Z-9.901 
N392 X147.951 Y-0.548 Z-9.974 
N393 X147.953 Y-0.485 Z-10.047 
N394 X147.956 Y-0.421 Z-10.120 
N395 X147.958 Y-0.358 Z-10.193 
N396 X147.960 Y-0.294 Z-10.266 
N397 X147.963 Y-0.231 Z-10.339 
N398 X147.965 Y-0.167 Z-10.412 
N399 X147.967 Y-0.104 Z-10.485 
N400 X147.970 Y-0.040 Z-10.558 
N401 X147.972 Y0.023 Z-10.631 
N402 X147.974 Y0.087 Z-10.704 
N403 X147.976 Y0.150 Z-10.777 
N404 X147.979 Y0.213 Z-10.850 
N405 X147.981 Y0.277 Z-10.923 
N406 X147.983 Y0.340 Z-10.996 
N407 X147.986 Y0.404 Z-11.069 
N408 X147.988 Y0.467 Z-11.142 
N409 X147.990 Y0.531 Z-11.215 
N410 X147.993 Y0.594 Z-11.288 
N411 X147.995 Y0.658 Z-11.361 
N412 X147.997 Y0.721 Z-11.434 
N413 G40 X148.000 Y0.798 Z-11.523 F407
N414 X148.000 Y0.798 Z-11.523 
N415 X148.007 Y1.001 Z-11.756 F1049 
N416 X148.022 Y1.411 Z-12.228 F1691 
N417 X148.042 Y1.947 Z-12.845 F1905 
N418 X148.065 Y2.569 Z-13.560 
N419 X148.089 Y3.191 Z-14.276 
N420 X148.113 Y3.813 Z-14.991 
N421 X148.140 Y4.435 Z-15.707 
N422 X148.169 Y5.057 Z-16.422 
N423 X148.201 Y5.679 Z-17.137 
N424 X148.240 Y6.300 Z-17.852 
N425 X148.288 Y6.922 Z-18.567 
N426 X148.355 Y7.542 Z-19.281 
N427 X148.455 Y7.451 Z-19.176 
N428 X148.453 Y6.811 Z-18.440 
N429 X148.440 Y6.229 Z-17.771 
N430 X148.423 Y5.593 Z-17.038 
N431 X148.402 Y4.927 Z-16.272 
N432 X148.382 Y4.330 Z-15.585 
N433 X148.361 Y3.739 Z-14.906 
N434 X148.343 Y3.219 Z-14.307 F1691 
N435 X148.328 Y2.808 Z-13.835 F1049 
N436 X148.321 Y2.595 Z-13.590 F407 
N437 ;rowek od strony piora
N438 D3 
N439 G01 G41 X148.318 Y2.507 Z-13.489 F193
N440 X148.318 Y2.507 Z-13.489 F193 
N441 X148.315 Y2.444 Z-13.416 
N442 X148.313 Y2.380 Z-13.343 
N443 X148.311 Y2.317 Z-13.270 
N444 X148.309 Y2.253 Z-13.197 
N445 X148.307 Y2.190 Z-13.124 
N446 X148.304 Y2.126 Z-13.051 
N447 X148.302 Y2.063 Z-12.978 
N448 X148.300 Y2.000 Z-12.905 
N449 X148.298 Y1.936 Z-12.832 
N450 X148.295 Y1.873 Z-12.759 
N451 X148.293 Y1.809 Z-12.686 
N452 X148.291 Y1.746 Z-12.613 
N453 X148.289 Y1.682 Z-12.540 
N454 X148.286 Y1.619 Z-12.467 
N455 X148.284 Y1.555 Z-12.394 
N456 X148.282 Y1.492 Z-12.321 
N457 X148.280 Y1.428 Z-12.248 
N458 X148.277 Y1.365 Z-12.175 
N459 X148.275 Y1.301 Z-12.102 
N460 X148.273 Y1.238 Z-12.029 
N461 X148.271 Y1.174 Z-11.956 
N462 X148.268 Y1.111 Z-11.883 
N463 X148.266 Y1.047 Z-11.810 
N464 X148.264 Y0.984 Z-11.737 
N465 X148.262 Y0.920 Z-11.664 
N466 X148.260 Y0.857 Z-11.591 
N467 X148.257 Y0.794 Z-11.518 
N468 X148.255 Y0.730 Z-11.445 
N469 X148.253 Y0.667 Z-11.371 
N470 X148.251 Y0.603 Z-11.298 
N471 X148.248 Y0.540 Z-11.225 
N472 X148.246 Y0.476 Z-11.152 
N473 X148.244 Y0.413 Z-11.079 
N474 X148.242 Y0.349 Z-11.006 
N475 X148.239 Y0.286 Z-10.933 
N476 X148.237 Y0.222 Z-10.860 
N477 X148.235 Y0.159 Z-10.787 
N478 X148.233 Y0.095 Z-10.714 
N479 X148.230 Y0.032 Z-10.641 
N480 X148.228 Y-0.032 Z-10.568 
N481 X148.226 Y-0.095 Z-10.495 
N482 X148.224 Y-0.159 Z-10.422 
N483 X148.222 Y-0.222 Z-10.349 
N484 X148.219 Y-0.285 Z-10.276 
N485 X148.217 Y-0.349 Z-10.203 
N486 X148.215 Y-0.412 Z-10.130 
N487 X148.213 Y-0.476 Z-10.057 
N488 X148.210 Y-0.539 Z-9.984 
N489 X148.208 Y-0.603 Z-9.911 
N490 X148.206 Y-0.666 Z-9.838 
N491 X148.204 Y-0.730 Z-9.765 
N492 X148.201 Y-0.793 Z-9.692 
N493 X148.199 Y-0.857 Z-9.619 
N494 X148.197 Y-0.920 Z-9.546 
N495 X148.195 Y-0.984 Z-9.473 
N496 X148.192 Y-1.047 Z-9.400 
N497 X148.190 Y-1.111 Z-9.327 
N498 X148.188 Y-1.174 Z-9.254 
N499 X148.186 Y-1.238 Z-9.181 
N500 X148.183 Y-1.301 Z-9.108 
N501 X148.181 Y-1.365 Z-9.035 
N502 X148.179 Y-1.428 Z-8.962 
N503 X148.177 Y-1.491 Z-8.889 
N504 X148.175 Y-1.555 Z-8.816 
N505 X148.172 Y-1.618 Z-8.743 
N506 X148.170 Y-1.681 Z-8.670 
N507 X148.168 Y-1.745 Z-8.598 
N508 X148.166 Y-1.808 Z-8.525 
N509 X148.164 Y-1.871 Z-8.452 
N510 X148.162 Y-1.935 Z-8.379 
N511 X148.160 Y-1.998 Z-8.306 
N512 X148.158 Y-2.061 Z-8.233 
N513 X148.156 Y-2.125 Z-8.160 
N514 X148.153 Y-2.188 Z-8.088 
N515 X148.152 Y-2.251 Z-8.015 
N516 X148.150 Y-2.315 Z-7.942 
N517 X148.148 Y-2.378 Z-7.869 
N518 X148.146 Y-2.441 Z-7.796 
N519 X148.144 Y-2.505 Z-7.723 
N520 X148.142 Y-2.568 Z-7.650 
N521 X148.140 Y-2.631 Z-7.577 
N522 X148.139 Y-2.695 Z-7.505 
N523 X148.137 Y-2.758 Z-7.432 
N524 X148.135 Y-2.822 Z-7.359 
N525 X148.133 Y-2.885 Z-7.286 
N526 X148.132 Y-2.948 Z-7.213 
N527 X148.130 Y-3.012 Z-7.140 
N528 X148.128 Y-3.075 Z-7.067 
N529 X148.127 Y-3.138 Z-6.995 
N530 X148.125 Y-3.202 Z-6.922 
N531 X148.124 Y-3.265 Z-6.849 
N532 X148.122 Y-3.328 Z-6.776 
N533 X148.121 Y-3.392 Z-6.703 
N534 X148.119 Y-3.455 Z-6.630 
N535 X148.118 Y-3.518 Z-6.557 
N536 X148.117 Y-3.582 Z-6.484 
N537 X148.115 Y-3.645 Z-6.412 
N538 X148.114 Y-3.708 Z-6.339 
N539 X148.113 Y-3.772 Z-6.266 
N540 X148.111 Y-3.835 Z-6.193 
N541 X148.110 Y-3.898 Z-6.120 
N542 X148.109 Y-3.962 Z-6.047 
N543 X148.107 Y-4.025 Z-5.974 
N544 X148.106 Y-4.088 Z-5.901 
N545 X148.105 Y-4.152 Z-5.829 
N546 X148.104 Y-4.215 Z-5.756 
N547 X148.103 Y-4.279 Z-5.683 
N548 X148.102 Y-4.342 Z-5.610 
N549 X148.101 Y-4.405 Z-5.537 
N550 X148.100 Y-4.469 Z-5.464 
N551 X148.099 Y-4.532 Z-5.391 
N552 X148.098 Y-4.595 Z-5.318 
N553 X148.097 Y-4.659 Z-5.245 
N554 X148.096 Y-4.722 Z-5.173 
N555 X148.095 Y-4.785 Z-5.100 
N556 X148.094 Y-4.849 Z-5.027 
N557 X148.093 Y-4.912 Z-4.954 
N558 X148.092 Y-4.975 Z-4.881 
N559 X148.092 Y-5.039 Z-4.808 
N560 X148.091 Y-5.102 Z-4.735 
N561 X148.090 Y-5.165 Z-4.662 
N562 X148.089 Y-5.229 Z-4.590 
N563 X148.089 Y-5.292 Z-4.517 
N564 X148.088 Y-5.356 Z-4.444 
N565 X148.087 Y-5.419 Z-4.371 
N566 X148.087 Y-5.482 Z-4.298 
N567 X148.086 Y-5.546 Z-4.225 
N568 X148.086 Y-5.609 Z-4.152 
N569 X148.085 Y-5.672 Z-4.079 
N570 X148.085 Y-5.736 Z-4.007 
N571 X148.084 Y-5.799 Z-3.934 
N572 X148.084 Y-5.862 Z-3.861 
N573 X148.083 Y-5.926 Z-3.788 
N574 X148.083 Y-5.989 Z-3.715 
N575 X148.082 Y-6.052 Z-3.642 
N576 X148.082 Y-6.116 Z-3.569 
N577 X148.082 Y-6.179 Z-3.496 
N578 X148.081 Y-6.243 Z-3.423 
N579 X148.081 Y-6.306 Z-3.351 
N580 X148.081 Y-6.369 Z-3.278 
N581 X148.081 Y-6.433 Z-3.205 
N582 X148.081 Y-6.496 Z-3.132 
N583 X148.080 Y-6.559 Z-3.059 
N584 X148.080 Y-6.623 Z-2.986 
N585 X148.080 Y-6.686 Z-2.913 
N586 X148.080 Y-6.749 Z-2.840 
N587 X148.080 Y-6.813 Z-2.768 
N588 X148.080 Y-6.876 Z-2.695 
N589 X148.080 Y-6.939 Z-2.622 
N590 X148.080 Y-7.003 Z-2.549 
N591 X148.080 Y-7.066 Z-2.476 
N592 X148.080 Y-7.129 Z-2.403 
N593 X148.080 Y-7.193 Z-2.330 
N594 X148.080 Y-7.256 Z-2.257 
N595 X148.081 Y-7.320 Z-2.184 
N596 X148.081 Y-7.383 Z-2.112 
N597 X148.081 Y-7.446 Z-2.039 
N598 X148.081 Y-7.510 Z-1.966 
N599 X148.081 Y-7.573 Z-1.893 
N600 X148.082 Y-7.636 Z-1.820 
N601 X148.082 Y-7.700 Z-1.747 
N602 X148.082 Y-7.763 Z-1.674 
N603 X148.083 Y-7.826 Z-1.601 
N604 X148.083 Y-7.890 Z-1.529 
N605 X148.084 Y-7.953 Z-1.456 
N606 X148.084 Y-8.016 Z-1.383 
N607 X148.084 Y-8.080 Z-1.310 
N608 X148.085 Y-8.143 Z-1.237 
N609 X148.085 Y-8.207 Z-1.164 
N610 X148.086 Y-8.270 Z-1.091 
N611 X148.087 Y-8.333 Z-1.018 
N612 X148.087 Y-8.397 Z-0.945 
N613 X148.088 Y-8.460 Z-0.873 
N614 X148.088 Y-8.523 Z-0.800 
N615 X148.089 Y-8.587 Z-0.727 
N616 X148.090 Y-8.650 Z-0.654 
N617 X148.091 Y-8.713 Z-0.581 
N618 X148.091 Y-8.777 Z-0.508 
N619 X148.092 Y-8.840 Z-0.435 
N620 X148.093 Y-8.903 Z-0.362 
N621 X148.094 Y-8.967 Z-0.290 
N622 X148.095 Y-9.030 Z-0.217 
N623 X148.096 Y-9.093 Z-0.144 
N624 X148.097 Y-9.157 Z-0.071 
N625 X148.097 Y-9.220 Z0.002 
N626 X148.098 Y-9.284 Z0.075 
N627 X148.099 Y-9.347 Z0.148 
N628 X148.101 Y-9.410 Z0.221 
N629 X148.102 Y-9.474 Z0.293 
N630 X148.103 Y-9.537 Z0.366 
N631 X148.104 Y-9.600 Z0.439 
N632 X148.105 Y-9.664 Z0.512 
N633 X148.106 Y-9.727 Z0.585 
N634 X148.107 Y-9.790 Z0.658 
N635 X148.108 Y-9.854 Z0.731 
N636 X148.110 Y-9.917 Z0.804 
N637 X148.111 Y-9.980 Z0.876 
N638 X148.112 Y-10.044 Z0.949 
N639 X148.114 Y-10.107 Z1.022 
N640 X148.115 Y-10.170 Z1.095 
N641 X148.116 Y-10.234 Z1.168 
N642 X148.118 Y-10.297 Z1.241 
N643 X148.119 Y-10.361 Z1.314 
N644 X148.121 Y-10.424 Z1.387 
N645 X148.122 Y-10.487 Z1.459 
N646 X148.123 Y-10.551 Z1.532 
N647 X148.125 Y-10.614 Z1.605 
N648 X148.127 Y-10.677 Z1.678 
N649 X148.128 Y-10.741 Z1.751 
N650 X148.130 Y-10.804 Z1.824 
N651 X148.131 Y-10.867 Z1.897 
N652 X148.133 Y-10.931 Z1.970 
N653 X148.135 Y-10.994 Z2.042 
N654 X148.136 Y-11.057 Z2.115 
N655 X148.138 Y-11.121 Z2.188 
N656 X148.140 Y-11.184 Z2.261 
N657 X148.142 Y-11.247 Z2.334 
N658 X148.144 Y-11.311 Z2.407 
N659 X148.145 Y-11.374 Z2.480 
N660 X148.147 Y-11.437 Z2.553 
N661 X148.149 Y-11.501 Z2.625 
N662 X148.151 Y-11.564 Z2.698 
N663 X148.153 Y-11.627 Z2.771 
N664 X148.155 Y-11.691 Z2.844 
N665 X148.157 Y-11.754 Z2.917 
N666 X148.159 Y-11.817 Z2.990 
N667 X148.161 Y-11.881 Z3.063 
N668 X148.163 Y-11.944 Z3.135 
N669 X148.165 Y-12.007 Z3.208 
N670 X148.167 Y-12.071 Z3.281 
N671 X148.170 Y-12.134 Z3.354 
N672 X148.172 Y-12.197 Z3.427 
N673 X148.174 Y-12.261 Z3.500 
N674 X148.176 Y-12.324 Z3.573 
N675 X148.178 Y-12.388 Z3.646 
N676 X148.181 Y-12.451 Z3.718 
N677 X148.183 Y-12.514 Z3.791 
N678 X148.185 Y-12.578 Z3.864 
N679 X148.188 Y-12.641 Z3.937 
N680 X148.190 Y-12.704 Z4.010 
N681 X148.193 Y-12.768 Z4.083 
N682 X148.195 Y-12.831 Z4.156 
N683 X148.198 Y-12.894 Z4.228 
N684 X148.200 Y-12.958 Z4.301 
N685 X148.203 Y-13.021 Z4.374 
N686 X148.205 Y-13.084 Z4.447 
N687 X148.208 Y-13.148 Z4.520 
N688 X148.210 Y-13.211 Z4.593 
N689 X148.213 Y-13.274 Z4.666 
N690 X148.216 Y-13.338 Z4.738 
N691 X148.218 Y-13.401 Z4.811 
N692 X148.221 Y-13.464 Z4.884 
N693 X148.224 Y-13.528 Z4.957 
N694 X148.227 Y-13.591 Z5.030 
N695 X148.229 Y-13.654 Z5.103 
N696 X148.232 Y-13.718 Z5.176 
N697 X148.235 Y-13.781 Z5.248 
N698 X148.238 Y-13.844 Z5.321 
N699 X148.241 Y-13.907 Z5.394 
N700 X148.244 Y-13.971 Z5.467 
N701 X148.247 Y-14.034 Z5.540 
N702 X148.250 Y-14.097 Z5.613 
N703 X148.253 Y-14.161 Z5.685 
N704 X148.256 Y-14.224 Z5.758 
N705 X148.259 Y-14.287 Z5.831 
N706 X148.262 Y-14.351 Z5.904 
N707 X148.265 Y-14.414 Z5.977 
N708 X148.268 Y-14.477 Z6.050 
N709 X148.271 Y-14.541 Z6.123 
N710 X148.274 Y-14.604 Z6.195 
N711 X148.278 Y-14.667 Z6.268 
N712 X148.281 Y-14.731 Z6.341 
N713 X148.284 Y-14.794 Z6.414 
N714 X148.287 Y-14.857 Z6.487 
N715 X148.291 Y-14.921 Z6.560 
N716 X148.294 Y-14.984 Z6.632 
N717 X148.297 Y-15.047 Z6.705 
N718 X148.301 Y-15.111 Z6.778 
N719 X148.304 Y-15.174 Z6.851 
N720 X148.308 Y-15.237 Z6.924 
N721 X148.311 Y-15.301 Z6.997 
N722 X148.315 Y-15.364 Z7.069 
N723 X148.318 Y-15.427 Z7.142 
N724 X148.322 Y-15.490 Z7.215 
N725 X148.325 Y-15.554 Z7.288 
N726 X148.329 Y-15.617 Z7.361 
N727 X148.333 Y-15.680 Z7.434 
N728 X148.336 Y-15.744 Z7.506 
N729 X148.340 Y-15.807 Z7.579 
N730 X148.344 Y-15.870 Z7.652 
N731 X148.347 Y-15.934 Z7.725 
N732 X148.351 Y-15.997 Z7.798 
N733 X148.355 Y-16.060 Z7.871 
N734 X148.359 Y-16.124 Z7.943 
N735 X148.363 Y-16.187 Z8.016 
N736 X148.367 Y-16.250 Z8.089 
N737 X148.370 Y-16.313 Z8.162 
N738 X148.374 Y-16.377 Z8.235 
N739 X148.378 Y-16.440 Z8.308 
N740 X148.382 Y-16.503 Z8.380 
N741 X148.386 Y-16.567 Z8.453 
N742 X148.390 Y-16.630 Z8.526 
N743 X148.394 Y-16.693 Z8.599 
N744 X148.399 Y-16.757 Z8.672 
N745 X148.403 Y-16.820 Z8.744 
N746 X148.407 Y-16.883 Z8.817 
N747 X148.411 Y-16.946 Z8.890 
N748 X148.415 Y-17.010 Z8.963 
N749 X148.419 Y-17.073 Z9.036 
N750 X148.424 Y-17.136 Z9.108 
N751 X148.428 Y-17.200 Z9.181 
N752 X148.432 Y-17.263 Z9.254 
N753 X148.436 Y-17.326 Z9.327 
N754 X148.441 Y-17.390 Z9.400 
N755 X148.445 Y-17.453 Z9.473 
N756 X148.450 Y-17.516 Z9.545 
N757 X148.454 Y-17.579 Z9.618 
N758 X148.458 Y-17.643 Z9.691 
N759 X148.463 Y-17.706 Z9.764 
N760 X148.468 Y-17.769 Z9.837 
N761 X148.472 Y-17.833 Z9.909 
N762 X148.477 Y-17.896 Z9.982 
N763 X148.481 Y-17.959 Z10.055 
N764 X148.486 Y-18.022 Z10.128 
N765 X148.490 Y-18.086 Z10.201 
N766 X148.495 Y-18.149 Z10.273 
N767 X148.500 Y-18.212 Z10.346 
N768 X148.504 Y-18.276 Z10.419 
N769 X148.509 Y-18.339 Z10.492 
N770 X148.514 Y-18.402 Z10.565 
N771 X148.518 Y-18.466 Z10.638 
N772 X148.523 Y-18.529 Z10.711 
N773 X148.528 Y-18.593 Z10.784 
N774 X148.533 Y-18.656 Z10.857 
N775 X148.537 Y-18.719 Z10.930 
N776 X148.542 Y-18.783 Z11.003 
N777 X148.547 Y-18.846 Z11.075 
N778 X148.551 Y-18.910 Z11.148 
N779 X148.556 Y-18.973 Z11.221 
N780 X148.561 Y-19.037 Z11.294 
N781 X148.565 Y-19.100 Z11.367 
N782 X148.570 Y-19.163 Z11.440 
N783 X148.575 Y-19.227 Z11.513 
N784 X148.579 Y-19.290 Z11.586 
N785 X148.584 Y-19.354 Z11.659 
N786 X148.589 Y-19.417 Z11.732 
N787 X148.593 Y-19.480 Z11.805 
N788 X148.598 Y-19.544 Z11.878 
N789 X148.603 Y-19.607 Z11.951 
N790 X148.607 Y-19.671 Z12.024 
N791 X148.612 Y-19.734 Z12.097 
N792 X148.617 Y-19.798 Z12.170 
N793 X148.621 Y-19.861 Z12.243 
N794 X148.626 Y-19.924 Z12.316 
N795 X148.631 Y-19.988 Z12.389 
N796 X148.635 Y-20.051 Z12.462 
N797 X148.640 Y-20.115 Z12.535 
N798 X148.645 Y-20.178 Z12.607 
N799 X148.649 Y-20.241 Z12.680 
N800 G40 X149.133 Y-26.794 Z20.219 F193
N801 X149.133 Y-26.794 Z20.219 
N802 G00 X149.133 Y-64.530 Z-12.584 
RAPORT("T13732","Side Milling:136 End")
N804 ;trailer : concat=None
; points cnt = 744
N805 MSG (" --- GROUPED OF SUBPROGRAM --- ")
N806 FGROUP()
N807 TRAFOOF
N10 ; PROGRAM NAME: 1373237
N11 ; ORDER       : 13732
N12 ; OPER. NAME  : Side Milling:137
N13 ; OPER. DESCR.: finish slot NGA
N14 ; OPER. TYPE  : sideMill
N15 ; GEO. OPTION : 3
N16 ; MACHINE     : SH_HX151_24_SIM840D
N17 ;             : STARRAG_HECKERT_5axis_finish_milling_machine
N18 ; CONTROL     : SINUMERIK 840D
N19 ; created:   2021-11-10 08:27:43.885116
;-------DODATKOWE DANE-------------------
; PROGRAMISTA : Mariusz Orzechowski
; PARTID      : 132T008743P1005_-
;  ap         : 5.0
;  ae         : 5.0
;  lean_angle : 0.0
;  fin_offset : 0.03
;----------------------------------------
N20 ;----------------------------------------
RAPORT("T13732","Side Milling:137")
N21 TRAFOOF
N22 D0
N23 G0 G90 G94 Z260.0
N24 STOPRE
N25 M9 ; chlodziwo wyl
N26 ; --- Side Milling:137 - finish slot NGA ---
N28 ;ToolChange : concat=None ,current_tdmid=None, PP.tdmId=959057
N29 TRAFOOF
N30 D0
N31 G0 G54 Z270.0
N32 S3713 M03
N33 STOPRE
N34 TOL(0.1,1,1)
N35 G0  A131.0000
N36 TRAORI
N37 G54 D1
N38 ;tol5=0.15
STOPRE
E_ZDARZ=300010
;ACS_FINISH_SLOT=7759057
STOPRE
;UWAGA : ZMIENIONA TOLERANCJA OSI A i B, ruchy osi A i B beda usuniete : TOL5=0.15
N39 ; DELTA A > 40.1
N40 TRAFOOF
N41 STOPRE
N42 G0 G53 D0 Z265.000
N43 G1 G53 A131.0000 F10000
N44 TRAORI
N45 G54 D1
N46 TRANS 
N47 G00 X148.969 Y-66.327 Z-10.563 A131.0000 B0.0000 
N48 M342 ; chlodziwo woda
N49 X148.969 Y-28.592 Z22.240 
N50 ;rowek od strony mocowania
N51 D4 
N52 G01 G41 X148.495 Y-22.038 Z14.702 F193
N53 G01 X148.495 Y-22.038 Z14.702 F193 
N54 X148.490 Y-21.975 Z14.629 
N55 X148.486 Y-21.911 Z14.556 
N56 X148.481 Y-21.848 Z14.483 
N57 X148.476 Y-21.785 Z14.410 
N58 X148.472 Y-21.721 Z14.337 
N59 X148.467 Y-21.658 Z14.264 
N60 X148.463 Y-21.594 Z14.191 
N61 X148.458 Y-21.531 Z14.118 
N62 X148.453 Y-21.468 Z14.045 
N63 X148.449 Y-21.404 Z13.972 
N64 X148.444 Y-21.341 Z13.899 
N65 X148.440 Y-21.277 Z13.826 
N66 X148.435 Y-21.214 Z13.753 
N67 X148.430 Y-21.150 Z13.680 
N68 X148.426 Y-21.087 Z13.607 
N69 X148.421 Y-21.024 Z13.535 
N70 X148.417 Y-20.960 Z13.462 
N71 X148.412 Y-20.897 Z13.389 
N72 X148.407 Y-20.833 Z13.316 
N73 X148.403 Y-20.770 Z13.243 
N74 X148.398 Y-20.707 Z13.170 
N75 X148.394 Y-20.643 Z13.097 
N76 X148.389 Y-20.580 Z13.024 
N77 X148.384 Y-20.516 Z12.951 
N78 X148.380 Y-20.453 Z12.878 
N79 X148.375 Y-20.389 Z12.805 
N80 X148.371 Y-20.326 Z12.732 
N81 X148.366 Y-20.263 Z12.659 
N82 X148.361 Y-20.199 Z12.586 
N83 X148.357 Y-20.136 Z12.513 
N84 X148.352 Y-20.072 Z12.440 
N85 X148.348 Y-20.009 Z12.367 
N86 X148.343 Y-19.946 Z12.294 
N87 X148.339 Y-19.882 Z12.221 
N88 X148.334 Y-19.819 Z12.148 
N89 X148.329 Y-19.755 Z12.075 
N90 X148.325 Y-19.692 Z12.002 
N91 X148.320 Y-19.628 Z11.930 
N92 X148.316 Y-19.565 Z11.857 
N93 X148.311 Y-19.502 Z11.784 
N94 X148.306 Y-19.438 Z11.711 
N95 X148.302 Y-19.375 Z11.638 
N96 X148.297 Y-19.311 Z11.565 
N97 X148.293 Y-19.248 Z11.492 
N98 X148.288 Y-19.184 Z11.419 
N99 X148.283 Y-19.121 Z11.346 
N100 X148.279 Y-19.058 Z11.273 
N101 X148.274 Y-18.994 Z11.200 
N102 X148.270 Y-18.931 Z11.127 
N103 X148.265 Y-18.867 Z11.054 
N104 X148.260 Y-18.804 Z10.981 
N105 X148.256 Y-18.741 Z10.908 
N106 X148.251 Y-18.677 Z10.835 
N107 X148.247 Y-18.614 Z10.762 
N108 X148.242 Y-18.550 Z10.689 
N109 X148.237 Y-18.487 Z10.616 
N110 X148.233 Y-18.423 Z10.543 
N111 X148.228 Y-18.360 Z10.470 
N112 X148.224 Y-18.297 Z10.397 
N113 X148.219 Y-18.233 Z10.325 
N114 X148.214 Y-18.170 Z10.252 
N115 X148.210 Y-18.106 Z10.179 
N116 X148.205 Y-18.043 Z10.106 
N117 X148.201 Y-17.980 Z10.033 
N118 X148.196 Y-17.917 Z9.960 
N119 X148.192 Y-17.853 Z9.888 
N120 X148.187 Y-17.790 Z9.815 
N121 X148.183 Y-17.727 Z9.742 
N122 X148.178 Y-17.664 Z9.669 
N123 X148.174 Y-17.600 Z9.597 
N124 X148.169 Y-17.537 Z9.524 
N125 X148.165 Y-17.474 Z9.451 
N126 X148.160 Y-17.411 Z9.378 
N127 X148.156 Y-17.347 Z9.306 
N128 X148.152 Y-17.284 Z9.233 
N129 X148.147 Y-17.221 Z9.160 
N130 X148.143 Y-17.158 Z9.087 
N131 X148.139 Y-17.094 Z9.014 
N132 X148.135 Y-17.031 Z8.942 
N133 X148.131 Y-16.968 Z8.869 
N134 X148.126 Y-16.905 Z8.796 
N135 X148.122 Y-16.841 Z8.723 
N136 X148.118 Y-16.778 Z8.651 
N137 X148.114 Y-16.715 Z8.578 
N138 X148.110 Y-16.652 Z8.505 
N139 X148.106 Y-16.588 Z8.432 
N140 X148.102 Y-16.525 Z8.359 
N141 X148.098 Y-16.462 Z8.287 
N142 X148.094 Y-16.398 Z8.214 
N143 X148.090 Y-16.335 Z8.141 
N144 X148.086 Y-16.272 Z8.068 
N145 X148.082 Y-16.209 Z7.996 
N146 X148.079 Y-16.145 Z7.923 
N147 X148.075 Y-16.082 Z7.850 
N148 X148.071 Y-16.019 Z7.777 
N149 X148.067 Y-15.956 Z7.704 
N150 X148.063 Y-15.892 Z7.632 
N151 X148.060 Y-15.829 Z7.559 
N152 X148.056 Y-15.766 Z7.486 
N153 X148.052 Y-15.703 Z7.413 
N154 X148.049 Y-15.639 Z7.341 
N155 X148.045 Y-15.576 Z7.268 
N156 X148.042 Y-15.513 Z7.195 
N157 X148.038 Y-15.449 Z7.122 
N158 X148.034 Y-15.386 Z7.049 
N159 X148.031 Y-15.323 Z6.977 
N160 X148.028 Y-15.260 Z6.904 
N161 X148.024 Y-15.196 Z6.831 
N162 X148.021 Y-15.133 Z6.758 
N163 X148.017 Y-15.070 Z6.685 
N164 X148.014 Y-15.006 Z6.613 
N165 X148.011 Y-14.943 Z6.540 
N166 X148.007 Y-14.880 Z6.467 
N167 X148.004 Y-14.817 Z6.394 
N168 X148.001 Y-14.753 Z6.321 
N169 X147.997 Y-14.690 Z6.249 
N170 X147.994 Y-14.627 Z6.176 
N171 X147.991 Y-14.564 Z6.103 
N172 X147.988 Y-14.500 Z6.030 
N173 X147.985 Y-14.437 Z5.957 
N174 X147.982 Y-14.374 Z5.885 
N175 X147.979 Y-14.310 Z5.812 
N176 X147.976 Y-14.247 Z5.739 
N177 X147.972 Y-14.184 Z5.666 
N178 X147.969 Y-14.121 Z5.593 
N179 X147.967 Y-14.057 Z5.521 
N180 X147.964 Y-13.994 Z5.448 
N181 X147.961 Y-13.931 Z5.375 
N182 X147.958 Y-13.867 Z5.302 
N183 X147.955 Y-13.804 Z5.229 
N184 X147.952 Y-13.741 Z5.157 
N185 X147.949 Y-13.677 Z5.084 
N186 X147.946 Y-13.614 Z5.011 
N187 X147.944 Y-13.551 Z4.938 
N188 X147.941 Y-13.488 Z4.865 
N189 X147.938 Y-13.424 Z4.793 
N190 X147.936 Y-13.361 Z4.720 
N191 X147.933 Y-13.298 Z4.647 
N192 X147.930 Y-13.234 Z4.574 
N193 X147.928 Y-13.171 Z4.501 
N194 X147.925 Y-13.108 Z4.428 
N195 X147.923 Y-13.045 Z4.356 
N196 X147.920 Y-12.981 Z4.283 
N197 X147.917 Y-12.918 Z4.210 
N198 X147.915 Y-12.855 Z4.137 
N199 X147.913 Y-12.791 Z4.064 
N200 X147.910 Y-12.728 Z3.992 
N201 X147.908 Y-12.665 Z3.919 
N202 X147.905 Y-12.601 Z3.846 
N203 X147.903 Y-12.538 Z3.773 
N204 X147.901 Y-12.475 Z3.700 
N205 X147.898 Y-12.412 Z3.627 
N206 X147.896 Y-12.348 Z3.555 
N207 X147.894 Y-12.285 Z3.482 
N208 X147.892 Y-12.222 Z3.409 
N209 X147.890 Y-12.158 Z3.336 
N210 X147.887 Y-12.095 Z3.263 
N211 X147.885 Y-12.032 Z3.191 
N212 X147.883 Y-11.968 Z3.118 
N213 X147.881 Y-11.905 Z3.045 
N214 X147.879 Y-11.842 Z2.972 
N215 X147.877 Y-11.779 Z2.899 
N216 X147.875 Y-11.715 Z2.826 
N217 X147.873 Y-11.652 Z2.754 
N218 X147.871 Y-11.589 Z2.681 
N219 X147.869 Y-11.525 Z2.608 
N220 X147.867 Y-11.462 Z2.535 
N221 X147.865 Y-11.399 Z2.462 
N222 X147.864 Y-11.335 Z2.390 
N223 X147.862 Y-11.272 Z2.317 
N224 X147.860 Y-11.209 Z2.244 
N225 X147.858 Y-11.145 Z2.171 
N226 X147.856 Y-11.082 Z2.098 
N227 X147.855 Y-11.019 Z2.025 
N228 X147.853 Y-10.956 Z1.953 
N229 X147.851 Y-10.892 Z1.880 
N230 X147.850 Y-10.829 Z1.807 
N231 X147.848 Y-10.766 Z1.734 
N232 X147.847 Y-10.702 Z1.661 
N233 X147.845 Y-10.639 Z1.588 
N234 X147.844 Y-10.576 Z1.516 
N235 X147.842 Y-10.512 Z1.443 
N236 X147.841 Y-10.449 Z1.370 
N237 X147.839 Y-10.386 Z1.297 
N238 X147.838 Y-10.322 Z1.224 
N239 X147.836 Y-10.259 Z1.151 
N240 X147.835 Y-10.196 Z1.079 
N241 X147.834 Y-10.133 Z1.006 
N242 X147.832 Y-10.069 Z0.933 
N243 X147.831 Y-10.006 Z0.860 
N244 X147.830 Y-9.943 Z0.787 
N245 X147.828 Y-9.879 Z0.714 
N246 X147.827 Y-9.816 Z0.642 
N247 X147.826 Y-9.753 Z0.569 
N248 X147.825 Y-9.689 Z0.496 
N249 X147.824 Y-9.626 Z0.423 
N250 X147.823 Y-9.563 Z0.350 
N251 X147.822 Y-9.499 Z0.277 
N252 X147.821 Y-9.436 Z0.205 
N253 X147.819 Y-9.373 Z0.132 
N254 X147.818 Y-9.309 Z0.059 
N255 X147.817 Y-9.246 Z-0.014 
N256 X147.817 Y-9.183 Z-0.087 
N257 X147.816 Y-9.120 Z-0.160 
N258 X147.815 Y-9.056 Z-0.232 
N259 X147.814 Y-8.993 Z-0.305 
N260 X147.813 Y-8.930 Z-0.378 
N261 X147.812 Y-8.866 Z-0.451 
N262 X147.811 Y-8.803 Z-0.524 
N263 X147.811 Y-8.740 Z-0.597 
N264 X147.810 Y-8.676 Z-0.669 
N265 X147.809 Y-8.613 Z-0.742 
N266 X147.809 Y-8.550 Z-0.815 
N267 X147.808 Y-8.486 Z-0.888 
N268 X147.807 Y-8.423 Z-0.961 
N269 X147.807 Y-8.360 Z-1.034 
N270 X147.806 Y-8.296 Z-1.106 
N271 X147.806 Y-8.233 Z-1.179 
N272 X147.805 Y-8.170 Z-1.252 
N273 X147.804 Y-8.106 Z-1.325 
N274 X147.804 Y-8.043 Z-1.398 
N275 X147.804 Y-7.980 Z-1.471 
N276 X147.803 Y-7.917 Z-1.543 
N277 X147.803 Y-7.853 Z-1.616 
N278 X147.802 Y-7.790 Z-1.689 
N279 X147.802 Y-7.727 Z-1.762 
N280 X147.802 Y-7.663 Z-1.835 
N281 X147.801 Y-7.600 Z-1.908 
N282 X147.801 Y-7.537 Z-1.981 
N283 X147.801 Y-7.473 Z-2.053 
N284 X147.801 Y-7.410 Z-2.126 
N285 X147.801 Y-7.347 Z-2.199 
N286 X147.800 Y-7.283 Z-2.272 
N287 X147.800 Y-7.220 Z-2.345 
N288 X147.800 Y-7.157 Z-2.418 
N289 X147.800 Y-7.093 Z-2.490 
N290 X147.800 Y-7.030 Z-2.563 
N291 X147.800 Y-6.967 Z-2.636 
N292 X147.800 Y-6.903 Z-2.709 
N293 X147.800 Y-6.840 Z-2.782 
N294 X147.800 Y-6.777 Z-2.855 
N295 X147.800 Y-6.713 Z-2.927 
N296 X147.800 Y-6.650 Z-3.000 
N297 X147.800 Y-6.587 Z-3.073 
N298 X147.801 Y-6.524 Z-3.146 
N299 X147.801 Y-6.460 Z-3.219 
N300 X147.801 Y-6.397 Z-3.292 
N301 X147.801 Y-6.334 Z-3.364 
N302 X147.801 Y-6.270 Z-3.437 
N303 X147.802 Y-6.207 Z-3.510 
N304 X147.802 Y-6.144 Z-3.583 
N305 X147.802 Y-6.080 Z-3.656 
N306 X147.803 Y-6.017 Z-3.729 
N307 X147.803 Y-5.954 Z-3.801 
N308 X147.804 Y-5.890 Z-3.874 
N309 X147.804 Y-5.827 Z-3.947 
N310 X147.805 Y-5.764 Z-4.020 
N311 X147.805 Y-5.700 Z-4.093 
N312 X147.806 Y-5.637 Z-4.166 
N313 X147.806 Y-5.574 Z-4.239 
N314 X147.807 Y-5.510 Z-4.311 
N315 X147.807 Y-5.447 Z-4.384 
N316 X147.808 Y-5.384 Z-4.457 
N317 X147.809 Y-5.320 Z-4.530 
N318 X147.809 Y-5.257 Z-4.603 
N319 X147.810 Y-5.194 Z-4.676 
N320 X147.811 Y-5.131 Z-4.748 
N321 X147.812 Y-5.067 Z-4.821 
N322 X147.812 Y-5.004 Z-4.894 
N323 X147.813 Y-4.941 Z-4.967 
N324 X147.814 Y-4.877 Z-5.040 
N325 X147.815 Y-4.814 Z-5.113 
N326 X147.816 Y-4.751 Z-5.185 
N327 X147.817 Y-4.687 Z-5.258 
N328 X147.818 Y-4.624 Z-5.331 
N329 X147.819 Y-4.561 Z-5.404 
N330 X147.820 Y-4.497 Z-5.477 
N331 X147.821 Y-4.434 Z-5.550 
N332 X147.822 Y-4.371 Z-5.622 
N333 X147.823 Y-4.307 Z-5.695 
N334 X147.824 Y-4.244 Z-5.768 
N335 X147.825 Y-4.181 Z-5.841 
N336 X147.826 Y-4.117 Z-5.914 
N337 X147.827 Y-4.054 Z-5.987 
N338 X147.829 Y-3.991 Z-6.059 
N339 X147.830 Y-3.928 Z-6.132 
N340 X147.831 Y-3.864 Z-6.205 
N341 X147.832 Y-3.801 Z-6.278 
N342 X147.834 Y-3.738 Z-6.351 
N343 X147.835 Y-3.674 Z-6.424 
N344 X147.836 Y-3.611 Z-6.496 
N345 X147.838 Y-3.548 Z-6.569 
N346 X147.839 Y-3.484 Z-6.642 
N347 X147.841 Y-3.421 Z-6.715 
N348 X147.842 Y-3.358 Z-6.788 
N349 X147.844 Y-3.294 Z-6.861 
N350 X147.845 Y-3.231 Z-6.933 
N351 X147.847 Y-3.168 Z-7.006 
N352 X147.848 Y-3.105 Z-7.079 
N353 X147.850 Y-3.041 Z-7.152 
N354 X147.852 Y-2.978 Z-7.225 
N355 X147.853 Y-2.915 Z-7.298 
N356 X147.855 Y-2.851 Z-7.370 
N357 X147.857 Y-2.788 Z-7.443 
N358 X147.858 Y-2.725 Z-7.516 
N359 X147.860 Y-2.661 Z-7.589 
N360 X147.862 Y-2.598 Z-7.662 
N361 X147.864 Y-2.535 Z-7.735 
N362 X147.866 Y-2.471 Z-7.807 
N363 X147.867 Y-2.408 Z-7.880 
N364 X147.869 Y-2.345 Z-7.953 
N365 X147.871 Y-2.282 Z-8.026 
N366 X147.873 Y-2.218 Z-8.099 
N367 X147.875 Y-2.155 Z-8.171 
N368 X147.877 Y-2.092 Z-8.244 
N369 X147.879 Y-2.028 Z-8.317 
N370 X147.881 Y-1.965 Z-8.390 
N371 X147.883 Y-1.902 Z-8.463 
N372 X147.885 Y-1.838 Z-8.536 
N373 X147.888 Y-1.775 Z-8.608 
N374 X147.890 Y-1.712 Z-8.681 
N375 X147.892 Y-1.648 Z-8.754 
N376 X147.894 Y-1.585 Z-8.827 
N377 X147.896 Y-1.522 Z-8.900 
N378 X147.899 Y-1.459 Z-8.972 
N379 X147.901 Y-1.395 Z-9.045 
N380 X147.903 Y-1.332 Z-9.118 
N381 X147.906 Y-1.269 Z-9.191 
N382 X147.908 Y-1.205 Z-9.264 
N383 X147.910 Y-1.142 Z-9.337 
N384 X147.913 Y-1.078 Z-9.410 
N385 X147.915 Y-1.015 Z-9.483 
N386 X147.917 Y-0.951 Z-9.556 
N387 X147.919 Y-0.888 Z-9.629 
N388 X147.922 Y-0.824 Z-9.702 
N389 X147.924 Y-0.761 Z-9.775 
N390 X147.926 Y-0.697 Z-9.848 
N391 X147.929 Y-0.634 Z-9.921 
N392 X147.931 Y-0.570 Z-9.994 
N393 X147.933 Y-0.507 Z-10.067 
N394 X147.936 Y-0.444 Z-10.140 
N395 X147.938 Y-0.380 Z-10.213 
N396 X147.940 Y-0.317 Z-10.286 
N397 X147.943 Y-0.253 Z-10.359 
N398 X147.945 Y-0.190 Z-10.432 
N399 X147.947 Y-0.126 Z-10.505 
N400 X147.950 Y-0.063 Z-10.578 
N401 X147.952 Y0.001 Z-10.651 
N402 X147.954 Y0.064 Z-10.724 
N403 X147.956 Y0.128 Z-10.797 
N404 X147.959 Y0.191 Z-10.870 
N405 X147.961 Y0.255 Z-10.943 
N406 X147.963 Y0.318 Z-11.016 
N407 X147.966 Y0.382 Z-11.089 
N408 X147.968 Y0.445 Z-11.162 
N409 X147.970 Y0.509 Z-11.235 
N410 X147.973 Y0.572 Z-11.308 
N411 X147.975 Y0.635 Z-11.381 
N412 X147.977 Y0.699 Z-11.454 
N413 G40 X147.980 Y0.776 Z-11.543 F407
N414 X147.980 Y0.776 Z-11.543 
N415 X147.987 Y0.978 Z-11.776 F1049 
N416 X148.002 Y1.389 Z-12.249 F1692 
N417 X148.022 Y1.925 Z-12.865 F1906 
N418 X148.045 Y2.547 Z-13.581 
N419 X148.069 Y3.169 Z-14.296 
N420 X148.094 Y3.791 Z-15.012 
N421 X148.121 Y4.413 Z-15.727 
N422 X148.151 Y5.035 Z-16.443 
N423 X148.185 Y5.657 Z-17.158 
N424 X148.226 Y6.279 Z-17.873 
N425 X148.278 Y6.900 Z-18.588 
N426 X148.353 Y7.521 Z-19.302 
N427 X148.468 Y7.429 Z-19.197 
N428 X148.469 Y6.791 Z-18.462 
N429 X148.459 Y6.207 Z-17.791 
N430 X148.442 Y5.570 Z-17.058 
N431 X148.421 Y4.907 Z-16.295 
N432 X148.402 Y4.308 Z-15.606 
N433 X148.381 Y3.716 Z-14.925 
N434 X148.363 Y3.196 Z-14.326 F1692 
N435 X148.348 Y2.784 Z-13.853 F1049 
N436 X148.341 Y2.572 Z-13.609 F407 
N437 ;rowek od strony piora
N438 D3 
N439 G01 G41 X148.338 Y2.484 Z-13.508 F193
N440 X148.338 Y2.484 Z-13.508 F193 
N441 X148.335 Y2.421 Z-13.435 
N442 X148.333 Y2.357 Z-13.362 
N443 X148.331 Y2.294 Z-13.289 
N444 X148.329 Y2.230 Z-13.216 
N445 X148.327 Y2.167 Z-13.143 
N446 X148.324 Y2.104 Z-13.070 
N447 X148.322 Y2.040 Z-12.997 
N448 X148.320 Y1.977 Z-12.924 
N449 X148.318 Y1.913 Z-12.851 
N450 X148.315 Y1.850 Z-12.778 
N451 X148.313 Y1.786 Z-12.705 
N452 X148.311 Y1.723 Z-12.632 
N453 X148.309 Y1.659 Z-12.559 
N454 X148.306 Y1.596 Z-12.486 
N455 X148.304 Y1.532 Z-12.413 
N456 X148.302 Y1.469 Z-12.340 
N457 X148.300 Y1.405 Z-12.267 
N458 X148.297 Y1.342 Z-12.194 
N459 X148.295 Y1.278 Z-12.121 
N460 X148.293 Y1.215 Z-12.048 
N461 X148.291 Y1.151 Z-11.975 
N462 X148.288 Y1.088 Z-11.902 
N463 X148.286 Y1.024 Z-11.829 
N464 X148.284 Y0.961 Z-11.756 
N465 X148.282 Y0.898 Z-11.683 
N466 X148.280 Y0.834 Z-11.610 
N467 X148.277 Y0.771 Z-11.537 
N468 X148.275 Y0.707 Z-11.464 
N469 X148.273 Y0.644 Z-11.391 
N470 X148.271 Y0.580 Z-11.318 
N471 X148.268 Y0.517 Z-11.245 
N472 X148.266 Y0.453 Z-11.172 
N473 X148.264 Y0.390 Z-11.099 
N474 X148.262 Y0.326 Z-11.026 
N475 X148.259 Y0.263 Z-10.953 
N476 X148.257 Y0.199 Z-10.880 
N477 X148.255 Y0.136 Z-10.807 
N478 X148.253 Y0.072 Z-10.734 
N479 X148.250 Y0.009 Z-10.661 
N480 X148.248 Y-0.055 Z-10.588 
N481 X148.246 Y-0.118 Z-10.515 
N482 X148.244 Y-0.182 Z-10.442 
N483 X148.242 Y-0.245 Z-10.369 
N484 X148.239 Y-0.308 Z-10.296 
N485 X148.237 Y-0.372 Z-10.223 
N486 X148.235 Y-0.435 Z-10.150 
N487 X148.233 Y-0.499 Z-10.077 
N488 X148.230 Y-0.562 Z-10.003 
N489 X148.228 Y-0.626 Z-9.930 
N490 X148.226 Y-0.689 Z-9.857 
N491 X148.224 Y-0.753 Z-9.784 
N492 X148.221 Y-0.816 Z-9.711 
N493 X148.219 Y-0.880 Z-9.638 
N494 X148.217 Y-0.943 Z-9.565 
N495 X148.215 Y-1.007 Z-9.492 
N496 X148.212 Y-1.070 Z-9.419 
N497 X148.210 Y-1.134 Z-9.346 
N498 X148.208 Y-1.197 Z-9.273 
N499 X148.206 Y-1.261 Z-9.200 
N500 X148.203 Y-1.324 Z-9.127 
N501 X148.201 Y-1.387 Z-9.054 
N502 X148.199 Y-1.451 Z-8.981 
N503 X148.197 Y-1.514 Z-8.908 
N504 X148.195 Y-1.578 Z-8.836 
N505 X148.192 Y-1.641 Z-8.763 
N506 X148.190 Y-1.704 Z-8.690 
N507 X148.188 Y-1.768 Z-8.617 
N508 X148.186 Y-1.831 Z-8.544 
N509 X148.184 Y-1.894 Z-8.471 
N510 X148.182 Y-1.958 Z-8.398 
N511 X148.180 Y-2.021 Z-8.326 
N512 X148.178 Y-2.084 Z-8.253 
N513 X148.176 Y-2.148 Z-8.180 
N514 X148.173 Y-2.211 Z-8.107 
N515 X148.172 Y-2.274 Z-8.034 
N516 X148.170 Y-2.338 Z-7.961 
N517 X148.168 Y-2.401 Z-7.888 
N518 X148.166 Y-2.464 Z-7.815 
N519 X148.164 Y-2.528 Z-7.743 
N520 X148.162 Y-2.591 Z-7.670 
N521 X148.160 Y-2.654 Z-7.597 
N522 X148.159 Y-2.718 Z-7.524 
N523 X148.157 Y-2.781 Z-7.451 
N524 X148.155 Y-2.844 Z-7.378 
N525 X148.153 Y-2.908 Z-7.305 
N526 X148.152 Y-2.971 Z-7.233 
N527 X148.150 Y-3.034 Z-7.160 
N528 X148.148 Y-3.098 Z-7.087 
N529 X148.147 Y-3.161 Z-7.014 
N530 X148.145 Y-3.224 Z-6.941 
N531 X148.144 Y-3.288 Z-6.868 
N532 X148.142 Y-3.351 Z-6.795 
N533 X148.141 Y-3.414 Z-6.722 
N534 X148.139 Y-3.478 Z-6.650 
N535 X148.138 Y-3.541 Z-6.577 
N536 X148.137 Y-3.605 Z-6.504 
N537 X148.135 Y-3.668 Z-6.431 
N538 X148.134 Y-3.731 Z-6.358 
N539 X148.133 Y-3.795 Z-6.285 
N540 X148.131 Y-3.858 Z-6.212 
N541 X148.130 Y-3.921 Z-6.139 
N542 X148.129 Y-3.985 Z-6.067 
N543 X148.127 Y-4.048 Z-5.994 
N544 X148.126 Y-4.111 Z-5.921 
N545 X148.125 Y-4.175 Z-5.848 
N546 X148.124 Y-4.238 Z-5.775 
N547 X148.123 Y-4.301 Z-5.702 
N548 X148.122 Y-4.365 Z-5.629 
N549 X148.121 Y-4.428 Z-5.557 
N550 X148.120 Y-4.491 Z-5.484 
N551 X148.119 Y-4.555 Z-5.411 
N552 X148.118 Y-4.618 Z-5.338 
N553 X148.117 Y-4.681 Z-5.265 
N554 X148.116 Y-4.745 Z-5.192 
N555 X148.115 Y-4.808 Z-5.119 
N556 X148.114 Y-4.871 Z-5.046 
N557 X148.113 Y-4.935 Z-4.974 
N558 X148.112 Y-4.998 Z-4.901 
N559 X148.112 Y-5.062 Z-4.828 
N560 X148.111 Y-5.125 Z-4.755 
N561 X148.110 Y-5.188 Z-4.682 
N562 X148.109 Y-5.252 Z-4.609 
N563 X148.109 Y-5.315 Z-4.536 
N564 X148.108 Y-5.378 Z-4.463 
N565 X148.107 Y-5.442 Z-4.391 
N566 X148.107 Y-5.505 Z-4.318 
N567 X148.106 Y-5.568 Z-4.245 
N568 X148.106 Y-5.632 Z-4.172 
N569 X148.105 Y-5.695 Z-4.099 
N570 X148.105 Y-5.758 Z-4.026 
N571 X148.104 Y-5.822 Z-3.953 
N572 X148.104 Y-5.885 Z-3.880 
N573 X148.103 Y-5.948 Z-3.807 
N574 X148.103 Y-6.012 Z-3.735 
N575 X148.102 Y-6.075 Z-3.662 
N576 X148.102 Y-6.138 Z-3.589 
N577 X148.102 Y-6.202 Z-3.516 
N578 X148.101 Y-6.265 Z-3.443 
N579 X148.101 Y-6.329 Z-3.370 
N580 X148.101 Y-6.392 Z-3.297 
N581 X148.101 Y-6.455 Z-3.224 
N582 X148.101 Y-6.519 Z-3.152 
N583 X148.100 Y-6.582 Z-3.079 
N584 X148.100 Y-6.645 Z-3.006 
N585 X148.100 Y-6.709 Z-2.933 
N586 X148.100 Y-6.772 Z-2.860 
N587 X148.100 Y-6.835 Z-2.787 
N588 X148.100 Y-6.899 Z-2.714 
N589 X148.100 Y-6.962 Z-2.641 
N590 X148.100 Y-7.025 Z-2.569 
N591 X148.100 Y-7.089 Z-2.496 
N592 X148.100 Y-7.152 Z-2.423 
N593 X148.100 Y-7.215 Z-2.350 
N594 X148.100 Y-7.279 Z-2.277 
N595 X148.101 Y-7.342 Z-2.204 
N596 X148.101 Y-7.406 Z-2.131 
N597 X148.101 Y-7.469 Z-2.058 
N598 X148.101 Y-7.532 Z-1.986 
N599 X148.101 Y-7.596 Z-1.913 
N600 X148.102 Y-7.659 Z-1.840 
N601 X148.102 Y-7.722 Z-1.767 
N602 X148.102 Y-7.786 Z-1.694 
N603 X148.103 Y-7.849 Z-1.621 
N604 X148.103 Y-7.912 Z-1.548 
N605 X148.104 Y-7.976 Z-1.475 
N606 X148.104 Y-8.039 Z-1.403 
N607 X148.104 Y-8.102 Z-1.330 
N608 X148.105 Y-8.166 Z-1.257 
N609 X148.105 Y-8.229 Z-1.184 
N610 X148.106 Y-8.292 Z-1.111 
N611 X148.107 Y-8.356 Z-1.038 
N612 X148.107 Y-8.419 Z-0.965 
N613 X148.108 Y-8.483 Z-0.892 
N614 X148.108 Y-8.546 Z-0.820 
N615 X148.109 Y-8.609 Z-0.747 
N616 X148.110 Y-8.673 Z-0.674 
N617 X148.111 Y-8.736 Z-0.601 
N618 X148.111 Y-8.799 Z-0.528 
N619 X148.112 Y-8.863 Z-0.455 
N620 X148.113 Y-8.926 Z-0.382 
N621 X148.114 Y-8.989 Z-0.309 
N622 X148.115 Y-9.053 Z-0.236 
N623 X148.116 Y-9.116 Z-0.164 
N624 X148.117 Y-9.179 Z-0.091 
N625 X148.117 Y-9.243 Z-0.018 
N626 X148.118 Y-9.306 Z0.055 
N627 X148.119 Y-9.369 Z0.128 
N628 X148.121 Y-9.433 Z0.201 
N629 X148.122 Y-9.496 Z0.274 
N630 X148.123 Y-9.559 Z0.346 
N631 X148.124 Y-9.623 Z0.419 
N632 X148.125 Y-9.686 Z0.492 
N633 X148.126 Y-9.749 Z0.565 
N634 X148.127 Y-9.813 Z0.638 
N635 X148.128 Y-9.876 Z0.711 
N636 X148.130 Y-9.940 Z0.784 
N637 X148.131 Y-10.003 Z0.857 
N638 X148.132 Y-10.066 Z0.929 
N639 X148.134 Y-10.130 Z1.002 
N640 X148.135 Y-10.193 Z1.075 
N641 X148.136 Y-10.256 Z1.148 
N642 X148.138 Y-10.320 Z1.221 
N643 X148.139 Y-10.383 Z1.294 
N644 X148.141 Y-10.446 Z1.367 
N645 X148.142 Y-10.510 Z1.440 
N646 X148.143 Y-10.573 Z1.512 
N647 X148.145 Y-10.636 Z1.585 
N648 X148.147 Y-10.700 Z1.658 
N649 X148.148 Y-10.763 Z1.731 
N650 X148.150 Y-10.826 Z1.804 
N651 X148.151 Y-10.890 Z1.877 
N652 X148.153 Y-10.953 Z1.950 
N653 X148.155 Y-11.016 Z2.023 
N654 X148.156 Y-11.080 Z2.095 
N655 X148.158 Y-11.143 Z2.168 
N656 X148.160 Y-11.206 Z2.241 
N657 X148.162 Y-11.270 Z2.314 
N658 X148.164 Y-11.333 Z2.387 
N659 X148.165 Y-11.396 Z2.460 
N660 X148.167 Y-11.460 Z2.533 
N661 X148.169 Y-11.523 Z2.605 
N662 X148.171 Y-11.586 Z2.678 
N663 X148.173 Y-11.650 Z2.751 
N664 X148.175 Y-11.713 Z2.824 
N665 X148.177 Y-11.776 Z2.897 
N666 X148.179 Y-11.840 Z2.970 
N667 X148.181 Y-11.903 Z3.043 
N668 X148.183 Y-11.966 Z3.115 
N669 X148.185 Y-12.030 Z3.188 
N670 X148.187 Y-12.093 Z3.261 
N671 X148.190 Y-12.156 Z3.334 
N672 X148.192 Y-12.220 Z3.407 
N673 X148.194 Y-12.283 Z3.480 
N674 X148.196 Y-12.347 Z3.553 
N675 X148.198 Y-12.410 Z3.625 
N676 X148.201 Y-12.473 Z3.698 
N677 X148.203 Y-12.537 Z3.771 
N678 X148.205 Y-12.600 Z3.844 
N679 X148.208 Y-12.663 Z3.917 
N680 X148.210 Y-12.727 Z3.990 
N681 X148.213 Y-12.790 Z4.063 
N682 X148.215 Y-12.853 Z4.135 
N683 X148.218 Y-12.916 Z4.208 
N684 X148.220 Y-12.980 Z4.281 
N685 X148.223 Y-13.043 Z4.354 
N686 X148.225 Y-13.106 Z4.427 
N687 X148.228 Y-13.170 Z4.500 
N688 X148.230 Y-13.233 Z4.573 
N689 X148.233 Y-13.296 Z4.645 
N690 X148.236 Y-13.360 Z4.718 
N691 X148.238 Y-13.423 Z4.791 
N692 X148.241 Y-13.486 Z4.864 
N693 X148.244 Y-13.550 Z4.937 
N694 X148.247 Y-13.613 Z5.010 
N695 X148.249 Y-13.676 Z5.083 
N696 X148.252 Y-13.740 Z5.155 
N697 X148.255 Y-13.803 Z5.228 
N698 X148.258 Y-13.866 Z5.301 
N699 X148.261 Y-13.930 Z5.374 
N700 X148.264 Y-13.993 Z5.447 
N701 X148.267 Y-14.056 Z5.520 
N702 X148.270 Y-14.120 Z5.592 
N703 X148.273 Y-14.183 Z5.665 
N704 X148.276 Y-14.246 Z5.738 
N705 X148.279 Y-14.310 Z5.811 
N706 X148.282 Y-14.373 Z5.884 
N707 X148.285 Y-14.436 Z5.957 
N708 X148.288 Y-14.500 Z6.030 
N709 X148.291 Y-14.563 Z6.102 
N710 X148.294 Y-14.626 Z6.175 
N711 X148.298 Y-14.690 Z6.248 
N712 X148.301 Y-14.753 Z6.321 
N713 X148.304 Y-14.816 Z6.394 
N714 X148.307 Y-14.880 Z6.467 
N715 X148.311 Y-14.943 Z6.539 
N716 X148.314 Y-15.006 Z6.612 
N717 X148.317 Y-15.069 Z6.685 
N718 X148.321 Y-15.133 Z6.758 
N719 X148.324 Y-15.196 Z6.831 
N720 X148.328 Y-15.259 Z6.904 
N721 X148.331 Y-15.323 Z6.976 
N722 X148.335 Y-15.386 Z7.049 
N723 X148.338 Y-15.449 Z7.122 
N724 X148.342 Y-15.513 Z7.195 
N725 X148.345 Y-15.576 Z7.268 
N726 X148.349 Y-15.639 Z7.341 
N727 X148.353 Y-15.703 Z7.413 
N728 X148.356 Y-15.766 Z7.486 
N729 X148.360 Y-15.829 Z7.559 
N730 X148.364 Y-15.892 Z7.632 
N731 X148.367 Y-15.956 Z7.705 
N732 X148.371 Y-16.019 Z7.777 
N733 X148.375 Y-16.082 Z7.850 
N734 X148.379 Y-16.146 Z7.923 
N735 X148.383 Y-16.209 Z7.996 
N736 X148.387 Y-16.272 Z8.069 
N737 X148.390 Y-16.336 Z8.142 
N738 X148.394 Y-16.399 Z8.214 
N739 X148.398 Y-16.462 Z8.287 
N740 X148.402 Y-16.525 Z8.360 
N741 X148.406 Y-16.589 Z8.433 
N742 X148.410 Y-16.652 Z8.506 
N743 X148.414 Y-16.715 Z8.578 
N744 X148.419 Y-16.779 Z8.651 
N745 X148.423 Y-16.842 Z8.724 
N746 X148.427 Y-16.905 Z8.797 
N747 X148.431 Y-16.969 Z8.870 
N748 X148.435 Y-17.032 Z8.943 
N749 X148.439 Y-17.095 Z9.015 
N750 X148.444 Y-17.158 Z9.088 
N751 X148.448 Y-17.222 Z9.161 
N752 X148.452 Y-17.285 Z9.234 
N753 X148.456 Y-17.348 Z9.307 
N754 X148.461 Y-17.412 Z9.379 
N755 X148.465 Y-17.475 Z9.452 
N756 X148.470 Y-17.538 Z9.525 
N757 X148.474 Y-17.601 Z9.598 
N758 X148.478 Y-17.665 Z9.671 
N759 X148.483 Y-17.728 Z9.743 
N760 X148.487 Y-17.791 Z9.816 
N761 X148.492 Y-17.855 Z9.889 
N762 X148.497 Y-17.918 Z9.962 
N763 X148.501 Y-17.981 Z10.035 
N764 X148.506 Y-18.044 Z10.107 
N765 X148.510 Y-18.108 Z10.180 
N766 X148.515 Y-18.171 Z10.253 
N767 X148.520 Y-18.234 Z10.326 
N768 X148.524 Y-18.298 Z10.399 
N769 X148.529 Y-18.361 Z10.471 
N770 X148.534 Y-18.424 Z10.544 
N771 X148.538 Y-18.488 Z10.617 
N772 X148.543 Y-18.551 Z10.690 
N773 X148.548 Y-18.615 Z10.763 
N774 X148.552 Y-18.678 Z10.836 
N775 X148.557 Y-18.741 Z10.909 
N776 X148.562 Y-18.805 Z10.982 
N777 X148.567 Y-18.868 Z11.055 
N778 X148.571 Y-18.932 Z11.128 
N779 X148.576 Y-18.995 Z11.201 
N780 X148.581 Y-19.059 Z11.274 
N781 X148.585 Y-19.122 Z11.347 
N782 X148.590 Y-19.185 Z11.420 
N783 X148.595 Y-19.249 Z11.493 
N784 X148.599 Y-19.312 Z11.566 
N785 X148.604 Y-19.376 Z11.639 
N786 X148.609 Y-19.439 Z11.712 
N787 X148.613 Y-19.502 Z11.785 
N788 X148.618 Y-19.566 Z11.858 
N789 X148.623 Y-19.629 Z11.930 
N790 X148.627 Y-19.693 Z12.003 
N791 X148.632 Y-19.756 Z12.076 
N792 X148.637 Y-19.820 Z12.149 
N793 X148.641 Y-19.883 Z12.222 
N794 X148.646 Y-19.946 Z12.295 
N795 X148.651 Y-20.010 Z12.368 
N796 X148.655 Y-20.073 Z12.441 
N797 X148.660 Y-20.137 Z12.514 
N798 X148.665 Y-20.200 Z12.587 
N799 X148.669 Y-20.263 Z12.660 
N800 G40 X149.153 Y-26.816 Z20.198 F193
N801 X149.153 Y-26.816 Z20.198 
N802 G00 X149.153 Y-64.552 Z-12.605 
RAPORT("T13732","Side Milling:137 End")
N804 ;trailer : concat=None
; points cnt = 744
N805 M9 ; chlodziwo wyl.
N806 M9 ; chlodziwo wyl.
N807 MSG (" --- KONIEC PROGRAMU --- ")
N808 TRANS
N809 G54
N810 FGROUP()
N811 TRAFOOF
N812 STOPRE
N813 G0 G53 D0 Z290.0 M9 M5
N814 G0 G53 Y150 A0 B0
N815 M17
