N10 ; PROGRAM NAME: 1373234
N11 ; ORDER       : 13732
N12 ; OPER. NAME  : Spiral Finish Airfoil:140
N13 ; OPER. DESCR.: Spiral Finishing Airfoil/pioro wk
N14 ; OPER. TYPE  : finAirfoil
N15 ; GEO. OPTION : 5
N16 ; MACHINE     : SH_HX151_24_SIM840D
N17 ;             : STARRAG_HECKERT_5axis_finish_milling_machine
N18 ; CONTROL     : SINUMERIK 840D
N19 ; created:   2021-11-09 14:57:51.526828
;-------DODATKOWE DANE-------------------
; PROGRAMISTA : Mariusz Orzechowski
; PARTID      : 132T008743P1005_-
;  ae         : 1.8
;  lean_angle : 12.0
;  airf_offset: 0.05
;----------------------------------------
N20 ;----------------------------------------
RAPORT("T13732","Spiral Finish Airfoil:140")
N21 TRAFOOF
N22 D0
N23 G90 G94
N24 STOPRE
N25 M9 ; chlodziwo wyl
N26 ; --- Spiral Finish Airfoil:140 - Spiral Finishing Airfoil/pioro wk ---
N28 ;ToolChange : concat=None ,current_tdmid=None, PP.tdmId=959063
N29 MSG(" TLID=959063 D=12.0 R=3.0 Ang=0.0 Len=130.0 ")
N30 TRAFOOF
N31 D0
N32 G0 G53 Z290 B0
N33 G0 X200
N34 G0 Y150
N35 T="7759063"
N36 G0 X500
RAPORT("T13732","ToolChangeStart 7759063")
N37 M6
RAPORT("T13732","ToolChangeEnd")
N38 ; (Preloading tool)
N35 T="7759064"
N40 G0 X200
N41 STOPRE
N42 S3183 M03
N43 STOPRE
N44 TOL(0.01,1,1)
N45 G0 X195.310 A149.9697
N46 TRAORI
N47 G54 D1
N48 D1 
N49 TRANS  A=R25
STOPRE
E_ZDARZ=300001
;ACS_FINISH_AIRFOIL=7759063
STOPRE
N50 ; DELTA A > 40.1
N51 TRAFOOF
N52 STOPRE
N53 G0 G53 D0 Z265.000
N54 G1 G53 A149.9697 F10000
N55 TRAORI
N56 G54 D1
N57 TRANS  A=R25
N58 G00 X195.310 Y-63.334 Z-36.024 A149.9697 B0.0592 
N59 M342 ; chlodziwo woda
N60 X195.270 Y-38.311 Z7.264 
N61 G01 X195.272 Y-35.878 Z9.232 F827 
N62 X195.277 Y-32.957 Z10.352 
N63 X195.286 Y-29.832 Z10.514 
N64 X195.296 Y-26.811 Z9.703 
N65 X195.308 Y-24.188 Z7.997 
N66 X195.307 Y-24.151 Z7.852 A151.5925 B0.0668 
N67 X195.307 Y-24.103 Z7.775 A152.1731 B0.0695 
N68 X195.307 Y-24.044 Z7.719 A152.3500 B0.0706 
N69 X195.307 Y-23.973 Z7.661 A152.4234 B0.0708 
N70 X195.307 Y-23.888 Z7.593 A152.4724 B0.0710 
N71 X195.308 Y-23.788 Z7.513 A152.5080 B0.0710 
N72 X195.309 Y-23.670 Z7.419 A152.5388 B0.0711 
N73 X195.309 Y-23.534 Z7.310 A152.5700 B0.0712 
N74 X195.310 Y-23.378 Z7.185 A152.6044 B0.0714 
N75 X195.311 Y-23.202 Z7.043 A152.6438 B0.0716 
N76 X195.312 Y-23.006 Z6.884 A152.6896 B0.0717 
N77 X195.314 Y-22.789 Z6.708 A152.7433 B0.0720 
N78 X195.315 Y-22.553 Z6.516 A152.8070 B0.0722 
N79 X195.316 Y-22.299 Z6.308 A152.8830 B0.0726 
N80 X195.318 Y-22.026 Z6.086 A152.9741 B0.0730 
N81 X195.320 Y-21.738 Z5.850 A153.0827 B0.0734 
N82 X195.321 Y-21.436 Z5.602 A153.2107 B0.0740 
N83 X195.323 Y-21.121 Z5.344 A153.3594 B0.0747 
N84 X195.325 Y-20.796 Z5.077 A153.5291 B0.0755 
N85 X195.327 Y-20.461 Z4.804 A153.7203 B0.0763 
N86 X195.329 Y-20.120 Z4.525 A153.9333 B0.0773 
N87 X195.331 Y-19.772 Z4.242 A154.1681 B0.0784 
N88 X195.333 Y-19.420 Z3.957 A154.4253 B0.0795 
N89 X195.335 Y-19.066 Z3.670 A154.7059 B0.0808 
N90 X195.337 Y-18.708 Z3.383 A155.0114 B0.0822 
N91 X195.339 Y-18.350 Z3.096 A155.3441 B0.0836 
N92 X195.341 Y-17.991 Z2.810 A155.7063 B0.0853 
N93 X195.343 Y-17.631 Z2.526 A156.0994 B0.0870 
N94 X195.345 Y-17.272 Z2.243 A156.5244 B0.0889 
N95 X195.347 Y-16.913 Z1.963 A156.9812 B0.0910 
N96 X195.349 Y-16.555 Z1.686 A157.4703 B0.0932 
N97 X195.351 Y-16.198 Z1.412 A157.9919 B0.0955 
N98 X195.354 Y-15.841 Z1.141 A158.5468 B0.0980 
N99 X195.356 Y-15.486 Z0.874 A159.1361 B0.1006 
N100 X195.358 Y-15.132 Z0.611 A159.7607 B0.1033 
N101 X195.360 Y-14.779 Z0.352 A160.4221 B0.1062 
N102 X195.362 Y-14.427 Z0.098 A161.1215 B0.1093 
N103 X195.364 Y-14.076 Z-0.153 A161.8606 B0.1125 
N104 X195.366 Y-13.727 Z-0.398 A162.6410 B0.1158 
N105 X195.369 Y-13.379 Z-0.639 A163.4649 B0.1193 
N106 X195.371 Y-13.032 Z-0.875 A164.3351 B0.1230 
N107 X195.373 Y-12.686 Z-1.107 A165.2547 B0.1269 
N108 X195.375 Y-12.341 Z-1.333 A166.2269 B0.1310 
N109 X195.377 Y-11.997 Z-1.555 A167.2539 B0.1352 
N110 X195.380 Y-11.654 Z-1.771 A168.3365 B0.1397 
N111 X195.382 Y-11.312 Z-1.982 A169.4740 B0.1444 
N112 X195.384 Y-10.970 Z-2.188 A170.6646 B0.1492 
N113 X195.386 Y-10.629 Z-2.387 A171.9066 B0.1541 
N114 X195.389 Y-10.289 Z-2.579 A173.1993 B0.1591 
N115 X195.391 Y-9.949 Z-2.766 A174.5428 B0.1643 
N116 X195.393 Y-9.609 Z-2.945 A175.9379 B0.1696 
N117 X195.396 Y-9.270 Z-3.118 A177.3861 B0.1749 
N118 X195.398 Y-8.931 Z-3.285 A178.8884 B0.1804 
N119 X195.400 Y-8.592 Z-3.444 A180.4456 B0.1859 
N120 X195.403 Y-8.252 Z-3.597 A182.0581 B0.1915 
N121 X195.405 Y-7.912 Z-3.742 A183.7258 B0.1971 
N122 X195.408 Y-7.571 Z-3.879 A185.4480 B0.2027 
N123 X195.410 Y-7.229 Z-4.009 A187.2234 B0.2083 
N124 X195.413 Y-6.886 Z-4.131 A189.0503 B0.2139 
N125 X195.415 Y-6.542 Z-4.244 A190.9264 B0.2194 
N126 X195.418 Y-6.197 Z-4.348 A192.8491 B0.2248 
N127 X195.421 Y-5.850 Z-4.443 A194.8155 B0.2300 
N128 X195.424 Y-5.502 Z-4.528 A196.8220 B0.2351 
N129 X195.426 Y-5.153 Z-4.603 A198.8644 B0.2399 
N130 X195.429 Y-4.802 Z-4.668 A200.9383 B0.2446 
N131 X195.432 Y-4.451 Z-4.721 A203.0387 B0.2489 
N132 X195.436 Y-4.099 Z-4.763 A205.1608 B0.2530 
N133 X195.439 Y-3.746 Z-4.792 A207.2995 B0.2567 
N134 X195.442 Y-3.392 Z-4.810 A209.4496 B0.2601 
N135 X195.446 Y-3.039 Z-4.814 A211.6058 B0.2631 
N136 X195.449 Y-2.686 Z-4.805 A213.7626 B0.2657 
N137 X195.453 Y-2.334 Z-4.783 A215.9144 B0.2680 
N138 X195.457 Y-1.983 Z-4.747 A218.0556 B0.2698 
N139 X195.461 Y-1.634 Z-4.697 A220.1810 B0.2713 
N140 X195.465 Y-1.287 Z-4.633 A222.2858 B0.2724 
N141 X195.469 Y-0.943 Z-4.555 A224.3655 B0.2731 
N142 X195.473 Y-0.603 Z-4.463 A226.4157 B0.2734 
N143 X195.478 Y-0.266 Z-4.356 A228.4324 B0.2734 
N144 X195.482 Y0.066 Z-4.236 A230.4119 B0.2730 
N145 X195.487 Y0.394 Z-4.102 A232.3510 B0.2723 
N146 X195.492 Y0.716 Z-3.954 A234.2469 B0.2713 
N147 X195.496 Y1.032 Z-3.793 A236.0975 B0.2701 
N148 X195.501 Y1.343 Z-3.620 A237.9010 B0.2686 
N149 X195.506 Y1.646 Z-3.433 A239.6564 B0.2669 
N150 X195.511 Y1.943 Z-3.235 A241.3628 B0.2651 
N151 X195.517 Y2.233 Z-3.026 A243.0196 B0.2630 
N152 X195.522 Y2.515 Z-2.805 A244.6271 B0.2608 
N153 X195.527 Y2.790 Z-2.575 A246.1862 B0.2585 
N154 X195.532 Y3.056 Z-2.335 A247.6992 B0.2561 
N155 X195.537 Y3.315 Z-2.086 A249.1699 B0.2535 
N156 X195.543 Y3.566 Z-1.829 A250.6037 B0.2509 
N157 X195.548 Y3.810 Z-1.565 A252.0069 B0.2482 
N158 X195.553 Y4.045 Z-1.295 A253.3852 B0.2454 
N159 X195.558 Y4.273 Z-1.019 A254.7415 B0.2425 
N160 X195.564 Y4.492 Z-0.739 A256.0752 B0.2395 
N161 X195.569 Y4.702 Z-0.455 A257.3838 B0.2364 
N162 X195.574 Y4.904 Z-0.170 A258.6659 B0.2333 
N163 X195.579 Y5.095 Z0.116 A259.9237 B0.2302 
N164 X195.584 Y5.278 Z0.402 A261.1650 B0.2269 
N165 X195.588 Y5.453 Z0.686 A262.4024 B0.2238 
N166 X195.593 Y5.620 Z0.967 A263.6491 B0.2204 
N167 X195.597 Y5.779 Z1.244 A264.9166 B0.2168 
N168 X195.602 Y5.932 Z1.517 A266.2122 B0.2131 
N169 X195.606 Y6.078 Z1.783 A267.5414 B0.2091 
N170 X195.610 Y6.217 Z2.044 A268.9103 B0.2050 
N171 X195.613 Y6.351 Z2.297 A270.3287 B0.2005 
N172 X195.617 Y6.480 Z2.543 A271.8062 B0.1957 
N173 X195.621 Y6.604 Z2.781 A273.3444 B0.1905 
N174 X195.624 Y6.723 Z3.011 A274.9437 B0.1851 
N175 X195.627 Y6.839 Z3.233 A276.6224 B0.1796 
N176 X195.630 Y6.955 Z3.449 A278.4205 B0.1735 
N177 X195.633 Y7.073 Z3.662 A280.3845 B0.1668 
N178 X195.636 Y7.195 Z3.875 A282.5648 B0.1590 
N179 X195.639 Y7.325 Z4.093 A285.0232 B0.1501 
N180 X195.642 Y7.464 Z4.320 A287.8320 B0.1397 
N181 X195.646 Y7.615 Z4.563 A291.0640 B0.1268 
N182 X195.650 Y7.775 Z4.830 A294.7785 B0.1114 
N183 X195.654 Y7.941 Z5.126 A299.0008 B0.0925 
N184 X195.659 Y8.105 Z5.453 A303.6985 B0.0701 
N185 X195.665 Y8.257 Z5.810 A308.7848 B0.0453 
N186 X195.670 Y8.385 Z6.192 A314.1399 B0.0184 
N187 X195.676 Y8.482 Z6.591 A319.6366 B-0.0095 
N188 X195.682 Y8.542 Z6.998 A325.1669 B-0.0366 
N189 X195.687 Y8.563 Z7.405 A330.6562 B-0.0633 
N190 X195.692 Y8.545 Z7.806 A336.0572 B-0.0888 
N191 X195.696 Y8.488 Z8.196 A341.3344 B-0.1128 
N192 X195.700 Y8.395 Z8.569 A346.4479 B-0.1354 
N193 X195.704 Y8.269 Z8.920 A351.3426 B-0.1559 
N194 X195.707 Y8.115 Z9.242 A355.9500 B-0.1741 
N195 X195.709 Y7.938 Z9.529 A0.2021 B-0.1897 
N196 X195.711 Y7.745 Z9.779 A4.0515 B-0.2024 
N197 X195.712 Y7.540 Z9.992 A7.4907 B-0.2128 
N198 X195.712 Y7.326 Z10.171 A10.5505 B-0.2212 
N199 X195.712 Y7.104 Z10.321 A13.2807 B-0.2282 
N200 X195.711 Y6.873 Z10.445 A15.7319 B-0.2342 
N201 X195.710 Y6.633 Z10.546 A17.9447 B-0.2391 
N202 X195.708 Y6.384 Z10.625 A19.9528 B-0.2433 
N203 X195.706 Y6.123 Z10.685 A21.7933 B-0.2469 
N204 X195.704 Y5.850 Z10.728 A23.5009 B-0.2502 
N205 X195.701 Y5.565 Z10.753 A25.0856 B-0.2532 
N206 X195.698 Y5.268 Z10.759 A26.5359 B-0.2556 
N207 X195.694 Y4.960 Z10.747 A27.8443 B-0.2577 
N208 X195.690 Y4.643 Z10.717 A29.0134 B-0.2593 
N209 X195.686 Y4.316 Z10.670 A30.0453 B-0.2609 
N210 X195.681 Y3.980 Z10.605 A30.9392 B-0.2620 
N211 X195.675 Y3.638 Z10.524 A31.6942 B-0.2630 
N212 X195.670 Y3.289 Z10.429 A32.3140 B-0.2636 
N213 X195.664 Y2.934 Z10.320 A32.8077 B-0.2642 
N214 X195.658 Y2.575 Z10.199 A33.1865 B-0.2646 
N215 X195.652 Y2.212 Z10.068 A33.4605 B-0.2649 
N216 X195.645 Y1.846 Z9.929 A33.6359 B-0.2651 
N217 X195.638 Y1.480 Z9.782 A33.7140 B-0.2652 
N218 X195.632 Y1.113 Z9.628 A33.6926 B-0.2652 
N219 X195.625 Y0.749 Z9.470 A33.5676 B-0.2650 
N220 X195.618 Y0.389 Z9.308 A33.3347 B-0.2648 
N221 X195.611 Y0.034 Z9.143 A32.9900 B-0.2644 
N222 X195.604 Y-0.314 Z8.977 A32.5314 B-0.2639 
N223 X195.597 Y-0.656 Z8.810 A31.9601 B-0.2633 
N224 X195.590 Y-0.990 Z8.643 A31.2822 B-0.2626 
N225 X195.583 Y-1.317 Z8.479 A30.5097 B-0.2620 
N226 X195.577 Y-1.637 Z8.318 A29.6607 B-0.2615 
N227 X195.570 Y-1.949 Z8.162 A28.7591 B-0.2616 
N228 X195.563 Y-2.256 Z8.013 A27.8329 B-0.2627 
N229 X195.557 Y-2.556 Z7.873 A26.9116 B-0.2650 
N230 X195.551 Y-2.850 Z7.742 A26.0220 B-0.2689 
N231 X195.544 Y-3.139 Z7.623 A25.1846 B-0.2747 
N232 X195.538 Y-3.423 Z7.516 A24.4092 B-0.2822 
N233 X195.532 Y-3.703 Z7.419 A23.6934 B-0.2911 
N234 X195.527 Y-3.979 Z7.333 A23.0234 B-0.3010 
N235 X195.521 Y-4.252 Z7.255 A22.3763 B-0.3110 
N236 X195.515 Y-4.524 Z7.184 A21.7250 B-0.3207 
N237 X195.509 Y-4.795 Z7.118 A21.0446 B-0.3292 
N238 X195.504 Y-5.065 Z7.056 A20.3186 B-0.3363 
N239 X195.498 Y-5.336 Z6.997 A19.5422 B-0.3419 
N240 X195.492 Y-5.609 Z6.942 A18.7205 B-0.3460 
N241 X195.487 Y-5.883 Z6.892 A17.8617 B-0.3488 
N242 X195.481 Y-6.160 Z6.846 A16.9692 B-0.3504 
N243 X195.476 Y-6.439 Z6.804 A16.0385 B-0.3506 
N244 X195.471 Y-6.723 Z6.766 A15.0599 B-0.3493 
N245 X195.465 Y-7.010 Z6.732 A14.0238 B-0.3465 
N246 X195.460 Y-7.302 Z6.701 A12.9252 B-0.3421 
N247 X195.455 Y-7.600 Z6.673 A11.7628 B-0.3362 
N248 X195.449 Y-7.904 Z6.649 A10.5379 B-0.3289 
N249 X195.444 Y-8.214 Z6.629 A9.2532 B-0.3204 
N250 X195.439 Y-8.531 Z6.613 A7.9125 B-0.3106 
N251 X195.434 Y-8.854 Z6.602 A6.5223 B-0.2999 
N252 X195.429 Y-9.184 Z6.597 A5.0930 B-0.2885 
N253 X195.424 Y-9.520 Z6.598 A3.6406 B-0.2766 
N254 X195.420 Y-9.861 Z6.606 A2.1844 B-0.2644 
N255 X195.415 Y-10.207 Z6.623 A0.7418 B-0.2524 
N256 X195.410 Y-10.557 Z6.649 A359.3249 B-0.2406 
N257 X195.406 Y-10.909 Z6.683 A357.9388 B-0.2291 
N258 X195.401 Y-11.262 Z6.725 A356.5830 B-0.2180 
N259 X195.397 Y-11.616 Z6.775 A355.2555 B-0.2071 
N260 X195.393 Y-11.969 Z6.831 A353.9573 B-0.1966 
N261 X195.389 Y-12.318 Z6.894 A352.6961 B-0.1864 
N262 X195.385 Y-12.663 Z6.962 A351.4875 B-0.1767 
N263 X195.381 Y-12.999 Z7.036 A350.3504 B-0.1678 
N264 X195.377 Y-13.325 Z7.115 A349.3008 B-0.1596 
N265 X195.374 Y-13.639 Z7.198 A348.3464 B-0.1525 
N266 X195.371 Y-13.938 Z7.283 A347.4881 B-0.1461 
N267 X195.368 Y-14.221 Z7.369 A346.7231 B-0.1404 
N268 X195.365 Y-14.485 Z7.454 A346.0496 B-0.1357 
N269 X195.363 Y-14.730 Z7.536 A345.4676 B-0.1316 
N270 X195.361 Y-14.953 Z7.615 A344.9760 B-0.1282 
N271 X195.359 Y-15.153 Z7.688 A344.5706 B-0.1257 
N272 X195.357 Y-15.332 Z7.757 A344.2439 B-0.1236 
N273 X195.355 Y-15.488 Z7.819 A343.9868 B-0.1221 
N274 X195.354 Y-15.625 Z7.875 A343.7930 B-0.1209 
N275 X195.353 Y-15.742 Z7.925 A343.6635 B-0.1201 
N276 X195.352 Y-15.842 Z7.971 A343.6153 B-0.1194 
N277 X195.351 Y-15.926 Z8.018 A343.6915 B-0.1189 
N278 X195.350 Y-15.996 Z8.070 A343.9739 B-0.1189 
N279 X195.350 Y-16.055 Z8.138 A344.5966 B-0.1199 
N280 X195.351 Y-16.105 Z8.235 A345.7425 B-0.1237 
N281 X195.352 Y-16.154 Z8.415 A348.2323 B-0.1337 
N282 X195.357 Y-16.235 Z8.788 A353.7837 B-0.1567 
N283 X195.364 Y-16.413 Z9.366 A2.7687 B-0.1944 
N284 X195.371 Y-16.711 Z9.974 A12.9137 B-0.2346 
N285 X195.376 Y-17.092 Z10.505 A22.7416 B-0.2598 
N286 X195.379 Y-17.510 Z10.923 A31.6509 B-0.2718 
N287 X195.380 Y-17.885 Z11.205 A38.7285 B-0.2777 
N288 X195.380 Y-18.237 Z11.412 A44.8992 B-0.2787 
N289 X195.380 Y-18.563 Z11.561 A50.3264 B-0.2771 
N290 X195.379 Y-18.867 Z11.669 A55.2054 B-0.2741 
N291 X195.378 Y-19.154 Z11.745 A59.7041 B-0.2699 
N292 X195.377 Y-19.431 Z11.796 A63.9739 B-0.2648 
N293 X195.376 Y-19.704 Z11.826 A68.1395 B-0.2587 
N294 X195.374 Y-19.979 Z11.837 A72.3198 B-0.2515 
N295 X195.372 Y-20.263 Z11.827 A76.6339 B-0.2431 
N296 X195.370 Y-20.563 Z11.794 A81.2147 B-0.2330 
N297 X195.367 Y-20.887 Z11.731 A86.2083 B-0.2207 
N298 X195.363 Y-21.241 Z11.628 A91.7875 B-0.2049 
N299 X195.359 Y-21.628 Z11.471 A98.1099 B-0.1836 
N300 X195.352 Y-22.086 Z11.217 A106.0351 B-0.1546 
N301 X195.343 Y-22.596 Z10.824 A115.7749 B-0.1136 
N302 X195.332 Y-23.066 Z10.303 A126.3661 B-0.0564 
N303 X195.320 Y-23.451 Z9.661 A137.6531 B0.0016 
N304 X195.311 Y-23.640 Z9.140 A145.9353 B0.0404 
N305 X195.307 Y-23.687 Z8.863 A149.9697 B0.0592 
N306 X195.306 Y-23.675 Z8.732 A151.5925 B0.0668 
N307 X195.306 Y-23.636 Z8.660 A152.1731 B0.0695 
N308 X195.306 Y-23.580 Z8.605 A152.3500 B0.0706 
N309 X195.306 Y-23.510 Z8.547 A152.4234 B0.0708 
N310 X195.306 Y-23.426 Z8.480 A152.4724 B0.0710 
N311 X195.307 Y-23.326 Z8.400 A152.5080 B0.0710 
N312 X195.308 Y-23.209 Z8.306 A152.5388 B0.0711 
N313 X195.308 Y-23.073 Z8.197 A152.5700 B0.0712 
N314 X195.309 Y-22.918 Z8.072 A152.6044 B0.0714 
N315 X195.310 Y-22.743 Z7.931 A152.6438 B0.0716 
N316 X195.311 Y-22.547 Z7.772 A152.6896 B0.0717 
N317 X195.313 Y-22.331 Z7.597 A152.7433 B0.0720 
N318 X195.314 Y-22.096 Z7.405 A152.8070 B0.0722 
N319 X195.315 Y-21.843 Z7.198 A152.8830 B0.0726 
N320 X195.317 Y-21.572 Z6.976 A152.9741 B0.0730 
N321 X195.319 Y-21.286 Z6.741 A153.0827 B0.0734 
N322 X195.320 Y-20.985 Z6.495 A153.2107 B0.0740 
N323 X195.322 Y-20.673 Z6.238 A153.3594 B0.0747 
N324 X195.324 Y-20.350 Z5.972 A153.5291 B0.0755 
N325 X195.326 Y-20.019 Z5.700 A153.7203 B0.0763 
N326 X195.328 Y-19.680 Z5.423 A153.9333 B0.0773 
N327 X195.330 Y-19.336 Z5.142 A154.1681 B0.0784 
N328 X195.332 Y-18.989 Z4.859 A154.4253 B0.0795 
N329 X195.334 Y-18.638 Z4.575 A154.7059 B0.0808 
N330 X195.336 Y-18.286 Z4.290 A155.0114 B0.0822 
N331 X195.338 Y-17.933 Z4.005 A155.3441 B0.0836 
N332 X195.340 Y-17.579 Z3.722 A155.7063 B0.0853 
N333 X195.342 Y-17.226 Z3.440 A156.0994 B0.0870 
N334 X195.344 Y-16.874 Z3.160 A156.5244 B0.0889 
N335 X195.346 Y-16.522 Z2.883 A156.9812 B0.0910 
N336 X195.348 Y-16.172 Z2.609 A157.4703 B0.0932 
N337 X195.350 Y-15.823 Z2.339 A157.9919 B0.0955 
N338 X195.352 Y-15.476 Z2.072 A158.5468 B0.0980 
N339 X195.354 Y-15.130 Z1.808 A159.1361 B0.1006 
N340 X195.356 Y-14.786 Z1.549 A159.7607 B0.1033 
N341 X195.359 Y-14.444 Z1.294 A160.4221 B0.1062 
N342 X195.361 Y-14.103 Z1.044 A161.1215 B0.1093 
N343 X195.363 Y-13.765 Z0.798 A161.8606 B0.1125 
N344 X195.365 Y-13.429 Z0.556 A162.6410 B0.1158 
N345 X195.367 Y-13.094 Z0.320 A163.4649 B0.1193 
N346 X195.369 Y-12.762 Z0.088 A164.3351 B0.1230 
N347 X195.371 Y-12.431 Z-0.140 A165.2547 B0.1269 
N348 X195.374 Y-12.103 Z-0.362 A166.2269 B0.1310 
N349 X195.376 Y-11.777 Z-0.580 A167.2539 B0.1352 
N350 X195.378 Y-11.452 Z-0.792 A168.3365 B0.1397 
N351 X195.380 Y-11.129 Z-0.999 A169.4740 B0.1444 
N352 X195.382 Y-10.808 Z-1.201 A170.6646 B0.1492 
N353 X195.384 Y-10.488 Z-1.397 A171.9066 B0.1541 
N354 X195.387 Y-10.170 Z-1.586 A173.1993 B0.1591 
N355 X195.389 Y-9.854 Z-1.770 A174.5428 B0.1643 
N356 X195.391 Y-9.539 Z-1.948 A175.9379 B0.1696 
N357 X195.393 Y-9.225 Z-2.119 A177.3861 B0.1749 
N358 X195.396 Y-8.912 Z-2.285 A178.8884 B0.1804 
N359 X195.398 Y-8.599 Z-2.444 A180.4456 B0.1859 
N360 X195.400 Y-8.288 Z-2.597 A182.0581 B0.1915 
N361 X195.403 Y-7.977 Z-2.744 A183.7258 B0.1971 
N362 X195.405 Y-7.666 Z-2.884 A185.4480 B0.2027 
N363 X195.407 Y-7.355 Z-3.017 A187.2234 B0.2083 
N364 X195.410 Y-7.043 Z-3.143 A189.0503 B0.2139 
N365 X195.412 Y-6.731 Z-3.262 A190.9264 B0.2194 
N366 X195.415 Y-6.419 Z-3.373 A192.8491 B0.2248 
N367 X195.418 Y-6.106 Z-3.476 A194.8155 B0.2300 
N368 X195.420 Y-5.791 Z-3.571 A196.8220 B0.2351 
N369 X195.423 Y-5.476 Z-3.657 A198.8644 B0.2399 
N370 X195.426 Y-5.160 Z-3.734 A200.9383 B0.2446 
N371 X195.429 Y-4.842 Z-3.801 A203.0387 B0.2489 
N372 X195.432 Y-4.524 Z-3.858 A205.1608 B0.2530 
N373 X195.435 Y-4.204 Z-3.904 A207.2995 B0.2567 
N374 X195.439 Y-3.884 Z-3.939 A209.4496 B0.2601 
N375 X195.442 Y-3.563 Z-3.962 A211.6058 B0.2631 
N376 X195.446 Y-3.242 Z-3.974 A213.7626 B0.2657 
N377 X195.449 Y-2.920 Z-3.973 A215.9144 B0.2680 
N378 X195.453 Y-2.599 Z-3.959 A218.0556 B0.2698 
N379 X195.457 Y-2.279 Z-3.933 A220.1810 B0.2713 
N380 X195.461 Y-1.960 Z-3.893 A222.2858 B0.2724 
N381 X195.465 Y-1.643 Z-3.840 A224.3655 B0.2731 
N382 X195.469 Y-1.327 Z-3.773 A226.4157 B0.2734 
N383 X195.474 Y-1.014 Z-3.693 A228.4324 B0.2734 
N384 X195.478 Y-0.704 Z-3.599 A230.4119 B0.2730 
N385 X195.483 Y-0.398 Z-3.491 A232.3510 B0.2723 
N386 X195.488 Y-0.096 Z-3.370 A234.2469 B0.2713 
N387 X195.493 Y0.202 Z-3.236 A236.0975 B0.2701 
N388 X195.498 Y0.495 Z-3.088 A237.9010 B0.2686 
N389 X195.503 Y0.783 Z-2.928 A239.6564 B0.2669 
N390 X195.508 Y1.066 Z-2.756 A241.3628 B0.2651 
N391 X195.513 Y1.342 Z-2.572 A243.0196 B0.2630 
N392 X195.518 Y1.612 Z-2.377 A244.6271 B0.2608 
N393 X195.523 Y1.875 Z-2.171 A246.1862 B0.2585 
N394 X195.529 Y2.131 Z-1.955 A247.6992 B0.2561 
N395 X195.534 Y2.381 Z-1.730 A249.1699 B0.2535 
N396 X195.539 Y2.623 Z-1.497 A250.6037 B0.2509 
N397 X195.545 Y2.858 Z-1.256 A252.0069 B0.2482 
N398 X195.550 Y3.087 Z-1.009 A253.3852 B0.2454 
N399 X195.555 Y3.308 Z-0.756 A254.7415 B0.2425 
N400 X195.560 Y3.521 Z-0.498 A256.0752 B0.2395 
N401 X195.566 Y3.727 Z-0.237 A257.3838 B0.2364 
N402 X195.571 Y3.923 Z0.027 A258.6659 B0.2333 
N403 X195.576 Y4.111 Z0.291 A259.9237 B0.2302 
N404 X195.581 Y4.290 Z0.555 A261.1650 B0.2269 
N405 X195.585 Y4.462 Z0.818 A262.4024 B0.2238 
N406 X195.590 Y4.626 Z1.077 A263.6491 B0.2204 
N407 X195.594 Y4.783 Z1.333 A264.9166 B0.2168 
N408 X195.599 Y4.934 Z1.583 A266.2122 B0.2131 
N409 X195.603 Y5.079 Z1.826 A267.5414 B0.2091 
N410 X195.607 Y5.218 Z2.063 A268.9103 B0.2050 
N411 X195.611 Y5.351 Z2.291 A270.3287 B0.2005 
N412 X195.614 Y5.481 Z2.511 A271.8062 B0.1957 
N413 X195.618 Y5.606 Z2.722 A273.3444 B0.1905 
N414 X195.621 Y5.727 Z2.924 A274.9437 B0.1851 
N415 X195.625 Y5.846 Z3.117 A276.6224 B0.1796 
N416 X195.628 Y5.966 Z3.303 A278.4205 B0.1735 
N417 X195.631 Y6.089 Z3.482 A280.3845 B0.1668 
N418 X195.634 Y6.219 Z3.658 A282.5648 B0.1590 
N419 X195.637 Y6.359 Z3.833 A285.0232 B0.1501 
N420 X195.640 Y6.512 Z4.013 A287.8320 B0.1397 
N421 X195.644 Y6.682 Z4.204 A291.0640 B0.1268 
N422 X195.648 Y6.867 Z4.411 A294.7785 B0.1114 
N423 X195.653 Y7.067 Z4.641 A299.0008 B0.0925 
N424 X195.658 Y7.273 Z4.898 A303.6985 B0.0701 
N425 X195.664 Y7.477 Z5.184 A308.7848 B0.0453 
N426 X195.670 Y7.668 Z5.496 A314.1399 B0.0184 
N427 X195.676 Y7.835 Z5.829 A319.6366 B-0.0095 
N428 X195.682 Y7.971 Z6.177 A325.1669 B-0.0366 
N429 X195.688 Y8.073 Z6.533 A330.6562 B-0.0633 
N430 X195.693 Y8.139 Z6.892 A336.0572 B-0.0888 
N431 X195.698 Y8.168 Z7.249 A341.3344 B-0.1128 
N432 X195.702 Y8.161 Z7.597 A346.4479 B-0.1354 
N433 X195.706 Y8.119 Z7.931 A351.3426 B-0.1559 
N434 X195.709 Y8.044 Z8.244 A355.9500 B-0.1741 
N435 X195.712 Y7.942 Z8.529 A0.2021 B-0.1897 
N436 X195.714 Y7.815 Z8.781 A4.0515 B-0.2024 
N437 X195.715 Y7.670 Z9.000 A7.4907 B-0.2128 
N438 X195.715 Y7.509 Z9.188 A10.5505 B-0.2212 
N439 X195.715 Y7.333 Z9.348 A13.2807 B-0.2282 
N440 X195.714 Y7.144 Z9.483 A15.7319 B-0.2342 
N441 X195.713 Y6.941 Z9.595 A17.9447 B-0.2391 
N442 X195.712 Y6.725 Z9.685 A19.9528 B-0.2433 
N443 X195.710 Y6.495 Z9.757 A21.7933 B-0.2469 
N444 X195.707 Y6.249 Z9.811 A23.5009 B-0.2502 
N445 X195.705 Y5.989 Z9.847 A25.0856 B-0.2532 
N446 X195.701 Y5.715 Z9.865 A26.5359 B-0.2556 
N447 X195.698 Y5.428 Z9.863 A27.8443 B-0.2577 
N448 X195.694 Y5.128 Z9.843 A29.0134 B-0.2593 
N449 X195.689 Y4.816 Z9.804 A30.0453 B-0.2609 
N450 X195.684 Y4.494 Z9.747 A30.9392 B-0.2620 
N451 X195.679 Y4.163 Z9.674 A31.6942 B-0.2630 
N452 X195.673 Y3.823 Z9.584 A32.3140 B-0.2636 
N453 X195.668 Y3.476 Z9.479 A32.8077 B-0.2642 
N454 X195.661 Y3.122 Z9.362 A33.1865 B-0.2646 
N455 X195.655 Y2.763 Z9.234 A33.4605 B-0.2649 
N456 X195.649 Y2.400 Z9.096 A33.6359 B-0.2651 
N457 X195.642 Y2.035 Z8.950 A33.7140 B-0.2652 
N458 X195.635 Y1.668 Z8.796 A33.6926 B-0.2652 
N459 X195.628 Y1.302 Z8.637 A33.5676 B-0.2650 
N460 X195.621 Y0.939 Z8.473 A33.3347 B-0.2648 
N461 X195.614 Y0.579 Z8.305 A32.9900 B-0.2644 
N462 X195.607 Y0.223 Z8.134 A32.5314 B-0.2639 
N463 X195.601 Y-0.127 Z7.961 A31.9601 B-0.2633 
N464 X195.594 Y-0.471 Z7.789 A31.2822 B-0.2626 
N465 X195.587 Y-0.809 Z7.617 A30.5097 B-0.2620 
N466 X195.580 Y-1.142 Z7.449 A29.6607 B-0.2615 
N467 X195.573 Y-1.468 Z7.285 A28.7591 B-0.2616 
N468 X195.567 Y-1.789 Z7.129 A27.8329 B-0.2627 
N469 X195.561 Y-2.103 Z6.981 A26.9116 B-0.2650 
N470 X195.554 Y-2.411 Z6.844 A26.0220 B-0.2689 
N471 X195.548 Y-2.713 Z6.718 A25.1846 B-0.2747 
N472 X195.542 Y-3.010 Z6.605 A24.4092 B-0.2822 
N473 X195.536 Y-3.301 Z6.504 A23.6934 B-0.2911 
N474 X195.531 Y-3.588 Z6.413 A23.0234 B-0.3010 
N475 X195.525 Y-3.872 Z6.330 A22.3763 B-0.3110 
N476 X195.519 Y-4.154 Z6.255 A21.7250 B-0.3207 
N477 X195.514 Y-4.436 Z6.185 A21.0446 B-0.3292 
N478 X195.508 Y-4.718 Z6.118 A20.3186 B-0.3363 
N479 X195.503 Y-5.002 Z6.055 A19.5422 B-0.3419 
N480 X195.497 Y-5.288 Z5.995 A18.7205 B-0.3460 
N481 X195.491 Y-5.577 Z5.940 A17.8617 B-0.3488 
N482 X195.486 Y-5.868 Z5.889 A16.9692 B-0.3504 
N483 X195.481 Y-6.163 Z5.843 A16.0385 B-0.3506 
N484 X195.475 Y-6.463 Z5.801 A15.0599 B-0.3493 
N485 X195.470 Y-6.768 Z5.762 A14.0238 B-0.3465 
N486 X195.464 Y-7.079 Z5.726 A12.9252 B-0.3421 
N487 X195.459 Y-7.396 Z5.694 A11.7628 B-0.3362 
N488 X195.454 Y-7.721 Z5.666 A10.5379 B-0.3289 
N489 X195.449 Y-8.053 Z5.642 A9.2532 B-0.3204 
N490 X195.443 Y-8.393 Z5.623 A7.9125 B-0.3106 
N491 X195.438 Y-8.740 Z5.609 A6.5223 B-0.2999 
N492 X195.433 Y-9.095 Z5.601 A5.0930 B-0.2885 
N493 X195.428 Y-9.456 Z5.600 A3.6406 B-0.2766 
N494 X195.423 Y-9.823 Z5.607 A2.1844 B-0.2644 
N495 X195.418 Y-10.194 Z5.623 A0.7418 B-0.2524 
N496 X195.413 Y-10.569 Z5.649 A359.3249 B-0.2406 
N497 X195.409 Y-10.945 Z5.684 A357.9388 B-0.2291 
N498 X195.404 Y-11.322 Z5.727 A356.5830 B-0.2180 
N499 X195.400 Y-11.699 Z5.778 A355.2555 B-0.2071 
N500 X195.395 Y-12.074 Z5.837 A353.9573 B-0.1966 
N501 X195.391 Y-12.445 Z5.902 A352.6961 B-0.1864 
N502 X195.387 Y-12.811 Z5.973 A351.4875 B-0.1767 
N503 X195.383 Y-13.167 Z6.050 A350.3504 B-0.1678 
N504 X195.379 Y-13.511 Z6.132 A349.3008 B-0.1596 
N505 X195.376 Y-13.841 Z6.219 A348.3464 B-0.1525 
N506 X195.373 Y-14.155 Z6.307 A347.4881 B-0.1461 
N507 X195.370 Y-14.451 Z6.396 A346.7231 B-0.1404 
N508 X195.367 Y-14.726 Z6.483 A346.0496 B-0.1357 
N509 X195.365 Y-14.981 Z6.568 A345.4676 B-0.1316 
N510 X195.362 Y-15.212 Z6.649 A344.9760 B-0.1282 
N511 X195.360 Y-15.419 Z6.724 A344.5706 B-0.1257 
N512 X195.359 Y-15.603 Z6.794 A344.2439 B-0.1236 
N513 X195.357 Y-15.764 Z6.858 A343.9868 B-0.1221 
N514 X195.356 Y-15.904 Z6.914 A343.7930 B-0.1209 
N515 X195.354 Y-16.023 Z6.965 A343.6635 B-0.1201 
N516 X195.353 Y-16.124 Z7.012 A343.6153 B-0.1194 
N517 X195.353 Y-16.207 Z7.058 A343.6915 B-0.1189 
N518 X195.352 Y-16.272 Z7.109 A343.9739 B-0.1189 
N519 X195.352 Y-16.320 Z7.174 A344.5966 B-0.1199 
N520 X195.352 Y-16.351 Z7.266 A345.7425 B-0.1237 
N521 X195.354 Y-16.358 Z7.436 A348.2323 B-0.1337 
N522 X195.359 Y-16.343 Z7.794 A353.7837 B-0.1567 
N523 X195.366 Y-16.365 Z8.367 A2.7687 B-0.1944 
N524 X195.374 Y-16.487 Z9.000 A12.9137 B-0.2346 
N525 X195.380 Y-16.706 Z9.582 A22.7416 B-0.2598 
N526 X195.383 Y-16.985 Z10.072 A31.6509 B-0.2718 
N527 X195.384 Y-17.259 Z10.425 A38.7285 B-0.2777 
N528 X195.384 Y-17.531 Z10.704 A44.8992 B-0.2787 
N529 X195.384 Y-17.794 Z10.923 A50.3264 B-0.2771 
N530 X195.383 Y-18.046 Z11.098 A55.2054 B-0.2741 
N531 X195.382 Y-18.291 Z11.240 A59.7041 B-0.2699 
N532 X195.381 Y-18.532 Z11.357 A63.9739 B-0.2648 
N533 X195.379 Y-18.776 Z11.454 A68.1395 B-0.2587 
N534 X195.378 Y-19.026 Z11.533 A72.3198 B-0.2515 
N535 X195.375 Y-19.290 Z11.596 A76.6339 B-0.2431 
N536 X195.373 Y-19.575 Z11.641 A81.2147 B-0.2330 
N537 X195.370 Y-19.889 Z11.665 A86.2083 B-0.2207 
N538 X195.366 Y-20.241 Z11.659 A91.7875 B-0.2049 
N539 X195.361 Y-20.638 Z11.612 A98.1099 B-0.1836 
N540 X195.354 Y-21.125 Z11.494 A106.0351 B-0.1546 
N541 X195.345 Y-21.696 Z11.258 A115.7749 B-0.1136 
N542 X195.332 Y-22.261 Z10.896 A126.3661 B-0.0564 
N543 X195.319 Y-22.777 Z10.400 A137.6531 B0.0016 
N544 X195.311 Y-23.080 Z9.968 A145.9353 B0.0404 
N545 X195.307 Y-23.187 Z9.729 A149.9697 B0.0592 
N546 X195.305 Y-23.201 Z9.607 A151.5925 B0.0668 
N547 X195.305 Y-23.173 Z9.537 A152.1731 B0.0695 
N548 X195.305 Y-23.122 Z9.480 A152.3500 B0.0706 
N549 X195.305 Y-23.055 Z9.419 A152.4234 B0.0708 
N550 X195.306 Y-22.974 Z9.348 A152.4724 B0.0710 
N551 X195.306 Y-22.876 Z9.265 A152.5080 B0.0710 
N552 X195.307 Y-22.761 Z9.168 A152.5388 B0.0711 
N553 X195.308 Y-22.628 Z9.055 A152.5700 B0.0712 
N554 X195.308 Y-22.475 Z8.927 A152.6044 B0.0714 
N555 X195.309 Y-22.302 Z8.782 A152.6438 B0.0716 
N556 X195.311 Y-22.109 Z8.620 A152.6896 B0.0717 
N557 X195.312 Y-21.896 Z8.441 A152.7433 B0.0720 
N558 X195.313 Y-21.664 Z8.247 A152.8070 B0.0722 
N559 X195.315 Y-21.414 Z8.036 A152.8830 B0.0726 
N560 X195.316 Y-21.146 Z7.811 A152.9741 B0.0730 
N561 X195.318 Y-20.863 Z7.574 A153.0827 B0.0734 
N562 X195.319 Y-20.567 Z7.324 A153.2107 B0.0740 
N563 X195.321 Y-20.258 Z7.065 A153.3594 B0.0747 
N564 X195.323 Y-19.940 Z6.797 A153.5291 B0.0755 
N565 X195.325 Y-19.613 Z6.522 A153.7203 B0.0763 
N566 X195.327 Y-19.279 Z6.243 A153.9333 B0.0773 
N567 X195.329 Y-18.941 Z5.960 A154.1681 B0.0784 
N568 X195.331 Y-18.598 Z5.675 A154.4253 B0.0795 
N569 X195.333 Y-18.254 Z5.388 A154.7059 B0.0808 
N570 X195.335 Y-17.908 Z5.102 A155.0114 B0.0822 
N571 X195.337 Y-17.561 Z4.816 A155.3441 B0.0836 
N572 X195.339 Y-17.214 Z4.531 A155.7063 B0.0853 
N573 X195.341 Y-16.868 Z4.248 A156.0994 B0.0870 
N574 X195.343 Y-16.523 Z3.967 A156.5244 B0.0889 
N575 X195.345 Y-16.180 Z3.689 A156.9812 B0.0910 
N576 X195.347 Y-15.838 Z3.414 A157.4703 B0.0932 
N577 X195.349 Y-15.498 Z3.142 A157.9919 B0.0955 
N578 X195.351 Y-15.160 Z2.874 A158.5468 B0.0980 
N579 X195.353 Y-14.824 Z2.611 A159.1361 B0.1006 
N580 X195.355 Y-14.490 Z2.351 A159.7607 B0.1033 
N581 X195.357 Y-14.159 Z2.095 A160.4221 B0.1062 
N582 X195.359 Y-13.830 Z1.844 A161.1215 B0.1093 
N583 X195.362 Y-13.503 Z1.598 A161.8606 B0.1125 
N584 X195.364 Y-13.179 Z1.356 A162.6410 B0.1158 
N585 X195.366 Y-12.857 Z1.118 A163.4649 B0.1193 
N586 X195.368 Y-12.538 Z0.886 A164.3351 B0.1230 
N587 X195.370 Y-12.221 Z0.658 A165.2547 B0.1269 
N588 X195.372 Y-11.908 Z0.435 A166.2269 B0.1310 
N589 X195.374 Y-11.596 Z0.217 A167.2539 B0.1352 
N590 X195.376 Y-11.288 Z0.004 A168.3365 B0.1397 
N591 X195.378 Y-10.981 Z-0.204 A169.4740 B0.1444 
N592 X195.381 Y-10.678 Z-0.407 A170.6646 B0.1492 
N593 X195.383 Y-10.376 Z-0.605 A171.9066 B0.1541 
N594 X195.385 Y-10.076 Z-0.796 A173.1993 B0.1591 
N595 X195.387 Y-9.779 Z-0.982 A174.5428 B0.1643 
N596 X195.389 Y-9.483 Z-1.162 A175.9379 B0.1696 
N597 X195.391 Y-9.189 Z-1.337 A177.3861 B0.1749 
N598 X195.394 Y-8.896 Z-1.506 A178.8884 B0.1804 
N599 X195.396 Y-8.605 Z-1.669 A180.4456 B0.1859 
N600 X195.398 Y-8.315 Z-1.827 A182.0581 B0.1915 
N601 X195.401 Y-8.026 Z-1.979 A183.7258 B0.1971 
N602 X195.403 Y-7.738 Z-2.125 A185.4480 B0.2027 
N603 X195.405 Y-7.450 Z-2.265 A187.2234 B0.2083 
N604 X195.408 Y-7.162 Z-2.398 A189.0503 B0.2139 
N605 X195.410 Y-6.874 Z-2.525 A190.9264 B0.2194 
N606 X195.413 Y-6.585 Z-2.646 A192.8491 B0.2248 
N607 X195.415 Y-6.295 Z-2.759 A194.8155 B0.2300 
N608 X195.418 Y-6.005 Z-2.865 A196.8220 B0.2351 
N609 X195.421 Y-5.713 Z-2.963 A198.8644 B0.2399 
N610 X195.424 Y-5.420 Z-3.053 A200.9383 B0.2446 
N611 X195.427 Y-5.126 Z-3.134 A203.0387 B0.2489 
N612 X195.430 Y-4.830 Z-3.205 A205.1608 B0.2530 
N613 X195.433 Y-4.533 Z-3.267 A207.2995 B0.2567 
N614 X195.436 Y-4.234 Z-3.318 A209.4496 B0.2601 
N615 X195.440 Y-3.934 Z-3.359 A211.6058 B0.2631 
N616 X195.443 Y-3.633 Z-3.388 A213.7626 B0.2657 
N617 X195.447 Y-3.331 Z-3.406 A215.9144 B0.2680 
N618 X195.451 Y-3.028 Z-3.412 A218.0556 B0.2698 
N619 X195.454 Y-2.725 Z-3.405 A220.1810 B0.2713 
N620 X195.459 Y-2.423 Z-3.385 A222.2858 B0.2724 
N621 X195.463 Y-2.120 Z-3.351 A224.3655 B0.2731 
N622 X195.467 Y-1.819 Z-3.305 A226.4157 B0.2734 
N623 X195.471 Y-1.519 Z-3.245 A228.4324 B0.2734 
N624 X195.476 Y-1.221 Z-3.171 A230.4119 B0.2730 
N625 X195.481 Y-0.926 Z-3.084 A232.3510 B0.2723 
N626 X195.485 Y-0.633 Z-2.983 A234.2469 B0.2713 
N627 X195.490 Y-0.344 Z-2.868 A236.0975 B0.2701 
N628 X195.495 Y-0.059 Z-2.741 A237.9010 B0.2686 
N629 X195.500 Y0.222 Z-2.600 A239.6564 B0.2669 
N630 X195.506 Y0.499 Z-2.446 A241.3628 B0.2651 
N631 X195.511 Y0.770 Z-2.281 A243.0196 B0.2630 
N632 X195.516 Y1.036 Z-2.104 A244.6271 B0.2608 
N633 X195.521 Y1.295 Z-1.915 A246.1862 B0.2585 
N634 X195.527 Y1.549 Z-1.716 A247.6992 B0.2561 
N635 X195.532 Y1.796 Z-1.508 A249.1699 B0.2535 
N636 X195.537 Y2.037 Z-1.291 A250.6037 B0.2509 
N637 X195.543 Y2.272 Z-1.066 A252.0069 B0.2482 
N638 X195.548 Y2.500 Z-0.834 A253.3852 B0.2454 
N639 X195.553 Y2.721 Z-0.596 A254.7415 B0.2425 
N640 X195.559 Y2.935 Z-0.353 A256.0752 B0.2395 
N641 X195.564 Y3.141 Z-0.106 A257.3838 B0.2364 
N642 X195.569 Y3.339 Z0.144 A258.6659 B0.2333 
N643 X195.574 Y3.528 Z0.395 A259.9237 B0.2302 
N644 X195.579 Y3.710 Z0.646 A261.1650 B0.2269 
N645 X195.584 Y3.883 Z0.895 A262.4024 B0.2238 
N646 X195.588 Y4.050 Z1.141 A263.6491 B0.2204 
N647 X195.593 Y4.210 Z1.384 A264.9166 B0.2168 
N648 X195.597 Y4.364 Z1.620 A266.2122 B0.2131 
N649 X195.601 Y4.513 Z1.851 A267.5414 B0.2091 
N650 X195.605 Y4.655 Z2.074 A268.9103 B0.2050 
N651 X195.609 Y4.793 Z2.288 A270.3287 B0.2005 
N652 X195.613 Y4.927 Z2.494 A271.8062 B0.1957 
N653 X195.617 Y5.057 Z2.690 A273.3444 B0.1905 
N654 X195.620 Y5.183 Z2.877 A274.9437 B0.1851 
N655 X195.623 Y5.308 Z3.055 A276.6224 B0.1796 
N656 X195.626 Y5.434 Z3.224 A278.4205 B0.1735 
N657 X195.630 Y5.565 Z3.386 A280.3845 B0.1668 
N658 X195.633 Y5.703 Z3.543 A282.5648 B0.1590 
N659 X195.636 Y5.852 Z3.697 A285.0232 B0.1501 
N660 X195.639 Y6.017 Z3.854 A287.8320 B0.1397 
N661 X195.643 Y6.199 Z4.018 A291.0640 B0.1268 
N662 X195.647 Y6.402 Z4.196 A294.7785 B0.1114 
N663 X195.652 Y6.622 Z4.394 A299.0008 B0.0925 
N664 X195.658 Y6.854 Z4.618 A303.6985 B0.0701 
N665 X195.664 Y7.087 Z4.871 A308.7848 B0.0453 
N666 X195.670 Y7.312 Z5.151 A314.1399 B0.0184 
N667 X195.676 Y7.516 Z5.455 A319.6366 B-0.0095 
N668 X195.682 Y7.693 Z5.777 A325.1669 B-0.0366 
N669 X195.688 Y7.836 Z6.112 A330.6562 B-0.0633 
N670 X195.694 Y7.945 Z6.454 A336.0572 B-0.0888 
N671 X195.699 Y8.016 Z6.799 A341.3344 B-0.1128 
N672 X195.703 Y8.051 Z7.140 A346.4479 B-0.1354 
N673 X195.707 Y8.048 Z7.470 A351.3426 B-0.1559 
N674 X195.710 Y8.012 Z7.783 A355.9500 B-0.1741 
N675 X195.713 Y7.943 Z8.070 A0.2021 B-0.1897 
N676 X195.715 Y7.848 Z8.328 A4.0515 B-0.2024 
N677 X195.716 Y7.729 Z8.554 A7.4907 B-0.2128 
N678 X195.716 Y7.591 Z8.750 A10.5505 B-0.2212 
N679 X195.716 Y7.435 Z8.918 A13.2807 B-0.2282 
N680 X195.716 Y7.263 Z9.062 A15.7319 B-0.2342 
N681 X195.715 Y7.075 Z9.182 A17.9447 B-0.2391 
N682 X195.713 Y6.871 Z9.282 A19.9528 B-0.2433 
N683 X195.711 Y6.652 Z9.362 A21.7933 B-0.2469 
N684 X195.709 Y6.417 Z9.425 A23.5009 B-0.2502 
N685 X195.706 Y6.166 Z9.470 A25.0856 B-0.2532 
N686 X195.703 Y5.899 Z9.496 A26.5359 B-0.2556 
N687 X195.699 Y5.618 Z9.502 A27.8443 B-0.2577 
N688 X195.695 Y5.324 Z9.489 A29.0134 B-0.2593 
N689 X195.690 Y5.017 Z9.458 A30.0453 B-0.2609 
N690 X195.686 Y4.698 Z9.408 A30.9392 B-0.2620 
N691 X195.680 Y4.369 Z9.340 A31.6942 B-0.2630 
N692 X195.675 Y4.030 Z9.256 A32.3140 B-0.2636 
N693 X195.669 Y3.684 Z9.157 A32.8077 B-0.2642 
N694 X195.663 Y3.330 Z9.045 A33.1865 B-0.2646 
N695 X195.656 Y2.970 Z8.921 A33.4605 B-0.2649 
N696 X195.650 Y2.606 Z8.787 A33.6359 B-0.2651 
N697 X195.643 Y2.238 Z8.645 A33.7140 B-0.2652 
N698 X195.636 Y1.869 Z8.495 A33.6926 B-0.2652 
N699 X195.630 Y1.501 Z8.338 A33.5676 B-0.2650 
N700 X195.623 Y1.133 Z8.177 A33.3347 B-0.2648 
N701 X195.616 Y0.769 Z8.011 A32.9900 B-0.2644 
N702 X195.609 Y0.409 Z7.842 A32.5314 B-0.2639 
N703 X195.602 Y0.054 Z7.671 A31.9601 B-0.2633 
N704 X195.595 Y-0.296 Z7.500 A31.2822 B-0.2626 
N705 X195.588 Y-0.640 Z7.330 A30.5097 B-0.2620 
N706 X195.581 Y-0.979 Z7.163 A29.6607 B-0.2615 
N707 X195.575 Y-1.312 Z7.000 A28.7591 B-0.2616 
N708 X195.568 Y-1.639 Z6.845 A27.8329 B-0.2627 
N709 X195.562 Y-1.960 Z6.699 A26.9116 B-0.2650 
N710 X195.555 Y-2.274 Z6.563 A26.0220 B-0.2689 
N711 X195.549 Y-2.582 Z6.439 A25.1846 B-0.2747 
N712 X195.543 Y-2.884 Z6.328 A24.4092 B-0.2822 
N713 X195.537 Y-3.180 Z6.229 A23.6934 B-0.2911 
N714 X195.532 Y-3.472 Z6.140 A23.0234 B-0.3010 
N715 X195.526 Y-3.761 Z6.061 A22.3763 B-0.3110 
N716 X195.520 Y-4.047 Z5.988 A21.7250 B-0.3207 
N717 X195.515 Y-4.334 Z5.920 A21.0446 B-0.3292 
N718 X195.509 Y-4.621 Z5.856 A20.3186 B-0.3363 
N719 X195.504 Y-4.910 Z5.795 A19.5422 B-0.3419 
N720 X195.498 Y-5.201 Z5.739 A18.7205 B-0.3460 
N721 X195.493 Y-5.495 Z5.686 A17.8617 B-0.3488 
N722 X195.487 Y-5.791 Z5.638 A16.9692 B-0.3504 
N723 X195.482 Y-6.092 Z5.595 A16.0385 B-0.3506 
N724 X195.476 Y-6.397 Z5.555 A15.0599 B-0.3493 
N725 X195.471 Y-6.707 Z5.519 A14.0238 B-0.3465 
N726 X195.466 Y-7.024 Z5.487 A12.9252 B-0.3421 
N727 X195.460 Y-7.347 Z5.458 A11.7628 B-0.3362 
N728 X195.455 Y-7.678 Z5.433 A10.5379 B-0.3289 
N729 X195.450 Y-8.016 Z5.412 A9.2532 B-0.3204 
N730 X195.444 Y-8.361 Z5.396 A7.9125 B-0.3106 
N731 X195.439 Y-8.715 Z5.385 A6.5223 B-0.2999 
N732 X195.434 Y-9.075 Z5.381 A5.0930 B-0.2885 
N733 X195.429 Y-9.443 Z5.384 A3.6406 B-0.2766 
N734 X195.424 Y-9.815 Z5.395 A2.1844 B-0.2644 
N735 X195.419 Y-10.192 Z5.415 A0.7418 B-0.2524 
N736 X195.414 Y-10.571 Z5.445 A359.3249 B-0.2406 
N737 X195.409 Y-10.952 Z5.484 A357.9388 B-0.2291 
N738 X195.405 Y-11.333 Z5.532 A356.5830 B-0.2180 
N739 X195.400 Y-11.714 Z5.587 A355.2555 B-0.2071 
N740 X195.396 Y-12.094 Z5.650 A353.9573 B-0.1966 
N741 X195.391 Y-12.469 Z5.720 A352.6961 B-0.1864 
N742 X195.387 Y-12.837 Z5.796 A351.4875 B-0.1767 
N743 X195.383 Y-13.196 Z5.878 A350.3504 B-0.1678 
N744 X195.380 Y-13.543 Z5.965 A349.3008 B-0.1596 
N745 X195.376 Y-13.875 Z6.055 A348.3464 B-0.1525 
N746 X195.373 Y-14.190 Z6.148 A347.4881 B-0.1461 
N747 X195.370 Y-14.487 Z6.242 A346.7231 B-0.1404 
N748 X195.367 Y-14.764 Z6.334 A346.0496 B-0.1357 
N749 X195.365 Y-15.018 Z6.423 A345.4676 B-0.1316 
N750 X195.363 Y-15.250 Z6.508 A344.9760 B-0.1282 
N751 X195.361 Y-15.457 Z6.588 A344.5706 B-0.1257 
N752 X195.359 Y-15.641 Z6.662 A344.2439 B-0.1236 
N753 X195.357 Y-15.801 Z6.729 A343.9868 B-0.1221 
N754 X195.356 Y-15.940 Z6.790 A343.7930 B-0.1209 
N755 X195.355 Y-16.059 Z6.845 A343.6635 B-0.1201 
N756 X195.354 Y-16.158 Z6.896 A343.6153 B-0.1194 
N757 X195.353 Y-16.239 Z6.946 A343.6915 B-0.1189 
N758 X195.352 Y-16.303 Z7.001 A343.9739 B-0.1189 
N759 X195.352 Y-16.349 Z7.070 A344.5966 B-0.1199 
N760 X195.352 Y-16.376 Z7.165 A345.7425 B-0.1237 
N761 X195.354 Y-16.378 Z7.338 A348.2323 B-0.1337 
N762 X195.359 Y-16.353 Z7.699 A353.7837 B-0.1567 
N763 X195.367 Y-16.360 Z8.275 A2.7687 B-0.1944 
N764 X195.375 Y-16.467 Z8.914 A12.9137 B-0.2346 
N765 X195.380 Y-16.674 Z9.505 A22.7416 B-0.2598 
N766 X195.383 Y-16.944 Z10.004 A31.6509 B-0.2718 
N767 X195.384 Y-17.212 Z10.366 A38.7285 B-0.2777 
N768 X195.384 Y-17.481 Z10.653 A44.8992 B-0.2787 
N769 X195.384 Y-17.742 Z10.880 A50.3264 B-0.2771 
N770 X195.383 Y-17.995 Z11.063 A55.2054 B-0.2741 
N771 X195.382 Y-18.240 Z11.211 A59.7041 B-0.2699 
N772 X195.381 Y-18.484 Z11.333 A63.9739 B-0.2648 
N773 X195.380 Y-18.729 Z11.435 A68.1395 B-0.2587 
N774 X195.378 Y-18.983 Z11.519 A72.3198 B-0.2515 
N775 X195.376 Y-19.250 Z11.586 A76.6339 B-0.2431 
N776 X195.373 Y-19.538 Z11.635 A81.2147 B-0.2330 
N777 X195.370 Y-19.856 Z11.662 A86.2083 B-0.2207 
N778 X195.366 Y-20.212 Z11.660 A91.7875 B-0.2049 
N779 X195.361 Y-20.613 Z11.616 A98.1099 B-0.1836 
N780 X195.354 Y-21.105 Z11.499 A106.0351 B-0.1546 
N781 X195.345 Y-21.681 Z11.266 A115.7749 B-0.1136 
N782 X195.332 Y-22.251 Z10.903 A126.3661 B-0.0564 
N783 X195.319 Y-22.771 Z10.406 A137.6531 B0.0016 
N784 X195.311 Y-23.078 Z9.972 A145.9353 B0.0404 
N785 X195.307 Y-23.187 Z9.729 A149.9697 B0.0592 
N786 X195.305 Y-23.201 Z9.607 A151.5936 B0.0667 
N787 X195.305 Y-23.173 Z9.537 A152.1738 B0.0690 
N788 X195.305 Y-23.122 Z9.480 A152.3504 B0.0698 
N789 X195.305 Y-23.055 Z9.419 A152.4236 B0.0697 
N790 X195.306 Y-22.974 Z9.348 A152.4726 B0.0694 
N791 X195.307 Y-22.876 Z9.265 A152.5081 B0.0688 
N792 X195.307 Y-22.761 Z9.167 A152.5389 B0.0681 
N793 X195.308 Y-22.628 Z9.055 A152.5700 B0.0672 
N794 X195.309 Y-22.475 Z8.927 A152.6044 B0.0660 
N795 X195.311 Y-22.303 Z8.782 A152.6437 B0.0645 
N796 X195.312 Y-22.110 Z8.621 A152.6893 B0.0625 
N797 X195.314 Y-21.898 Z8.442 A152.7428 B0.0599 
N798 X195.316 Y-21.666 Z8.248 A152.8062 B0.0565 
N799 X195.318 Y-21.416 Z8.038 A152.8818 B0.0520 
N800 X195.320 Y-21.150 Z7.815 A152.9723 B0.0461 
N801 X195.323 Y-20.868 Z7.578 A153.0802 B0.0383 
N802 X195.326 Y-20.573 Z7.330 A153.2072 B0.0282 
N803 X195.330 Y-20.266 Z7.072 A153.3545 B0.0148 
N804 X195.334 Y-19.950 Z6.805 A153.5226 B-0.0023 
N805 X195.339 Y-19.625 Z6.533 A153.7117 B-0.0243 
N806 X195.344 Y-19.294 Z6.256 A153.9221 B-0.0519 
N807 X195.350 Y-18.959 Z5.975 A154.1539 B-0.0863 
N808 X195.357 Y-18.619 Z5.692 A154.4074 B-0.1280 
N809 X195.364 Y-18.278 Z5.408 A154.6835 B-0.1779 
N810 X195.371 Y-17.935 Z5.124 A154.9837 B-0.2359 
N811 X195.378 Y-17.591 Z4.841 A155.3100 B-0.3014 
N812 X195.385 Y-17.248 Z4.559 A155.6647 B-0.3733 
N813 X195.391 Y-16.905 Z4.278 A156.0494 B-0.4489 
N814 X195.395 Y-16.563 Z3.999 A156.4650 B-0.5259 
N815 X195.397 Y-16.223 Z3.723 A156.9117 B-0.6001 
N816 X195.395 Y-15.883 Z3.450 A157.3901 B-0.6683 
N817 X195.389 Y-15.546 Z3.181 A157.9006 B-0.7270 
N818 X195.379 Y-15.210 Z2.914 A158.4442 B-0.7731 
N819 X195.366 Y-14.876 Z2.652 A159.0220 B-0.8056 
N820 X195.348 Y-14.544 Z2.393 A159.6353 B-0.8237 
N821 X195.328 Y-14.215 Z2.139 A160.2855 B-0.8284 
N822 X195.305 Y-13.887 Z1.889 A160.9738 B-0.8208 
N823 X195.280 Y-13.562 Z1.643 A161.7017 B-0.8036 
N824 X195.254 Y-13.239 Z1.401 A162.4710 B-0.7786 
N825 X195.228 Y-12.918 Z1.164 A163.2836 B-0.7487 
N826 X195.203 Y-12.600 Z0.932 A164.1421 B-0.7153 
N827 X195.178 Y-12.284 Z0.704 A165.0496 B-0.6808 
N828 X195.155 Y-11.971 Z0.481 A166.0091 B-0.6459 
N829 X195.132 Y-11.660 Z0.262 A167.0232 B-0.6120 
N830 X195.111 Y-11.352 Z0.048 A168.0931 B-0.5795 
N831 X195.091 Y-11.046 Z-0.161 A169.2181 B-0.5489 
N832 X195.073 Y-10.742 Z-0.364 A170.3969 B-0.5203 
N833 X195.056 Y-10.440 Z-0.563 A171.6276 B-0.4939 
N834 X195.040 Y-10.140 Z-0.755 A172.9091 B-0.4695 
N835 X195.025 Y-9.842 Z-0.942 A174.2415 B-0.4471 
N836 X195.012 Y-9.546 Z-1.124 A175.6254 B-0.4266 
N837 X194.999 Y-9.252 Z-1.300 A177.0622 B-0.4076 
N838 X194.987 Y-8.959 Z-1.470 A178.5531 B-0.3902 
N839 X194.976 Y-8.668 Z-1.634 A180.0990 B-0.3741 
N840 X194.966 Y-8.378 Z-1.793 A181.7003 B-0.3592 
N841 X194.956 Y-8.089 Z-1.946 A183.3570 B-0.3453 
N842 X194.947 Y-7.800 Z-2.094 A185.0686 B-0.3323 
N843 X194.938 Y-7.512 Z-2.235 A186.8339 B-0.3203 
N844 X194.930 Y-7.224 Z-2.370 A188.6512 B-0.3089 
N845 X194.922 Y-6.935 Z-2.499 A190.5185 B-0.2983 
N846 X194.915 Y-6.646 Z-2.621 A192.4332 B-0.2858 
N847 X194.906 Y-6.357 Z-2.736 A194.3924 B-0.2699 
N848 X194.898 Y-6.067 Z-2.843 A196.3927 B-0.2517 
N849 X194.891 Y-5.775 Z-2.943 A198.4299 B-0.2377 
N850 X194.885 Y-5.482 Z-3.035 A200.4997 B-0.2289 
N851 X194.880 Y-5.188 Z-3.117 A202.5972 B-0.2240 
N852 X194.876 Y-4.892 Z-3.191 A204.7174 B-0.2196 
N853 X194.871 Y-4.595 Z-3.255 A206.8553 B-0.2155 
N854 X194.867 Y-4.296 Z-3.309 A209.0058 B-0.2117 
N855 X194.863 Y-3.996 Z-3.352 A211.1635 B-0.2084 
N856 X194.859 Y-3.695 Z-3.383 A213.3230 B-0.2054 
N857 X194.855 Y-3.393 Z-3.404 A215.4787 B-0.2028 
N858 X194.851 Y-3.090 Z-3.412 A217.6248 B-0.2006 
N859 X194.848 Y-2.787 Z-3.407 A219.7561 B-0.1989 
N860 X194.844 Y-2.483 Z-3.390 A221.8677 B-0.1975 
N861 X194.841 Y-2.181 Z-3.359 A223.9550 B-0.1965 
N862 X194.838 Y-1.879 Z-3.315 A226.0135 B-0.1960 
N863 X194.834 Y-1.578 Z-3.258 A228.0393 B-0.1958 
N864 X194.831 Y-1.280 Z-3.187 A230.0284 B-0.1959 
N865 X194.828 Y-0.983 Z-3.102 A231.9776 B-0.1964 
N866 X194.825 Y-0.690 Z-3.004 A233.8840 B-0.1971 
N867 X194.822 Y-0.400 Z-2.892 A235.7453 B-0.1982 
N868 X194.819 Y-0.113 Z-2.766 A237.5597 B-0.1995 
N869 X194.815 Y0.169 Z-2.628 A239.3261 B-0.2010 
N870 X194.812 Y0.447 Z-2.477 A241.0434 B-0.2027 
N871 X194.809 Y0.719 Z-2.313 A242.7112 B-0.2046 
N872 X194.806 Y0.986 Z-2.138 A244.3293 B-0.2067 
N873 X194.802 Y1.247 Z-1.951 A245.8988 B-0.2089 
N874 X194.799 Y1.502 Z-1.754 A247.4214 B-0.2112 
N875 X194.796 Y1.751 Z-1.547 A248.9008 B-0.2136 
N876 X194.792 Y1.993 Z-1.331 A250.3421 B-0.2162 
N877 X194.789 Y2.229 Z-1.107 A251.7516 B-0.2188 
N878 X194.785 Y2.459 Z-0.876 A253.1352 B-0.2215 
N879 X194.781 Y2.681 Z-0.639 A254.4964 B-0.2243 
N880 X194.778 Y2.897 Z-0.397 A255.8354 B-0.2273 
N881 X194.774 Y3.105 Z-0.151 A257.1497 B-0.2302 
N882 X194.770 Y3.304 Z0.099 A258.4374 B-0.2334 
N883 X194.767 Y3.495 Z0.350 A259.7000 B-0.2364 
N884 X194.763 Y3.678 Z0.601 A260.9443 B-0.2395 
N885 X194.760 Y3.853 Z0.851 A262.1822 B-0.2428 
N886 X194.756 Y4.021 Z1.098 A263.4272 B-0.2462 
N887 X194.753 Y4.183 Z1.341 A264.6912 B-0.2497 
N888 X194.749 Y4.338 Z1.579 A265.9822 B-0.2536 
N889 X194.746 Y4.487 Z1.811 A267.3060 B-0.2574 
N890 X194.743 Y4.631 Z2.035 A268.6682 B-0.2618 
N891 X194.740 Y4.769 Z2.252 A270.0781 B-0.2661 
N892 X194.738 Y4.904 Z2.459 A271.5460 B-0.2711 
N893 X194.736 Y5.035 Z2.657 A273.0750 B-0.2763 
N894 X194.734 Y5.162 Z2.846 A274.6644 B-0.2818 
N895 X194.732 Y5.287 Z3.026 A276.3285 B-0.2876 
N896 X194.730 Y5.413 Z3.196 A278.1046 B-0.2938 
N897 X194.729 Y5.542 Z3.360 A280.0392 B-0.3008 
N898 X194.728 Y5.679 Z3.517 A282.1816 B-0.3087 
N899 X194.728 Y5.826 Z3.672 A284.5920 B-0.3178 
N900 X194.728 Y5.988 Z3.829 A287.3416 B-0.3285 
N901 X194.729 Y6.168 Z3.991 A290.5047 B-0.3416 
N902 X194.731 Y6.368 Z4.167 A294.1446 B-0.3573 
N903 X194.733 Y6.586 Z4.362 A298.2944 B-0.3768 
N904 X194.737 Y6.817 Z4.582 A302.9316 B-0.3996 
N905 X194.741 Y7.051 Z4.831 A307.9768 B-0.4255 
N906 X194.745 Y7.278 Z5.108 A313.3130 B-0.4537 
N907 X194.750 Y7.486 Z5.409 A318.8114 B-0.4829 
N908 X194.755 Y7.668 Z5.730 A324.3584 B-0.5114 
N909 X194.759 Y7.817 Z6.065 A329.8737 B-0.5396 
N910 X194.763 Y7.930 Z6.408 A335.3057 B-0.5668 
N911 X194.766 Y8.007 Z6.753 A340.6177 B-0.5922 
N912 X194.769 Y8.046 Z7.096 A345.7704 B-0.6162 
N913 X194.771 Y8.048 Z7.429 A350.7105 B-0.6381 
N914 X194.773 Y8.015 Z7.745 A355.3700 B-0.6574 
N915 X194.773 Y7.950 Z8.036 A359.6797 B-0.6742 
N916 X194.773 Y7.858 Z8.298 A3.5882 B-0.6880 
N917 X194.771 Y7.741 Z8.529 A7.0827 B-0.6992 
N918 X194.768 Y7.605 Z8.728 A10.1909 B-0.7081 
N919 X194.764 Y7.451 Z8.900 A12.9615 B-0.7160 
N920 X194.760 Y7.280 Z9.046 A15.4463 B-0.7223 
N921 X194.754 Y7.094 Z9.169 A17.6876 B-0.7276 
N922 X194.748 Y6.892 Z9.271 A19.7196 B-0.7322 
N923 X194.740 Y6.675 Z9.353 A21.5788 B-0.7359 
N924 X194.732 Y6.441 Z9.418 A23.3017 B-0.7398 
N925 X194.722 Y6.192 Z9.465 A24.9017 B-0.7432 
N926 X194.712 Y5.927 Z9.493 A26.3687 B-0.7458 
N927 X194.700 Y5.647 Z9.501 A27.6937 B-0.7485 
N928 X194.688 Y5.354 Z9.491 A28.8788 B-0.7501 
N929 X194.674 Y5.048 Z9.461 A29.9264 B-0.7523 
N930 X194.660 Y4.731 Z9.413 A30.8362 B-0.7533 
N931 X194.645 Y4.403 Z9.348 A31.6069 B-0.7550 
N932 X194.628 Y4.065 Z9.265 A32.2415 B-0.7556 
N933 X194.612 Y3.719 Z9.168 A32.7488 B-0.7568 
N934 X194.594 Y3.366 Z9.057 A33.1400 B-0.7574 
N935 X194.576 Y3.007 Z8.934 A33.4253 B-0.7581 
N936 X194.557 Y2.643 Z8.801 A33.6115 B-0.7586 
N937 X194.538 Y2.276 Z8.660 A33.7006 B-0.7590 
N938 X194.519 Y1.907 Z8.511 A33.6905 B-0.7594 
N939 X194.499 Y1.538 Z8.355 A33.5773 B-0.7596 
N940 X194.479 Y1.171 Z8.194 A33.3567 B-0.7597 
N941 X194.460 Y0.806 Z8.028 A33.0245 B-0.7597 
N942 X194.440 Y0.446 Z7.860 A32.5783 B-0.7595 
N943 X194.420 Y0.090 Z7.689 A32.0186 B-0.7593 
N944 X194.401 Y-0.261 Z7.518 A31.3504 B-0.7591 
N945 X194.381 Y-0.606 Z7.347 A30.5840 B-0.7592 
N946 X194.362 Y-0.945 Z7.179 A29.7357 B-0.7601 
N947 X194.343 Y-1.279 Z7.015 A28.8276 B-0.7625 
N948 X194.325 Y-1.607 Z6.858 A27.8865 B-0.7676 
N949 X194.307 Y-1.930 Z6.709 A26.9427 B-0.7765 
N950 X194.289 Y-2.245 Z6.571 A26.0262 B-0.7908 
N951 X194.272 Y-2.555 Z6.444 A25.1622 B-0.8111 
N952 X194.255 Y-2.858 Z6.331 A24.3651 B-0.8380 
N953 X194.239 Y-3.155 Z6.230 A23.6352 B-0.8706 
N954 X194.223 Y-3.448 Z6.140 A22.9586 B-0.9075 
N955 X194.207 Y-3.737 Z6.060 A22.3122 B-0.9467 
N956 X194.191 Y-4.024 Z5.987 A21.6702 B-0.9863 
N957 X194.175 Y-4.310 Z5.920 A21.0103 B-1.0245 
N958 X194.160 Y-4.596 Z5.858 A20.3153 B-1.0600 
N959 X194.144 Y-4.884 Z5.799 A19.5737 B-1.0921 
N960 X194.128 Y-5.174 Z5.743 A18.7794 B-1.1202 
N961 X194.113 Y-5.468 Z5.691 A17.9296 B-1.1440 
N962 X194.097 Y-5.765 Z5.641 A17.0219 B-1.1633 
N963 X194.081 Y-6.067 Z5.595 A16.0522 B-1.1778 
N964 X194.064 Y-6.373 Z5.551 A15.0173 B-1.1873 
N965 X194.048 Y-6.686 Z5.510 A13.9190 B-1.1918 
N966 X194.032 Y-7.005 Z5.474 A12.7669 B-1.1918 
N967 X194.015 Y-7.329 Z5.443 A11.5756 B-1.1882 
N968 X193.999 Y-7.660 Z5.418 A10.3566 B-1.1814 
N969 X193.982 Y-7.996 Z5.399 A9.1114 B-1.1715 
N970 X193.965 Y-8.339 Z5.386 A7.8307 B-1.1580 
N971 X193.949 Y-8.689 Z5.378 A6.5021 B-1.1401 
N972 X193.931 Y-9.047 Z5.376 A5.1217 B-1.1178 
N973 X193.914 Y-9.413 Z5.380 A3.7000 B-1.0915 
N974 X193.897 Y-9.784 Z5.391 A2.2585 B-1.0623 
N975 X193.880 Y-10.160 Z5.411 A0.8209 B-1.0317 
N976 X193.862 Y-10.539 Z5.440 A359.4052 B-1.0005 
N977 X193.845 Y-10.920 Z5.479 A358.0212 B-0.9691 
N978 X193.828 Y-11.301 Z5.526 A356.6716 B-0.9379 
N979 X193.811 Y-11.681 Z5.582 A355.3553 B-0.9067 
N980 X193.794 Y-12.060 Z5.645 A354.0710 B-0.8754 
N981 X193.778 Y-12.434 Z5.715 A352.8211 B-0.8442 
N982 X193.761 Y-12.803 Z5.791 A351.6150 B-0.8133 
N983 X193.746 Y-13.163 Z5.872 A350.4691 B-0.7840 
N984 X193.730 Y-13.512 Z5.958 A349.4014 B-0.7557 
N985 X193.716 Y-13.846 Z6.048 A348.4249 B-0.7305 
N986 X193.702 Y-14.164 Z6.140 A347.5458 B-0.7071 
N987 X193.688 Y-14.463 Z6.233 A346.7646 B-0.6864 
N988 X193.676 Y-14.742 Z6.325 A346.0799 B-0.6689 
N989 X193.665 Y-14.999 Z6.415 A345.4907 B-0.6538 
N990 X193.655 Y-15.232 Z6.501 A344.9944 B-0.6418 
N991 X193.645 Y-15.442 Z6.581 A344.5855 B-0.6334 
N992 X193.637 Y-15.627 Z6.656 A344.2556 B-0.6265 
N993 X193.630 Y-15.790 Z6.724 A343.9952 B-0.6228 
N994 X193.623 Y-15.931 Z6.786 A343.7971 B-0.6196 
N995 X193.618 Y-16.051 Z6.842 A343.6614 B-0.6183 
N996 X193.613 Y-16.152 Z6.892 A343.6029 B-0.6171 
N997 X193.609 Y-16.235 Z6.942 A343.6610 B-0.6161 
N998 X193.606 Y-16.301 Z6.996 A343.9120 B-0.6165 
N999 X193.604 Y-16.349 Z7.062 A344.4814 B-0.6170 
N1000 X193.602 Y-16.378 Z7.152 A345.5423 B-0.6210 
N1001 X193.603 Y-16.382 Z7.316 A347.8773 B-0.6311 
N1002 X193.607 Y-16.358 Z7.662 A353.1849 B-0.6546 
N1003 X193.614 Y-16.360 Z8.227 A1.9909 B-0.6942 
N1004 X193.622 Y-16.459 Z8.866 A12.1226 B-0.7390 
N1005 X193.627 Y-16.659 Z9.464 A22.0288 B-0.7659 
N1006 X193.630 Y-16.927 Z9.971 A31.0524 B-0.7801 
N1007 X193.631 Y-17.196 Z10.341 A38.2383 B-0.7872 
N1008 X193.631 Y-17.467 Z10.634 A44.4988 B-0.7879 
N1009 X193.630 Y-17.729 Z10.865 A49.9949 B-0.7861 
N1010 X193.629 Y-17.983 Z11.051 A54.9274 B-0.7827 
N1011 X193.628 Y-18.230 Z11.201 A59.4654 B-0.7782 
N1012 X193.626 Y-18.474 Z11.325 A63.7650 B-0.7725 
N1013 X193.624 Y-18.721 Z11.428 A67.9530 B-0.7658 
N1014 X193.622 Y-18.975 Z11.513 A72.1506 B-0.7578 
N1015 X193.619 Y-19.242 Z11.581 A76.4782 B-0.7485 
N1016 X193.616 Y-19.531 Z11.631 A81.0702 B-0.7373 
N1017 X193.613 Y-19.849 Z11.659 A86.0733 B-0.7237 
N1018 X193.608 Y-20.205 Z11.657 A91.6614 B-0.7065 
N1019 X193.603 Y-20.607 Z11.614 A97.9927 B-0.6835 
N1020 X193.594 Y-21.099 Z11.498 A105.9288 B-0.6507 
N1021 X193.584 Y-21.675 Z11.266 A115.6855 B-0.6066 
N1022 X193.569 Y-22.247 Z10.904 A126.2989 B-0.5443 
N1023 X193.554 Y-22.769 Z10.406 A137.6180 B-0.4806 
N1024 X193.544 Y-23.077 Z9.971 A145.9243 B-0.4383 
N1025 X193.538 Y-23.186 Z9.728 A149.9664 B-0.4176 
N1026 X193.535 Y-23.200 Z9.607 A151.5895 B-0.4096 
N1027 X193.533 Y-23.172 Z9.536 A152.1701 B-0.4062 
N1028 X193.531 Y-23.121 Z9.479 A152.3469 B-0.4057 
N1029 X193.528 Y-23.054 Z9.418 A152.4203 B-0.4049 
N1030 X193.525 Y-22.973 Z9.347 A152.4693 B-0.4051 
N1031 X193.522 Y-22.875 Z9.264 A152.5049 B-0.4048 
N1032 X193.518 Y-22.760 Z9.167 A152.5357 B-0.4047 
N1033 X193.513 Y-22.627 Z9.054 A152.5669 B-0.4045 
N1034 X193.508 Y-22.474 Z8.926 A152.6013 B-0.4042 
N1035 X193.502 Y-22.301 Z8.781 A152.6407 B-0.4041 
N1036 X193.496 Y-22.108 Z8.619 A152.6865 B-0.4036 
N1037 X193.488 Y-21.895 Z8.440 A152.7402 B-0.4035 
N1038 X193.480 Y-21.663 Z8.246 A152.8039 B-0.4029 
N1039 X193.472 Y-21.412 Z8.035 A152.8800 B-0.4025 
N1040 X193.463 Y-21.145 Z7.810 A152.9711 B-0.4021 
N1041 X193.453 Y-20.862 Z7.573 A153.0798 B-0.4013 
N1042 X193.443 Y-20.565 Z7.323 A153.2079 B-0.4007 
N1043 X193.432 Y-20.257 Z7.063 A153.3565 B-0.3998 
N1044 X193.422 Y-19.938 Z6.796 A153.5264 B-0.3988 
N1045 X193.410 Y-19.611 Z6.521 A153.7177 B-0.3977 
N1046 X193.399 Y-19.278 Z6.242 A153.9307 B-0.3965 
N1047 X193.388 Y-18.939 Z5.959 A154.1656 B-0.3952 
N1048 X193.376 Y-18.597 Z5.673 A154.4229 B-0.3938 
N1049 X193.365 Y-18.252 Z5.387 A154.7036 B-0.3923 
N1050 X193.353 Y-17.906 Z5.100 A155.0092 B-0.3906 
N1051 X193.341 Y-17.559 Z4.814 A155.3421 B-0.3889 
N1052 X193.330 Y-17.212 Z4.529 A155.7044 B-0.3869 
N1053 X193.318 Y-16.867 Z4.246 A156.0978 B-0.3848 
N1054 X193.307 Y-16.522 Z3.965 A156.5229 B-0.3826 
N1055 X193.296 Y-16.178 Z3.687 A156.9799 B-0.3802 
N1056 X193.285 Y-15.836 Z3.412 A157.4692 B-0.3776 
N1057 X193.274 Y-15.496 Z3.141 A157.9910 B-0.3749 
N1058 X193.263 Y-15.158 Z2.873 A158.5462 B-0.3721 
N1059 X193.252 Y-14.822 Z2.609 A159.1357 B-0.3691 
N1060 X193.242 Y-14.488 Z2.349 A159.7607 B-0.3659 
N1061 X193.232 Y-14.157 Z2.094 A160.4223 B-0.3626 
N1062 X193.221 Y-13.828 Z1.843 A161.1221 B-0.3590 
N1063 X193.211 Y-13.501 Z1.596 A161.8614 B-0.3554 
N1064 X193.202 Y-13.177 Z1.354 A162.6421 B-0.3515 
N1065 X193.192 Y-12.855 Z1.117 A163.4664 B-0.3475 
N1066 X193.183 Y-12.536 Z0.885 A164.3370 B-0.3433 
N1067 X193.173 Y-12.219 Z0.657 A165.2570 B-0.3389 
N1068 X193.164 Y-11.906 Z0.434 A166.2297 B-0.3343 
N1069 X193.156 Y-11.594 Z0.216 A167.2571 B-0.3295 
N1070 X193.147 Y-11.286 Z0.002 A168.3402 B-0.3245 
N1071 X193.139 Y-10.979 Z-0.206 A169.4781 B-0.3192 
N1072 X193.130 Y-10.675 Z-0.409 A170.6691 B-0.3139 
N1073 X193.122 Y-10.374 Z-0.606 A171.9116 B-0.3083 
N1074 X193.115 Y-10.074 Z-0.797 A173.2048 B-0.3027 
N1075 X193.107 Y-9.777 Z-0.983 A174.5487 B-0.2969 
N1076 X193.100 Y-9.481 Z-1.163 A175.9443 B-0.2911 
N1077 X193.093 Y-9.187 Z-1.338 A177.3929 B-0.2851 
N1078 X193.086 Y-8.895 Z-1.507 A178.8957 B-0.2791 
N1079 X193.079 Y-8.604 Z-1.670 A180.4534 B-0.2730 
N1080 X193.072 Y-8.314 Z-1.828 A182.0663 B-0.2669 
N1081 X193.066 Y-8.025 Z-1.980 A183.7345 B-0.2607 
N1082 X193.060 Y-7.736 Z-2.125 A185.4571 B-0.2546 
N1083 X193.054 Y-7.448 Z-2.265 A187.2329 B-0.2484 
N1084 X193.048 Y-7.160 Z-2.399 A189.0601 B-0.2424 
N1085 X193.043 Y-6.872 Z-2.526 A190.9366 B-0.2364 
N1086 X193.038 Y-6.583 Z-2.647 A192.8597 B-0.2306 
N1087 X193.032 Y-6.294 Z-2.760 A194.8263 B-0.2249 
N1088 X193.028 Y-6.003 Z-2.866 A196.8330 B-0.2194 
N1089 X193.023 Y-5.712 Z-2.964 A198.8756 B-0.2142 
N1090 X193.018 Y-5.419 Z-3.053 A200.9497 B-0.2092 
N1091 X193.014 Y-5.125 Z-3.134 A203.0503 B-0.2044 
N1092 X193.010 Y-4.829 Z-3.206 A205.1725 B-0.2000 
N1093 X193.006 Y-4.532 Z-3.267 A207.3112 B-0.1960 
N1094 X193.002 Y-4.233 Z-3.319 A209.4613 B-0.1923 
N1095 X192.998 Y-3.933 Z-3.359 A211.6175 B-0.1889 
N1096 X192.995 Y-3.632 Z-3.389 A213.7743 B-0.1860 
N1097 X192.991 Y-3.330 Z-3.406 A215.9260 B-0.1834 
N1098 X192.988 Y-3.027 Z-3.412 A218.0670 B-0.1813 
N1099 X192.985 Y-2.724 Z-3.405 A220.1923 B-0.1796 
N1100 X192.982 Y-2.421 Z-3.385 A222.2969 B-0.1782 
N1101 X192.979 Y-2.119 Z-3.351 A224.3764 B-0.1773 
N1102 X192.976 Y-1.818 Z-3.305 A226.4264 B-0.1767 
N1103 X192.973 Y-1.518 Z-3.245 A228.4429 B-0.1765 
N1104 X192.970 Y-1.220 Z-3.171 A230.4222 B-0.1766 
N1105 X192.968 Y-0.925 Z-3.084 A232.3611 B-0.1771 
N1106 X192.965 Y-0.632 Z-2.983 A234.2568 B-0.1779 
N1107 X192.962 Y-0.343 Z-2.868 A236.1071 B-0.1789 
N1108 X192.959 Y-0.058 Z-2.740 A237.9104 B-0.1803 
N1109 X192.957 Y0.224 Z-2.599 A239.6656 B-0.1818 
N1110 X192.954 Y0.500 Z-2.446 A241.3717 B-0.1836 
N1111 X192.951 Y0.771 Z-2.280 A243.0284 B-0.1855 
N1112 X192.949 Y1.037 Z-2.103 A244.6356 B-0.1877 
N1113 X192.946 Y1.297 Z-1.914 A246.1946 B-0.1900 
N1114 X192.943 Y1.550 Z-1.715 A247.7074 B-0.1924 
N1115 X192.940 Y1.798 Z-1.507 A249.1779 B-0.1949 
N1116 X192.937 Y2.039 Z-1.290 A250.6115 B-0.1976 
N1117 X192.934 Y2.273 Z-1.064 A252.0146 B-0.2004 
N1118 X192.931 Y2.501 Z-0.832 A253.3928 B-0.2033 
N1119 X192.928 Y2.722 Z-0.594 A254.7490 B-0.2064 
N1120 X192.924 Y2.936 Z-0.351 A256.0826 B-0.2096 
N1121 X192.921 Y3.142 Z-0.105 A257.3912 B-0.2127 
N1122 X192.918 Y3.340 Z0.145 A258.6731 B-0.2162 
N1123 X192.915 Y3.529 Z0.396 A259.9308 B-0.2194 
N1124 X192.912 Y3.711 Z0.647 A261.1721 B-0.2228 
N1125 X192.908 Y3.884 Z0.896 A262.4094 B-0.2265 
N1126 X192.905 Y4.051 Z1.143 A263.6563 B-0.2302 
N1127 X192.902 Y4.211 Z1.385 A264.9239 B-0.2342 
N1128 X192.899 Y4.365 Z1.622 A266.2196 B-0.2386 
N1129 X192.897 Y4.513 Z1.852 A267.5490 B-0.2430 
N1130 X192.894 Y4.656 Z2.075 A268.9181 B-0.2479 
N1131 X192.892 Y4.794 Z2.290 A270.3367 B-0.2531 
N1132 X192.890 Y4.927 Z2.495 A271.8145 B-0.2587 
N1133 X192.888 Y5.057 Z2.692 A273.3529 B-0.2648 
N1134 X192.886 Y5.184 Z2.879 A274.9524 B-0.2711 
N1135 X192.885 Y5.309 Z3.056 A276.6314 B-0.2780 
N1136 X192.883 Y5.435 Z3.225 A278.4302 B-0.2856 
N1137 X192.883 Y5.565 Z3.387 A280.3950 B-0.2943 
N1138 X192.882 Y5.704 Z3.544 A282.5763 B-0.3041 
N1139 X192.882 Y5.853 Z3.699 A285.0362 B-0.3157 
N1140 X192.883 Y6.018 Z3.856 A287.8466 B-0.3294 
N1141 X192.884 Y6.200 Z4.020 A291.0805 B-0.3456 
N1142 X192.886 Y6.403 Z4.198 A294.7971 B-0.3648 
N1143 X192.889 Y6.623 Z4.396 A299.0213 B-0.3876 
N1144 X192.893 Y6.855 Z4.621 A303.7203 B-0.4129 
N1145 X192.898 Y7.088 Z4.873 A308.8073 B-0.4404 
N1146 X192.903 Y7.312 Z5.153 A314.1624 B-0.4691 
N1147 X192.909 Y7.516 Z5.457 A319.6584 B-0.4977 
N1148 X192.914 Y7.692 Z5.780 A325.1876 B-0.5249 
N1149 X192.918 Y7.835 Z6.115 A330.6755 B-0.5518 
N1150 X192.923 Y7.943 Z6.457 A336.0751 B-0.5774 
N1151 X192.927 Y8.014 Z6.802 A341.3508 B-0.6016 
N1152 X192.930 Y8.048 Z7.142 A346.4628 B-0.6249 
N1153 X192.932 Y8.046 Z7.473 A351.3557 B-0.6466 
N1154 X192.934 Y8.008 Z7.785 A355.9612 B-0.6664 
N1155 X192.934 Y7.940 Z8.072 A0.2112 B-0.6841 
N1156 X192.934 Y7.844 Z8.330 A4.0583 B-0.6991 
N1157 X192.932 Y7.725 Z8.555 A7.4953 B-0.7121 
N1158 X192.929 Y7.586 Z8.751 A10.5533 B-0.7225 
N1159 X192.925 Y7.430 Z8.919 A13.2819 B-0.7317 
N1160 X192.920 Y7.258 Z9.062 A15.7317 B-0.7395 
N1161 X192.914 Y7.070 Z9.182 A17.9432 B-0.7460 
N1162 X192.908 Y6.867 Z9.282 A19.9503 B-0.7516 
N1163 X192.900 Y6.648 Z9.362 A21.7899 B-0.7561 
N1164 X192.891 Y6.412 Z9.424 A23.4967 B-0.7605 
N1165 X192.881 Y6.161 Z9.469 A25.0806 B-0.7647 
N1166 X192.870 Y5.894 Z9.495 A26.5302 B-0.7678 
N1167 X192.858 Y5.614 Z9.501 A27.8379 B-0.7711 
N1168 X192.845 Y5.319 Z9.488 A29.0063 B-0.7732 
N1169 X192.831 Y5.012 Z9.456 A30.0375 B-0.7756 
N1170 X192.816 Y4.693 Z9.407 A30.9308 B-0.7772 
N1171 X192.800 Y4.364 Z9.339 A31.6853 B-0.7790 
N1172 X192.783 Y4.026 Z9.255 A32.3047 B-0.7799 
N1173 X192.766 Y3.679 Z9.156 A32.7980 B-0.7813 
N1174 X192.748 Y3.326 Z9.043 A33.1765 B-0.7820 
N1175 X192.729 Y2.966 Z8.919 A33.4502 B-0.7829 
N1176 X192.710 Y2.602 Z8.786 A33.6254 B-0.7834 
N1177 X192.690 Y2.234 Z8.643 A33.7034 B-0.7838 
N1178 X192.670 Y1.865 Z8.493 A33.6820 B-0.7841 
N1179 X192.650 Y1.497 Z8.337 A33.5571 B-0.7843 
N1180 X192.629 Y1.130 Z8.175 A33.3243 B-0.7843 
N1181 X192.609 Y0.766 Z8.010 A32.9797 B-0.7841 
N1182 X192.588 Y0.406 Z7.841 A32.5213 B-0.7838 
N1183 X192.568 Y0.051 Z7.670 A31.9501 B-0.7835 
N1184 X192.548 Y-0.299 Z7.499 A31.2721 B-0.7832 
N1185 X192.528 Y-0.643 Z7.329 A30.4985 B-0.7832 
N1186 X192.508 Y-0.982 Z7.162 A29.6470 B-0.7843 
N1187 X192.489 Y-1.315 Z6.999 A28.7402 B-0.7872 
N1188 X192.470 Y-1.642 Z6.843 A27.8051 B-0.7930 
N1189 X192.452 Y-1.963 Z6.696 A26.8709 B-0.8030 
N1190 X192.433 Y-2.278 Z6.559 A25.9658 B-0.8185 
N1191 X192.416 Y-2.586 Z6.435 A25.1132 B-0.8403 
N1192 X192.398 Y-2.888 Z6.323 A24.3274 B-0.8686 
N1193 X192.381 Y-3.185 Z6.223 A23.6096 B-0.9029 
N1194 X192.365 Y-3.476 Z6.136 A22.9473 B-0.9417 
N1195 X192.349 Y-3.765 Z6.057 A22.3152 B-0.9828 
N1196 X192.332 Y-4.051 Z5.986 A21.6818 B-1.0238 
N1197 X192.316 Y-4.337 Z5.919 A21.0173 B-1.0626 
N1198 X192.300 Y-4.623 Z5.856 A20.3025 B-1.0977 
N1199 X192.284 Y-4.912 Z5.796 A19.5319 B-1.1287 
N1200 X192.267 Y-5.203 Z5.739 A18.7105 B-1.1556 
N1201 X192.251 Y-5.497 Z5.686 A17.8447 B-1.1788 
N1202 X192.235 Y-5.794 Z5.637 A16.9340 B-1.1980 
N1203 X192.218 Y-6.096 Z5.591 A15.9688 B-1.2128 
N1204 X192.201 Y-6.403 Z5.548 A14.9373 B-1.2223 
N1205 X192.185 Y-6.716 Z5.508 A13.8356 B-1.2262 
N1206 X192.168 Y-7.035 Z5.472 A12.6732 B-1.2252 
N1207 X192.151 Y-7.360 Z5.441 A11.4677 B-1.2201 
N1208 X192.134 Y-7.691 Z5.415 A10.2334 B-1.2118 
N1209 X192.116 Y-8.028 Z5.396 A8.9743 B-1.2004 
N1210 X192.099 Y-8.372 Z5.383 A7.6843 B-1.1855 
N1211 X192.082 Y-8.723 Z5.376 A6.3546 B-1.1666 
N1212 X192.064 Y-9.081 Z5.375 A4.9826 B-1.1436 
N1213 X192.046 Y-9.446 Z5.381 A3.5758 B-1.1169 
N1214 X192.029 Y-9.817 Z5.394 A2.1506 B-1.0875 
N1215 X192.011 Y-10.192 Z5.415 A0.7259 B-1.0562 
N1216 X191.993 Y-10.571 Z5.445 A359.3174 B-1.0242 
N1217 X191.976 Y-10.952 Z5.484 A357.9340 B-0.9917 
N1218 X191.958 Y-11.333 Z5.532 A356.5775 B-0.9589 
N1219 X191.940 Y-11.714 Z5.587 A355.2462 B-0.9257 
N1220 X191.923 Y-12.094 Z5.650 A353.9404 B-0.8921 
N1221 X191.906 Y-12.469 Z5.719 A352.6670 B-0.8586 
N1222 X191.889 Y-12.839 Z5.794 A351.4417 B-0.8256 
N1223 X191.873 Y-13.199 Z5.875 A350.2854 B-0.7947 
N1224 X191.857 Y-13.547 Z5.961 A349.2183 B-0.7653 
N1225 X191.843 Y-13.880 Z6.052 A348.2536 B-0.7399 
N1226 X191.828 Y-14.195 Z6.145 A347.3957 B-0.7167 
N1227 X191.815 Y-14.491 Z6.239 A346.6419 B-0.6967 
N1228 X191.803 Y-14.767 Z6.332 A345.9864 B-0.6801 
N1229 X191.791 Y-15.021 Z6.422 A345.4235 B-0.6657 
N1230 X191.781 Y-15.251 Z6.507 A344.9478 B-0.6545 
N1231 X191.771 Y-15.458 Z6.588 A344.5532 B-0.6463 
N1232 X191.763 Y-15.641 Z6.662 A344.2327 B-0.6396 
N1233 X191.756 Y-15.802 Z6.730 A343.9786 B-0.6359 
N1234 X191.749 Y-15.941 Z6.791 A343.7858 B-0.6327 
N1235 X191.744 Y-16.060 Z6.846 A343.6561 B-0.6313 
N1236 X191.739 Y-16.159 Z6.897 A343.6069 B-0.6299 
N1237 X191.735 Y-16.241 Z6.947 A343.6808 B-0.6288 
N1238 X191.732 Y-16.305 Z7.002 A343.9592 B-0.6286 
N1239 X191.729 Y-16.351 Z7.070 A344.5752 B-0.6288 
N1240 X191.728 Y-16.379 Z7.165 A345.7103 B-0.6320 
N1241 X191.729 Y-16.381 Z7.336 A348.1808 B-0.6405 
N1242 X191.734 Y-16.357 Z7.695 A353.7026 B-0.6573 
N1243 X191.742 Y-16.363 Z8.270 A2.6671 B-0.6782 
N1244 X191.751 Y-16.470 Z8.908 A12.8114 B-0.7022 
N1245 X191.756 Y-16.675 Z9.500 A22.6495 B-0.7239 
N1246 X191.759 Y-16.945 Z9.999 A31.5727 B-0.7506 
N1247 X191.760 Y-17.214 Z10.362 A38.6634 B-0.7588 
N1248 X191.760 Y-17.483 Z10.649 A44.8449 B-0.7650 
N1249 X191.759 Y-17.744 Z10.876 A50.2804 B-0.7692 
N1250 X191.757 Y-17.996 Z11.059 A55.1662 B-0.7708 
N1251 X191.756 Y-18.242 Z11.207 A59.6699 B-0.7698 
N1252 X191.754 Y-18.485 Z11.330 A63.9435 B-0.7660 
N1253 X191.752 Y-18.731 Z11.431 A68.1121 B-0.7596 
N1254 X191.750 Y-18.984 Z11.515 A72.2946 B-0.7505 
N1255 X191.747 Y-19.251 Z11.582 A76.6104 B-0.7387 
N1256 X191.744 Y-19.539 Z11.631 A81.1924 B-0.7240 
N1257 X191.740 Y-19.856 Z11.659 A86.1867 B-0.7063 
N1258 X191.735 Y-20.212 Z11.657 A91.7666 B-0.6857 
N1259 X191.729 Y-20.613 Z11.613 A98.0896 B-0.6623 
N1260 X191.720 Y-21.104 Z11.497 A106.0154 B-0.6237 
N1261 X191.708 Y-21.679 Z11.263 A115.7568 B-0.5748 
N1262 X191.692 Y-22.249 Z10.902 A126.3510 B-0.5275 
N1263 X191.676 Y-22.770 Z10.405 A137.6432 B-0.4760 
N1264 X191.665 Y-23.077 Z9.971 A145.9302 B-0.4322 
N1265 X191.659 Y-23.186 Z9.728 A149.9665 B-0.4098 
N1266 X191.655 Y-23.200 Z9.607 A151.5896 B-0.4012 
N1267 X191.653 Y-23.172 Z9.536 A152.1702 B-0.3974 
N1268 X191.651 Y-23.121 Z9.479 A152.3471 B-0.3969 
N1269 X191.649 Y-23.054 Z9.418 A152.4204 B-0.3961 
N1270 X191.646 Y-22.973 Z9.347 A152.4695 B-0.3962 
N1271 X191.642 Y-22.875 Z9.264 A152.5051 B-0.3959 
N1272 X191.639 Y-22.760 Z9.167 A152.5359 B-0.3958 
N1273 X191.634 Y-22.627 Z9.055 A152.5671 B-0.3956 
N1274 X191.629 Y-22.474 Z8.926 A152.6015 B-0.3953 
N1275 X191.623 Y-22.301 Z8.781 A152.6409 B-0.3952 
N1276 X191.617 Y-22.108 Z8.619 A152.6867 B-0.3946 
N1277 X191.610 Y-21.895 Z8.441 A152.7404 B-0.3945 
N1278 X191.602 Y-21.663 Z8.246 A152.8041 B-0.3939 
N1279 X191.594 Y-21.412 Z8.035 A152.8801 B-0.3935 
N1280 X191.585 Y-21.145 Z7.810 A152.9713 B-0.3931 
N1281 X191.575 Y-20.862 Z7.573 A153.0799 B-0.3923 
N1282 X191.565 Y-20.565 Z7.323 A153.2080 B-0.3916 
N1283 X191.555 Y-20.257 Z7.063 A153.3567 B-0.3906 
N1284 X191.544 Y-19.938 Z6.796 A153.5266 B-0.3896 
N1285 X191.533 Y-19.611 Z6.521 A153.7179 B-0.3884 
N1286 X191.522 Y-19.278 Z6.242 A153.9309 B-0.3871 
N1287 X191.511 Y-18.939 Z5.959 A154.1658 B-0.3857 
N1288 X191.500 Y-18.597 Z5.673 A154.4232 B-0.3842 
N1289 X191.489 Y-18.252 Z5.387 A154.7038 B-0.3826 
N1290 X191.477 Y-17.906 Z5.100 A155.0095 B-0.3808 
N1291 X191.466 Y-17.559 Z4.814 A155.3424 B-0.3789 
N1292 X191.455 Y-17.212 Z4.529 A155.7047 B-0.3768 
N1293 X191.443 Y-16.866 Z4.246 A156.0981 B-0.3746 
N1294 X191.432 Y-16.522 Z3.965 A156.5232 B-0.3721 
N1295 X191.421 Y-16.178 Z3.687 A156.9803 B-0.3696 
N1296 X191.411 Y-15.836 Z3.412 A157.4696 B-0.3668 
N1297 X191.400 Y-15.496 Z3.141 A157.9914 B-0.3639 
N1298 X191.389 Y-15.158 Z2.873 A158.5467 B-0.3608 
N1299 X191.379 Y-14.822 Z2.609 A159.1362 B-0.3576 
N1300 X191.369 Y-14.488 Z2.349 A159.7612 B-0.3542 
N1301 X191.359 Y-14.157 Z2.094 A160.4229 B-0.3506 
N1302 X191.349 Y-13.828 Z1.843 A161.1226 B-0.3468 
N1303 X191.339 Y-13.501 Z1.596 A161.8620 B-0.3428 
N1304 X191.329 Y-13.177 Z1.354 A162.6428 B-0.3387 
N1305 X191.320 Y-12.855 Z1.117 A163.4671 B-0.3344 
N1306 X191.311 Y-12.536 Z0.885 A164.3377 B-0.3299 
N1307 X191.302 Y-12.219 Z0.657 A165.2578 B-0.3251 
N1308 X191.293 Y-11.905 Z0.434 A166.2305 B-0.3202 
N1309 X191.285 Y-11.594 Z0.216 A167.2580 B-0.3150 
N1310 X191.276 Y-11.286 Z0.002 A168.3411 B-0.3096 
N1311 X191.268 Y-10.979 Z-0.206 A169.4791 B-0.3039 
N1312 X191.260 Y-10.675 Z-0.409 A170.6702 B-0.2981 
N1313 X191.252 Y-10.374 Z-0.606 A171.9127 B-0.2922 
N1314 X191.245 Y-10.074 Z-0.797 A173.2059 B-0.2861 
N1315 X191.238 Y-9.776 Z-0.983 A174.5499 B-0.2799 
N1316 X191.230 Y-9.481 Z-1.164 A175.9455 B-0.2736 
N1317 X191.224 Y-9.187 Z-1.338 A177.3942 B-0.2672 
N1318 X191.217 Y-8.894 Z-1.507 A178.8970 B-0.2607 
N1319 X191.210 Y-8.603 Z-1.670 A180.4548 B-0.2542 
N1320 X191.204 Y-8.313 Z-1.828 A182.0678 B-0.2476 
N1321 X191.198 Y-8.024 Z-1.980 A183.7360 B-0.2409 
N1322 X191.192 Y-7.736 Z-2.126 A185.4586 B-0.2343 
N1323 X191.187 Y-7.448 Z-2.265 A187.2345 B-0.2277 
N1324 X191.181 Y-7.160 Z-2.399 A189.0618 B-0.2212 
N1325 X191.176 Y-6.872 Z-2.526 A190.9383 B-0.2148 
N1326 X191.171 Y-6.583 Z-2.647 A192.8614 B-0.2086 
N1327 X191.166 Y-6.294 Z-2.760 A194.8281 B-0.2025 
N1328 X191.161 Y-6.003 Z-2.866 A196.8348 B-0.1966 
N1329 X191.157 Y-5.712 Z-2.964 A198.8775 B-0.1909 
N1330 X191.153 Y-5.419 Z-3.053 A200.9515 B-0.1856 
N1331 X191.149 Y-5.124 Z-3.134 A203.0522 B-0.1805 
N1332 X191.145 Y-4.829 Z-3.206 A205.1744 B-0.1759 
N1333 X191.141 Y-4.531 Z-3.267 A207.3131 B-0.1715 
N1334 X191.138 Y-4.233 Z-3.319 A209.4632 B-0.1676 
N1335 X191.134 Y-3.933 Z-3.359 A211.6194 B-0.1641 
N1336 X191.131 Y-3.632 Z-3.389 A213.7761 B-0.1610 
N1337 X191.128 Y-3.330 Z-3.406 A215.9278 B-0.1583 
N1338 X191.125 Y-3.027 Z-3.412 A218.0689 B-0.1561 
N1339 X191.122 Y-2.724 Z-3.405 A220.1942 B-0.1543 
N1340 X191.120 Y-2.421 Z-3.385 A222.2988 B-0.1530 
N1341 X191.117 Y-2.119 Z-3.351 A224.3782 B-0.1521 
N1342 X191.115 Y-1.818 Z-3.305 A226.4282 B-0.1516 
N1343 X191.112 Y-1.518 Z-3.245 A228.4447 B-0.1514 
N1344 X191.110 Y-1.220 Z-3.171 A230.4240 B-0.1517 
N1345 X191.108 Y-0.925 Z-3.084 A232.3628 B-0.1523 
N1346 X191.105 Y-0.632 Z-2.982 A234.2585 B-0.1532 
N1347 X191.103 Y-0.343 Z-2.868 A236.1088 B-0.1545 
N1348 X191.101 Y-0.057 Z-2.740 A237.9121 B-0.1560 
N1349 X191.099 Y0.224 Z-2.599 A239.6672 B-0.1578 
N1350 X191.097 Y0.500 Z-2.446 A241.3733 B-0.1598 
N1351 X191.094 Y0.771 Z-2.280 A243.0299 B-0.1620 
N1352 X191.092 Y1.037 Z-2.103 A244.6372 B-0.1644 
N1353 X191.090 Y1.297 Z-1.914 A246.1960 B-0.1670 
N1354 X191.087 Y1.550 Z-1.715 A247.7088 B-0.1697 
N1355 X191.085 Y1.798 Z-1.507 A249.1793 B-0.1725 
N1356 X191.082 Y2.039 Z-1.289 A250.6130 B-0.1755 
N1357 X191.080 Y2.273 Z-1.064 A252.0160 B-0.1786 
N1358 X191.077 Y2.501 Z-0.832 A253.3942 B-0.1818 
N1359 X191.074 Y2.722 Z-0.594 A254.7504 B-0.1852 
N1360 X191.072 Y2.936 Z-0.351 A256.0840 B-0.1887 
N1361 X191.069 Y3.142 Z-0.104 A257.3925 B-0.1922 
N1362 X191.066 Y3.340 Z0.145 A258.6744 B-0.1960 
N1363 X191.063 Y3.529 Z0.396 A259.9321 B-0.1996 
N1364 X191.061 Y3.711 Z0.647 A261.1734 B-0.2033 
N1365 X191.058 Y3.884 Z0.896 A262.4107 B-0.2073 
N1366 X191.055 Y4.051 Z1.143 A263.6576 B-0.2114 
N1367 X191.053 Y4.211 Z1.385 A264.9252 B-0.2158 
N1368 X191.050 Y4.365 Z1.622 A266.2210 B-0.2205 
N1369 X191.048 Y4.514 Z1.852 A267.5504 B-0.2254 
N1370 X191.046 Y4.656 Z2.075 A268.9195 B-0.2307 
N1371 X191.044 Y4.794 Z2.290 A270.3382 B-0.2363 
N1372 X191.042 Y4.928 Z2.495 A271.8160 B-0.2424 
N1373 X191.040 Y5.057 Z2.692 A273.3545 B-0.2490 
N1374 X191.039 Y5.184 Z2.879 A274.9540 B-0.2559 
N1375 X191.038 Y5.309 Z3.056 A276.6332 B-0.2633 
N1376 X191.037 Y5.435 Z3.226 A278.4320 B-0.2715 
N1377 X191.036 Y5.566 Z3.387 A280.3970 B-0.2809 
N1378 X191.036 Y5.704 Z3.544 A282.5785 B-0.2915 
N1379 X191.036 Y5.853 Z3.699 A285.0385 B-0.3039 
N1380 X191.037 Y6.018 Z3.856 A287.8493 B-0.3186 
N1381 X191.039 Y6.200 Z4.020 A291.0835 B-0.3361 
N1382 X191.042 Y6.403 Z4.198 A294.8004 B-0.3568 
N1383 X191.045 Y6.623 Z4.396 A299.0249 B-0.3813 
N1384 X191.050 Y6.855 Z4.621 A303.7241 B-0.4088 
N1385 X191.055 Y7.088 Z4.873 A308.8112 B-0.4386 
N1386 X191.061 Y7.312 Z5.154 A314.1663 B-0.4698 
N1387 X191.066 Y7.516 Z5.458 A319.6622 B-0.5009 
N1388 X191.072 Y7.692 Z5.780 A325.1911 B-0.5307 
N1389 X191.077 Y7.835 Z6.115 A330.6788 B-0.5599 
N1390 X191.082 Y7.943 Z6.457 A336.0781 B-0.5879 
N1391 X191.086 Y8.014 Z6.802 A341.3536 B-0.6142 
N1392 X191.090 Y8.048 Z7.143 A346.4653 B-0.6395 
N1393 X191.093 Y8.045 Z7.473 A351.3580 B-0.6629 
N1394 X191.095 Y8.008 Z7.785 A355.9632 B-0.6843 
N1395 X191.095 Y7.939 Z8.072 A0.2129 B-0.7033 
N1396 X191.095 Y7.843 Z8.330 A4.0597 B-0.7193 
N1397 X191.093 Y7.725 Z8.556 A7.4964 B-0.7331 
N1398 X191.090 Y7.586 Z8.751 A10.5542 B-0.7442 
N1399 X191.086 Y7.430 Z8.919 A13.2825 B-0.7540 
N1400 X191.081 Y7.258 Z9.062 A15.7321 B-0.7623 
N1401 X191.075 Y7.070 Z9.182 A17.9436 B-0.7691 
N1402 X191.068 Y6.867 Z9.282 A19.9505 B-0.7750 
N1403 X191.060 Y6.647 Z9.362 A21.7900 B-0.7798 
N1404 X191.051 Y6.412 Z9.424 A23.4967 B-0.7844 
N1405 X191.041 Y6.161 Z9.469 A25.0806 B-0.7888 
N1406 X191.030 Y5.894 Z9.495 A26.5301 B-0.7921 
N1407 X191.018 Y5.613 Z9.501 A27.8376 B-0.7955 
N1408 X191.004 Y5.319 Z9.488 A29.0060 B-0.7977 
N1409 X190.990 Y5.012 Z9.456 A30.0371 B-0.8002 
N1410 X190.974 Y4.693 Z9.406 A30.9304 B-0.8019 
N1411 X190.958 Y4.364 Z9.339 A31.6848 B-0.8037 
N1412 X190.940 Y4.026 Z9.255 A32.3041 B-0.8047 
N1413 X190.922 Y3.679 Z9.155 A32.7973 B-0.8061 
N1414 X190.904 Y3.325 Z9.043 A33.1758 B-0.8068 
N1415 X190.884 Y2.965 Z8.919 A33.4495 B-0.8077 
N1416 X190.864 Y2.601 Z8.785 A33.6247 B-0.8082 
N1417 X190.844 Y2.234 Z8.643 A33.7027 B-0.8087 
N1418 X190.823 Y1.865 Z8.493 A33.6812 B-0.8090 
N1419 X190.802 Y1.496 Z8.337 A33.5563 B-0.8091 
N1420 X190.781 Y1.130 Z8.175 A33.3235 B-0.8091 
N1421 X190.760 Y0.766 Z8.010 A32.9790 B-0.8089 
N1422 X190.739 Y0.406 Z7.841 A32.5206 B-0.8086 
N1423 X190.718 Y0.051 Z7.670 A31.9494 B-0.8082 
N1424 X190.698 Y-0.299 Z7.499 A31.2713 B-0.8079 
N1425 X190.677 Y-0.644 Z7.329 A30.4979 B-0.8079 
N1426 X190.657 Y-0.982 Z7.162 A29.6463 B-0.8090 
N1427 X190.637 Y-1.315 Z6.999 A28.7396 B-0.8119 
N1428 X190.617 Y-1.642 Z6.843 A27.8045 B-0.8178 
N1429 X190.598 Y-1.963 Z6.696 A26.8704 B-0.8281 
N1430 X190.579 Y-2.278 Z6.559 A25.9654 B-0.8440 
N1431 X190.561 Y-2.587 Z6.434 A25.1128 B-0.8664 
N1432 X190.543 Y-2.889 Z6.323 A24.3270 B-0.8955 
N1433 X190.526 Y-3.185 Z6.223 A23.6093 B-0.9307 
N1434 X190.509 Y-3.477 Z6.136 A22.9470 B-0.9705 
N1435 X190.492 Y-3.765 Z6.057 A22.3149 B-1.0127 
N1436 X190.475 Y-4.051 Z5.986 A21.6814 B-1.0548 
N1437 X190.458 Y-4.337 Z5.919 A21.0168 B-1.0945 
N1438 X190.441 Y-4.624 Z5.856 A20.3011 B-1.1303 
N1439 X190.425 Y-4.912 Z5.795 A19.5279 B-1.1618 
N1440 X190.408 Y-5.204 Z5.738 A18.7009 B-1.1889 
N1441 X190.391 Y-5.498 Z5.685 A17.8256 B-1.2119 
N1442 X190.374 Y-5.795 Z5.635 A16.9028 B-1.2307 
N1443 X190.357 Y-6.097 Z5.589 A15.9269 B-1.2449 
N1444 X190.340 Y-6.404 Z5.546 A14.8910 B-1.2541 
N1445 X190.322 Y-6.717 Z5.506 A13.7937 B-1.2580 
N1446 X190.305 Y-7.036 Z5.470 A12.6422 B-1.2573 
N1447 X190.287 Y-7.361 Z5.439 A11.4488 B-1.2524 
N1448 X190.270 Y-7.692 Z5.415 A10.2241 B-1.2440 
N1449 X190.252 Y-8.029 Z5.396 A8.9706 B-1.2322 
N1450 X190.234 Y-8.372 Z5.383 A7.6831 B-1.2167 
N1451 X190.216 Y-8.723 Z5.376 A6.3544 B-1.1970 
N1452 X190.198 Y-9.081 Z5.375 A4.9827 B-1.1730 
N1453 X190.180 Y-9.446 Z5.381 A3.5759 B-1.1453 
N1454 X190.162 Y-9.817 Z5.394 A2.1507 B-1.1147 
N1455 X190.144 Y-10.192 Z5.415 A0.7260 B-1.0824 
N1456 X190.126 Y-10.571 Z5.445 A359.3176 B-1.0492 
N1457 X190.107 Y-10.951 Z5.484 A357.9342 B-1.0156 
N1458 X190.089 Y-11.333 Z5.532 A356.5776 B-0.9817 
N1459 X190.071 Y-11.714 Z5.587 A355.2463 B-0.9475 
N1460 X190.054 Y-12.094 Z5.650 A353.9405 B-0.9129 
N1461 X190.036 Y-12.469 Z5.719 A352.6671 B-0.8783 
N1462 X190.019 Y-12.839 Z5.794 A351.4418 B-0.8444 
N1463 X190.002 Y-13.199 Z5.875 A350.2855 B-0.8125 
N1464 X189.986 Y-13.547 Z5.961 A349.2184 B-0.7824 
N1465 X189.971 Y-13.879 Z6.052 A348.2537 B-0.7562 
N1466 X189.956 Y-14.195 Z6.145 A347.3957 B-0.7324 
N1467 X189.943 Y-14.491 Z6.239 A346.6418 B-0.7118 
N1468 X189.930 Y-14.767 Z6.331 A345.9863 B-0.6947 
N1469 X189.918 Y-15.021 Z6.421 A345.4234 B-0.6799 
N1470 X189.908 Y-15.251 Z6.507 A344.9477 B-0.6684 
N1471 X189.898 Y-15.458 Z6.588 A344.5531 B-0.6600 
N1472 X189.889 Y-15.641 Z6.662 A344.2326 B-0.6531 
N1473 X189.882 Y-15.802 Z6.730 A343.9785 B-0.6493 
N1474 X189.875 Y-15.941 Z6.791 A343.7856 B-0.6459 
N1475 X189.870 Y-16.060 Z6.846 A343.6559 B-0.6445 
N1476 X189.865 Y-16.159 Z6.897 A343.6065 B-0.6430 
N1477 X189.861 Y-16.241 Z6.947 A343.6803 B-0.6418 
N1478 X189.858 Y-16.305 Z7.001 A343.9584 B-0.6417 
N1479 X189.855 Y-16.351 Z7.070 A344.5738 B-0.6420 
N1480 X189.854 Y-16.379 Z7.165 A345.7082 B-0.6455 
N1481 X189.855 Y-16.381 Z7.336 A348.1773 B-0.6548 
N1482 X189.860 Y-16.357 Z7.695 A353.6970 B-0.6736 
N1483 X189.869 Y-16.363 Z8.270 A2.6600 B-0.6979 
N1484 X189.879 Y-16.470 Z8.908 A12.8044 B-0.7253 
N1485 X189.884 Y-16.676 Z9.500 A22.6433 B-0.7489 
N1486 X189.887 Y-16.946 Z9.999 A31.5676 B-0.7763 
N1487 X189.888 Y-17.214 Z10.362 A38.6592 B-0.7848 
N1488 X189.888 Y-17.483 Z10.649 A44.8415 B-0.7907 
N1489 X189.887 Y-17.744 Z10.876 A50.2777 B-0.7946 
N1490 X189.885 Y-17.996 Z11.058 A55.1641 B-0.7957 
N1491 X189.884 Y-18.242 Z11.207 A59.6682 B-0.7941 
N1492 X189.882 Y-18.485 Z11.329 A63.9421 B-0.7897 
N1493 X189.880 Y-18.731 Z11.431 A68.1109 B-0.7825 
N1494 X189.877 Y-18.984 Z11.515 A72.2937 B-0.7726 
N1495 X189.874 Y-19.251 Z11.582 A76.6096 B-0.7600 
N1496 X189.870 Y-19.539 Z11.631 A81.1917 B-0.7442 
N1497 X189.866 Y-19.856 Z11.659 A86.1861 B-0.7252 
N1498 X189.861 Y-20.212 Z11.657 A91.7660 B-0.7030 
N1499 X189.854 Y-20.613 Z11.612 A98.0890 B-0.6775 
N1500 X189.845 Y-21.104 Z11.496 A106.0149 B-0.6361 
N1501 X189.832 Y-21.679 Z11.263 A115.7563 B-0.5831 
N1502 X189.815 Y-22.249 Z10.902 A126.3507 B-0.5304 
N1503 X189.798 Y-22.770 Z10.405 A137.6431 B-0.4735 
N1504 X189.786 Y-23.077 Z9.971 A145.9302 B-0.4261 
N1505 X189.779 Y-23.186 Z9.728 A149.9666 B-0.4020 
N1506 X189.776 Y-23.200 Z9.607 A151.5898 B-0.3927 
N1507 X189.773 Y-23.172 Z9.536 A152.1704 B-0.3887 
N1508 X189.771 Y-23.121 Z9.479 A152.3472 B-0.3881 
N1509 X189.769 Y-23.054 Z9.418 A152.4206 B-0.3873 
N1510 X189.766 Y-22.973 Z9.347 A152.4696 B-0.3874 
N1511 X189.763 Y-22.875 Z9.264 A152.5052 B-0.3870 
N1512 X189.759 Y-22.760 Z9.167 A152.5360 B-0.3869 
N1513 X189.755 Y-22.627 Z9.055 A152.5672 B-0.3867 
N1514 X189.750 Y-22.474 Z8.926 A152.6016 B-0.3864 
N1515 X189.744 Y-22.301 Z8.781 A152.6410 B-0.3863 
N1516 X189.738 Y-22.108 Z8.619 A152.6868 B-0.3857 
N1517 X189.731 Y-21.895 Z8.441 A152.7405 B-0.3856 
N1518 X189.723 Y-21.663 Z8.246 A152.8042 B-0.3849 
N1519 X189.715 Y-21.412 Z8.035 A152.8803 B-0.3845 
N1520 X189.706 Y-21.145 Z7.810 A152.9714 B-0.3840 
N1521 X189.697 Y-20.862 Z7.573 A153.0801 B-0.3832 
N1522 X189.688 Y-20.565 Z7.323 A153.2082 B-0.3825 
N1523 X189.677 Y-20.257 Z7.063 A153.3569 B-0.3814 
N1524 X189.667 Y-19.938 Z6.796 A153.5267 B-0.3803 
N1525 X189.656 Y-19.611 Z6.521 A153.7181 B-0.3791 
N1526 X189.646 Y-19.278 Z6.242 A153.9311 B-0.3777 
N1527 X189.635 Y-18.939 Z5.959 A154.1660 B-0.3762 
N1528 X189.624 Y-18.597 Z5.673 A154.4234 B-0.3746 
N1529 X189.612 Y-18.252 Z5.387 A154.7041 B-0.3728 
N1530 X189.601 Y-17.906 Z5.100 A155.0098 B-0.3709 
N1531 X189.590 Y-17.559 Z4.814 A155.3427 B-0.3689 
N1532 X189.579 Y-17.212 Z4.529 A155.7050 B-0.3667 
N1533 X189.568 Y-16.866 Z4.246 A156.0984 B-0.3643 
N1534 X189.558 Y-16.521 Z3.965 A156.5236 B-0.3617 
N1535 X189.547 Y-16.178 Z3.687 A156.9807 B-0.3589 
N1536 X189.536 Y-15.836 Z3.412 A157.4700 B-0.3560 
N1537 X189.526 Y-15.496 Z3.141 A157.9919 B-0.3529 
N1538 X189.516 Y-15.158 Z2.873 A158.5471 B-0.3496 
N1539 X189.505 Y-14.822 Z2.609 A159.1367 B-0.3461 
N1540 X189.495 Y-14.488 Z2.349 A159.7617 B-0.3424 
N1541 X189.486 Y-14.157 Z2.094 A160.4234 B-0.3386 
N1542 X189.476 Y-13.827 Z1.842 A161.1232 B-0.3345 
N1543 X189.466 Y-13.501 Z1.596 A161.8626 B-0.3303 
N1544 X189.457 Y-13.176 Z1.354 A162.6435 B-0.3259 
N1545 X189.448 Y-12.855 Z1.117 A163.4678 B-0.3212 
N1546 X189.439 Y-12.536 Z0.884 A164.3385 B-0.3164 
N1547 X189.430 Y-12.219 Z0.657 A165.2586 B-0.3113 
N1548 X189.422 Y-11.905 Z0.434 A166.2314 B-0.3060 
N1549 X189.414 Y-11.594 Z0.215 A167.2589 B-0.3005 
N1550 X189.406 Y-11.285 Z0.002 A168.3421 B-0.2946 
N1551 X189.398 Y-10.979 Z-0.206 A169.4801 B-0.2886 
N1552 X189.390 Y-10.675 Z-0.409 A170.6712 B-0.2824 
N1553 X189.382 Y-10.373 Z-0.606 A171.9138 B-0.2760 
N1554 X189.375 Y-10.074 Z-0.798 A173.2071 B-0.2695 
N1555 X189.368 Y-9.776 Z-0.983 A174.5511 B-0.2629 
N1556 X189.361 Y-9.481 Z-1.164 A175.9468 B-0.2561 
N1557 X189.355 Y-9.187 Z-1.338 A177.3955 B-0.2493 
N1558 X189.348 Y-8.894 Z-1.507 A178.8984 B-0.2423 
N1559 X189.342 Y-8.603 Z-1.670 A180.4562 B-0.2353 
N1560 X189.336 Y-8.313 Z-1.828 A182.0693 B-0.2282 
N1561 X189.330 Y-8.024 Z-1.980 A183.7375 B-0.2211 
N1562 X189.325 Y-7.736 Z-2.126 A185.4602 B-0.2141 
N1563 X189.319 Y-7.448 Z-2.266 A187.2361 B-0.2070 
N1564 X189.314 Y-7.160 Z-2.399 A189.0634 B-0.2001 
N1565 X189.309 Y-6.872 Z-2.526 A190.9400 B-0.1932 
N1566 X189.304 Y-6.583 Z-2.647 A192.8631 B-0.1865 
N1567 X189.300 Y-6.293 Z-2.760 A194.8299 B-0.1800 
N1568 X189.295 Y-6.003 Z-2.866 A196.8366 B-0.1737 
N1569 X189.291 Y-5.711 Z-2.964 A198.8793 B-0.1677 
N1570 X189.287 Y-5.419 Z-3.053 A200.9534 B-0.1620 
N1571 X189.283 Y-5.124 Z-3.134 A203.0540 B-0.1567 
N1572 X189.280 Y-4.828 Z-3.206 A205.1763 B-0.1517 
N1573 X189.276 Y-4.531 Z-3.267 A207.3150 B-0.1471 
N1574 X189.273 Y-4.232 Z-3.319 A209.4651 B-0.1429 
N1575 X189.270 Y-3.932 Z-3.359 A211.6213 B-0.1392 
N1576 X189.267 Y-3.631 Z-3.389 A213.7781 B-0.1360 
N1577 X189.265 Y-3.329 Z-3.406 A215.9297 B-0.1332 
N1578 X189.262 Y-3.027 Z-3.412 A218.0708 B-0.1309 
N1579 X189.260 Y-2.724 Z-3.405 A220.1961 B-0.1291 
N1580 X189.258 Y-2.421 Z-3.385 A222.3007 B-0.1277 
N1581 X189.255 Y-2.119 Z-3.351 A224.3801 B-0.1268 
N1582 X189.253 Y-1.818 Z-3.305 A226.4300 B-0.1264 
N1583 X189.251 Y-1.518 Z-3.245 A228.4465 B-0.1263 
N1584 X189.250 Y-1.220 Z-3.171 A230.4258 B-0.1267 
N1585 X189.248 Y-0.924 Z-3.083 A232.3646 B-0.1275 
N1586 X189.246 Y-0.632 Z-2.982 A234.2602 B-0.1286 
N1587 X189.244 Y-0.343 Z-2.868 A236.1105 B-0.1300 
N1588 X189.242 Y-0.057 Z-2.740 A237.9137 B-0.1318 
N1589 X189.241 Y0.224 Z-2.599 A239.6688 B-0.1338 
N1590 X189.239 Y0.500 Z-2.446 A241.3749 B-0.1361 
N1591 X189.237 Y0.771 Z-2.280 A243.0315 B-0.1385 
N1592 X189.235 Y1.037 Z-2.103 A244.6387 B-0.1412 
N1593 X189.233 Y1.297 Z-1.914 A246.1975 B-0.1440 
N1594 X189.232 Y1.551 Z-1.715 A247.7103 B-0.1470 
N1595 X189.230 Y1.798 Z-1.507 A249.1808 B-0.1501 
N1596 X189.228 Y2.039 Z-1.289 A250.6144 B-0.1534 
N1597 X189.225 Y2.273 Z-1.064 A252.0174 B-0.1568 
N1598 X189.223 Y2.501 Z-0.832 A253.3956 B-0.1603 
N1599 X189.221 Y2.723 Z-0.594 A254.7518 B-0.1641 
N1600 X189.219 Y2.937 Z-0.351 A256.0854 B-0.1679 
N1601 X189.217 Y3.143 Z-0.104 A257.3939 B-0.1717 
N1602 X189.214 Y3.340 Z0.145 A258.6758 B-0.1758 
N1603 X189.212 Y3.530 Z0.396 A259.9334 B-0.1798 
N1604 X189.210 Y3.711 Z0.647 A261.1747 B-0.1839 
N1605 X189.207 Y3.885 Z0.897 A262.4121 B-0.1882 
N1606 X189.205 Y4.051 Z1.143 A263.6590 B-0.1926 
N1607 X189.203 Y4.212 Z1.385 A264.9266 B-0.1974 
N1608 X189.201 Y4.366 Z1.622 A266.2224 B-0.2025 
N1609 X189.199 Y4.514 Z1.852 A267.5518 B-0.2077 
N1610 X189.197 Y4.656 Z2.075 A268.9210 B-0.2135 
N1611 X189.195 Y4.794 Z2.290 A270.3398 B-0.2195 
N1612 X189.194 Y4.928 Z2.495 A271.8176 B-0.2261 
N1613 X189.193 Y5.058 Z2.692 A273.3561 B-0.2332 
N1614 X189.191 Y5.184 Z2.879 A274.9557 B-0.2407 
N1615 X189.191 Y5.309 Z3.057 A276.6349 B-0.2487 
N1616 X189.190 Y5.435 Z3.226 A278.4339 B-0.2574 
N1617 X189.190 Y5.566 Z3.388 A280.3990 B-0.2675 
N1618 X189.190 Y5.704 Z3.544 A282.5807 B-0.2788 
N1619 X189.191 Y5.853 Z3.699 A285.0410 B-0.2922 
N1620 X189.192 Y6.018 Z3.856 A287.8520 B-0.3078 
N1621 X189.194 Y6.201 Z4.020 A291.0865 B-0.3266 
N1622 X189.197 Y6.403 Z4.198 A294.8037 B-0.3487 
N1623 X189.201 Y6.623 Z4.397 A299.0285 B-0.3751 
N1624 X189.206 Y6.855 Z4.621 A303.7280 B-0.4047 
N1625 X189.212 Y7.088 Z4.874 A308.8152 B-0.4368 
N1626 X189.218 Y7.312 Z5.154 A314.1703 B-0.4705 
N1627 X189.224 Y7.516 Z5.458 A319.6660 B-0.5042 
N1628 X189.230 Y7.692 Z5.780 A325.1947 B-0.5365 
N1629 X189.236 Y7.835 Z6.115 A330.6822 B-0.5681 
N1630 X189.242 Y7.943 Z6.458 A336.0812 B-0.5983 
N1631 X189.246 Y8.014 Z6.802 A341.3564 B-0.6268 
N1632 X189.250 Y8.048 Z7.143 A346.4679 B-0.6541 
N1633 X189.253 Y8.045 Z7.473 A351.3603 B-0.6793 
N1634 X189.255 Y8.008 Z7.785 A355.9652 B-0.7022 
N1635 X189.256 Y7.939 Z8.073 A0.2145 B-0.7225 
N1636 X189.256 Y7.843 Z8.330 A4.0611 B-0.7396 
N1637 X189.254 Y7.724 Z8.556 A7.4975 B-0.7542 
N1638 X189.251 Y7.586 Z8.751 A10.5550 B-0.7659 
N1639 X189.247 Y7.430 Z8.919 A13.2832 B-0.7763 
N1640 X189.242 Y7.258 Z9.062 A15.7326 B-0.7850 
N1641 X189.236 Y7.070 Z9.183 A17.9439 B-0.7921 
N1642 X189.229 Y6.866 Z9.282 A19.9507 B-0.7984 
N1643 X189.221 Y6.647 Z9.362 A21.7901 B-0.8034 
N1644 X189.212 Y6.412 Z9.424 A23.4967 B-0.8083 
N1645 X189.201 Y6.160 Z9.469 A25.0805 B-0.8129 
N1646 X189.190 Y5.894 Z9.495 A26.5299 B-0.8163 
N1647 X189.177 Y5.613 Z9.501 A27.8374 B-0.8198 
N1648 X189.163 Y5.318 Z9.488 A29.0056 B-0.8222 
N1649 X189.148 Y5.011 Z9.456 A30.0367 B-0.8248 
N1650 X189.132 Y4.693 Z9.406 A30.9299 B-0.8265 
N1651 X189.115 Y4.364 Z9.339 A31.6842 B-0.8284 
N1652 X189.098 Y4.025 Z9.254 A32.3035 B-0.8294 
N1653 X189.079 Y3.679 Z9.155 A32.7967 B-0.8309 
N1654 X189.059 Y3.325 Z9.043 A33.1751 B-0.8315 
N1655 X189.040 Y2.965 Z8.919 A33.4488 B-0.8325 
N1656 X189.019 Y2.601 Z8.785 A33.6239 B-0.8330 
N1657 X188.998 Y2.233 Z8.643 A33.7019 B-0.8335 
N1658 X188.977 Y1.865 Z8.493 A33.6804 B-0.8338 
N1659 X188.955 Y1.496 Z8.337 A33.5555 B-0.8339 
N1660 X188.933 Y1.129 Z8.175 A33.3227 B-0.8339 
N1661 X188.912 Y0.765 Z8.009 A32.9782 B-0.8337 
N1662 X188.890 Y0.405 Z7.841 A32.5198 B-0.8334 
N1663 X188.868 Y0.050 Z7.670 A31.9487 B-0.8329 
N1664 X188.847 Y-0.299 Z7.499 A31.2706 B-0.8325 
N1665 X188.826 Y-0.644 Z7.329 A30.4972 B-0.8326 
N1666 X188.805 Y-0.983 Z7.162 A29.6457 B-0.8336 
N1667 X188.784 Y-1.315 Z6.999 A28.7390 B-0.8366 
N1668 X188.764 Y-1.643 Z6.843 A27.8040 B-0.8427 
N1669 X188.744 Y-1.964 Z6.696 A26.8699 B-0.8532 
N1670 X188.725 Y-2.278 Z6.559 A25.9649 B-0.8695 
N1671 X188.706 Y-2.587 Z6.434 A25.1124 B-0.8924 
N1672 X188.688 Y-2.889 Z6.323 A24.3266 B-0.9223 
N1673 X188.670 Y-3.185 Z6.223 A23.6089 B-0.9584 
N1674 X188.652 Y-3.477 Z6.136 A22.9466 B-0.9993 
N1675 X188.635 Y-3.765 Z6.057 A22.3146 B-1.0426 
N1676 X188.617 Y-4.051 Z5.986 A21.6812 B-1.0857 
N1677 X188.600 Y-4.337 Z5.919 A21.0165 B-1.1264 
N1678 X188.583 Y-4.624 Z5.856 A20.3009 B-1.1630 
N1679 X188.566 Y-4.913 Z5.795 A19.5278 B-1.1951 
N1680 X188.548 Y-5.204 Z5.738 A18.7007 B-1.2228 
N1681 X188.531 Y-5.498 Z5.685 A17.8255 B-1.2461 
N1682 X188.513 Y-5.795 Z5.635 A16.9027 B-1.2651 
N1683 X188.496 Y-6.097 Z5.589 A15.9268 B-1.2794 
N1684 X188.478 Y-6.404 Z5.546 A14.8910 B-1.2885 
N1685 X188.460 Y-6.717 Z5.506 A13.7937 B-1.2922 
N1686 X188.442 Y-7.036 Z5.470 A12.6422 B-1.2911 
N1687 X188.424 Y-7.361 Z5.439 A11.4488 B-1.2857 
N1688 X188.406 Y-7.692 Z5.415 A10.2241 B-1.2767 
N1689 X188.388 Y-8.029 Z5.396 A8.9707 B-1.2642 
N1690 X188.370 Y-8.372 Z5.383 A7.6832 B-1.2479 
N1691 X188.351 Y-8.723 Z5.376 A6.3545 B-1.2273 
N1692 X188.333 Y-9.081 Z5.375 A4.9827 B-1.2024 
N1693 X188.314 Y-9.446 Z5.381 A3.5760 B-1.1737 
N1694 X188.295 Y-9.816 Z5.394 A2.1508 B-1.1420 
N1695 X188.277 Y-10.192 Z5.415 A0.7261 B-1.1086 
N1696 X188.258 Y-10.571 Z5.445 A359.3177 B-1.0742 
N1697 X188.239 Y-10.951 Z5.484 A357.9343 B-1.0396 
N1698 X188.221 Y-11.333 Z5.532 A356.5777 B-1.0046 
N1699 X188.202 Y-11.714 Z5.587 A355.2464 B-0.9693 
N1700 X188.184 Y-12.093 Z5.650 A353.9406 B-0.9337 
N1701 X188.166 Y-12.469 Z5.719 A352.6672 B-0.8981 
N1702 X188.148 Y-12.839 Z5.794 A351.4418 B-0.8632 
N1703 X188.131 Y-13.199 Z5.875 A350.2856 B-0.8304 
N1704 X188.115 Y-13.547 Z5.961 A349.2184 B-0.7994 
N1705 X188.099 Y-13.879 Z6.052 A348.2537 B-0.7725 
N1706 X188.084 Y-14.195 Z6.145 A347.3957 B-0.7480 
N1707 X188.070 Y-14.491 Z6.239 A346.6418 B-0.7269 
N1708 X188.057 Y-14.767 Z6.331 A345.9862 B-0.7094 
N1709 X188.045 Y-15.021 Z6.421 A345.4233 B-0.6942 
N1710 X188.035 Y-15.251 Z6.507 A344.9475 B-0.6824 
N1711 X188.025 Y-15.458 Z6.588 A344.5530 B-0.6737 
N1712 X188.016 Y-15.641 Z6.662 A344.2324 B-0.6666 
N1713 X188.008 Y-15.802 Z6.730 A343.9783 B-0.6627 
N1714 X188.001 Y-15.941 Z6.791 A343.7854 B-0.6592 
N1715 X187.996 Y-16.060 Z6.846 A343.6556 B-0.6577 
N1716 X187.991 Y-16.160 Z6.897 A343.6061 B-0.6561 
N1717 X187.987 Y-16.241 Z6.947 A343.6797 B-0.6549 
N1718 X187.983 Y-16.305 Z7.001 A343.9576 B-0.6548 
N1719 X187.981 Y-16.351 Z7.070 A344.5725 B-0.6551 
N1720 X187.980 Y-16.379 Z7.164 A345.7061 B-0.6590 
N1721 X187.981 Y-16.381 Z7.336 A348.1738 B-0.6692 
N1722 X187.986 Y-16.357 Z7.695 A353.6914 B-0.6900 
N1723 X187.996 Y-16.364 Z8.269 A2.6530 B-0.7175 
N1724 X188.006 Y-16.470 Z8.908 A12.7974 B-0.7484 
N1725 X188.012 Y-16.676 Z9.499 A22.6371 B-0.7739 
N1726 X188.015 Y-16.946 Z9.998 A31.5625 B-0.8020 
N1727 X188.016 Y-17.214 Z10.361 A38.6551 B-0.8107 
N1728 X188.016 Y-17.483 Z10.649 A44.8383 B-0.8165 
N1729 X188.015 Y-17.744 Z10.876 A50.2751 B-0.8199 
N1730 X188.014 Y-17.996 Z11.058 A55.1620 B-0.8206 
N1731 X188.012 Y-18.242 Z11.207 A59.6665 B-0.8184 
N1732 X188.010 Y-18.485 Z11.329 A63.9408 B-0.8134 
N1733 X188.007 Y-18.731 Z11.431 A68.1098 B-0.8055 
N1734 X188.004 Y-18.984 Z11.515 A72.2928 B-0.7948 
N1735 X188.001 Y-19.251 Z11.582 A76.6088 B-0.7812 
N1736 X187.997 Y-19.539 Z11.631 A81.1910 B-0.7644 
N1737 X187.993 Y-19.856 Z11.658 A86.1855 B-0.7441 
N1738 X187.987 Y-20.212 Z11.656 A91.7655 B-0.7203 
N1739 X187.980 Y-20.613 Z11.612 A98.0886 B-0.6927 
N1740 X187.970 Y-21.104 Z11.496 A106.0144 B-0.6484 
N1741 X187.956 Y-21.679 Z11.263 A115.7559 B-0.5915 
N1742 X187.938 Y-22.249 Z10.902 A126.3504 B-0.5333 
N1743 X187.920 Y-22.770 Z10.405 A137.6429 B-0.4709 
N1744 X187.907 Y-23.077 Z9.971 A145.9302 B-0.4200 
N1745 X187.900 Y-23.186 Z9.728 A149.9667 B-0.3942 
N1746 X187.896 Y-23.200 Z9.607 A151.5899 B-0.3842 
N1747 X187.894 Y-23.172 Z9.536 A152.1705 B-0.3800 
N1748 X187.892 Y-23.121 Z9.479 A152.3473 B-0.3793 
N1749 X187.889 Y-23.054 Z9.418 A152.4207 B-0.3784 
N1750 X187.887 Y-22.973 Z9.347 A152.4697 B-0.3785 
N1751 X187.884 Y-22.875 Z9.264 A152.5053 B-0.3782 
N1752 X187.880 Y-22.760 Z9.167 A152.5361 B-0.3781 
N1753 X187.876 Y-22.627 Z9.055 A152.5673 B-0.3778 
N1754 X187.871 Y-22.474 Z8.926 A152.6018 B-0.3775 
N1755 X187.865 Y-22.301 Z8.781 A152.6412 B-0.3773 
N1756 X187.859 Y-22.108 Z8.619 A152.6869 B-0.3768 
N1757 X187.852 Y-21.895 Z8.441 A152.7407 B-0.3766 
N1758 X187.845 Y-21.663 Z8.246 A152.8044 B-0.3760 
N1759 X187.837 Y-21.412 Z8.035 A152.8804 B-0.3755 
N1760 X187.828 Y-21.145 Z7.810 A152.9716 B-0.3750 
N1761 X187.819 Y-20.862 Z7.572 A153.0802 B-0.3741 
N1762 X187.810 Y-20.565 Z7.323 A153.2084 B-0.3733 
N1763 X187.800 Y-20.257 Z7.063 A153.3571 B-0.3722 
N1764 X187.790 Y-19.938 Z6.795 A153.5269 B-0.3711 
N1765 X187.779 Y-19.611 Z6.521 A153.7182 B-0.3697 
N1766 X187.769 Y-19.278 Z6.242 A153.9313 B-0.3683 
N1767 X187.758 Y-18.939 Z5.959 A154.1662 B-0.3667 
N1768 X187.747 Y-18.597 Z5.673 A154.4236 B-0.3650 
N1769 X187.736 Y-18.252 Z5.387 A154.7043 B-0.3631 
N1770 X187.726 Y-17.906 Z5.100 A155.0100 B-0.3611 
N1771 X187.715 Y-17.559 Z4.814 A155.3429 B-0.3589 
N1772 X187.704 Y-17.212 Z4.529 A155.7053 B-0.3565 
N1773 X187.693 Y-16.866 Z4.246 A156.0987 B-0.3540 
N1774 X187.683 Y-16.521 Z3.965 A156.5239 B-0.3512 
N1775 X187.672 Y-16.178 Z3.687 A156.9810 B-0.3483 
N1776 X187.662 Y-15.836 Z3.412 A157.4704 B-0.3451 
N1777 X187.652 Y-15.496 Z3.141 A157.9923 B-0.3418 
N1778 X187.642 Y-15.158 Z2.873 A158.5476 B-0.3383 
N1779 X187.632 Y-14.822 Z2.609 A159.1372 B-0.3346 
N1780 X187.622 Y-14.488 Z2.349 A159.7622 B-0.3307 
N1781 X187.613 Y-14.156 Z2.093 A160.4240 B-0.3266 
N1782 X187.603 Y-13.827 Z1.842 A161.1238 B-0.3223 
N1783 X187.594 Y-13.501 Z1.596 A161.8633 B-0.3178 
N1784 X187.585 Y-13.176 Z1.354 A162.6441 B-0.3130 
N1785 X187.576 Y-12.855 Z1.117 A163.4685 B-0.3081 
N1786 X187.567 Y-12.535 Z0.884 A164.3393 B-0.3029 
N1787 X187.559 Y-12.219 Z0.657 A165.2595 B-0.2975 
N1788 X187.551 Y-11.905 Z0.434 A166.2322 B-0.2919 
N1789 X187.543 Y-11.594 Z0.215 A167.2599 B-0.2859 
N1790 X187.535 Y-11.285 Z0.002 A168.3431 B-0.2797 
N1791 X187.527 Y-10.979 Z-0.206 A169.4811 B-0.2733 
N1792 X187.520 Y-10.675 Z-0.409 A170.6723 B-0.2667 
N1793 X187.512 Y-10.373 Z-0.606 A171.9150 B-0.2599 
N1794 X187.505 Y-10.074 Z-0.798 A173.2083 B-0.2529 
N1795 X187.499 Y-9.776 Z-0.984 A174.5523 B-0.2458 
N1796 X187.492 Y-9.480 Z-1.164 A175.9481 B-0.2386 
N1797 X187.486 Y-9.186 Z-1.338 A177.3969 B-0.2313 
N1798 X187.479 Y-8.894 Z-1.507 A178.8998 B-0.2239 
N1799 X187.473 Y-8.603 Z-1.670 A180.4576 B-0.2164 
N1800 X187.468 Y-8.313 Z-1.828 A182.0707 B-0.2089 
N1801 X187.462 Y-8.024 Z-1.980 A183.7390 B-0.2014 
N1802 X187.457 Y-7.736 Z-2.126 A185.4618 B-0.1938 
N1803 X187.452 Y-7.448 Z-2.266 A187.2377 B-0.1863 
N1804 X187.447 Y-7.160 Z-2.399 A189.0651 B-0.1789 
N1805 X187.442 Y-6.871 Z-2.526 A190.9417 B-0.1716 
N1806 X187.438 Y-6.583 Z-2.647 A192.8649 B-0.1645 
N1807 X187.433 Y-6.293 Z-2.760 A194.8317 B-0.1576 
N1808 X187.429 Y-6.003 Z-2.866 A196.8384 B-0.1509 
N1809 X187.425 Y-5.711 Z-2.964 A198.8812 B-0.1445 
N1810 X187.422 Y-5.418 Z-3.053 A200.9553 B-0.1385 
N1811 X187.418 Y-5.124 Z-3.134 A203.0560 B-0.1328 
N1812 X187.415 Y-4.828 Z-3.206 A205.1782 B-0.1275 
N1813 X187.412 Y-4.531 Z-3.267 A207.3169 B-0.1227 
N1814 X187.409 Y-4.232 Z-3.319 A209.4670 B-0.1183 
N1815 X187.406 Y-3.932 Z-3.359 A211.6232 B-0.1144 
N1816 X187.404 Y-3.631 Z-3.389 A213.7800 B-0.1110 
N1817 X187.402 Y-3.329 Z-3.406 A215.9317 B-0.1081 
N1818 X187.399 Y-3.026 Z-3.412 A218.0728 B-0.1057 
N1819 X187.397 Y-2.724 Z-3.405 A220.1980 B-0.1038 
N1820 X187.396 Y-2.421 Z-3.385 A222.3026 B-0.1025 
N1821 X187.394 Y-2.119 Z-3.351 A224.3820 B-0.1016 
N1822 X187.392 Y-1.817 Z-3.305 A226.4319 B-0.1012 
N1823 X187.391 Y-1.518 Z-3.245 A228.4484 B-0.1013 
N1824 X187.389 Y-1.220 Z-3.171 A230.4276 B-0.1018 
N1825 X187.388 Y-0.924 Z-3.083 A232.3664 B-0.1027 
N1826 X187.387 Y-0.632 Z-2.982 A234.2620 B-0.1040 
N1827 X187.385 Y-0.342 Z-2.868 A236.1122 B-0.1056 
N1828 X187.384 Y-0.057 Z-2.740 A237.9154 B-0.1075 
N1829 X187.383 Y0.224 Z-2.599 A239.6705 B-0.1098 
N1830 X187.381 Y0.501 Z-2.446 A241.3765 B-0.1123 
N1831 X187.380 Y0.772 Z-2.280 A243.0331 B-0.1150 
N1832 X187.379 Y1.037 Z-2.102 A244.6403 B-0.1180 
N1833 X187.377 Y1.297 Z-1.914 A246.1991 B-0.1211 
N1834 X187.376 Y1.551 Z-1.715 A247.7118 B-0.1243 
N1835 X187.374 Y1.798 Z-1.506 A249.1823 B-0.1277 
N1836 X187.373 Y2.039 Z-1.289 A250.6158 B-0.1313 
N1837 X187.371 Y2.274 Z-1.064 A252.0189 B-0.1350 
N1838 X187.370 Y2.502 Z-0.832 A253.3970 B-0.1389 
N1839 X187.368 Y2.723 Z-0.594 A254.7532 B-0.1429 
N1840 X187.366 Y2.937 Z-0.351 A256.0868 B-0.1471 
N1841 X187.364 Y3.143 Z-0.104 A257.3952 B-0.1512 
N1842 X187.363 Y3.340 Z0.146 A258.6771 B-0.1556 
N1843 X187.361 Y3.530 Z0.397 A259.9348 B-0.1599 
N1844 X187.359 Y3.711 Z0.648 A261.1761 B-0.1644 
N1845 X187.357 Y3.885 Z0.897 A262.4134 B-0.1690 
N1846 X187.355 Y4.051 Z1.143 A263.6603 B-0.1738 
N1847 X187.353 Y4.212 Z1.385 A264.9280 B-0.1789 
N1848 X187.352 Y4.366 Z1.622 A266.2239 B-0.1844 
N1849 X187.350 Y4.514 Z1.853 A267.5533 B-0.1901 
N1850 X187.348 Y4.656 Z2.075 A268.9225 B-0.1962 
N1851 X187.347 Y4.794 Z2.290 A270.3413 B-0.2028 
N1852 X187.346 Y4.928 Z2.496 A271.8192 B-0.2099 
N1853 X187.345 Y5.058 Z2.692 A273.3578 B-0.2175 
N1854 X187.344 Y5.184 Z2.879 A274.9574 B-0.2255 
N1855 X187.344 Y5.309 Z3.057 A276.6367 B-0.2340 
N1856 X187.343 Y5.435 Z3.226 A278.4358 B-0.2434 
N1857 X187.343 Y5.566 Z3.388 A280.4011 B-0.2541 
N1858 X187.344 Y5.704 Z3.544 A282.5830 B-0.2662 
N1859 X187.345 Y5.853 Z3.699 A285.0435 B-0.2804 
N1860 X187.346 Y6.018 Z3.856 A287.8548 B-0.2971 
N1861 X187.349 Y6.201 Z4.020 A291.0896 B-0.3171 
N1862 X187.352 Y6.403 Z4.198 A294.8072 B-0.3407 
N1863 X187.356 Y6.623 Z4.397 A299.0323 B-0.3688 
N1864 X187.362 Y6.855 Z4.621 A303.7320 B-0.4005 
N1865 X187.368 Y7.089 Z4.874 A308.8193 B-0.4350 
N1866 X187.375 Y7.312 Z5.154 A314.1743 B-0.4712 
N1867 X187.382 Y7.516 Z5.458 A319.6699 B-0.5075 
N1868 X187.389 Y7.692 Z5.781 A325.1984 B-0.5422 
N1869 X187.395 Y7.835 Z6.116 A330.6856 B-0.5763 
N1870 X187.401 Y7.943 Z6.458 A336.0843 B-0.6088 
N1871 X187.406 Y8.014 Z6.802 A341.3593 B-0.6394 
N1872 X187.411 Y8.048 Z7.143 A346.4705 B-0.6686 
N1873 X187.414 Y8.045 Z7.473 A351.3626 B-0.6956 
N1874 X187.416 Y8.008 Z7.786 A355.9672 B-0.7200 
N1875 X187.417 Y7.939 Z8.073 A0.2162 B-0.7417 
N1876 X187.417 Y7.843 Z8.330 A4.0624 B-0.7598 
N1877 X187.415 Y7.724 Z8.556 A7.4986 B-0.7752 
N1878 X187.413 Y7.585 Z8.751 A10.5559 B-0.7876 
N1879 X187.409 Y7.429 Z8.919 A13.2838 B-0.7985 
N1880 X187.404 Y7.257 Z9.062 A15.7331 B-0.8077 
N1881 X187.397 Y7.069 Z9.183 A17.9442 B-0.8152 
N1882 X187.390 Y6.866 Z9.282 A19.9508 B-0.8217 
N1883 X187.381 Y6.647 Z9.362 A21.7902 B-0.8271 
N1884 X187.372 Y6.411 Z9.424 A23.4967 B-0.8322 
N1885 X187.361 Y6.160 Z9.469 A25.0804 B-0.8370 
N1886 X187.349 Y5.893 Z9.494 A26.5297 B-0.8406 
N1887 X187.336 Y5.612 Z9.501 A27.8371 B-0.8442 
N1888 X187.322 Y5.318 Z9.488 A29.0053 B-0.8466 
N1889 X187.307 Y5.011 Z9.456 A30.0363 B-0.8494 
N1890 X187.290 Y4.692 Z9.406 A30.9294 B-0.8512 
N1891 X187.273 Y4.363 Z9.338 A31.6836 B-0.8531 
N1892 X187.255 Y4.025 Z9.254 A32.3028 B-0.8541 
N1893 X187.235 Y3.678 Z9.155 A32.7960 B-0.8557 
N1894 X187.215 Y3.324 Z9.043 A33.1743 B-0.8563 
N1895 X187.195 Y2.965 Z8.919 A33.4480 B-0.8573 
N1896 X187.174 Y2.600 Z8.785 A33.6231 B-0.8578 
N1897 X187.152 Y2.233 Z8.643 A33.7011 B-0.8583 
N1898 X187.130 Y1.864 Z8.493 A33.6796 B-0.8586 
N1899 X187.108 Y1.496 Z8.337 A33.5547 B-0.8587 
N1900 X187.086 Y1.129 Z8.175 A33.3219 B-0.8587 
N1901 X187.063 Y0.765 Z8.009 A32.9773 B-0.8585 
N1902 X187.041 Y0.405 Z7.841 A32.5190 B-0.8581 
N1903 X187.019 Y0.050 Z7.670 A31.9479 B-0.8576 
N1904 X186.997 Y-0.300 Z7.499 A31.2699 B-0.8572 
N1905 X186.975 Y-0.644 Z7.329 A30.4965 B-0.8572 
N1906 X186.953 Y-0.983 Z7.161 A29.6450 B-0.8583 
N1907 X186.932 Y-1.316 Z6.999 A28.7384 B-0.8613 
N1908 X186.911 Y-1.643 Z6.843 A27.8034 B-0.8675 
N1909 X186.891 Y-1.964 Z6.696 A26.8694 B-0.8783 
N1910 X186.871 Y-2.279 Z6.559 A25.9644 B-0.8950 
N1911 X186.851 Y-2.587 Z6.434 A25.1120 B-0.9185 
N1912 X186.833 Y-2.889 Z6.323 A24.3262 B-0.9491 
N1913 X186.814 Y-3.185 Z6.223 A23.6085 B-0.9862 
N1914 X186.796 Y-3.477 Z6.136 A22.9463 B-1.0281 
N1915 X186.778 Y-3.765 Z6.057 A22.3143 B-1.0724 
N1916 X186.760 Y-4.051 Z5.986 A21.6809 B-1.1166 
N1917 X186.742 Y-4.337 Z5.919 A21.0162 B-1.1582 
N1918 X186.724 Y-4.624 Z5.856 A20.3006 B-1.1957 
N1919 X186.707 Y-4.913 Z5.795 A19.5275 B-1.2285 
N1920 X186.689 Y-5.204 Z5.738 A18.7006 B-1.2566 
N1921 X186.671 Y-5.498 Z5.685 A17.8254 B-1.2803 
N1922 X186.653 Y-5.796 Z5.635 A16.9026 B-1.2996 
N1923 X186.635 Y-6.097 Z5.589 A15.9267 B-1.3139 
N1924 X186.616 Y-6.404 Z5.546 A14.8909 B-1.3229 
N1925 X186.598 Y-6.717 Z5.506 A13.7937 B-1.3264 
N1926 X186.580 Y-7.036 Z5.470 A12.6422 B-1.3249 
N1927 X186.561 Y-7.361 Z5.440 A11.4488 B-1.3190 
N1928 X186.542 Y-7.692 Z5.415 A10.2241 B-1.3094 
N1929 X186.524 Y-8.029 Z5.396 A8.9707 B-1.2962 
N1930 X186.505 Y-8.372 Z5.383 A7.6833 B-1.2791 
N1931 X186.486 Y-8.723 Z5.376 A6.3546 B-1.2577 
N1932 X186.467 Y-9.081 Z5.375 A4.9828 B-1.2318 
N1933 X186.448 Y-9.446 Z5.381 A3.5761 B-1.2020 
N1934 X186.428 Y-9.816 Z5.394 A2.1509 B-1.1693 
N1935 X186.409 Y-10.192 Z5.415 A0.7262 B-1.1347 
N1936 X186.390 Y-10.571 Z5.445 A359.3178 B-1.0993 
N1937 X186.371 Y-10.951 Z5.484 A357.9344 B-1.0635 
N1938 X186.352 Y-11.333 Z5.532 A356.5778 B-1.0275 
N1939 X186.333 Y-11.714 Z5.587 A355.2465 B-0.9911 
N1940 X186.314 Y-12.093 Z5.650 A353.9407 B-0.9544 
N1941 X186.296 Y-12.469 Z5.719 A352.6673 B-0.9179 
N1942 X186.278 Y-12.838 Z5.794 A351.4419 B-0.8820 
N1943 X186.261 Y-13.199 Z5.875 A350.2856 B-0.8483 
N1944 X186.244 Y-13.546 Z5.961 A349.2185 B-0.8165 
N1945 X186.228 Y-13.879 Z6.052 A348.2537 B-0.7888 
N1946 X186.212 Y-14.195 Z6.145 A347.3957 B-0.7637 
N1947 X186.198 Y-14.491 Z6.239 A346.6417 B-0.7420 
N1948 X186.185 Y-14.767 Z6.331 A345.9862 B-0.7240 
N1949 X186.173 Y-15.020 Z6.421 A345.4232 B-0.7085 
N1950 X186.161 Y-15.251 Z6.507 A344.9474 B-0.6963 
N1951 X186.151 Y-15.458 Z6.588 A344.5528 B-0.6874 
N1952 X186.142 Y-15.641 Z6.662 A344.2322 B-0.6801 
N1953 X186.135 Y-15.802 Z6.730 A343.9781 B-0.6760 
N1954 X186.128 Y-15.941 Z6.791 A343.7851 B-0.6724 
N1955 X186.122 Y-16.060 Z6.846 A343.6553 B-0.6708 
N1956 X186.117 Y-16.160 Z6.897 A343.6057 B-0.6692 
N1957 X186.113 Y-16.241 Z6.947 A343.6792 B-0.6679 
N1958 X186.109 Y-16.305 Z7.001 A343.9567 B-0.6678 
N1959 X186.107 Y-16.351 Z7.070 A344.5712 B-0.6683 
N1960 X186.106 Y-16.379 Z7.164 A345.7040 B-0.6724 
N1961 X186.107 Y-16.382 Z7.336 A348.1702 B-0.6835 
N1962 X186.113 Y-16.357 Z7.694 A353.6858 B-0.7064 
N1963 X186.123 Y-16.364 Z8.269 A2.6461 B-0.7371 
N1964 X186.134 Y-16.470 Z8.907 A12.7905 B-0.7714 
N1965 X186.140 Y-16.676 Z9.499 A22.6309 B-0.7989 
N1966 X186.144 Y-16.946 Z9.998 A31.5574 B-0.8277 
N1967 X186.145 Y-17.214 Z10.361 A38.6510 B-0.8367 
N1968 X186.144 Y-17.483 Z10.648 A44.8350 B-0.8423 
N1969 X186.143 Y-17.744 Z10.876 A50.2725 B-0.8453 
N1970 X186.142 Y-17.997 Z11.058 A55.1599 B-0.8455 
N1971 X186.140 Y-18.242 Z11.206 A59.6648 B-0.8428 
N1972 X186.137 Y-18.485 Z11.329 A63.9395 B-0.8370 
N1973 X186.135 Y-18.731 Z11.431 A68.1088 B-0.8284 
N1974 X186.132 Y-18.984 Z11.515 A72.2919 B-0.8170 
N1975 X186.128 Y-19.251 Z11.582 A76.6081 B-0.8024 
N1976 X186.124 Y-19.539 Z11.631 A81.1904 B-0.7845 
N1977 X186.119 Y-19.856 Z11.658 A86.1850 B-0.7630 
N1978 X186.113 Y-20.212 Z11.656 A91.7650 B-0.7376 
N1979 X186.106 Y-20.613 Z11.612 A98.0881 B-0.7078 
N1980 X186.095 Y-21.104 Z11.496 A106.0140 B-0.6607 
N1981 X186.080 Y-21.679 Z11.263 A115.7556 B-0.5999 
N1982 X186.061 Y-22.249 Z10.902 A126.3501 B-0.5362 
N1983 X186.041 Y-22.770 Z10.405 A137.6428 B-0.4683 
N1984 X186.028 Y-23.077 Z9.971 A145.9303 B-0.4139 
N1985 X186.020 Y-23.186 Z9.728 A149.9669 B-0.3864 
N1986 X186.017 Y-23.200 Z9.607 A151.5900 B-0.3757 
N1987 X186.014 Y-23.172 Z9.536 A152.1706 B-0.3713 
N1988 X186.012 Y-23.121 Z9.479 A152.3475 B-0.3704 
N1989 X186.010 Y-23.054 Z9.418 A152.4208 B-0.3696 
N1990 X186.007 Y-22.973 Z9.347 A152.4699 B-0.3697 
N1991 X186.004 Y-22.875 Z9.264 A152.5055 B-0.3693 
N1992 X186.001 Y-22.760 Z9.167 A152.5363 B-0.3692 
N1993 X185.997 Y-22.627 Z9.055 A152.5675 B-0.3689 
N1994 X185.992 Y-22.474 Z8.926 A152.6019 B-0.3686 
N1995 X185.986 Y-22.301 Z8.781 A152.6413 B-0.3684 
N1996 X185.980 Y-22.108 Z8.619 A152.6871 B-0.3679 
N1997 X185.974 Y-21.895 Z8.441 A152.7408 B-0.3677 
N1998 X185.966 Y-21.663 Z8.246 A152.8045 B-0.3670 
N1999 X185.959 Y-21.412 Z8.035 A152.8806 B-0.3665 
N2000 X185.950 Y-21.145 Z7.810 A152.9717 B-0.3660 
N2001 X185.941 Y-20.862 Z7.572 A153.0804 B-0.3650 
N2002 X185.932 Y-20.565 Z7.323 A153.2085 B-0.3642 
N2003 X185.922 Y-20.257 Z7.063 A153.3572 B-0.3630 
N2004 X185.913 Y-19.938 Z6.795 A153.5271 B-0.3618 
N2005 X185.902 Y-19.611 Z6.521 A153.7184 B-0.3604 
N2006 X185.892 Y-19.278 Z6.242 A153.9315 B-0.3588 
N2007 X185.882 Y-18.939 Z5.958 A154.1664 B-0.3572 
N2008 X185.871 Y-18.597 Z5.673 A154.4238 B-0.3553 
N2009 X185.860 Y-18.252 Z5.387 A154.7045 B-0.3534 
N2010 X185.850 Y-17.906 Z5.100 A155.0103 B-0.3512 
N2011 X185.839 Y-17.559 Z4.814 A155.3432 B-0.3489 
N2012 X185.829 Y-17.212 Z4.529 A155.7056 B-0.3464 
N2013 X185.818 Y-16.866 Z4.246 A156.0990 B-0.3437 
N2014 X185.808 Y-16.521 Z3.965 A156.5242 B-0.3408 
N2015 X185.798 Y-16.178 Z3.687 A156.9814 B-0.3376 
N2016 X185.788 Y-15.836 Z3.412 A157.4708 B-0.3343 
N2017 X185.778 Y-15.496 Z3.140 A157.9927 B-0.3308 
N2018 X185.768 Y-15.158 Z2.873 A158.5480 B-0.3270 
N2019 X185.758 Y-14.822 Z2.609 A159.1377 B-0.3231 
N2020 X185.749 Y-14.488 Z2.349 A159.7627 B-0.3190 
N2021 X185.740 Y-14.156 Z2.093 A160.4245 B-0.3146 
N2022 X185.730 Y-13.827 Z1.842 A161.1244 B-0.3100 
N2023 X185.721 Y-13.500 Z1.596 A161.8639 B-0.3052 
N2024 X185.713 Y-13.176 Z1.354 A162.6448 B-0.3002 
N2025 X185.704 Y-12.854 Z1.117 A163.4693 B-0.2950 
N2026 X185.696 Y-12.535 Z0.884 A164.3400 B-0.2895 
N2027 X185.688 Y-12.219 Z0.656 A165.2603 B-0.2837 
N2028 X185.679 Y-11.905 Z0.433 A166.2331 B-0.2777 
N2029 X185.672 Y-11.594 Z0.215 A167.2608 B-0.2714 
N2030 X185.664 Y-11.285 Z0.002 A168.3440 B-0.2648 
N2031 X185.657 Y-10.979 Z-0.206 A169.4822 B-0.2580 
N2032 X185.649 Y-10.675 Z-0.409 A170.6734 B-0.2509 
N2033 X185.642 Y-10.373 Z-0.606 A171.9161 B-0.2437 
N2034 X185.636 Y-10.073 Z-0.798 A173.2095 B-0.2363 
N2035 X185.629 Y-9.776 Z-0.984 A174.5536 B-0.2288 
N2036 X185.623 Y-9.480 Z-1.164 A175.9494 B-0.2211 
N2037 X185.617 Y-9.186 Z-1.338 A177.3982 B-0.2134 
N2038 X185.611 Y-8.894 Z-1.507 A178.9012 B-0.2055 
N2039 X185.605 Y-8.603 Z-1.671 A180.4591 B-0.1976 
N2040 X185.599 Y-8.313 Z-1.828 A182.0723 B-0.1896 
N2041 X185.594 Y-8.024 Z-1.980 A183.7406 B-0.1816 
N2042 X185.589 Y-7.736 Z-2.126 A185.4634 B-0.1736 
N2043 X185.584 Y-7.447 Z-2.266 A187.2394 B-0.1656 
N2044 X185.580 Y-7.159 Z-2.399 A189.0668 B-0.1577 
N2045 X185.575 Y-6.871 Z-2.527 A190.9434 B-0.1500 
N2046 X185.571 Y-6.583 Z-2.647 A192.8667 B-0.1424 
N2047 X185.567 Y-6.293 Z-2.760 A194.8335 B-0.1351 
N2048 X185.563 Y-6.003 Z-2.866 A196.8403 B-0.1280 
N2049 X185.560 Y-5.711 Z-2.964 A198.8830 B-0.1213 
N2050 X185.556 Y-5.418 Z-3.054 A200.9572 B-0.1149 
N2051 X185.553 Y-5.124 Z-3.134 A203.0579 B-0.1089 
N2052 X185.550 Y-4.828 Z-3.206 A205.1801 B-0.1033 
N2053 X185.547 Y-4.531 Z-3.267 A207.3189 B-0.0982 
