N10 ; PROGRAM NAME: 1373211
N11 ; ORDER       : 13732
N12 ; OPER. NAME  : Spiral Rough Rhombic:102
N13 ; OPER. DESCR.: spiral roughing rhombic/nozka zgr
N14 ; OPER. TYPE  : rouRoot
N15 ; GEO. OPTION : 4
N16 ; MACHINE     : SH_HX151_24_SIM840D
N17 ;             : STARRAG_HECKERT_5axis_finish_milling_machine
N18 ; CONTROL     : SINUMERIK 840D
N19 ; created:   2021-11-10 08:28:12.655158
;-------DODATKOWE DANE-------------------
; PROGRAMISTA : Mariusz Orzechowski
; PARTID      : 132T008743P1005_-
;  ap         : 2.5
;  ae         : 24.0
;  lean_angle : 1.0
;  fin_offset : 0.6
;----------------------------------------
N20 ;----------------------------------------
RAPORT("T13732","Spiral Rough Rhombic:102")
N21 TRAFOOF
N22 D0
N23 G90 G94
N24 STOPRE
N25 M9 ; chlodziwo wyl
N26 ; --- Spiral Rough Rhombic:102 - spiral roughing rhombic/nozka zgr ---
N28 ;ToolChange : concat=None ,current_tdmid=None, PP.tdmId=958060
N29 MSG(" TLID=958060 D=40.0 R=6.0 Ang=0.0 Len=90.0 ")
N30 TRAFOOF
N31 D0
N32 G0 G53 Z290 B0
N33 G0 X200
N34 G0 Y150
N35 T="7758060"
N36 G0 X500
RAPORT("T13732","ToolChangeStart 7758060")
N37 M6
RAPORT("T13732","ToolChangeEnd")
N38 ; (Preloading tool)
N39 T="7740969"
N40 G0 X200
N41 STOPRE
N42 S2148 M03
N43 STOPRE
N44 TOL(0.1,1,1)
N45 G0 X147.002 A88.6518
N46 TRAORI
N47 G54 D1
N48 D2 
N49 ; DELTA A > 40.1
N50 TRAFOOF
N51 STOPRE
N52 G0 G53 D0 Z265.000
N53 G1 G53 A88.6518 F10000
N54 TRAORI
N55 G54 D2
N56 TRANS 
N57 G00 X147.002 Y-90.051 Z-39.863 A360.00 B0.0000 
N58 M346 ; chlodziwo mgla
N59 X147.002 Y-40.065 Z-41.040 
N60 G01 X147.002 Y-36.972 Z-40.569 F3007 
N61 X147.002 Y-34.176 Z-39.166 
N62 X147.002 Y-31.950 Z-36.967 
N63 X147.002 Y-30.513 Z-34.188 
N64 X147.002 Y-30.005 Z-31.101 
N65 X147.002 Y-29.984 Z-27.772 
N66 X147.002 Y-29.964 Z-24.503 
N67 X147.002 Y-29.945 Z-21.345 
N68 X147.002 Y-29.927 Z-18.348 
N69 X147.002 Y-29.910 Z-15.552 
N70 X147.002 Y-29.894 Z-12.988 
N71 X147.002 Y-29.880 Z-10.674 
N72 X147.002 Y-29.868 Z-8.619 
N73 X147.002 Y-29.857 Z-6.822 
N74 X147.002 Y-29.856 Z-5.273 A88.6149 
N75 X147.002 Y-29.946 Z-3.953 A88.1997 
N76 X147.002 Y-30.280 Z-2.829 A86.7333 
N77 X147.002 Y-31.002 Z-1.840 A83.5479 
N78 X147.002 Y-32.053 Z-0.900 A78.8074 
N79 X147.002 Y-33.259 Z0.058 A73.1613 
N80 X147.002 Y-34.527 Z1.087 A66.9349 
N81 X147.002 Y-35.774 Z2.213 A60.3957 
N82 X147.002 Y-36.944 Z3.450 A53.7011 
N83 X147.002 Y-37.996 Z4.803 A46.9269 
N84 X147.002 Y-38.859 Z6.226 A40.3450 
N85 X147.002 Y-39.518 Z7.704 A33.9637 
N86 X147.002 Y-39.979 Z9.252 A27.6298 
N87 X147.002 Y-40.208 Z10.835 A21.4176 
N88 X147.002 Y-40.176 Z12.386 A15.5121 
N89 X147.002 Y-39.871 Z13.833 A10.0912 
N90 X147.002 Y-39.296 Z15.087 A5.4005 
N91 X147.002 Y-38.471 Z16.029 A1.8459 
N92 X147.002 Y-37.427 Z16.542 A359.8866 
N93 X147.002 Y-36.185 Z16.707 A359.2607 
N94 X147.002 Y-34.737 Z16.740 A359.1480 
N95 X147.002 Y-33.068 Z16.746 A359.1401 
N96 X147.002 Y-31.173 Z16.750 
N97 X147.002 Y-29.053 Z16.755 
N98 X147.002 Y-26.720 Z16.761 
N99 X147.002 Y-24.195 Z16.767 
N100 X147.002 Y-21.508 Z16.774 
N101 X147.002 Y-18.696 Z16.781 
N102 X147.002 Y-15.805 Z16.788 
N103 X147.002 Y-12.884 Z16.795 
N104 X147.002 Y-9.984 Z16.802 
N105 X147.002 Y-7.155 Z16.809 
N106 X147.002 Y-4.441 Z16.816 
N107 X147.002 Y-1.884 Z16.822 
N108 X147.002 Y0.486 Z16.828 
N109 X147.002 Y2.646 Z16.833 
N110 X147.002 Y4.583 Z16.838 
N111 X147.002 Y6.294 Z16.843 A359.1345 
N112 X147.002 Y7.785 Z16.878 A359.0038 
N113 X147.002 Y9.068 Z17.030 A358.3622 
N114 X147.002 Y10.175 Z17.451 A356.5429 
N115 X147.002 Y11.163 Z18.223 A353.1367 
N116 X147.002 Y12.101 Z19.226 A348.5684 
N117 X147.002 Y13.039 Z20.337 A343.3145 B-0.0021 
N118 X147.002 Y14.018 Z21.489 A337.6121 B-0.0084 
N119 X147.002 Y15.059 Z22.620 A331.6830 B-0.0185 
N120 X147.002 Y16.164 Z23.673 A325.7235 B-0.0265 
N121 X147.002 Y17.324 Z24.612 A319.8596 B-0.0246 
N122 X147.002 Y18.528 Z25.418 A314.1498 B-0.0119 
N123 X147.002 Y19.777 Z26.085 A308.5751 B0.0038 
N124 X147.002 Y21.076 Z26.613 A303.0598 B0.0147 
N125 X147.002 Y22.427 Z26.993 A297.5642 B0.0182 
N126 X147.002 Y23.808 Z27.201 A292.1431 B0.0159 
N127 X147.002 Y25.177 Z27.218 A286.9047 B0.0106 
N128 X147.002 Y26.486 Z27.033 A281.9741 B0.0053 
N129 X147.002 Y27.681 Z26.645 A277.4953 B0.0017 
N130 X147.002 Y28.690 Z26.066 A273.6873 B0.0000 
N131 X147.002 Y29.411 Z25.320 A270.9288 
N132 X147.002 Y29.802 Z24.437 A269.4073 
N133 X147.002 Y29.955 Z23.437 A268.7889 
N134 X147.002 Y29.995 Z22.325 A268.5993 B0.0011 
N135 X147.002 Y29.994 Z21.104 A268.5647 B0.0039 
N136 X147.002 Y29.985 Z19.781 A268.5636 B0.0109 
N137 X147.002 Y29.974 Z18.372 B0.0237 
N138 X147.002 Y29.963 Z16.893 A268.5636 B0.0419 
N139 X147.002 Y29.951 Z15.367 A268.5636 B0.0650 
N140 X147.002 Y29.939 Z13.820 A268.5636 B0.0930 
N141 X147.002 Y29.927 Z12.276 A268.5636 B0.1243 
N142 X147.002 Y29.916 Z10.762 A268.5637 B0.1537 
N143 X147.002 Y29.905 Z9.301 A268.5637 B0.1758 
N144 X147.003 Y29.894 Z7.916 A268.5637 B0.1910 
N145 X147.003 Y29.884 Z6.623 A268.5637 B0.2022 
N146 X147.003 Y29.880 Z5.434 A268.5447 B0.2121 
N147 X147.003 Y29.911 Z4.357 A268.3786 B0.2228 
N148 X147.003 Y30.046 Z3.392 A267.7719 B0.2388 
N149 X147.003 Y30.397 Z2.525 A266.2288 B0.2675 
N150 X147.003 Y31.045 Z1.722 A263.3751 B0.3172 
N151 X147.003 Y31.925 Z0.940 A259.4143 B0.3923 
N152 X147.004 Y32.929 Z0.140 A254.7540 B0.4932 
N153 X147.004 Y33.999 Z-0.709 A249.5960 B0.6167 
N154 X147.004 Y35.086 Z-1.631 A244.0954 B0.7540 
N155 X147.005 Y36.145 Z-2.639 A238.3778 B0.8896 
N156 X147.005 Y37.155 Z-3.753 A232.4588 B0.9990 
N157 X147.005 Y38.079 Z-4.975 A226.3987 B1.0466 
N158 X147.005 Y38.859 Z-6.277 A220.4015 B1.0091 
N159 X147.005 Y39.484 Z-7.660 A214.4138 B0.9041 
N160 X147.004 Y39.946 Z-9.142 A208.3184 B0.7691 
N161 X147.004 Y40.201 Z-10.690 A202.2129 B0.6314 
N162 X147.004 Y40.209 Z-12.235 A196.3078 B0.5043 
N163 X147.003 Y39.949 Z-13.701 A190.7993 B0.3955 
N164 X147.003 Y39.417 Z-14.997 A185.9498 B0.3115 
N165 X147.003 Y38.630 Z-15.995 A182.1801 B0.2557 
N166 X147.003 Y37.620 Z-16.568 A179.9912 B0.2261 
N167 X147.003 Y36.411 Z-16.763 A179.2447 B0.2139 
N168 X147.003 Y34.998 Z-16.800 A179.1061 B0.2083 
N169 X147.003 Y33.367 Z-16.806 A179.0937 B0.2038 
N170 X147.003 Y31.510 Z-16.809 A179.0937 B0.1988 
N171 X147.003 Y29.428 Z-16.813 A179.0937 B0.1931 
N172 X147.003 Y27.130 Z-16.816 A179.0937 B0.1869 
N173 X147.002 Y24.635 Z-16.820 A179.0937 B0.1796 
N174 X147.002 Y21.974 Z-16.825 A179.0936 B0.1680 
N175 X147.002 Y19.181 Z-16.829 A179.0936 B0.1525 
N176 X147.002 Y16.301 Z-16.834 A179.0936 B0.1368 
N177 X147.002 Y13.384 Z-16.839 A179.0936 B0.1218 
N178 X147.002 Y10.479 Z-16.844 A179.0936 B0.1078 
N179 X147.002 Y7.637 Z-16.848 A179.0936 B0.0950 
N180 X147.002 Y4.905 Z-16.853 A179.0935 B0.0832 
N181 X147.002 Y2.323 Z-16.857 A179.0935 B0.0691 
N182 X147.002 Y-0.077 Z-16.861 A179.0935 B0.0504 
N183 X147.002 Y-2.269 Z-16.864 A179.0935 B0.0331 
N184 X147.002 Y-4.240 Z-16.868 B0.0198 
N185 X147.002 Y-5.985 Z-16.871 A179.0915 B0.0101 
N186 X147.002 Y-7.508 Z-16.894 A179.0030 B0.0040 
N187 X147.002 Y-8.821 Z-17.016 A178.4923 B0.0012 
N188 X147.002 Y-9.950 Z-17.375 A176.9402 B0.0019 
N189 X147.002 Y-10.950 Z-18.088 A173.8070 B0.0083 
N190 X147.002 Y-11.888 Z-19.065 A169.3839 B0.0223 
N191 X147.002 Y-12.820 Z-20.164 A164.2268 B0.0419 
N192 X147.002 Y-13.784 Z-21.308 A158.6133 B0.0612 
N193 X147.002 Y-14.804 Z-22.434 A152.7736 B0.0722 
N194 X147.002 Y-15.887 Z-23.494 A146.8682 B0.0688 
N195 X147.002 Y-17.045 Z-24.472 A140.9090 B0.0505 
N196 X147.002 Y-18.278 Z-25.342 A134.9499 B0.0231 
N197 X147.002 Y-19.556 Z-26.061 A129.1610 B-0.0035 
N198 X147.002 Y-20.857 Z-26.612 A123.5972 B-0.0216 
N199 X147.002 Y-22.187 Z-27.002 A118.1675 B-0.0282 
N200 X147.002 Y-23.545 Z-27.226 A112.8227 B-0.0248 
N201 X147.002 Y-24.898 Z-27.265 A107.6366 B-0.0161 
N202 X147.002 Y-26.200 Z-27.107 A102.7290 B-0.0079 
N203 X147.002 Y-27.402 Z-26.751 A98.2301 B-0.0027 
N204 X147.002 Y-28.444 Z-26.204 A94.3041 B0.0000 
N205 X147.002 Y-29.232 Z-25.485 A91.2950 
N206 X147.002 Y-29.688 Z-24.625 A89.5235 
N207 X147.002 Y-29.872 Z-23.646 A88.7819 
N208 X147.002 Y-29.921 Z-22.555 A88.5526 
N209 X147.002 Y-29.923 Z-21.354 A88.5043 
N210 X147.002 Y-29.913 Z-20.052 A88.5011 
N211 X147.002 Y-29.900 Z-18.660 
N212 X147.002 Y-29.888 Z-17.197 
N213 X147.002 Y-29.874 Z-15.684 
N214 X147.002 Y-29.861 Z-14.146 
N215 X147.002 Y-29.848 Z-12.607 
N216 X147.002 Y-29.835 Z-11.095 
N217 X147.002 Y-29.822 Z-9.632 
N218 X147.002 Y-29.810 Z-8.242 
N219 X147.002 Y-29.798 Z-6.941 
N220 X147.002 Y-29.790 Z-5.743 A88.4917 
N221 X147.002 Y-29.813 Z-4.656 A88.3561 
N222 X147.002 Y-29.934 Z-3.679 A87.8043 
N223 X147.002 Y-30.247 Z-2.803 A86.4245 
N224 X147.002 Y-30.835 Z-2.000 A83.8266 
N225 X147.002 Y-31.676 Z-1.223 A80.0546 
N226 X147.002 Y-32.663 Z-0.433 A75.4992 
N227 X147.002 Y-33.726 Z0.402 A70.4114 
N228 X147.002 Y-34.815 Z1.308 A64.9519 
N229 X147.002 Y-35.879 Z2.297 A59.2784 
N230 X147.002 Y-36.892 Z3.383 A53.4337 
N231 X147.002 Y-37.831 Z4.579 A47.4191 
N232 X147.002 Y-38.642 Z5.864 A41.4026 
N233 X147.002 Y-39.297 Z7.226 A35.4368 
N234 X147.002 Y-39.791 Z8.678 A29.4031 
N235 X147.002 Y-40.091 Z10.201 A23.3401 
N236 X147.002 Y-40.154 Z11.733 A17.4462 
N237 X147.002 Y-39.958 Z13.200 A11.9177 
N238 X147.002 Y-39.497 Z14.521 A6.9710 
N239 X147.002 Y-38.784 Z15.590 A2.9418 
N240 X147.002 Y-37.845 Z16.281 A0.3006 
N241 X147.002 Y-36.709 Z16.568 A359.1834 
N242 X147.002 Y-35.378 Z16.634 A358.9172 
N243 X147.002 Y-33.839 Z16.640 A358.8819 
N244 X147.002 Y-32.081 Z16.636 A358.8814 
N245 X147.002 Y-30.103 Z16.632 
N246 X147.002 Y-27.913 Z16.628 
N247 X147.002 Y-25.527 Z16.623 
N248 X147.002 Y-22.969 Z16.617 
N249 X147.002 Y-20.274 Z16.612 
N250 X147.002 Y-17.482 Z16.606 
N251 X147.002 Y-14.639 Z16.600 A358.8811 
N252 X147.002 Y-11.793 Z16.599 A358.8594 
N253 X147.002 Y-8.993 Z16.623 A358.7263 
N254 X147.002 Y-6.285 Z16.661 A358.4945 
N255 X147.002 Y-3.710 Z16.691 A358.2606 
N256 X147.002 Y-1.303 Z16.711 A358.0356 
N257 X147.002 Y0.911 Z16.723 A357.8161 
N258 X147.002 Y2.916 Z16.728 A357.6115 
N259 X147.002 Y4.702 Z16.708 A357.5103 
N260 X147.002 Y6.270 Z16.681 A357.4537 
N261 X147.002 Y7.635 Z16.729 A357.0958 
N262 X147.002 Y8.818 Z16.982 A355.8659 B-0.0026 
N263 X147.002 Y9.868 Z17.561 A353.2026 B-0.0099 
N264 X147.002 Y10.852 Z18.451 A349.0821 B-0.0253 
N265 X147.002 Y11.828 Z19.510 A344.0313 B-0.0468 
N266 X147.002 Y12.834 Z20.627 A338.4634 B-0.0672 
N267 X147.002 Y13.889 Z21.727 A332.6578 B-0.0782 
N268 X147.002 Y14.999 Z22.757 A326.8052 B-0.0753 
N269 X147.002 Y16.159 Z23.681 A321.0241 B-0.0585 
N270 X147.002 Y17.362 Z24.480 A315.3681 B-0.0312 
N271 X147.002 Y18.605 Z25.145 A309.8463 B0.0009 
N272 X147.002 Y19.892 Z25.674 A304.4038 B0.0328 
N273 X147.002 Y21.230 Z26.060 A298.9793 B0.0620 
N274 X147.002 Y22.605 Z26.284 A293.5907 B0.0878 
N275 X147.002 Y23.986 Z26.325 A288.3216 B0.1100 
N276 X147.002 Y25.326 Z26.168 A283.2898 B0.1288 
N277 X147.002 Y26.561 Z25.805 A278.6828 B0.1449 
N278 X147.002 Y27.608 Z25.247 A274.7672 B0.1592 
N279 X147.002 Y28.362 Z24.517 A271.9298 B0.1723 
N280 X147.002 Y28.781 Z23.650 A270.3545 B0.1846 
N281 X147.003 Y28.957 Z22.668 A269.7036 B0.1972 
N282 X147.003 Y29.018 Z21.579 A269.5022 B0.2109 
N283 X147.003 Y29.037 Z20.388 A269.4669 B0.2256 
N284 X147.003 Y29.047 Z19.105 A269.4660 B0.2413 
N285 X147.003 Y29.058 Z17.742 A269.4660 B0.2581 
N286 X147.003 Y29.070 Z16.319 A269.4660 B0.2755 
N287 X147.003 Y29.082 Z14.856 A269.4661 B0.2935 
N288 X147.003 Y29.094 Z13.378 A269.4661 B0.3116 
N289 X147.003 Y29.106 Z11.909 A269.4658 B0.3297 
N290 X147.003 Y29.120 Z10.473 A269.4537 B0.3475 
N291 X147.003 Y29.145 Z9.093 A269.3970 B0.3655 
N292 X147.003 Y29.175 Z7.788 A269.3056 B0.3840 
N293 X147.003 Y29.200 Z6.573 A269.2270 B0.4017 
N294 X147.003 Y29.222 Z5.460 A269.1559 B0.4179 
N295 X147.003 Y29.287 Z4.454 A268.8948 B0.4352 
N296 X147.003 Y29.481 Z3.553 A268.0774 B0.4602 
N297 X147.004 Y29.896 Z2.744 A266.2954 B0.5017 
N298 X147.004 Y30.583 Z1.991 A263.2928 B0.5678 
N299 X147.004 Y31.488 Z1.251 A259.2504 B0.6614 
N300 X147.004 Y32.517 Z0.483 A254.5128 B0.7805 
N301 X147.005 Y33.606 Z-0.341 A249.3012 B0.9196 
N302 X147.005 Y34.692 Z-1.236 A243.8356 B1.0666 
N303 X147.006 Y35.734 Z-2.209 A238.2448 B1.2053 
N304 X147.006 Y36.722 Z-3.278 A232.4926 B1.3149 
N305 X147.006 Y37.636 Z-4.457 A226.5803 B1.3661 
N306 X147.006 Y38.423 Z-5.722 A220.6755 B1.3378 
N307 X147.006 Y39.065 Z-7.071 A214.7624 B1.2428 
N308 X147.006 Y39.551 Z-8.519 A208.7419 B1.1132 
N309 X147.005 Y39.842 Z-10.035 A202.7014 B0.9748 
N310 X147.005 Y39.896 Z-11.551 A196.8589 B0.8415 
N311 X147.004 Y39.694 Z-13.001 A191.3774 B0.7216 
N312 X147.004 Y39.235 Z-14.306 A186.4681 B0.6230 
N313 X147.004 Y38.527 Z-15.343 A182.5380 B0.5521 
N314 X147.004 Y37.604 Z-15.988 A180.0584 B0.5117 
N315 X147.004 Y36.491 Z-16.243 A179.0613 B0.4965 
N316 X147.004 Y35.189 Z-16.295 A178.8389 B0.4943 
N317 X147.004 Y33.684 Z-16.297 A178.8107 B0.4961 
N318 X147.004 Y31.968 Z-16.292 A178.8103 B0.4987 
N319 X147.004 Y30.038 Z-16.285 A178.8103 B0.5016 
N320 X147.004 Y27.903 Z-16.278 A178.8104 B0.5048 
N321 X147.004 Y25.578 Z-16.271 A178.8104 B0.5083 
N322 X147.004 Y23.088 Z-16.262 A178.8104 B0.5120 
N323 X147.004 Y20.465 Z-16.254 A178.8104 B0.5159 
N324 X147.004 Y17.749 Z-16.245 A178.8104 B0.5200 
N325 X147.004 Y14.985 Z-16.235 A178.8104 B0.5241 
N326 X147.004 Y12.218 Z-16.227 A178.8071 B0.5282 
N327 X147.004 Y9.496 Z-16.251 A178.6626 B0.5324 
N328 X147.004 Y6.860 Z-16.334 A178.2241 B0.5409 
N329 X147.004 Y4.352 Z-16.414 A177.7175 B0.5528 
N330 X147.004 Y2.004 Z-16.470 A177.2335 B0.5444 
N331 X147.004 Y-0.158 Z-16.504 A176.7920 B0.5107 
N332 X147.003 Y-2.120 Z-16.528 A176.3587 B0.4767 
N333 X147.003 Y-3.870 Z-16.510 A176.0841 B0.4495 
N334 X147.003 Y-5.409 Z-16.458 A175.9717 B0.4274 
N335 X147.003 Y-6.753 Z-16.467 A175.6324 B0.4070 
N336 X147.003 Y-7.930 Z-16.690 A174.4092 B0.3852 
N337 X147.003 Y-8.989 Z-17.243 A171.7396 B0.3596 
N338 X147.003 Y-10.000 Z-18.128 A167.5338 B0.3285 
N339 X147.003 Y-11.022 Z-19.197 A162.3142 B0.2921 
N340 X147.003 Y-12.082 Z-20.305 A156.6362 B0.2504 
N341 X147.003 Y-13.179 Z-21.353 A150.8829 B0.2043 
N342 X147.002 Y-14.313 Z-22.302 A145.2038 B0.1541 
N343 X147.002 Y-15.492 Z-23.150 A139.5808 B0.0995 
N344 X147.002 Y-16.725 Z-23.891 A133.9856 B0.0412 
N345 X147.002 Y-17.993 Z-24.494 A128.5209 B-0.0146 
N346 X147.002 Y-19.288 Z-24.946 A123.2093 B-0.0623 
N347 X147.002 Y-20.618 Z-25.250 A117.9528 B-0.1006 
N348 X147.001 Y-21.981 Z-25.395 A112.7293 B-0.1305 
N349 X147.001 Y-23.348 Z-25.360 A107.5944 B-0.1528 
N350 X147.001 Y-24.670 Z-25.127 A102.6956 B-0.1681 
N351 X147.001 Y-25.858 Z-24.691 A98.3134 B-0.1769 
N352 X147.001 Y-26.806 Z-24.063 A94.8232 B-0.1799 
N353 X147.001 Y-27.425 Z-23.274 A92.5712 B-0.1774 
N354 X147.001 Y-27.745 Z-22.359 A91.4643 B-0.1701 
N355 X147.001 Y-27.886 Z-21.336 A91.0528 B-0.1571 
N356 X147.001 Y-27.949 Z-20.214 A90.9564 B-0.1366 
N357 X147.002 Y-27.992 Z-19.002 A90.9493 B-0.1099 
N358 X147.002 Y-28.035 Z-17.713 A90.9493 B-0.0812 
N359 X147.002 Y-28.081 Z-16.363 A90.9493 B-0.0543 
N360 X147.002 Y-28.129 Z-14.971 A90.9493 B-0.0310 
N361 X147.002 Y-28.177 Z-13.560 B-0.0133 
N362 X147.002 Y-28.225 Z-12.151 A90.9492 B-0.0033 
N363 X147.002 Y-28.274 Z-10.770 A90.9377 B0.0000 
N364 X147.002 Y-28.342 Z-9.436 A90.8438 
N365 X147.002 Y-28.435 Z-8.170 A90.6227 
N366 X147.002 Y-28.529 Z-6.987 A90.3645 
N367 X147.002 Y-28.602 Z-5.898 A90.1661 
N368 X147.002 Y-28.680 Z-4.910 A89.9226 
N369 X147.002 Y-28.864 Z-4.025 A89.2159 
N370 X147.002 Y-29.244 Z-3.233 A87.6443 
N371 X147.002 Y-29.868 Z-2.509 A84.9807 
N372 X147.002 Y-30.719 Z-1.810 A81.2543 
N373 X147.002 Y-31.717 Z-1.095 A76.7633 
N374 X147.002 Y-32.789 Z-0.333 A71.7616 
N375 X147.002 Y-33.878 Z0.495 A66.4578 
N376 X147.002 Y-34.923 Z1.389 A61.0685 
N377 X147.002 Y-35.908 Z2.357 A55.6184 
N378 X147.002 Y-36.838 Z3.424 A50.0092 
N379 X147.002 Y-37.688 Z4.598 A44.2517 
N380 X147.002 Y-38.419 Z5.864 A38.4467 
N381 X147.002 Y-39.012 Z7.229 A32.5502 
N382 X147.002 Y-39.443 Z8.690 A26.5454 
N383 X147.002 Y-39.666 Z10.197 A20.5962 
N384 X147.002 Y-39.646 Z11.674 A14.9345 
N385 X147.002 Y-39.375 Z13.055 A9.7224 
N386 X147.002 Y-38.856 Z14.255 A5.2030 
N387 X147.002 Y-38.106 Z15.159 A1.7708 
N388 X147.002 Y-37.157 Z15.676 A359.7776 
N389 X147.002 Y-36.028 Z15.860 A359.0565 
N390 X147.002 Y-34.712 Z15.896 A358.9056 
N391 X147.002 Y-33.197 Z15.898 A358.8893 
N392 X147.002 Y-31.476 Z15.894 A358.8893 
N393 X147.002 Y-29.552 Z15.891 
N394 X147.002 Y-27.432 Z15.887 
N395 X147.002 Y-25.135 Z15.882 
N396 X147.002 Y-22.685 Z15.877 
N397 X147.002 Y-20.116 Z15.872 
N398 X147.002 Y-17.466 Z15.867 
N399 X147.002 Y-14.779 Z15.862 A358.8879 
N400 X147.002 Y-12.098 Z15.877 A358.8018 
N401 X147.002 Y-9.465 Z15.974 A358.3376 
N402 X147.002 Y-6.920 Z16.129 A357.5155 
N403 X147.002 Y-4.502 Z16.250 A356.6976 
N404 X147.002 Y-2.241 Z16.327 A355.9577 
N405 X147.002 Y-0.159 Z16.373 A355.2734 B-0.0008 
N406 X147.002 Y1.729 Z16.395 A354.6408 B-0.0104 
N407 X147.002 Y3.413 Z16.359 A354.2402 B-0.0383 
N408 X147.002 Y4.895 Z16.277 A354.0627 B-0.0827 
N409 X147.001 Y6.195 Z16.267 A353.6333 B-0.1317 
N410 X147.001 Y7.351 Z16.499 A352.2098 B-0.1687 
N411 X147.001 Y8.415 Z17.064 A349.3321 B-0.1865 
N412 X147.001 Y9.454 Z17.929 A345.0356 B-0.1907 
N413 X147.001 Y10.516 Z18.954 A339.8180 B-0.1853 
N414 X147.001 Y11.620 Z20.004 A334.1845 B-0.1707 
N415 X147.001 Y12.762 Z20.987 A328.4920 B-0.1470 
N416 X147.002 Y13.935 Z21.864 A322.8934 B-0.1143 
N417 X147.002 Y15.138 Z22.623 A317.4282 B-0.0720 
N418 X147.002 Y16.371 Z23.257 A312.0861 B-0.0214 
N419 X147.002 Y17.640 Z23.763 A306.8278 B0.0333 
N420 X147.002 Y18.957 Z24.140 A301.5677 B0.0885 
N421 X147.002 Y20.326 Z24.374 A296.2683 B0.1433 
N422 X147.003 Y21.726 Z24.441 A290.9818 B0.1970 
N423 X147.003 Y23.111 Z24.317 A285.8384 B0.2488 
N424 X147.003 Y24.396 Z23.985 A281.1146 B0.2971 
N425 X147.003 Y25.474 Z23.449 A277.1819 B0.3400 
N426 X147.003 Y26.238 Z22.736 A274.4332 B0.3757 
N427 X147.003 Y26.679 Z21.884 A272.9269 B0.4039 
N428 X147.003 Y26.895 Z20.921 A272.2920 B0.4272 
N429 X147.003 Y26.998 Z19.862 A272.1139 B0.4484 
N430 X147.003 Y27.064 Z18.717 A272.0943 B0.4697 
N431 X147.004 Y27.130 Z17.497 A272.0944 B0.4922 
N432 X147.004 Y27.199 Z16.218 A272.0945 B0.5158 
N433 X147.004 Y27.271 Z14.897 A272.0946 B0.5401 
N434 X147.004 Y27.343 Z13.554 A272.0947 B0.5649 
N435 X147.004 Y27.416 Z12.210 A272.0948 B0.5896 
N436 X147.004 Y27.490 Z10.889 A272.0837 B0.6134 
N437 X147.004 Y27.592 Z9.611 A271.9435 B0.6371 
N438 X147.004 Y27.751 Z8.396 A271.5388 B0.6632 
N439 X147.004 Y27.919 Z7.256 A271.0419 B0.6904 
N440 X147.004 Y28.045 Z6.203 A270.6674 B0.7145 
N441 X147.004 Y28.140 Z5.244 A270.3858 B0.7357 
N442 X147.004 Y28.297 Z4.383 A269.8169 B0.7617 
N443 X147.005 Y28.624 Z3.616 A268.5011 B0.8035 
N444 X147.005 Y29.186 Z2.920 A266.1456 B0.8706 
N445 X147.005 Y29.986 Z2.258 A262.6929 B0.9678 
N446 X147.005 Y30.956 Z1.588 A258.3979 B1.0929 
N447 X147.006 Y32.019 Z0.875 A253.5405 B1.2402 
N448 X147.006 Y33.116 Z0.097 A248.3247 B1.3996 
N449 X147.007 Y34.180 Z-0.748 A242.9993 B1.5552 
N450 X147.007 Y35.180 Z-1.660 A237.6569 B1.6911 
N451 X147.008 Y36.126 Z-2.660 A232.1974 B1.7922 
N452 X147.008 Y37.007 Z-3.766 A226.5737 B1.8381 
N453 X147.008 Y37.785 Z-4.966 A220.8813 B1.8137 
N454 X147.008 Y38.440 Z-6.265 A215.1022 B1.7274 
N455 X147.007 Y38.954 Z-7.671 A209.1690 B1.6033 
N456 X147.007 Y39.287 Z-9.156 A203.1805 B1.4632 
N457 X147.006 Y39.390 Z-10.641 A197.3969 B1.3211 
N458 X147.006 Y39.250 Z-12.063 A191.9819 B1.1864 
N459 X147.005 Y38.865 Z-13.363 A187.0653 B1.0677 
N460 X147.005 Y38.242 Z-14.425 A183.0316 B0.9753 
N461 X147.005 Y37.410 Z-15.121 A180.3539 B0.9172 
N462 X147.005 Y36.398 Z-15.429 A179.1510 B0.8921 
N463 X147.005 Y35.211 Z-15.502 A178.8475 B0.8866 
N464 X147.005 Y33.837 Z-15.509 A178.8023 B0.8877 
N465 X147.005 Y32.267 Z-15.504 A178.8003 B0.8900 
N466 X147.005 Y30.497 Z-15.498 A178.8003 B0.8928 
N467 X147.005 Y28.534 Z-15.491 A178.8003 B0.8958 
N468 X147.005 Y26.389 Z-15.483 A178.8004 B0.8991 
N469 X147.005 Y24.084 Z-15.475 A178.8004 B0.9026 
N470 X147.005 Y21.647 Z-15.466 A178.8004 B0.9063 
N471 X147.005 Y19.112 Z-15.457 A178.8005 B0.9102 
N472 X147.005 Y16.520 Z-15.448 A178.8005 B0.9142 
N473 X147.005 Y13.912 Z-15.439 A178.7997 B0.9182 
N474 X147.005 Y11.330 Z-15.443 A178.7414 B0.9223 
N475 X147.005 Y8.813 Z-15.558 A178.1916 B0.9258 
N476 X147.005 Y6.395 Z-15.766 A177.1210 B0.9363 
N477 X147.005 Y4.109 Z-15.943 A176.0041 B0.9455 
N478 X147.005 Y1.983 Z-16.070 A174.9618 B0.9104 
N479 X147.005 Y0.034 Z-16.153 A174.0008 B0.8464 
N480 X147.004 Y-1.725 Z-16.193 A173.1617 B0.7897 
N481 X147.004 Y-3.285 Z-16.149 A172.6646 B0.7463 
N482 X147.004 Y-4.656 Z-16.069 A172.3554 B0.7106 
N483 X147.004 Y-5.870 Z-16.120 A171.5541 B0.6727 
N484 X147.004 Y-6.977 Z-16.468 A169.5045 B0.6243 
N485 X147.004 Y-8.043 Z-17.162 A165.8993 B0.5618 
N486 X147.003 Y-9.129 Z-18.111 A161.0059 B0.4861 
N487 X147.003 Y-10.263 Z-19.147 A155.4407 B0.4021 
N488 X147.003 Y-11.438 Z-20.133 A149.7276 B0.3147 
N489 X147.003 Y-12.635 Z-21.005 A144.1425 B0.2273 
N490 X147.002 Y-13.850 Z-21.751 A138.7293 B0.1405 
N491 X147.002 Y-15.091 Z-22.373 A133.4446 B0.0546 
N492 X147.002 Y-16.356 Z-22.865 A128.2789 B-0.0261 
N493 X147.002 Y-17.659 Z-23.228 A123.1528 B-0.0967 
N494 X147.001 Y-19.015 Z-23.457 A117.9707 B-0.1568 
N495 X147.001 Y-20.406 Z-23.528 A112.7769 B-0.2063 
N496 X147.001 Y-21.791 Z-23.416 A107.6899 B-0.2453 
N497 X147.001 Y-23.091 Z-23.099 A102.9793 B-0.2727 
N498 X147.001 Y-24.192 Z-22.577 A99.0381 B-0.2880 
N499 X147.001 Y-24.986 Z-21.872 A96.2723 B-0.2907 
N500 X147.001 Y-25.460 Z-21.025 A94.7423 B-0.2832 
N501 X147.001 Y-25.708 Z-20.065 A94.1041 B-0.2689 
N502 X147.001 Y-25.839 Z-19.014 A93.9441 B-0.2507 
N503 X147.001 Y-25.940 Z-17.885 A93.9316 B-0.2303 
N504 X147.001 Y-26.043 Z-16.691 A93.9315 B-0.2087 
N505 X147.001 Y-26.150 Z-15.448 A93.9315 B-0.1853 
N506 X147.001 Y-26.260 Z-14.174 A93.9315 B-0.1559 
N507 X147.002 Y-26.371 Z-12.887 A93.9314 B-0.1156 
N508 X147.002 Y-26.481 Z-11.608 A93.9313 B-0.0703 
N509 X147.002 Y-26.596 Z-10.359 A93.9053 B-0.0333 
N510 X147.002 Y-26.752 Z-9.159 A93.6834 B-0.0116 
N511 X147.002 Y-26.971 Z-8.027 A93.1525 B-0.0027 
N512 X147.002 Y-27.193 Z-6.971 A92.5397 B0.0000 
N513 X147.002 Y-27.374 Z-5.999 A92.0315 
N514 X147.002 Y-27.539 Z-5.118 A91.5362 
N515 X147.002 Y-27.787 Z-4.331 A90.6488 
N516 X147.002 Y-28.213 Z-3.631 A88.9623 
N517 X147.002 Y-28.861 Z-2.992 A86.2738 
N518 X147.002 Y-29.722 Z-2.376 A82.5927 
N519 X147.002 Y-30.722 Z-1.743 A78.1889 
N520 X147.002 Y-31.790 Z-1.064 A73.3367 
N521 X147.002 Y-32.875 Z-0.321 A68.2046 
N522 X147.002 Y-33.919 Z0.485 A63.0115 
N523 X147.002 Y-34.891 Z1.349 A57.8641 
N524 X147.002 Y-35.803 Z2.290 A52.6583 
N525 X147.002 Y-36.661 Z3.330 A47.2875 
N526 X147.002 Y-37.441 Z4.474 A41.7700 
N527 X147.002 Y-38.116 Z5.726 A7.1053 
N528 X147.002 Y-38.665 Z7.092 A30.2577 
N529 X147.002 Y-39.047 Z8.550 A24.3009 
N530 X147.002 Y-39.213 Z10.028 A18.4877 
N531 X147.002 Y-39.137 Z11.444 A13.0612 
N532 X147.002 Y-38.822 Z12.741 A8.1497 
N533 X147.002 Y-38.276 Z13.833 A4.0144 
N534 X147.002 Y-37.523 Z14.608 A1.0499 
N535 X147.002 Y-36.590 Z15.011 A359.4863 
N536 X147.002 Y-35.489 Z15.136 A358.9946 
N537 X147.002 Y-34.211 Z15.156 A358.9061 
N538 X147.002 Y-32.747 Z15.156 A358.8980 
N539 X147.002 Y-31.091 Z15.153 A358.8980 
N540 X147.002 Y-29.247 Z15.149 
N541 X147.002 Y-27.226 Z15.146 
N542 X147.002 Y-25.044 Z15.142 
N543 X147.002 Y-22.725 Z15.138 
N544 X147.002 Y-20.302 Z15.133 
N545 X147.002 Y-17.810 Z15.129 
N546 X147.002 Y-15.288 Z15.125 A358.8976 
N547 X147.002 Y-12.776 Z15.140 A358.8143 
N548 X147.002 Y-10.309 Z15.268 A358.2218 
N549 X147.002 Y-7.918 Z15.541 A356.8752 
N550 X147.002 Y-5.635 Z15.804 A355.3366 
N551 X147.002 Y-3.491 Z15.989 A353.9255 
N552 X147.002 Y-1.508 Z16.111 A352.6305 B-0.0090 
N553 X147.002 Y0.302 Z16.179 A351.4658 B-0.0492 
N554 X147.002 Y1.923 Z16.161 A350.6193 B-0.1190 
N555 X147.001 Y3.355 Z16.061 A350.1514 B-0.1787 
N556 X147.001 Y4.622 Z15.989 A349.6259 B-0.2179 
N557 X147.001 Y5.773 Z16.126 A348.2725 B-0.2452 
N558 X147.001 Y6.866 Z16.579 A345.5511 B-0.2606 
N559 X147.001 Y7.965 Z17.337 A341.3993 B-0.2615 
N560 X147.001 Y9.111 Z18.266 A336.2543 B-0.2471 
N561 X147.001 Y10.308 Z19.214 A330.6844 B-0.2185 
N562 X147.001 Y11.533 Z20.071 A325.1320 B-0.1779 
N563 X147.001 Y12.766 Z20.795 A319.7842 B-0.1269 
N564 X147.002 Y14.004 Z21.386 A314.6411 B-0.0653 
N565 X147.002 Y15.261 Z21.853 A309.6149 B0.0057 
N566 X147.002 Y16.561 Z22.206 A304.5728 B0.0826 
N567 X147.002 Y17.926 Z22.442 A299.3940 B0.1641 
N568 X147.003 Y19.349 Z22.534 A294.1043 B0.2492 
N569 X147.003 Y20.777 Z22.444 A288.8788 B0.3353 
N570 X147.003 Y22.109 Z22.145 A284.0765 B0.4175 
N571 X147.004 Y23.221 Z21.634 A280.1407 B0.4903 
N572 X147.004 Y24.011 Z20.939 A277.4470 B0.5488 
N573 X147.004 Y24.488 Z20.104 A275.9797 B0.5924 
N574 X147.004 Y24.742 Z19.162 A275.3950 B0.6252 
N575 X147.004 Y24.886 Z18.135 A275.2706 B0.6527 
N576 X147.004 Y25.008 Z17.040 A275.2647 B0.6800 
N577 X147.004 Y25.134 Z15.890 A275.2649 B0.7084 
N578 X147.004 Y25.265 Z14.701 A275.2650 B0.7379 
N579 X147.004 Y25.398 Z13.490 A275.2652 B0.7679 
N580 X147.005 Y25.531 Z12.274 A275.2637 B0.7981 
N581 X147.005 Y25.670 Z11.073 A275.2355 B0.8280 
N582 X147.005 Y25.834 Z9.908 A275.0821 B0.8578 
N583 X147.005 Y26.069 Z8.800 A274.5923 B0.8914 
N584 X147.005 Y26.366 Z7.759 A273.7769 B0.9307 
N585 X147.005 Y26.639 Z6.790 A272.9685 B0.9693 
N586 X147.005 Y26.851 Z5.899 A272.3393 B1.0025 
N587 X147.005 Y27.045 Z5.094 A271.7276 B1.0342 
N588 X147.005 Y27.331 Z4.377 A270.6825 B1.0773 
N589 X147.006 Y27.799 Z3.739 A268.8179 B1.1444 
N590 X147.006 Y28.489 Z3.151 A265.9545 B1.2429 
N591 X147.006 Y29.381 Z2.574 A262.1449 B1.3734 
N592 X147.007 Y30.398 Z1.971 A257.6834 B1.5288 
N593 X147.007 Y31.474 Z1.316 A252.8062 B1.7003 
N594 X147.008 Y32.561 Z0.592 A247.6804 B1.8753 
N595 X147.009 Y33.594 Z-0.193 A242.5522 B2.0357 
N596 X147.009 Y34.552 Z-1.035 A237.4911 B2.1678 
N597 X147.009 Y35.454 Z-1.956 A232.3581 B2.2628 
N598 X147.009 Y36.304 Z-2.977 A227.0590 B2.3084 
N599 X147.009 Y37.077 Z-4.100 A221.6151 B2.2934 
N600 X147.009 Y37.752 Z-5.335 A216.0013 B2.2204 
N601 X147.009 Y38.308 Z-6.690 A210.1703 B2.1054 
N602 X147.008 Y38.700 Z-8.142 A204.2094 B1.9658 
N603 X147.008 Y38.875 Z-9.609 A198.4198 B1.8161 
N604 X147.007 Y38.813 Z-11.011 A193.0295 B1.6676 
N605 X147.007 Y38.518 Z-12.310 A188.0906 B1.5292 
N606 X147.007 Y37.996 Z-13.416 A183.8763 B1.4129 
N607 X147.006 Y37.268 Z-14.195 A180.8826 B1.3320 
N608 X147.006 Y36.366 Z-14.589 A179.3447 B1.2913 
N609 X147.006 Y35.302 Z-14.704 A178.8780 B1.2795 
N610 X147.006 Y34.068 Z-14.720 A178.7987 B1.2790 
N611 X147.006 Y32.653 Z-14.716 A178.7913 B1.2811 
N612 X147.006 Y31.053 Z-14.710 A178.7913 B1.2837 
N613 X147.006 Y29.270 Z-14.704 A178.7913 B1.2866 
N614 X147.006 Y27.316 Z-14.696 A178.7914 B1.2898 
N615 X147.006 Y25.207 Z-14.688 A178.7914 B1.2932 
N616 X147.006 Y22.966 Z-14.680 A178.7914 B1.2968 
N617 X147.006 Y20.623 Z-14.671 A178.7915 B1.3006 
N618 X147.006 Y18.213 Z-14.662 A178.7915 B1.3045 
N619 X147.006 Y15.773 Z-14.653 A178.7916 B1.3084 
N620 X147.006 Y13.342 Z-14.645 A178.7866 B1.3124 
N621 X147.006 Y10.955 Z-14.677 A178.6113 B1.3150 
N622 X147.006 Y8.642 Z-14.898 A177.5801 B1.3117 
N623 X147.006 Y6.424 Z-15.245 A175.8144 B1.3131 
N624 X147.006 Y4.329 Z-15.549 A173.9721 B1.3048 
N625 X147.006 Y2.381 Z-15.776 A172.2382 B1.2331 
N626 X147.006 Y0.596 Z-15.927 A170.6747 B1.1324 
N627 X147.005 Y-1.012 Z-15.985 A169.4213 B1.0484 
N628 X147.005 Y-2.437 Z-15.933 A168.6235 B0.9852 
N629 X147.005 Y-3.699 Z-15.865 A167.9425 B0.9309 
N630 X147.005 Y-4.849 Z-15.958 A166.6315 B0.8694 
N631 X147.004 Y-5.952 Z-16.351 A164.0289 B0.7883 
N632 X147.004 Y-7.078 Z-17.058 A159.9528 B0.6835 
N633 X147.004 Y-8.271 Z-17.956 A154.7778 B0.5604 
N634 X147.003 Y-9.524 Z-18.871 A149.1524 B0.4301 
N635 X147.003 Y-10.799 Z-19.674 A143.6132 B0.3031 
N636 X147.002 Y-12.064 Z-20.319 A138.3805 B0.1843 
N637 X147.002 Y-13.323 Z-20.822 A133.3928 B0.0729 
N638 X147.002 Y-14.594 Z-21.198 A128.5284 B-0.0302 
N639 X147.001 Y-15.900 Z-21.458 A123.6558 B-0.1213 
N640 X147.001 Y-17.273 Z-21.604 A118.6163 B-0.2013 
N641 X147.001 Y-18.694 Z-21.603 A113.4730 B-0.2694 
N642 X147.001 Y-20.092 Z-21.417 A108.4835 B-0.3229 
N643 X147.001 Y-21.346 Z-21.019 A104.0935 B-0.3582 
N644 X147.001 Y-22.330 Z-20.416 A100.7672 B-0.3733 
N645 X147.001 Y-22.986 Z-19.646 A98.7228 B-0.3701 
N646 X147.001 Y-23.366 Z-18.750 A97.7794 B-0.3536 
N647 X147.001 Y-23.579 Z-17.762 A97.5270 B-0.3289 
N648 X147.001 Y-23.742 Z-16.706 A97.5058 B-0.3007 
N649 X147.001 Y-23.907 Z-15.600 A97.5058 B-0.2710 
N650 X147.001 Y-24.078 Z-14.458 A97.5057 B-0.2403 
N651 X147.001 Y-24.252 Z-13.296 A97.5056 B-0.2089 
N652 X147.001 Y-24.426 Z-12.131 A97.5052 B-0.1752 
N653 X147.001 Y-24.601 Z-10.981 A97.4933 B-0.1339 
N654 X147.002 Y-24.788 Z-9.864 A97.4077 B-0.0858 
N655 X147.002 Y-25.036 Z-8.804 A97.0295 B-0.0427 
N656 X147.002 Y-25.370 Z-7.816 A96.2219 B-0.0152 
N657 X147.002 Y-25.715 Z-6.897 A95.2670 B-0.0038 
N658 X147.002 Y-26.014 Z-6.052 A94.4075 B-0.0007 
N659 X147.002 Y-26.285 Z-5.285 A93.5847 B0.0000 
N660 X147.002 Y-26.614 Z-4.603 A92.4453 
N661 X147.002 Y-27.097 Z-4.000 A90.5967 
N662 X147.002 Y-27.775 Z-3.454 A87.8563 
N663 X147.002 Y-28.643 Z-2.927 A84.2253 
N664 X147.002 Y-29.647 Z-2.381 A79.9128 
N665 X147.002 Y-30.709 Z-1.791 A75.2080 
N666 X147.002 Y-31.788 Z-1.139 A70.2601 
N667 X147.002 Y-32.838 Z-0.423 A65.2251 
N668 X147.002 Y-33.811 Z0.345 A60.3017 
N669 X147.002 Y-34.709 Z1.168 A55.4498 
N670 X147.002 Y-35.557 Z2.071 A50.5029 
N671 X147.002 Y-36.358 Z3.075 A45.3662 
N672 X147.002 Y-37.095 Z4.195 A40.0076 
N673 X147.002 Y-37.744 Z5.443 A34.3909 
N674 X147.002 Y-38.270 Z6.815 A28.5352 
N675 X147.002 Y-38.623 Z8.272 A22.5943 
N676 X147.002 Y-38.752 Z9.722 A16.8944 
N677 X147.002 Y-38.644 Z11.082 A11.6749 
N678 X147.002 Y-38.309 Z12.305 A7.0275 
N679 X147.002 Y-37.760 Z13.304 A3.2196 
N680 X147.002 Y-37.023 Z13.981 A0.6192 
N681 X147.002 Y-36.122 Z14.310 A359.3380 
N682 X147.002 Y-35.065 Z14.402 A358.9711 
N683 X147.002 Y-33.842 Z14.415 A358.9121 
N684 X147.002 Y-32.446 Z14.414 A358.9068 
N685 X147.002 Y-30.873 Z14.411 
N686 X147.002 Y-29.129 Z14.409 
N687 X147.002 Y-27.224 Z14.405 
N688 X147.002 Y-25.174 Z14.402 
N689 X147.002 Y-23.004 Z14.399 
N690 X147.002 Y-20.741 Z14.395 
N691 X147.002 Y-18.419 Z14.391 
N692 X147.002 Y-16.072 Z14.387 
N693 X147.002 Y-13.734 Z14.391 A358.8734 
N694 X147.002 Y-11.439 Z14.490 A358.4278 
N695 X147.002 Y-9.207 Z14.809 A356.9389 
N696 X147.002 Y-7.055 Z15.246 A354.6851 
N697 X147.002 Y-5.010 Z15.616 A352.3963 
N698 X147.002 Y-3.098 Z15.885 A350.2783 B-0.0066 
N699 X147.002 Y-1.334 Z16.062 A348.3639 B-0.0556 
N700 X147.001 Y0.264 Z16.126 A346.8222 B-0.1343 
N701 X147.001 Y1.684 Z16.060 A345.8144 B-0.1972 
N702 X147.001 Y2.944 Z15.944 A345.0718 B-0.2442 
N703 X147.001 Y4.098 Z15.938 A343.9287 B-0.2803 
N704 X147.001 Y5.213 Z16.189 A341.6972 B-0.3026 
N705 X147.001 Y6.353 Z16.735 A338.0908 B-0.3059 
N706 X147.001 Y7.566 Z17.493 A333.3201 B-0.2871 
N707 X147.001 Y8.847 Z18.303 A327.9521 B-0.2481 
N708 X147.001 Y10.155 Z19.023 A322.5653 B-0.1933 
N709 X147.001 Y11.446 Z19.587 A317.4844 B-0.1271 
N710 X147.002 Y12.712 Z19.998 A312.7124 B-0.0501 
N711 X147.002 Y13.986 Z20.290 A308.0444 B0.0382 
N712 X147.002 Y15.319 Z20.492 A303.2060 B0.1376 
N713 X147.003 Y16.740 Z20.592 A298.0747 B0.2489 
N714 X147.003 Y18.205 Z20.542 A292.8339 B0.3681 
N715 X147.003 Y19.596 Z20.290 A287.9413 B0.4857 
N716 X147.004 Y20.770 Z19.817 A283.9327 B0.5904 
N717 X147.004 Y21.626 Z19.152 A281.1775 B0.6737 
N718 X147.004 Y22.163 Z18.339 A279.6855 B0.7334 
N719 X147.004 Y22.462 Z17.420 A279.1648 B0.7740 
N720 X147.005 Y22.657 Z16.429 A279.0911 B0.8063 
N721 X147.005 Y22.842 Z15.391 A279.0905 B0.8382 
N722 X147.005 Y23.032 Z14.319 A279.0908 B0.8712 
N723 X147.005 Y23.226 Z13.228 A279.0910 B0.9047 
N724 X147.005 Y23.421 Z12.133 A279.0911 B0.9384 
N725 X147.005 Y23.618 Z11.051 A279.0748 B0.9720 
N726 X147.005 Y23.836 Z10.000 A278.9469 B1.0069 
N727 X147.005 Y24.118 Z9.003 A278.5029 B1.0466 
N728 X147.005 Y24.501 Z8.075 A277.5619 B1.0974 
N729 X147.006 Y24.922 Z7.214 A276.3519 B1.1554 
N730 X147.006 Y25.294 Z6.416 A275.2349 B1.2096 
N731 X147.006 Y25.605 Z5.686 A274.2759 B1.2577 
N732 X147.006 Y25.921 Z5.032 A273.2163 B1.3086 
N733 X147.006 Y26.349 Z4.454 A271.6264 B1.3782 
N734 X147.007 Y26.953 Z3.937 A269.2295 B1.4777 
N735 X147.007 Y27.750 Z3.450 A265.9498 B1.6109 
N736 X147.008 Y28.707 Z2.954 A261.9031 B1.7740 
N737 X147.008 Y29.748 Z2.420 A257.3764 B1.9565 
N738 X147.009 Y30.824 Z1.827 A252.5558 B2.1485 
N739 X147.010 Y31.897 Z1.164 A247.5597 B2.3369 
N740 X147.010 Y32.904 Z0.444 A242.6357 B2.5022 
N741 X147.011 Y33.824 Z-0.323 A237.8602 B2.6327 
N742 X147.011 Y34.688 Z-1.158 A233.0619 B2.7254 
N743 X147.011 Y35.512 Z-2.086 A228.0960 B2.7752 
N744 X147.011 Y36.285 Z-3.124 A222.9139 B2.7738 
N745 X147.011 Y36.988 Z-4.286 A217.4727 B2.7189 
N746 X147.010 Y37.597 Z-5.585 A211.7391 B2.6177 
N747 X147.010 Y38.065 Z-7.005 A205.7791 B2.4827 
N748 X147.010 Y38.333 Z-8.467 A199.8965 B2.3276 
N749 X147.009 Y38.366 Z-9.868 A194.4392 B2.1668 
N750 X147.008 Y38.170 Z-11.165 A189.4700 B2.0108 
N751 X147.008 Y37.758 Z-12.317 A185.0725 B1.8701 
N752 X147.008 Y37.144 Z-13.193 A181.7025 B1.7619 
N753 X147.007 Y36.357 Z-13.702 A179.7239 B1.6986 
N754 X147.007 Y35.418 Z-13.892 A178.9658 B1.6747 
N755 X147.007 Y34.325 Z-13.929 A178.8055 B1.6707 
N756 X147.007 Y33.067 Z-13.929 A178.7844 B1.6721 
N757 X147.007 Y31.640 Z-13.924 A178.7837 B1.6745 
N758 X147.007 Y30.042 Z-13.917 A178.7838 B1.6772 
N759 X147.007 Y28.283 Z-13.910 A178.7838 B1.6802 
N760 X147.007 Y26.375 Z-13.903 A178.7839 B1.6834 
N761 X147.007 Y24.338 Z-13.894 A178.7839 B1.6869 
N762 X147.007 Y22.197 Z-13.886 A178.7840 B1.6905 
N763 X147.007 Y19.981 Z-13.877 A178.7840 B1.6943 
N764 X147.007 Y17.724 Z-13.868 A178.7841 B1.6981 
N765 X147.007 Y15.459 Z-13.859 A178.7841 B1.7019 
N766 X147.007 Y13.219 Z-13.852 A178.7746 B1.7057 
N767 X147.007 Y11.034 Z-13.903 A178.5210 B1.7059 
N768 X147.007 Y8.923 Z-14.202 A177.1461 B1.6902 
N769 X147.007 Y6.892 Z-14.699 A174.6975 B1.6684 
N770 X147.007 Y4.958 Z-15.177 A171.9874 B1.6320 
N771 X147.007 Y3.143 Z-15.562 A169.3722 B1.5209 
N772 X147.006 Y1.467 Z-15.824 A167.0477 B1.3716 
N773 X147.006 Y-0.049 Z-15.943 A165.1953 B1.2476 
N774 X147.006 Y-1.397 Z-15.924 A163.8996 B1.1545 
N775 X147.005 Y-2.606 Z-15.869 A162.7911 B1.0756 
N776 X147.005 Y-3.739 Z-15.940 A161.1743 B0.9888 
N777 X147.005 Y-4.872 Z-16.267 A158.4130 B0.8764 
N778 X147.004 Y-6.074 Z-16.864 A154.3006 B0.7328 
N779 X147.004 Y-7.374 Z-17.614 A149.1743 B0.5669 
N780 X147.003 Y-8.736 Z-18.340 A143.7110 B0.3970 
N781 X147.003 Y-10.089 Z-18.908 A138.5087 B0.2405 
N782 X147.002 Y-11.392 Z-19.288 A133.7745 B0.1034 
N783 X147.002 Y-12.666 Z-19.522 A129.3153 B-0.0179 
N784 X147.001 Y-13.971 Z-19.655 A124.8084 B-0.1260 
N785 X147.001 Y-15.361 Z-19.705 A119.9810 B-0.2243 
N786 X147.001 Y-16.808 Z-19.627 A114.9598 B-0.3096 
N787 X147.001 Y-18.200 Z-19.362 A110.2037 B-0.3741 
N788 X147.001 Y-19.383 Z-18.879 A106.3045 B-0.4111 
N789 X147.001 Y-20.253 Z-18.199 A103.6592 B-0.4199 
N790 X147.001 Y-20.806 Z-17.368 A102.2875 B-0.4056 
N791 X147.001 Y-21.132 Z-16.432 A101.8541 B-0.3770 
N792 X147.001 Y-21.375 Z-15.435 A101.7897 B-0.3432 
N793 X147.001 Y-21.611 Z-14.404 A101.7833 B-0.3079 
N794 X147.001 Y-21.849 Z-13.352 A101.7830 B-0.2720 
N795 X147.001 Y-22.089 Z-12.293 A101.7829 B-0.2359 
N796 X147.001 Y-22.328 Z-11.244 A101.7818 B-0.2000 
N797 X147.001 Y-22.567 Z-10.218 A101.7546 B-0.1642 
N798 X147.001 Y-22.828 Z-9.237 A101.5963 B-0.1246 
N799 X147.002 Y-23.166 Z-8.322 A101.0499 B-0.0795 
N800 X147.002 Y-23.607 Z-7.488 A99.9757 B-0.0396 
N801 X147.002 Y-24.070 Z-6.721 A98.6828 B-0.0148 
N802 X147.002 Y-24.492 Z-6.017 A97.4395 B-0.0038 
N803 X147.002 Y-24.885 Z-5.380 A96.2143 B0.0000 
N804 X147.002 Y-25.318 Z-4.815 A94.7258 
N805 X147.002 Y-25.877 Z-4.321 A92.6307 
N806 X147.002 Y-26.598 Z-3.874 A89.7727 
N807 X147.002 Y-27.479 Z-3.444 A86.1650 
N808 X147.002 Y-28.482 Z-2.993 A81.9498 
N809 X147.002 Y-29.538 Z-2.499 A77.3907 
N810 X147.002 Y-30.603 Z-1.947 A72.6514 
N811 X147.002 Y-31.655 Z-1.328 A67.7959 
N812 X147.002 Y-32.642 Z-0.653 A63.0203 
N813 X147.002 Y-33.538 Z0.062 A58.4401 
N814 X147.002 Y-34.370 Z0.831 A53.9047 
N815 X147.002 Y-35.165 Z1.683 A49.2332 
N816 X147.002 Y-35.927 Z2.644 A44.3171 
N817 X147.002 Y-36.645 Z3.736 A39.0736 
N818 X147.002 Y-37.292 Z4.976 A33.4728 
N819 X147.002 Y-37.820 Z6.351 A27.5865 
N820 X147.002 Y-38.172 Z7.807 A21.6271 
N821 X147.002 Y-38.297 Z9.237 A15.9836 
N822 X147.002 Y-38.188 Z10.553 A10.9130 
N823 X147.002 Y-37.863 Z11.716 A6.4696 
N824 X147.002 Y-37.339 Z12.654 A2.8846 
N825 X147.002 Y-36.641 Z13.275 A0.4896 
N826 X147.002 Y-35.793 Z13.574 A359.3195 
N827 X147.002 Y-34.798 Z13.660 A358.9776 
N828 X147.002 Y-33.650 Z13.673 A358.9218 
N829 X147.002 Y-32.341 Z13.672 A358.9162 
N830 X147.002 Y-30.871 Z13.670 A358.9161 
N831 X147.002 Y-29.243 Z13.668 
N832 X147.002 Y-27.469 Z13.665 
N833 X147.002 Y-25.565 Z13.663 
N834 X147.002 Y-23.552 Z13.660 
N835 X147.002 Y-21.458 Z13.657 
N836 X147.002 Y-19.311 Z13.653 
N837 X147.002 Y-17.142 Z13.650 
N838 X147.002 Y-14.982 Z13.648 A358.9138 
N839 X147.002 Y-12.858 Z13.682 A358.7542 
N840 X147.002 Y-10.793 Z13.898 A357.7838 
N841 X147.002 Y-8.788 Z14.401 A355.4165 
N842 X147.002 Y-6.845 Z15.007 A352.2608 
N843 X147.002 Y-4.986 Z15.529 A349.0667 B-0.0026 
N844 X147.002 Y-3.233 Z15.925 A346.0776 B-0.0281 
N845 X147.002 Y-1.611 Z16.177 A343.4657 B-0.0998 
N846 X147.001 Y-0.145 Z16.254 A341.4649 B-0.1750 
N847 X147.001 Y1.158 Z16.177 A340.1075 B-0.2274 
N848 X147.001 Y2.334 Z16.057 A338.9753 B-0.2701 
N849 X147.001 Y3.458 Z16.053 A337.3708 B-0.3025 
N850 X147.001 Y4.609 Z16.285 A334.6856 B-0.3160 
N851 X147.001 Y5.850 Z16.760 A330.7302 B-0.3033 
N852 X147.001 Y7.193 Z17.362 A325.8445 B-0.2624 
N853 X147.001 Y8.587 Z17.918 A320.7027 B-0.1990 
N854 X147.001 Y9.945 Z18.306 A315.9043 B-0.1222 
N855 X147.002 Y11.238 Z18.515 A311.5732 B-0.0358 
N856 X147.002 Y12.523 Z18.610 A307.3525 B0.0644 
N857 X147.003 Y13.892 Z18.647 A302.7670 B0.1850 
N858 X147.003 Y15.362 Z18.602 A297.7570 B0.3274 
N859 X147.003 Y16.818 Z18.394 A292.8239 B0.4781 
N860 X147.004 Y18.082 Z17.967 A288.6915 B0.6165 
N861 X147.004 Y19.027 Z17.331 A285.8446 B0.7274 
N862 X147.005 Y19.642 Z16.536 A284.3322 B0.8060 
N863 X147.005 Y20.015 Z15.636 A283.8167 B0.8567 
N864 X147.005 Y20.293 Z14.680 A283.7150 B0.8940 
N865 X147.005 Y20.554 Z13.698 A283.7020 B0.9282 
N866 X147.005 Y20.814 Z12.706 A283.7020 B0.9623 
N867 X147.005 Y21.074 Z11.716 A283.7023 B0.9963 
N868 X147.005 Y21.330 Z10.742 A283.6987 B1.0299 
N869 X147.005 Y21.596 Z9.801 A283.6244 B1.0647 
N870 X147.006 Y21.911 Z8.914 A283.2844 B1.1063 
N871 X147.006 Y22.332 Z8.103 A282.4158 B1.1635 
N872 X147.006 Y22.856 Z7.372 A280.9948 B1.2398 
N873 X147.006 Y23.386 Z6.699 A279.4149 B1.3217 
N874 X147.006 Y23.858 Z6.079 A277.9483 B1.3979 
N875 X147.007 Y24.290 Z5.516 A276.5416 B1.4708 
N876 X147.007 Y24.755 Z5.018 A274.9059 B1.5533 
N877 X147.007 Y25.335 Z4.580 A272.7102 B1.6603 
N878 X147.008 Y26.068 Z4.183 A269.8015 B1.7989 
N879 X147.008 Y26.951 Z3.794 A266.1904 B1.9686 
N880 X147.009 Y27.949 Z3.380 A262.0143 B2.1622 
N881 X147.010 Y28.996 Z2.920 A257.5179 B2.3683 
N882 X147.010 Y30.056 Z2.399 A252.8339 B2.5774 
N883 X147.011 Y31.109 Z1.806 A248.0134 B2.7783 
N884 X147.012 Y32.095 Z1.158 A243.2956 B2.9511 
N885 X147.012 Y32.982 Z0.474 A238.8114 B3.0836 
N886 X147.012 Y33.807 Z-0.263 A234.3782 B3.1777 
N887 X147.012 Y34.600 Z-1.083 A229.8007 B3.2348 
N888 X147.013 Y35.365 Z-2.010 A224.9723 B3.2507 
N889 X147.012 Y36.094 Z-3.070 A219.8075 B3.2204 
N890 X147.012 Y36.761 Z-4.280 A214.2612 B3.1429 
N891 X147.012 Y37.322 Z-5.637 A208.3757 B3.0231 
N892 X147.011 Y37.717 Z-7.089 A202.3663 B2.8704 
N893 X147.011 Y37.886 Z-8.517 A196.6847 B2.7006 
N894 X147.010 Y37.821 Z-9.831 A191.5901 B2.5295 
N895 X147.010 Y37.546 Z-11.019 A187.0307 B2.3665 
N896 X147.009 Y37.073 Z-12.016 A183.1999 B2.2259 
N897 X147.009 Y36.423 Z-12.692 A180.5785 B2.1282 
N898 X147.009 Y35.624 Z-13.025 A179.2704 B2.0792 
N899 X147.009 Y34.685 Z-13.126 A178.8608 B2.0644 
N900 X147.009 Y33.597 Z-13.140 A178.7864 B2.0631 
N901 X147.009 Y32.353 Z-13.137 A178.7778 B2.0650 
N902 X147.009 Y30.951 Z-13.131 A178.7778 B2.0675 
N903 X147.009 Y29.396 Z-13.125 A178.7778 B2.0702 
N904 X147.009 Y27.697 Z-13.117 A178.7779 B2.0732 
N905 X147.009 Y25.870 Z-13.110 A178.7780 B2.0764 
N906 X147.009 Y23.935 Z-13.102 A178.7780 B2.0799 
N907 X147.009 Y21.918 Z-13.093 A178.7781 B2.0834 
N908 X147.009 Y19.848 Z-13.085 A178.7781 B2.0871 
N909 X147.009 Y17.755 Z-13.076 A178.7782 B2.0908 
N910 X147.009 Y15.667 Z-13.067 A178.7783 B2.0945 
N911 X147.009 Y13.615 Z-13.060 A178.7718 B2.0980 
N912 X147.009 Y11.623 Z-13.092 A178.6004 B2.0983 
N913 X147.009 Y9.702 Z-13.371 A177.3430 B2.0746 
N914 X147.009 Y7.844 Z-13.970 A174.5214 B2.0221 
N915 X147.008 Y6.040 Z-14.668 A170.9019 B1.9491 
N916 X147.008 Y4.303 Z-15.300 A167.1487 B1.8054 
N917 X147.007 Y2.665 Z-15.772 A163.7167 B1.5904 
N918 X147.006 Y1.156 Z-16.051 A160.8594 B1.3956 
N919 X147.006 Y-0.200 Z-16.135 A158.7203 B1.2484 
N920 X147.006 Y-1.420 Z-16.099 A157.0675 B1.1330 
N921 X147.005 Y-2.569 Z-16.086 A155.3108 B1.0217 
N922 X147.005 Y-3.736 Z-16.237 A152.7602 B0.8881 
N923 X147.004 Y-4.998 Z-16.607 A149.0215 B0.7190 
N924 X147.004 Y-6.383 Z-17.117 A144.2635 B0.5223 
N925 X147.003 Y-7.826 Z-17.583 A139.2046 B0.3255 
N926 X147.002 Y-9.213 Z-17.854 A134.6045 B0.1564 
N927 X147.002 Y-10.505 Z-17.924 A130.6027 B0.0195 
N928 X147.002 Y-11.780 Z-17.881 A126.7294 B-0.0981 
N929 X147.001 Y-13.137 Z-17.787 A122.4698 B-0.2071 
N930 X147.001 Y-14.576 Z-17.615 A117.8258 B-0.3059 
N931 X147.001 Y-15.952 Z-17.276 A113.4409 B-0.3791 
N932 X147.001 Y-17.087 Z-16.723 A110.0480 B-0.4158 
N933 X147.001 Y-17.894 Z-15.980 A107.9916 B-0.4171 
N934 X147.001 Y-18.406 Z-15.100 A107.1543 B-0.3927 
N935 X147.001 Y-18.765 Z-14.149 A106.9614 B-0.3569 
N936 X147.001 Y-19.088 Z-13.174 A106.9337 B-0.3186 
N937 X147.001 Y-19.405 Z-12.195 A106.9326 B-0.2800 
N938 X147.001 Y-19.719 Z-11.225 A106.9325 B-0.2417 
N939 X147.001 Y-20.026 Z-10.278 A106.9311 B-0.2043 
N940 X147.001 Y-20.331 Z-9.366 A106.8929 B-0.1681 
N941 X147.001 Y-20.660 Z-8.510 A106.6821 B-0.1321 
N942 X147.002 Y-21.075 Z-7.738 A106.0149 B-0.0950 
N943 X147.002 Y-21.605 Z-7.059 A104.7262 B-0.0585 
N944 X147.002 Y-22.178 Z-6.454 A103.1106 B-0.0278 
N945 X147.002 Y-22.727 Z-5.903 A101.4546 B-0.0090 
N946 X147.002 Y-23.255 Z-5.408 A99.7599 B-0.0017 
N947 X147.002 Y-23.811 Z-4.974 A97.8378 B0.0000 
N948 X147.002 Y-24.461 Z-4.597 A95.4254 
N949 X147.002 Y-25.240 Z-4.260 A92.3887 
N950 X147.002 Y-26.144 Z-3.934 A88.7568 
N951 X147.002 Y-27.146 Z-3.587 A84.6320 
N952 X147.002 Y-28.200 Z-3.196 A80.1993 
N953 X147.002 Y-29.255 Z-2.749 A75.6405 
N954 X147.002 Y-30.299 Z-2.239 A70.9980 
N955 X147.002 Y-31.314 Z-1.662 A66.3164 
N956 X147.002 Y-32.242 Z-1.041 A61.8323 
N957 X147.002 Y-33.075 Z-0.387 A57.5790 
N958 X147.002 Y-33.857 Z0.321 A53.3433 
N959 X147.002 Y-34.613 Z1.112 A48.9428 
N960 X147.002 Y-35.354 Z2.017 A44.2408 
N961 X147.002 Y-36.073 Z3.069 A39.1141 
N962 X147.002 Y-36.740 Z4.286 A33.5346 
N963 X147.002 Y-37.300 Z5.654 A27.6091 
N964 X147.002 Y-37.688 Z7.113 A21.5757 
N965 X147.002 Y-37.850 Z8.544 A15.8746 
N966 X147.002 Y-37.776 Z9.841 A10.8409 
N967 X147.002 Y-37.492 Z10.967 A6.5173 
N968 X147.002 Y-37.022 Z11.876 A3.0299 
N969 X147.002 Y-36.389 Z12.487 A0.6719 
N970 X147.002 Y-35.613 Z12.800 A359.4532 
N971 X147.002 Y-34.702 Z12.908 A359.0288 
N972 X147.002 Y-33.647 Z12.930 A358.9382 
N973 X147.002 Y-32.444 Z12.931 A358.9256 
N974 X147.002 Y-31.090 Z12.930 A358.9253 
N975 X147.002 Y-29.592 Z12.928 
N976 X147.002 Y-27.958 Z12.925 
N977 X147.002 Y-26.204 Z12.923 
N978 X147.002 Y-24.351 Z12.921 
N979 X147.002 Y-22.422 Z12.918 
N980 X147.002 Y-20.445 Z12.916 
N981 X147.002 Y-18.448 Z12.913 
N982 X147.002 Y-16.458 Z12.910 
N983 X147.002 Y-14.500 Z12.911 A358.9137 
N984 X147.002 Y-12.595 Z12.974 A358.6345 
N985 X147.002 Y-10.754 Z13.267 A357.3251 
N986 X147.002 Y-8.960 Z13.905 A354.3542 
N987 X147.002 Y-7.191 Z14.702 A350.3115 
N988 X147.002 Y-5.454 Z15.446 A346.0156 B-0.0042 
N989 X147.002 Y-3.778 Z16.041 A341.9131 B-0.0376 
N990 X147.002 Y-2.200 Z16.434 A338.3221 B-0.1045 
N991 X147.001 Y-0.762 Z16.593 A335.5226 B-0.1680 
N992 X147.001 Y0.520 Z16.542 A333.5514 B-0.2130 
N993 X147.001 Y1.686 Z16.385 A332.0339 B-0.2497 
N994 X147.001 Y2.822 Z16.275 A330.2762 B-0.2760 
N995 X147.001 Y4.028 Z16.339 A327.6047 B-0.2809 
N996 X147.001 Y5.363 Z16.586 A323.7937 B-0.2541 
N997 X147.001 Y6.799 Z16.886 A319.2786 B-0.1952 
N998 X147.002 Y8.220 Z17.058 A314.8959 B-0.1165 
N999 X147.002 Y9.534 Z17.028 A311.1375 B-0.0302 
N1000 X147.002 Y10.802 Z16.875 A307.6176 B0.0691 
N1001 X147.003 Y12.162 Z16.703 A303.6028 B0.1986 
N1002 X147.003 Y13.619 Z16.482 A299.0798 B0.3601 
N1003 X147.004 Y14.996 Z16.102 A294.8580 B0.5270 
N1004 X147.004 Y16.099 Z15.510 A291.7566 B0.6681 
N1005 X147.004 Y16.856 Z14.736 A290.0661 B0.7668 
N1006 X147.005 Y17.344 Z13.846 A289.4942 B0.8254 
N1007 X147.005 Y17.720 Z12.914 A289.3801 B0.8647 
N1008 X147.005 Y18.070 Z11.981 A289.3698 B0.8989 
N1009 X147.005 Y18.411 Z11.062 A289.3700 B0.9321 
N1010 X147.005 Y18.742 Z10.170 A289.3702 B0.9644 
N1011 X147.005 Y19.066 Z9.316 A289.3437 B0.9965 
N1012 X147.005 Y19.417 Z8.521 A289.1257 B1.0352 
N1013 X147.005 Y19.852 Z7.812 A288.4401 B1.0919 
N1014 X147.006 Y20.412 Z7.205 A287.0818 B1.1776 
N1015 X147.006 Y21.052 Z6.679 A285.2318 B1.2859 
N1016 X147.006 Y21.680 Z6.203 A283.2787 B1.3983 
N1017 X147.007 Y22.271 Z5.770 A281.3498 B1.5084 
N1018 X147.007 Y22.854 Z5.385 A279.3357 B1.6221 
N1019 X147.008 Y23.489 Z5.049 A277.0136 B1.7515 
N1020 X147.008 Y24.223 Z4.752 A274.1905 B1.9068 
N1021 X147.009 Y25.073 Z4.473 A270.8184 B2.0901 
N1022 X147.009 Y26.022 Z4.182 A266.9640 B2.2966 
N1023 X147.010 Y27.039 Z3.854 A262.7498 B2.5186 
N1024 X147.011 Y28.079 Z3.475 A258.3521 B2.7456 
N1025 X147.012 Y29.114 Z3.036 A253.8563 B2.9705 
N1026 X147.012 Y30.148 Z2.524 A249.2314 B3.1862 
N1027 X147.013 Y31.130 Z1.951 A244.6613 B3.3735 
N1028 X147.013 Y32.003 Z1.347 A240.3980 B3.5156 
N1029 X147.014 Y32.797 Z0.708 A236.2982 B3.6160 
N1030 X147.014 Y33.561 Z0.001 A232.1096 B3.6825 
N1031 X147.014 Y34.312 Z-0.802 A227.6838 B3.7161 
N1032 X147.014 Y35.054 Z-1.734 A222.8867 B3.7130 
N1033 X147.014 Y35.774 Z-2.826 A217.6203 B3.6673 
N1034 X147.014 Y36.432 Z-4.088 A211.8899 B3.5753 
N1035 X147.013 Y36.968 Z-5.499 A205.8238 B3.4387 
N1036 X147.013 Y37.311 Z-6.969 A199.7891 B3.2676 
N1037 X147.012 Y37.414 Z-8.352 A194.3063 B3.0829 
N1038 X147.011 Y37.292 Z-9.579 A189.5457 B2.9021 
N1039 X147.011 Y36.975 Z-10.656 A185.3995 B2.7342 
N1040 X147.010 Y36.480 Z-11.506 A182.1114 B2.5963 
N1041 X147.010 Y35.831 Z-12.031 A180.0680 B2.5086 
N1042 X147.010 Y35.048 Z-12.268 A179.1325 B2.4682 
N1043 X147.010 Y34.130 Z-12.339 A178.8396 B2.4564 
N1044 X147.010 Y33.071 Z-12.349 A178.7785 B2.4555 
N1045 X147.010 Y31.865 Z-12.346 A178.7719 B2.4574 
N1046 X147.010 Y30.513 Z-12.340 A178.7719 B2.4599 
N1047 X147.010 Y29.021 Z-12.333 A178.7719 B2.4626 
N1048 X147.010 Y27.401 Z-12.326 A178.7720 B2.4656 
N1049 X147.010 Y25.670 Z-12.318 A178.7721 B2.4688 
N1050 X147.010 Y23.849 Z-12.310 A178.7721 B2.4722 
N1051 X147.010 Y21.963 Z-12.302 A178.7722 B2.4757 
N1052 X147.010 Y20.041 Z-12.294 A178.7723 B2.4792 
N1053 X147.010 Y18.109 Z-12.285 A178.7724 B2.4828 
N1054 X147.010 Y16.194 Z-12.276 A178.7724 B2.4863 
N1055 X147.010 Y14.321 Z-12.269 A178.7706 B2.4897 
N1056 X147.010 Y12.510 Z-12.273 A178.7174 B2.4920 
N1057 X147.010 Y10.773 Z-12.427 A178.0272 B2.4759 
N1058 X147.010 Y9.097 Z-12.962 A175.6084 B2.4102 
N1059 X147.009 Y7.441 Z-13.815 A171.5319 B2.2962 
N1060 X147.009 Y5.780 Z-14.746 A166.6421 B2.1222 
N1061 X147.008 Y4.128 Z-15.575 A161.6585 B1.8428 
N1062 X147.007 Y2.540 Z-16.166 A157.2301 B1.5301 
N1063 X147.006 Y1.068 Z-16.489 A153.6238 B1.2748 
N1064 X147.005 Y-0.262 Z-16.565 A150.9111 B1.0851 
N1065 X147.005 Y-1.480 Z-16.490 A148.7620 B0.9360 
N1066 X147.004 Y-2.674 Z-16.407 A146.5268 B0.7917 
N1067 X147.004 Y-3.950 Z-16.439 A143.5291 B0.6214 
N1068 X147.003 Y-5.356 Z-16.582 A139.5957 B0.4213 
N1069 X147.003 Y-6.814 Z-16.681 A135.3657 B0.2240 
N1070 X147.002 Y-8.170 Z-16.576 A131.7344 B0.0683 
N1071 X147.002 Y-9.415 Z-16.292 A128.6871 B-0.0481 
N1072 X147.001 Y-10.680 Z-15.953 A125.4935 B-0.1504 
N1073 X147.001 Y-12.047 Z-15.604 A121.7315 B-0.2496 
N1074 X147.001 Y-13.387 Z-15.151 A117.9996 B-0.3262 
N1075 X147.001 Y-14.503 Z-14.512 A115.1738 B-0.3617 
N1076 X147.001 Y-15.297 Z-13.694 A113.6770 B-0.3561 
N1077 X147.001 Y-15.836 Z-12.762 A113.2487 B-0.3252 
N1078 X147.001 Y-16.283 Z-11.806 A113.1846 B-0.2878 
N1079 X147.001 Y-16.706 Z-10.865 A113.1813 B-0.2504 
N1080 X147.001 Y-17.115 Z-9.955 A113.1813 B-0.2141 
N1081 X147.001 Y-17.505 Z-9.086 A113.1796 B-0.1795 
N1082 X147.001 Y-17.885 Z-8.271 A113.1300 B-0.1474 
N1083 X147.002 Y-18.286 Z-7.532 A112.8635 B-0.1193 
N1084 X147.002 Y-18.773 Z-6.899 A112.0752 B-0.0949 
N1085 X147.002 Y-19.378 Z-6.384 A110.5985 B-0.0689 
N1086 X147.002 Y-20.041 Z-5.954 A108.6971 B-0.0400 
N1087 X147.002 Y-20.705 Z-5.580 A106.6269 B-0.0172 
N1088 X147.002 Y-21.373 Z-5.258 A104.4012 B-0.0056 
N1089 X147.002 Y-22.071 Z-4.984 A101.9239 B-0.0015 
N1090 X147.002 Y-22.839 Z-4.753 A99.0555 B0.0000 
N1091 X147.002 Y-23.701 Z-4.547 A95.7148 
N1092 X147.002 Y-24.650 Z-4.341 A91.9442 
N1093 X147.002 Y-25.661 Z-4.109 A87.8501 
N1094 X147.002 Y-26.707 Z-3.832 A83.5427 
N1095 X147.002 Y-27.754 Z-3.500 A79.1505 
N1096 X147.002 Y-28.780 Z-3.109 A74.7408 
N1097 X147.002 Y-29.794 Z-2.650 A70.2581 
N1098 X147.002 Y-30.775 Z-2.124 A65.7707 
N1099 X147.002 Y-31.654 Z-1.563 A61.5699 
N1100 X147.002 Y-32.438 Z-0.978 A57.6250 
N1101 X147.002 Y-33.180 Z-0.340 A53.6812 
N1102 X147.002 Y-33.908 Z0.379 A49.5561 
N1103 X147.002 Y-34.637 Z1.213 A45.0926 
N1104 X147.002 Y-35.368 Z2.203 A40.1294 
N1105 X147.002 Y-36.073 Z3.377 A34.6097 
N1106 X147.002 Y-36.691 Z4.722 A28.6485 
N1107 X147.002 Y-37.153 Z6.185 A22.4894 
N1108 X147.002 Y-37.394 Z7.646 A16.5810 
N1109 X147.002 Y-37.394 Z8.966 A11.3963 
N1110 X147.002 Y-37.180 Z10.083 A7.0792 
N1111 X147.002 Y-36.787 Z10.985 A3.6075 
N1112 X147.002 Y-36.239 Z11.620 A1.1608 
N1113 X147.002 Y-35.556 Z11.974 A359.7866 
N1114 X147.002 Y-34.744 Z12.130 A359.1812 
N1115 X147.002 Y-33.800 Z12.179 A358.9823 
N1116 X147.002 Y-32.717 Z12.190 A358.9379 
N1117 X147.002 Y-31.493 Z12.189 A358.9341 
N1118 X147.002 Y-30.131 Z12.187 
N1119 X147.002 Y-28.641 Z12.186 
N1120 X147.002 Y-27.036 Z12.184 
N1121 X147.002 Y-25.335 Z12.182 
N1122 X147.002 Y-23.560 Z12.180 
N1123 X147.002 Y-21.738 Z12.178 
N1124 X147.002 Y-19.895 Z12.176 
N1125 X147.002 Y-18.055 Z12.174 
N1126 X147.002 Y-16.244 Z12.172 
N1127 X147.002 Y-14.482 Z12.173 A358.9200 
N1128 X147.002 Y-12.783 Z12.236 A358.6441 
N1129 X147.002 Y-11.150 Z12.522 A357.3831 
N1130 X147.002 Y-9.557 Z13.198 A354.3014 
N1131 X147.002 Y-7.950 Z14.162 A349.6242 
N1132 X147.002 Y-6.295 Z15.192 A344.1255 B-0.0017 
N1133 X147.002 Y-4.611 Z16.095 A338.5545 B-0.0284 
N1134 X147.002 Y-2.959 Z16.748 A333.4847 B-0.0875 
N1135 X147.001 Y-1.412 Z17.091 A329.3326 B-0.1330 
N1136 X147.001 Y-0.024 Z17.126 A326.2828 B-0.1605 
N1137 X147.001 Y1.206 Z16.917 A324.2075 B-0.1818 
N1138 X147.001 Y2.361 Z16.604 A322.5039 B-0.1977 
N1139 X147.001 Y3.574 Z16.350 A320.3211 B-0.1956 
N1140 X147.001 Y4.915 Z16.201 A317.2729 B-0.1620 
N1141 X147.002 Y6.313 Z16.036 A313.8543 B-0.0994 
N1142 X147.002 Y7.618 Z15.709 A310.9075 B-0.0268 
N1143 X147.002 Y8.818 Z15.237 A308.4588 B0.0509 
N1144 X147.002 Y10.068 Z14.758 A305.6675 B0.1567 
N1145 X147.003 Y11.404 Z14.287 A302.3162 B0.3009 
N1146 X147.003 Y12.654 Z13.713 A299.2227 B0.4528 
N1147 X147.004 Y13.634 Z12.969 A297.2143 B0.5723 
N1148 X147.004 Y14.307 Z12.078 A296.4809 B0.6397 
N1149 X147.004 Y14.825 Z11.144 A296.3584 B0.6768 
N1150 X147.004 Y15.298 Z10.234 A296.3504 B0.7064 
N1151 X147.004 Y15.746 Z9.367 A296.3506 B0.7343 
N1152 X147.004 Y16.168 Z8.553 A296.3490 B0.7605 
N1153 X147.004 Y16.578 Z7.805 A296.2664 B0.7893 
N1154 X147.005 Y17.031 Z7.156 A295.8265 B0.8357 
N1155 X147.005 Y17.585 Z6.632 A294.7551 B0.9154 
N1156 X147.005 Y18.251 Z6.231 A292.9897 B1.0341 
N1157 X147.006 Y18.976 Z5.914 A290.7824 B1.1786 
N1158 X147.006 Y19.707 Z5.648 A288.3816 B1.3337 
N1159 X147.007 Y20.446 Z5.425 A285.8143 B1.4978 
N1160 X147.007 Y21.212 Z5.239 A283.0161 B1.6750 
N1161 X147.008 Y22.031 Z5.081 A279.9105 B1.8703 
N1162 X147.009 Y22.921 Z4.935 A276.4412 B2.0865 
N1163 X147.010 Y23.879 Z4.779 A272.6288 B2.3214 
N1164 X147.010 Y24.886 Z4.592 A268.5672 B2.5678 
N1165 X147.011 Y25.915 Z4.359 A264.3544 B2.8184 
N1166 X147.012 Y26.940 Z4.071 A260.0836 B3.0665 
N1167 X147.013 Y27.951 Z3.723 A255.7862 B3.3086 
N1168 X147.014 Y28.965 Z3.304 A251.3679 B3.5432 
N1169 X147.014 Y29.967 Z2.810 A246.8639 B3.7559 
N1170 X147.015 Y30.857 Z2.282 A242.6903 B3.9191 
N1171 X147.015 Y31.636 Z1.737 A238.8546 B4.0325 
N1172 X147.015 Y32.373 Z1.145 A235.0425 B4.1109 
N1173 X147.016 Y33.101 Z0.475 A231.0526 B4.1615 
N1174 X147.016 Y33.833 Z-0.302 A226.7417 B4.1847 
N1175 X147.016 Y34.576 Z-1.228 A221.9483 B4.1755 
N1176 X147.015 Y35.310 Z-2.336 A216.5808 B4.1255 
N1177 X147.015 Y35.984 Z-3.631 A210.6894 B4.0269 
N1178 X147.015 Y36.527 Z-5.076 A204.4703 B3.8781 
N1179 X147.014 Y36.863 Z-6.558 A198.3721 B3.6905 
N1180 X147.013 Y36.953 Z-7.913 A192.9777 B3.4908 
N1181 X147.013 Y36.822 Z-9.067 A188.4838 B3.3015 
N1182 X147.012 Y36.512 Z-10.039 A184.7283 B3.1310 
N1183 X147.012 Y36.043 Z-10.787 A181.8276 B2.9938 
N1184 X147.011 Y35.435 Z-11.241 A180.0599 B2.9076 
N1185 X147.011 Y34.701 Z-11.457 A179.2085 B2.8658 
N1186 X147.011 Y33.839 Z-11.539 A178.8731 B2.8502 
N1187 X147.011 Y32.842 Z-11.559 A178.7773 B2.8473 
N1188 X147.011 Y31.707 Z-11.557 A178.7645 B2.8489 
N1189 X147.011 Y30.435 Z-11.551 A178.7645 B2.8514 
N1190 X147.011 Y29.031 Z-11.544 A178.7645 B2.8541 
N1191 X147.011 Y27.509 Z-11.537 A178.7646 B2.8570 
N1192 X147.011 Y25.884 Z-11.530 A178.7647 B2.8601 
N1193 X147.011 Y24.179 Z-11.522 A178.7648 B2.8634 
N1194 X147.011 Y22.417 Z-11.513 A178.7648 B2.8668 
N1195 X147.011 Y20.627 Z-11.505 A178.7649 B2.8703 
N1196 X147.011 Y18.834 Z-11.496 A178.7650 B2.8738 
N1197 X147.011 Y17.063 Z-11.488 A178.7651 B2.8772 
N1198 X147.011 Y15.337 Z-11.480 A178.7651 B2.8805 
N1199 X147.011 Y13.673 Z-11.473 A178.7597 B2.8836 
N1200 X147.011 Y12.082 Z-11.499 A178.6209 B2.8826 
N1201 X147.011 Y10.563 Z-11.760 A177.4702 B2.8451 
N1202 X147.011 Y9.080 Z-12.473 A174.2601 B2.7317 
N1203 X147.010 Y7.555 Z-13.572 A169.0453 B2.5309 
N1204 X147.009 Y5.918 Z-14.823 A162.5785 B2.2157 
N1205 X147.008 Y4.180 Z-15.951 A155.8611 B1.7652 
N1206 X147.006 Y2.451 Z-16.736 A149.8922 B1.3083 
N1207 X147.005 Y0.827 Z-17.138 A145.0324 B0.9473 
N1208 X147.004 Y-0.618 Z-17.167 A141.4990 B0.6941 
N1209 X147.004 Y-1.883 Z-16.907 A139.1038 B0.5247 
N1210 X147.003 Y-3.078 Z-16.519 A137.1159 B0.3897 
N1211 X147.003 Y-4.338 Z-16.143 A134.7394 B0.2451 
N1212 X147.002 Y-5.642 Z-15.743 A132.0884 B0.1012 
N1213 X147.002 Y-6.852 Z-15.194 A129.9257 B-0.0033 
N1214 X147.002 Y-7.976 Z-14.527 A128.1704 B-0.0752 
N1215 X147.001 Y-9.122 Z-13.845 A126.2288 B-0.1393 
N1216 X147.001 Y-10.314 Z-13.169 A123.9335 B-0.1998 
N1217 X147.001 Y-11.408 Z-12.416 A121.9482 B-0.2346 
N1218 X147.001 Y-12.274 Z-11.534 A120.8947 B-0.2328 
N1219 X147.001 Y-12.926 Z-10.563 A120.7194 B-0.2066 
N1220 X147.001 Y-13.515 Z-9.611 A120.7156 B-0.1778 
N1221 X147.001 Y-14.071 Z-8.711 A120.7155 B-0.1506 
N1222 X147.001 Y-14.591 Z-7.871 A120.7154 B-0.1252 
N1223 X147.002 Y-15.074 Z-7.099 A120.6924 B-0.1020 
N1224 X147.002 Y-15.548 Z-6.420 A120.4973 B-0.0827 
N1225 X147.002 Y-16.075 Z-5.868 A119.8272 B-0.0681 
N1226 X147.002 Y-16.710 Z-5.470 A118.4110 B-0.0549 
N1227 X147.002 Y-17.430 Z-5.196 A116.3705 B-0.0387 
N1228 X147.002 Y-18.190 Z-5.004 A113.9470 B-0.0222 
N1229 X147.002 Y-18.986 Z-4.873 A111.1958 B-0.0106 
N1230 X147.002 Y-19.829 Z-4.790 A108.1103 B-0.0043 
N1231 X147.002 Y-20.727 Z-4.737 A104.6964 B-0.0015 
N1232 X147.002 Y-21.687 Z-4.693 A100.9534 B0.0000 
N1233 X147.002 Y-22.706 Z-4.635 A96.9143 
N1234 X147.002 Y-23.761 Z-4.543 A92.6878 
N1235 X147.002 Y-24.827 Z-4.400 A88.3767 
N1236 X147.002 Y-25.883 Z-4.200 A84.0486 
N1237 X147.002 Y-26.920 Z-3.938 A79.7351 
N1238 X147.002 Y-27.941 Z-3.612 A75.4090 
N1239 X147.002 Y-28.970 Z-3.208 A70.9376 
N1240 X147.002 Y-29.966 Z-2.731 A66.4694 
N1241 X147.002 Y-30.829 Z-2.231 A62.4320 
N1242 X147.002 Y-31.594 Z-1.711 A58.6949 
N1243 X147.002 Y-32.322 Z-1.142 A54.9600 
N1244 X147.002 Y-33.041 Z-0.498 A51.0593 
N1245 X147.002 Y-33.766 Z0.251 A46.8454 
N1246 X147.002 Y-34.506 Z1.147 A42.1467 
N1247 X147.002 Y-35.245 Z2.226 A36.8611 
N1248 X147.002 Y-35.931 Z3.491 A31.0490 
N1249 X147.002 Y-36.492 Z4.901 A24.9285 
N1250 X147.002 Y-36.861 Z6.371 A18.8382 
N1251 X147.002 Y-36.996 Z7.758 A13.2871 
N1252 X147.002 Y-36.906 Z8.939 A8.6634 
N1253 X147.002 Y-36.630 Z9.888 A4.9913 
N1254 X147.002 Y-36.203 Z10.606 A2.2175 
N1255 X147.002 Y-35.642 Z11.069 A0.4287 
N1256 X147.002 Y-34.959 Z11.308 A359.5018 
N1257 X147.002 Y-34.152 Z11.409 A359.1053 
N1258 X147.002 Y-33.216 Z11.442 A358.9725 
N1259 X147.002 Y-32.147 Z11.448 A358.9446 
N1260 X147.002 Y-30.943 Z11.447 A358.9430 
N1261 X147.002 Y-29.612 Z11.446 
N1262 X147.002 Y-28.164 Z11.444 
N1263 X147.002 Y-26.615 Z11.443 
N1264 X147.002 Y-24.984 Z11.441 
N1265 X147.002 Y-23.297 Z11.440 
N1266 X147.002 Y-21.577 Z11.438 
N1267 X147.002 Y-19.852 Z11.436 
N1268 X147.002 Y-18.146 Z11.434 
N1269 X147.002 Y-16.479 Z11.433 
N1270 X147.002 Y-14.870 Z11.432 A358.9381 
N1271 X147.002 Y-13.329 Z11.468 A358.7832 
N1272 X147.002 Y-11.857 Z11.664 A357.9271 
N1273 X147.002 Y-10.431 Z12.233 A355.4016 
N1274 X147.002 Y-8.976 Z13.253 A350.6824 
N1275 X147.002 Y-7.393 Z14.559 A344.2059 
N1276 X147.002 Y-5.626 Z15.904 A336.7433 B-0.0081 
N1277 X147.002 Y-3.746 Z16.991 A329.4241 B-0.0506 
N1278 X147.002 Y-1.909 Z17.636 A323.1736 B-0.0848 
N1279 X147.002 Y-0.247 Z17.820 A318.3969 B-0.0847 
N1280 X147.002 Y1.149 Z17.577 A315.3078 B-0.0733 
N1281 X147.002 Y2.276 Z16.991 A313.7955 B-0.0672 
N1282 X147.002 Y3.333 Z16.287 A312.7165 B-0.0593 
N1283 X147.002 Y4.449 Z15.588 A311.3419 B-0.0351 
N1284 X147.002 Y5.567 Z14.844 A309.9530 B0.0014 
N1285 X147.002 Y6.615 Z14.007 A308.9144 B0.0383 
N1286 X147.002 Y7.631 Z13.129 A307.9948 B0.0796 
N1287 X147.002 Y8.675 Z12.275 A306.8277 B0.1394 
N1288 X147.003 Y9.694 Z11.421 A305.6290 B0.2100 
N1289 X147.003 Y10.569 Z10.505 A304.9644 B0.2605 
N1290 X147.003 Y11.297 Z9.550 A304.8404 B0.2837 
N1291 X147.003 Y11.960 Z8.633 A304.8387 B0.2993 
N1292 X147.003 Y12.577 Z7.779 A304.8387 B0.3137 
N1293 X147.003 Y13.141 Z6.997 A304.8386 B0.3270 
N1294 X147.003 Y13.662 Z6.299 A304.7842 B0.3425 
N1295 X147.003 Y14.198 Z5.727 A304.3678 B0.3808 
N1296 X147.003 Y14.812 Z5.319 A303.2708 B0.4644 
N1297 X147.004 Y15.522 Z5.071 A301.4173 B0.6007 
N1298 X147.004 Y16.307 Z4.944 A298.9613 B0.7804 
N1299 X147.005 Y17.140 Z4.897 A296.0821 B0.9904 
N1300 X147.006 Y18.022 Z4.906 A292.8342 B1.2264 
N1301 X147.007 Y18.962 Z4.949 A289.2344 B1.4866 
N1302 X147.008 Y19.954 Z5.000 A285.3450 B1.7661 
N1303 X147.009 Y20.992 Z5.037 A281.2271 B2.0595 
N1304 X147.010 Y22.066 Z5.039 A276.9349 B2.3615 
N1305 X147.011 Y23.154 Z4.989 A272.5622 B2.6639 
N1306 X147.012 Y24.231 Z4.879 A268.2028 B2.9592 
N1307 X147.013 Y25.283 Z4.707 A263.9063 B3.2434 
N1308 X147.013 Y26.316 Z4.470 A259.6278 B3.5188 
N1309 X147.014 Y27.368 Z4.156 A255.1896 B3.7924 
N1310 X147.015 Y28.471 Z3.741 A250.4266 B4.0589 
N1311 X147.016 Y29.458 Z3.276 A246.0100 B4.2675 
N1312 X147.016 Y30.283 Z2.804 A242.1664 B4.4081 
N1313 X147.017 Y31.050 Z2.294 A238.4436 B4.5087 
N1314 X147.017 Y31.801 Z1.718 A234.6118 B4.5822 
N1315 X147.017 Y32.551 Z1.057 A230.5666 B4.6316 
N1316 X147.017 Y33.307 Z0.282 A226.1839 B4.6551 
N1317 X147.017 Y34.068 Z-0.641 A221.3430 B4.6470 
N1318 X147.017 Y34.805 Z-1.730 A216.0194 B4.5983 
N1319 X147.017 Y35.468 Z-2.974 A210.3162 B4.5012 
N1320 X147.016 Y35.998 Z-4.332 A204.4290 B4.3545 
N1321 X147.016 Y36.343 Z-5.722 A198.6653 B4.1675 
N1322 X147.015 Y36.468 Z-7.013 A193.4911 B3.9639 
N1323 X147.014 Y36.391 Z-8.124 A189.1332 B3.7673 
N1324 X147.014 Y36.147 Z-9.081 A185.4197 B3.5848 
N1325 X147.013 Y35.754 Z-9.880 A182.3119 B3.4249 
N1326 X147.013 Y35.223 Z-10.418 A180.1999 B3.3130 
N1327 X147.013 Y34.571 Z-10.678 A179.1671 B3.2576 
N1328 X147.013 Y33.799 Z-10.760 A178.8295 B3.2401 
N1329 X147.013 Y32.901 Z-10.771 A178.7669 B3.2384 
N1330 X147.013 Y31.871 Z-10.768 A178.7592 B3.2404 
N1331 X147.013 Y30.709 Z-10.763 A178.7589 B3.2432 
N1332 X147.013 Y29.419 Z-10.756 A178.7590 B3.2463 
N1333 X147.013 Y28.013 Z-10.749 A178.7591 B3.2497 
N1334 X147.013 Y26.504 Z-10.742 A178.7592 B3.2533 
N1335 X147.013 Y24.913 Z-10.734 A178.7593 B3.2572 
N1336 X147.013 Y23.264 Z-10.725 A178.7594 B3.2612 
N1337 X147.013 Y21.581 Z-10.717 A178.7595 B3.2652 
N1338 X147.013 Y19.891 Z-10.709 A178.7596 B3.2693 
N1339 X147.013 Y18.218 Z-10.700 A178.7597 B3.2734 
N1340 X147.013 Y16.584 Z-10.692 A178.7598 B3.2773 
N1341 X147.013 Y15.006 Z-10.684 A178.7600 B3.2812 
N1342 X147.013 Y13.495 Z-10.677 A178.7592 B3.2848 
N1343 X147.013 Y12.057 Z-10.710 A178.5935 B3.2805 
N1344 X147.012 Y10.679 Z-11.024 A177.2182 B3.2219 
N1345 X147.012 Y9.304 Z-11.892 A173.3516 B3.0509 
N1346 X147.011 Y7.789 Z-13.319 A166.6724 B2.7234 
N1347 X147.009 Y5.959 Z-15.077 A157.6773 B2.1690 
N1348 X147.007 Y3.832 Z-16.641 A148.1392 B1.4211 
N1349 X147.004 Y1.692 Z-17.590 A139.9725 B0.7461 
N1350 X147.003 Y-0.229 Z-17.905 A133.7682 B0.2681 
N1351 X147.002 Y-1.704 Z-17.603 A130.1938 B0.0131 
N1352 X147.002 Y-2.677 Z-16.794 A129.3347 B-0.0422 
N1353 X147.002 Y-3.514 Z-15.822 A129.2954 B-0.0416 
N1354 X147.002 Y-4.367 Z-14.816 B-0.0385 
N1355 X147.002 Y-5.240 Z-13.787 B-0.0353 
N1356 X147.002 Y-6.125 Z-12.743 B-0.0320 
N1357 X147.002 Y-7.013 Z-11.695 B-0.0287 
N1358 X147.002 Y-7.893 Z-10.658 B-0.0254 
N1359 X147.002 Y-8.753 Z-9.644 A129.2954 B-0.0223 
N1360 X147.002 Y-9.580 Z-8.669 B-0.0192 
N1361 X147.002 Y-10.363 Z-7.745 B-0.0163 
N1362 X147.002 Y-11.093 Z-6.884 B-0.0136 
N1363 X147.002 Y-11.762 Z-6.095 B-0.0111 
N1364 X147.002 Y-12.370 Z-5.385 A129.2750 B-0.0091 
N1365 X147.002 Y-12.947 Z-4.786 A129.0554 B-0.0093 
N1366 X147.002 Y-13.563 Z-4.350 A128.2668 B-0.0129 
N1367 X147.002 Y-14.274 Z-4.108 A126.6166 B-0.0177 
N1368 X147.002 Y-15.065 Z-4.020 A124.2460 B-0.0183 
N1369 X147.002 Y-15.907 Z-4.035 A121.3713 B-0.0142 
N1370 X147.002 Y-16.807 Z-4.125 A118.0457 B-0.0088 
N1371 X147.002 Y-17.774 Z-4.264 A114.2943 B-0.0045 
N1372 X147.002 Y-18.804 Z-4.420 A110.1989 B-0.0018 
N1373 X147.002 Y-19.888 Z-4.563 A105.8458 B0.0000 
N1374 X147.002 Y-21.011 Z-4.669 A101.3198 
N1375 X147.002 Y-22.146 Z-4.717 A96.7464 
N1376 X147.002 Y-23.263 Z-4.697 A92.2346 
N1377 X147.002 Y-24.349 Z-4.609 A87.8315 
N1378 X147.002 Y-25.411 Z-4.452 A83.4841 
N1379 X147.002 Y-26.493 Z-4.219 A78.9995 
N1380 X147.002 Y-27.684 Z-3.873 A73.9687 
N1381 X147.002 Y-28.847 Z-3.425 A68.9158 
N1382 X147.002 Y-29.797 Z-2.962 A64.6291 
N1383 X147.002 Y-30.628 Z-2.475 A60.7254 
N1384 X147.002 Y-31.406 Z-1.943 A56.9058 
N1385 X147.002 Y-32.160 Z-1.347 A53.0105 
N1386 X147.002 Y-32.908 Z-0.661 A48.8981 
N1387 X147.002 Y-33.663 Z0.147 A44.4178 
N1388 X147.002 Y-34.418 Z1.109 A39.4673 
N1389 X147.002 Y-35.133 Z2.231 A34.0824 
N1390 X147.002 Y-35.750 Z3.481 A28.4451 
N1391 X147.002 Y-36.215 Z4.799 A22.8097 
N1392 X147.002 Y-36.494 Z6.107 A17.4397 
N1393 X147.002 Y-36.574 Z7.316 A12.6236 
N1394 X147.002 Y-36.470 Z8.376 A8.4868 
N1395 X147.002 Y-36.207 Z9.285 A4.9666 
N1396 X147.002 Y-35.798 Z10.005 A2.1802 
N1397 X147.002 Y-35.259 Z10.460 A0.4146 
N1398 X147.002 Y-34.599 Z10.673 A359.5932 
N1399 X147.002 Y-33.820 Z10.740 A359.3475 
N1400 X147.002 Y-32.914 Z10.752 A359.3180 
N1401 X147.002 Y-31.877 Z10.758 A359.3178 
N1402 X147.002 Y-30.710 Z10.764 
N1403 X147.002 Y-29.419 Z10.771 
N1404 X147.002 Y-28.015 Z10.779 
N1405 X147.002 Y-26.513 Z10.788 
N1406 X147.002 Y-24.934 Z10.796 
N1407 X147.002 Y-23.301 Z10.805 
N1408 X147.002 Y-21.640 Z10.815 
N1409 X147.002 Y-19.974 Z10.824 
N1410 X147.002 Y-18.329 Z10.833 
N1411 X147.002 Y-16.724 Z10.842 
N1412 X147.002 Y-15.176 Z10.851 A359.3164 
N1413 X147.002 Y-13.693 Z10.881 A359.2242 
N1414 X147.002 Y-12.279 Z11.035 A358.5961 
N1415 X147.002 Y-10.914 Z11.528 A356.4696 
N1416 X147.002 Y-9.521 Z12.557 A351.8482 
N1417 X147.002 Y-7.962 Z14.025 A344.8292 
N1418 X147.002 Y-6.101 Z15.688 A336.0165 B-0.0035 
N1419 X147.002 Y-4.002 Z17.086 A327.0259 B-0.0355 
N1420 X147.002 Y-1.937 Z17.883 A319.4773 B-0.0604 
N1421 X147.002 Y-0.116 Z18.076 A313.9022 B-0.0411 
N1422 X147.002 Y1.325 Z17.735 A310.5659 B-0.0083 
N1423 X147.002 Y2.312 Z16.925 A309.6951 B0.0058 
N1424 X147.002 Y3.162 Z15.950 A309.6588 B0.0079 
N1425 X147.002 Y4.028 Z14.941 A309.6587 B0.0094 
N1426 X147.002 Y4.913 Z13.911 B0.0109 
N1427 X147.002 Y5.809 Z12.867 B0.0124 
N1428 X147.002 Y6.706 Z11.823 B0.0139 
N1429 X147.002 Y7.593 Z10.791 B0.0154 
N1430 X147.002 Y8.456 Z9.786 B0.0169 
N1431 X147.002 Y9.285 Z8.821 B0.0183 
N1432 X147.002 Y10.067 Z7.910 B0.0196 
N1433 X147.002 Y10.794 Z7.064 B0.0209 
N1434 X147.002 Y11.459 Z6.289 B0.0220 
N1435 X147.002 Y12.061 Z5.595 A309.6423 B0.0241 
N1436 X147.002 Y12.651 Z5.027 A309.3198 B0.0478 
N1437 X147.002 Y13.314 Z4.650 A308.2355 B0.1271 
N1438 X147.003 Y14.053 Z4.446 A306.3946 B0.2639 
N1439 X147.003 Y14.851 Z4.377 A303.9474 B0.4482 
N1440 X147.004 Y15.699 Z4.405 A301.0123 B0.6710 
N1441 X147.005 Y16.600 Z4.501 A297.6606 B0.9260 
N1442 X147.006 Y17.564 Z4.642 A293.9088 B1.2112 
N1443 X147.007 Y18.593 Z4.798 A289.8159 B1.5214 
N1444 X147.008 Y19.672 Z4.938 A285.4860 B1.8475 
N1445 X147.009 Y20.787 Z5.039 A280.9970 B2.1822 
N1446 X147.010 Y21.919 Z5.083 A276.4409 B2.5166 
N1447 X147.011 Y23.038 Z5.060 A271.9270 B2.8416 
N1448 X147.012 Y24.122 Z4.967 A267.5374 B3.1510 
N1449 X147.013 Y25.170 Z4.807 A263.2523 B3.4467 
N1450 X147.014 Y26.229 Z4.574 A258.8692 B3.7407 
N1451 X147.015 Y27.409 Z4.227 A253.8907 B4.0500 
N1452 X147.016 Y28.568 Z3.778 A248.8573 B4.3164 
N1453 X147.017 Y29.494 Z3.324 A244.6825 B4.4910 
N1454 X147.017 Y30.307 Z2.847 A240.8670 B4.6125 
N1455 X147.017 Y31.077 Z2.321 A237.0904 B4.7027 
N1456 X147.018 Y31.830 Z1.728 A233.2063 B4.7682 
N1457 X147.018 Y32.582 Z1.042 A229.0873 B4.8101 
N1458 X147.018 Y33.341 Z0.233 A224.5929 B4.8253 
N1459 X147.018 Y34.098 Z-0.729 A219.6335 B4.8064 
N1460 X147.017 Y34.815 Z-1.848 A214.2502 B4.7444 
N1461 X147.017 Y35.436 Z-3.098 A208.6036 B4.6339 
N1462 X147.017 Y35.908 Z-4.424 A202.9211 B4.4771 
N1463 X147.016 Y36.190 Z-5.738 A197.5153 B4.2873 
N1464 X147.015 Y36.268 Z-6.932 A192.7583 B4.0878 
N1465 X147.015 Y36.164 Z-7.968 A188.7110 B3.8957 
N1466 X147.014 Y35.906 Z-8.888 A185.1442 B3.7133 
N1467 X147.014 Y35.504 Z-9.654 A182.1621 B3.5542 
N1468 X147.013 Y34.966 Z-10.145 A180.2449 B3.4490 
N1469 X147.013 Y34.308 Z-10.362 A179.3934 B3.4015 
N1470 X147.013 Y33.530 Z-10.419 A179.1729 B3.3886 
N1471 X147.013 Y32.625 Z-10.425 A179.1543 B3.3866 
N1472 X147.013 Y31.588 Z-10.427 A179.1542 B3.3854 
N1473 X147.013 Y30.420 Z-10.429 A179.1542 B3.3841 
N1474 X147.013 Y29.127 Z-10.431 A179.1542 B3.3826 
N1475 X147.013 Y27.719 Z-10.434 A179.1541 B3.3810 
N1476 X147.013 Y26.213 Z-10.437 A179.1541 B3.3793 
N1477 X147.013 Y24.628 Z-10.440 A179.1540 B3.3775 
N1478 X147.013 Y22.989 Z-10.443 A179.1540 B3.3756 
N1479 X147.013 Y21.322 Z-10.446 A179.1539 B3.3737 
N1480 X147.013 Y19.653 Z-10.449 A179.1538 B3.3718 
N1481 X147.013 Y18.006 Z-10.452 A179.1538 B3.3699 
N1482 X147.013 Y16.403 Z-10.455 A179.1537 B3.3681 
N1483 X147.013 Y14.862 Z-10.458 A179.1537 B3.3663 
N1484 X147.013 Y13.395 Z-10.461 A179.1519 B3.3646 
N1485 X147.013 Y12.008 Z-10.509 A178.9603 B3.3540 
N1486 X147.013 Y10.692 Z-10.837 A177.5677 B3.2893 
N1487 X147.012 Y9.395 Z-11.678 A173.8667 B3.1201 
N1488 X147.011 Y7.997 Z-13.024 A167.6442 B2.8115 
N1489 X147.009 Y6.351 Z-14.672 A159.4024 B2.3137 
N1490 X147.007 Y4.439 Z-16.226 A150.4462 B1.6293 
N1491 X147.005 Y2.500 Z-17.256 A142.6648 B0.9735 
N1492 X147.003 Y0.707 Z-17.753 A136.4615 B0.4744 
N1493 X147.002 Y-0.805 Z-17.762 A132.1005 B0.1474 
N1494 X147.002 Y-1.902 Z-17.308 A130.0098 B0.0007 
N1495 X147.002 Y-2.692 Z-16.554 A129.5748 B-0.0269 
N1496 X147.002 Y-3.415 Z-15.716 A129.5573 B-0.0264 
N1497 X147.002 Y-4.148 Z-14.859 B-0.0248 
N1498 X147.002 Y-4.892 Z-13.991 B-0.0231 
N1499 X147.002 Y-5.641 Z-13.115 B-0.0215 
N1500 X146.999 Y-13.351 Z-19.484 
N1501 G00 X146.985 Y-51.900 Z-51.326 
N1502 ; DELTA A > 40.1
N1503 TRAFOOF
N1504 STOPRE
N1505 G0 G53 D0 Z265.000
N1506 G1 G53 A88.8340 F10000
N1507 TRAORI
N1508 G54 D2
N1509 TRANS 
N1510 G00 X157.169 Y-88.464 Z-28.381 A88.8340 B0.0000 
N1511 X157.169 Y-38.474 Z-29.398 
N1512 G01 X157.169 Y-28.476 Z-29.602 F3007 
N1513 X157.169 Y-28.468 Z-26.562 
N1514 X157.169 Y-28.459 Z-23.575 
N1515 X157.169 Y-28.451 Z-20.692 
N1516 X157.169 Y-28.443 Z-17.957 
N1517 X157.169 Y-28.435 Z-15.405 
N1518 X157.169 Y-28.429 Z-13.065 
N1519 X157.169 Y-28.422 Z-10.955 
N1520 X157.169 Y-28.417 Z-9.081 
N1521 X157.169 Y-28.412 Z-7.442 
N1522 X157.169 Y-28.414 Z-6.029 A88.8081 
N1523 X157.169 Y-28.552 Z-4.821 A88.2149 
N1524 X157.169 Y-29.075 Z-3.777 A85.9643 
N1525 X157.169 Y-29.994 Z-2.822 A81.9169 
N1526 X157.169 Y-31.188 Z-1.868 A76.4800 
N1527 X157.169 Y-32.534 Z-0.835 A70.0848 
N1528 X157.169 Y-33.947 Z0.342 A62.9494 
N1529 X157.169 Y-35.335 Z1.703 A55.3043 
N1530 X157.169 Y-36.587 Z3.241 A47.4574 
N1531 X157.169 Y-37.608 Z4.904 A39.7251 
N1532 X157.169 Y-38.338 Z6.617 A32.3796 
N1533 X157.169 Y-38.775 Z8.345 A25.4007 
N1534 X157.169 Y-38.913 Z10.041 A18.8356 
N1535 X157.169 Y-38.752 Z11.644 A12.7789 
N1536 X157.169 Y-38.294 Z13.046 A7.5419 
N1537 X157.169 Y-37.568 Z14.143 A3.4361 
N1538 X157.169 Y-36.611 Z14.882 A0.6335 
N1539 X157.169 Y-35.453 Z15.204 A359.3987 
N1540 X157.169 Y-34.101 Z15.263 A359.1798 
N1541 X157.169 Y-32.542 Z15.272 A359.1647 
N1542 X157.169 Y-30.769 Z15.277 A359.1645 
N1543 X157.169 Y-28.781 Z15.283 
N1544 X157.169 Y-26.588 Z15.289 
N1545 X157.169 Y-24.208 Z15.296 
N1546 X157.169 Y-21.668 Z15.303 
N1547 X157.169 Y-19.003 Z15.311 
N1548 X157.169 Y-16.255 Z15.319 
N1549 X157.169 Y-13.471 Z15.327 
N1550 X157.169 Y-10.698 Z15.335 
N1551 X157.169 Y-7.985 Z15.342 
N1552 X157.169 Y-5.376 Z15.350 
N1553 X157.169 Y-2.910 Z15.357 
N1554 X157.169 Y-0.617 Z15.363 
N1555 X157.169 Y1.479 Z15.369 
N1556 X157.169 Y3.364 Z15.375 
N1557 X157.169 Y5.035 Z15.380 A359.1623 
N1558 X157.169 Y6.495 Z15.416 A359.0296 
N1559 X157.169 Y7.757 Z15.602 A358.2490 
N1560 X157.169 Y8.854 Z16.071 A356.2194 
N1561 X157.169 Y9.844 Z16.881 A352.6296 
N1562 X157.169 Y10.801 Z17.936 A347.8063 B-0.0009 
N1563 X157.169 Y11.781 Z19.110 A342.2185 B-0.0047 
N1564 X157.169 Y12.831 Z20.335 A336.0890 B-0.0150 
N1565 X157.169 Y13.979 Z21.543 A329.6314 B-0.0287 
N1566 X157.169 Y15.226 Z22.665 A323.0569 B-0.0344 
N1567 X157.169 Y16.559 Z23.651 A316.5267 B-0.0229 
N1568 X157.169 Y17.956 Z24.467 A310.1444 B0.0000 
N1569 X157.169 Y19.408 Z25.104 A303.9013 B0.0183 
N1570 X157.169 Y20.904 Z25.550 A297.7784 B0.0262 
N1571 X157.169 Y22.403 Z25.784 A291.8771 B0.0243 
N1572 X157.169 Y23.853 Z25.796 A286.3251 B0.0166 
N1573 X157.169 Y25.208 Z25.587 A281.2134 B0.0083 
N1574 X157.169 Y26.417 Z25.171 A276.6606 B0.0029 
N1575 X157.169 Y27.388 Z24.567 A272.9754 B0.0007 
N1576 X157.169 Y28.021 Z23.810 A270.5475 B0.0000 
N1577 X157.169 Y28.336 Z22.933 A269.3209 
N1578 X157.169 Y28.455 Z21.953 A268.8415 B0.0014 
N1579 X157.169 Y28.482 Z20.875 A268.7120 B0.0051 
N1580 X157.169 Y28.479 Z19.705 A268.6976 B0.0126 
N1581 X157.169 Y28.473 Z18.452 A268.6976 B0.0250 
N1582 X157.169 Y28.466 Z17.131 B0.0425 
N1583 X157.170 Y28.459 Z15.761 A268.6976 B0.0647 
N1584 X157.170 Y28.451 Z14.364 A268.6976 B0.0916 
N1585 X157.170 Y28.444 Z12.962 A268.6977 B0.1227 
N1586 X157.170 Y28.437 Z11.580 A268.6977 B0.1541 
N1587 X157.170 Y28.429 Z10.238 A268.6977 B0.1778 
N1588 X157.170 Y28.423 Z8.957 A268.6977 B0.1924 
N1589 X157.170 Y28.416 Z7.755 A268.6978 B0.2035 
N1590 X157.170 Y28.411 Z6.642 A268.6967 B0.2135 
N1591 X157.170 Y28.428 Z5.628 A268.6033 B0.2233 
N1592 X157.170 Y28.569 Z4.712 A267.9896 B0.2376 
N1593 X157.170 Y28.950 Z3.883 A266.3413 B0.2660 
N1594 X157.170 Y29.595 Z3.110 A263.5097 B0.3176 
N1595 X157.171 Y30.473 Z2.349 A259.5755 B0.3989 
N1596 X157.171 Y31.520 Z1.553 A254.7550 B0.5131 
N1597 X157.171 Y32.662 Z0.681 A249.2841 B0.6602 
N1598 X157.172 Y33.859 Z-0.309 A243.2451 B0.8341 
N1599 X157.173 Y35.051 Z-1.443 A236.7757 B1.0118 
N1600 X157.173 Y36.178 Z-2.734 A229.9983 B1.1412 
N1601 X157.173 Y37.184 Z-4.181 A223.0075 B1.1661 
N1602 X157.173 Y37.994 Z-5.744 A216.0381 B1.0820 
N1603 X157.172 Y38.568 Z-7.381 A209.2000 B0.9326 
N1604 X157.172 Y38.883 Z-9.061 A202.5248 B0.7661 
N1605 X157.171 Y38.914 Z-10.718 A196.1623 B0.6119 
N1606 X157.171 Y38.648 Z-12.267 A190.3193 B0.4833 
N1607 X157.171 Y38.089 Z-13.561 A185.4626 B0.3880 
N1608 X157.170 Y37.277 Z-14.496 A181.9372 B0.3272 
N1609 X157.170 Y36.252 Z-15.034 A179.8791 B0.2965 
N1610 X157.170 Y35.035 Z-15.204 A179.2265 B0.2851 
N1611 X157.170 Y33.618 Z-15.221 A179.1766 B0.2788 
N1612 X157.170 Y31.991 Z-15.226 A179.1765 B0.2719 
N1613 X157.170 Y30.147 Z-15.232 A179.1765 B0.2642 
N1614 X157.170 Y28.091 Z-15.238 A179.1765 B0.2556 
N1615 X157.170 Y25.835 Z-15.245 A179.1765 B0.2461 
N1616 X157.170 Y23.398 Z-15.252 A179.1765 B0.2359 
N1617 X157.170 Y20.813 Z-15.260 A179.1764 B0.2251 
N1618 X157.170 Y18.116 Z-15.269 A179.1764 B0.2138 
N1619 X157.170 Y15.350 Z-15.277 A179.1764 B0.2022 
N1620 X157.170 Y12.565 Z-15.286 A179.1764 B0.1905 
N1621 X157.170 Y9.807 Z-15.294 A179.1764 B0.1790 
N1622 X157.170 Y7.124 Z-15.302 A179.1763 B0.1677 
N1623 X157.170 Y4.559 Z-15.310 A179.1763 B0.1546 
N1624 X157.170 Y2.148 Z-15.318 A179.1763 B0.1309 
N1625 X157.170 Y-0.080 Z-15.325 A179.1763 B0.0979 
N1626 X157.170 Y-2.106 Z-15.331 A179.1762 B0.0689 
N1627 X157.169 Y-3.919 Z-15.336 A179.1762 B0.0471 
N1628 X157.169 Y-5.517 Z-15.345 A179.1614 B0.0310 
N1629 X157.169 Y-6.908 Z-15.417 A178.8761 B0.0198 
N1630 X157.169 Y-8.109 Z-15.691 A177.7104 B0.0150 
N1631 X157.169 Y-9.162 Z-16.279 A175.1448 B0.0199 
N1632 X157.169 Y-10.132 Z-17.184 A171.0907 B0.0360 
N1633 X157.170 Y-11.088 Z-18.279 A166.0187 B0.0605 
N1634 X157.170 Y-12.080 Z-19.464 A160.2911 B0.0834 
N1635 X157.170 Y-13.149 Z-20.674 A154.1132 B0.0926 
N1636 X157.170 Y-14.314 Z-21.846 A147.6814 B0.0836 
N1637 X157.170 Y-15.596 Z-22.947 A141.0409 B0.0584 
N1638 X157.169 Y-16.993 Z-23.928 A134.2988 B0.0228 
N1639 X157.169 Y-18.444 Z-24.712 A127.7809 B-0.0105 
N1640 X157.169 Y-19.914 Z-25.281 A121.5781 B-0.0307 
N1641 X157.169 Y-21.398 Z-25.645 A115.6000 B-0.0342 
N1642 X157.169 Y-22.865 Z-25.795 A109.8928 B-0.0254 
N1643 X157.169 Y-24.270 Z-25.728 A104.5554 B-0.0134 
N1644 X157.169 Y-25.569 Z-25.448 A99.6673 B-0.0048 
N1645 X157.169 Y-26.704 Z-24.970 A95.3869 B-0.0010 
N1646 X157.169 Y-27.571 Z-24.314 A92.0901 B0.0000 
N1647 X157.169 Y-28.093 Z-23.517 A90.0801 
N1648 X157.169 Y-28.333 Z-22.610 A89.1417 
N1649 X157.169 Y-28.415 Z-21.601 A88.8048 
N1650 X157.169 Y-28.429 Z-20.495 A88.7287 
N1651 X157.169 Y-28.424 Z-19.300 A88.7236 
N1652 X157.169 Y-28.418 Z-18.028 
N1653 X157.169 Y-28.412 Z-16.694 
N1654 X157.169 Y-28.405 Z-15.318 
N1655 X157.169 Y-28.398 Z-13.923 
N1656 X157.169 Y-28.391 Z-12.531 
N1657 X157.169 Y-28.385 Z-11.165 
N1658 X157.169 Y-28.378 Z-9.848 
N1659 X157.169 Y-28.372 Z-8.597 
N1660 X157.169 Y-28.367 Z-7.428 
N1661 X157.169 Y-28.363 Z-6.353 A88.7178 
N1662 X157.169 Y-28.402 Z-5.376 A88.5367 
N1663 X157.169 Y-28.614 Z-4.495 A87.6236 
N1664 X157.169 Y-29.103 Z-3.691 A85.5080 
N1665 X157.169 Y-29.854 Z-2.927 A82.1942 
N1666 X157.169 Y-30.813 Z-2.156 A77.8632 
N1667 X157.169 Y-31.905 Z-1.334 A72.7627 
N1668 X157.169 Y-33.069 Z-0.423 A67.0857 
N1669 X157.169 Y-34.264 Z0.614 A60.9043 
N1670 X157.169 Y-35.424 Z1.793 A54.3849 
N1671 X157.169 Y-36.494 Z3.118 A47.6438 
N1672 X157.169 Y-37.417 Z4.577 A40.8016 
N1673 X157.169 Y-38.137 Z6.129 A34.0378 
N1674 X157.169 Y-38.627 Z7.749 A27.3876 
N1675 X157.169 Y-38.860 Z9.392 A20.9343 
N1676 X157.169 Y-38.815 Z10.994 A14.8300 
N1677 X157.169 Y-38.482 Z12.457 A9.3358 
N1678 X157.169 Y-37.875 Z13.659 A4.8396 
N1679 X157.169 Y-37.030 Z14.538 A1.5179 
N1680 X157.169 Y-35.979 Z15.035 A359.6038 
N1681 X157.169 Y-34.739 Z15.183 A359.0229 
N1682 X157.169 Y-33.304 Z15.199 A358.9535 
N1683 X157.169 Y-31.662 Z15.199 A358.9492 
N1684 X157.169 Y-29.810 Z15.197 
N1685 X157.169 Y-27.753 Z15.196 
N1686 X157.169 Y-25.506 Z15.194 
N1687 X157.169 Y-23.089 Z15.191 
N1688 X157.169 Y-20.535 Z15.189 
N1689 X157.169 Y-17.880 Z15.187 
N1690 X157.169 Y-15.169 Z15.184 A358.9492 
N1691 X157.169 Y-12.446 Z15.184 A358.9409 
N1692 X157.169 Y-9.759 Z15.202 A358.8490 
N1693 X157.169 Y-7.151 Z15.249 A358.6101 
N1694 X157.169 Y-4.664 Z15.293 A358.3402 
N1695 X157.169 Y-2.331 Z15.324 A358.0848 
N1696 X157.169 Y-0.179 Z15.342 A357.8540 
N1697 X157.169 Y1.776 Z15.351 A357.6443 
N1698 X157.169 Y3.524 Z15.339 A357.5148 
N1699 X157.169 Y5.064 Z15.314 A357.4521 
N1700 X157.169 Y6.407 Z15.365 A357.0853 
N1701 X157.169 Y7.581 Z15.659 A355.6843 B-0.0036 
N1702 X157.169 Y8.633 Z16.289 A352.7884 B-0.0130 
N1703 X157.169 Y9.635 Z17.231 A348.4173 B-0.0318 
N1704 X157.169 Y10.649 Z18.352 A343.0452 B-0.0579 
N1705 X157.169 Y11.720 Z19.536 A337.0847 B-0.0807 
N1706 X157.169 Y12.870 Z20.704 A330.8097 B-0.0875 
N1707 X157.169 Y14.105 Z21.793 A324.4171 B-0.0758 
N1708 X157.169 Y15.418 Z22.759 A318.0424 B-0.0486 
N1709 X157.169 Y16.794 Z23.571 A311.7816 B-0.0114 
N1710 X157.169 Y18.220 Z24.210 A305.6627 B0.0276 
N1711 X157.170 Y19.693 Z24.672 A299.6389 B0.0629 
N1712 X157.170 Y21.188 Z24.939 A293.7512 B0.0932 
N1713 X157.170 Y22.661 Z24.991 A288.1143 B0.1182 
N1714 X157.170 Y24.063 Z24.825 A282.8397 B0.1387 
N1715 X157.170 Y25.327 Z24.446 A278.1093 B0.1558 
N1716 X157.170 Y26.353 Z23.870 A274.2578 B0.1707 
N1717 X157.170 Y27.038 Z23.133 A271.6797 B0.1839 
N1718 X157.170 Y27.396 Z22.275 A270.3435 B0.1964 
N1719 X157.170 Y27.545 Z21.316 A269.8071 B0.2094 
N1720 X157.170 Y27.594 Z20.264 A269.6610 B0.2232 
N1721 X157.170 Y27.611 Z19.126 A269.6449 B0.2378 
N1722 X157.170 Y27.625 Z17.912 A269.6449 B0.2533 
N1723 X157.170 Y27.639 Z16.637 A269.6450 B0.2696 
N1724 X157.170 Y27.654 Z15.320 A269.6450 B0.2864 
N1725 X157.170 Y27.669 Z13.981 A269.6451 B0.3035 
N1726 X157.170 Y27.684 Z12.641 A269.6451 B0.3206 
N1727 X157.170 Y27.699 Z11.324 A269.6434 B0.3374 
N1728 X157.170 Y27.720 Z10.050 A269.6182 B0.3540 
N1729 X157.171 Y27.750 Z8.837 A269.5437 B0.3708 
N1730 X157.171 Y27.779 Z7.700 A269.4686 B0.3874 
N1731 X157.171 Y27.800 Z6.652 A269.4155 B0.4032 
N1732 X157.171 Y27.849 Z5.698 A269.2423 B0.4197 
N1733 X157.171 Y28.026 Z4.839 A268.5185 B0.4437 
N1734 X157.171 Y28.444 Z4.063 A266.7538 B0.4854 
N1735 X157.171 Y29.129 Z3.337 A263.7917 B0.5530 
N1736 X157.171 Y30.053 Z2.615 A259.7019 B0.6520 
N1737 X157.172 Y31.147 Z1.846 A254.7159 B0.7847 
N1738 X157.172 Y32.325 Z0.994 A249.1228 B0.9484 
N1739 X157.173 Y33.535 Z0.025 A243.0675 B1.1340 
N1740 X157.174 Y34.699 Z-1.064 A236.7817 B1.3152 
N1741 X157.174 Y35.775 Z-2.278 A230.3583 B1.4449 
N1742 X157.174 Y36.753 Z-3.642 A223.6947 B1.4766 
N1743 X157.174 Y37.578 Z-5.143 A216.8956 B1.4047 
N1744 X157.173 Y38.200 Z-6.750 A210.0769 B1.2644 
N1745 X157.173 Y38.581 Z-8.425 A203.3226 B1.0988 
N1746 X157.172 Y38.682 Z-10.090 A196.8544 B0.9379 
N1747 X157.172 Y38.487 Z-11.645 A190.9430 B0.7974 
N1748 X157.172 Y38.006 Z-12.957 A185.9973 B0.6872 
N1749 X157.171 Y37.277 Z-13.928 A182.3261 B0.6122 
N1750 X157.171 Y36.342 Z-14.531 A180.0079 B0.5712 
N1751 X157.171 Y35.224 Z-14.770 A179.0700 B0.5576 
N1752 X157.171 Y33.921 Z-14.802 A178.9405 B0.5562 
N1753 X157.171 Y32.420 Z-14.800 A178.9399 B0.5564 
N1754 X157.171 Y30.716 Z-14.798 B0.5566 
N1755 X157.171 Y28.809 Z-14.796 B0.5568 
N1756 X157.171 Y26.709 Z-14.794 B0.5571 
N1757 X157.171 Y24.432 Z-14.792 B0.5574 
N1758 X157.171 Y22.006 Z-14.789 A178.9399 B0.5577 
N1759 X157.171 Y19.464 Z-14.786 B0.5580 
N1760 X157.171 Y16.844 Z-14.784 B0.5584 
N1761 X157.171 Y14.190 Z-14.781 A178.9393 B0.5587 
N1762 X157.171 Y11.548 Z-14.786 A178.9058 B0.5594 
N1763 X157.171 Y8.961 Z-14.841 A178.6441 B0.5624 
N1764 X157.171 Y6.468 Z-14.936 A178.1533 B0.5726 
N1765 X157.171 Y4.107 Z-15.004 A177.6969 B0.5876 
N1766 X157.171 Y1.908 Z-15.051 A177.2689 B0.5750 
N1767 X157.171 Y-0.109 Z-15.088 A176.8430 B0.5344 
N1768 X157.171 Y-1.930 Z-15.111 A176.4433 B0.4956 
N1769 X157.171 Y-3.551 Z-15.093 A176.2079 B0.4651 
N1770 X157.171 Y-4.975 Z-15.078 A175.9776 B0.4399 
N1771 X157.171 Y-6.224 Z-15.211 A175.1397 B0.4154 
N1772 X157.171 Y-7.339 Z-15.650 A172.9873 B0.3887 
N1773 X157.171 Y-8.384 Z-16.438 A169.2431 B0.3577 
N1774 X157.170 Y-9.431 Z-17.490 A164.1677 B0.3209 
N1775 X157.170 Y-10.527 Z-18.646 A158.3395 B0.2775 
N1776 X157.170 Y-11.686 Z-19.782 A152.2193 B0.2274 
N1777 X157.170 Y-12.908 Z-20.833 A146.0447 B0.1710 
N1778 X157.170 Y-14.203 Z-21.779 A139.8396 B0.1078 
N1779 X157.169 Y-15.578 Z-22.602 A133.6073 B0.0391 
N1780 X157.169 Y-16.994 Z-23.252 A127.5444 B-0.0250 
N1781 X157.169 Y-18.435 Z-23.717 A121.6813 B-0.0766 
N1782 X157.169 Y-19.905 Z-23.999 A115.9274 B-0.1159 
N1783 X157.169 Y-21.378 Z-24.085 A110.3160 B-0.1445 
N1784 X157.169 Y-22.816 Z-23.962 A104.9344 B-0.1643 
N1785 X157.169 Y-24.136 Z-23.621 A100.0394 B-0.1763 
N1786 X157.169 Y-25.212 Z-23.073 A96.0656 B-0.1812 
N1787 X157.169 Y-25.938 Z-22.354 A93.4147 B-0.1798 
N1788 X157.169 Y-26.335 Z-21.507 A92.0214 B-0.1733 
N1789 X157.169 Y-26.518 Z-20.559 A91.4590 B-0.1615 
N1790 X157.169 Y-26.596 Z-19.522 A91.3180 B-0.1429 
N1791 X157.169 Y-26.643 Z-18.406 A91.3062 B-0.1179 
N1792 X157.169 Y-26.691 Z-17.221 A91.3062 B-0.0900 
N1793 X157.169 Y-26.741 Z-15.983 A91.3062 B-0.0625 
N1794 X157.169 Y-26.792 Z-14.710 A91.3062 B-0.0379 
N1795 X157.169 Y-26.844 Z-13.422 B-0.0182 
N1796 X157.169 Y-26.896 Z-12.139 A91.3062 B-0.0057 
N1797 X157.169 Y-26.947 Z-10.882 A91.3027 B-0.0009 
N1798 X157.169 Y-27.005 Z-9.671 A91.2648 B0.0000 
N1799 X157.169 Y-27.074 Z-8.522 A91.1646 
N1800 X157.169 Y-27.142 Z-7.450 A91.0495 
N1801 X157.169 Y-27.217 Z-6.464 A90.8822 
N1802 X157.169 Y-27.352 Z-5.570 A90.4429 
N1803 X157.169 Y-27.635 Z-4.767 A89.3488 
N1804 X157.169 Y-28.147 Z-4.042 A87.2388 
N1805 X157.169 Y-28.903 Z-3.360 A84.0149 
N1806 X157.169 Y-29.876 Z-2.672 A79.7474 
N1807 X157.169 Y-31.001 Z-1.930 A74.6606 
N1808 X157.169 Y-32.186 Z-1.105 A69.0711 
N1809 X157.169 Y-33.379 Z-0.173 A63.1348 
N1810 X157.169 Y-34.512 Z0.867 A57.0619 
N1811 X157.169 Y-35.545 Z2.007 A50.9666 
N1812 X157.169 Y-36.483 Z3.275 A44.7014 
N1813 X157.169 Y-37.302 Z4.681 A38.2356 
N1814 X157.169 Y-37.956 Z6.214 A31.6323 
N1815 X157.169 Y-38.396 Z7.837 A24.9994 
N1816 X157.169 Y-38.575 Z9.475 A18.5780 
N1817 X157.169 Y-38.470 Z11.026 A12.6507 
N1818 X157.169 Y-38.084 Z12.371 A7.5852 
N1819 X157.169 Y-37.448 Z13.413 A3.6674 
N1820 X157.169 Y-36.602 Z14.130 A0.9473 
N1821 X157.169 Y-35.571 Z14.512 A359.4754 
N1822 X157.169 Y-34.363 Z14.629 A359.0174 
N1823 X157.169 Y-32.967 Z14.646 A358.9433 
N1824 X157.169 Y-31.376 Z14.646 A358.9382 
N1825 X157.169 Y-29.589 Z14.644 
N1826 X157.169 Y-27.611 Z14.642 
N1827 X157.169 Y-25.456 Z14.640 
N1828 X157.169 Y-23.147 Z14.637 
N1829 X157.169 Y-20.713 Z14.635 
N1830 X157.169 Y-18.189 Z14.632 
N1831 X157.169 Y-15.615 Z14.629 
N1832 X157.169 Y-13.035 Z14.630 A358.9208 
N1833 X157.169 Y-10.489 Z14.683 A358.6767 
N1834 X157.169 Y-8.015 Z14.843 A357.9083 
N1835 X157.169 Y-5.649 Z15.015 A356.9483 
N1836 X157.169 Y-3.425 Z15.134 A356.0721 
N1837 X157.169 Y-1.367 Z15.201 A355.3163 
N1838 X157.169 Y0.508 Z15.227 A354.6809 B-0.0064 
N1839 X157.169 Y2.189 Z15.200 A354.2466 B-0.0315 
N1840 X157.169 Y3.677 Z15.131 A354.0107 B-0.0747 
N1841 X157.169 Y4.989 Z15.128 A353.5425 B-0.1242 
N1842 X157.169 Y6.161 Z15.359 A352.1084 B-0.1649 
N1843 X157.169 Y7.247 Z15.928 A349.1935 B-0.1869 
N1844 X157.169 Y8.318 Z16.817 A344.7647 B-0.1931 
N1845 X157.169 Y9.431 Z17.892 A339.2708 B-0.1880 
N1846 X157.169 Y10.611 Z19.002 A333.2586 B-0.1720 
N1847 X157.169 Y11.852 Z20.041 A327.1305 B-0.1448 
N1848 X157.169 Y13.143 Z20.959 A321.0676 B-0.1056 
N1849 X157.169 Y14.479 Z21.738 A315.1202 B-0.0536 
N1850 X157.169 Y15.856 Z22.365 A309.2961 B0.0077 
N1851 X157.170 Y17.278 Z22.839 A303.5343 B0.0714 
N1852 X157.170 Y18.752 Z23.152 A297.7630 B0.1341 
N1853 X157.170 Y20.252 Z23.280 A292.0518 B0.1946 
N1854 X157.170 Y21.726 Z23.198 A286.5455 B0.2519 
N1855 X157.170 Y23.083 Z22.894 A281.5384 B0.3044 
N1856 X157.170 Y24.200 Z22.378 A277.4509 B0.3499 
N1857 X157.171 Y24.976 Z21.685 A274.6594 B0.3867 
N1858 X157.171 Y25.423 Z20.863 A273.1287 B0.4153 
N1859 X157.171 Y25.641 Z19.940 A272.4884 B0.4384 
N1860 X157.171 Y25.740 Z18.932 A272.3290 B0.4588 
N1861 X157.171 Y25.806 Z17.851 A272.3167 B0.4792 
N1862 X157.171 Y25.872 Z16.709 A272.3168 B0.5006 
N1863 X157.171 Y25.941 Z15.522 A272.3169 B0.5228 
N1864 X157.171 Y26.011 Z14.304 A272.3170 B0.5456 
N1865 X157.171 Y26.083 Z13.077 A272.3169 B0.5686 
N1866 X157.171 Y26.154 Z11.858 A272.3117 B0.5914 
N1867 X157.171 Y26.233 Z10.669 A272.2718 B0.6134 
N1868 X157.171 Y26.342 Z9.527 A272.0868 B0.6354 
N1869 X157.171 Y26.493 Z8.448 A271.6978 B0.6588 
N1870 X157.172 Y26.636 Z7.442 A271.2957 B0.6818 
N1871 X157.172 Y26.756 Z6.518 A270.9478 B0.7033 
N1872 X157.172 Y26.908 Z5.682 A270.4299 B0.7280 
N1873 X157.172 Y27.193 Z4.932 A269.3225 B0.7653 
N1874 X157.172 Y27.700 Z4.255 A267.2354 B0.8265 
N1875 X157.172 Y28.452 Z3.615 A264.0395 B0.9189 
N1876 X157.173 Y29.429 Z2.965 A259.7794 B1.0458 
N1877 X157.173 Y30.561 Z2.256 A254.6911 B1.2053 
N1878 X157.174 Y31.759 Z1.457 A249.0850 B1.3908 
N1879 X157.175 Y32.969 Z0.545 A243.1175 B1.5895 
N1880 X157.175 Y34.103 Z-0.468 A237.0953 B1.7713 
N1881 X157.176 Y35.125 Z-1.573 A231.1189 B1.8969 
N1882 X157.176 Y36.071 Z-2.815 A224.9069 B1.9356 
N1883 X157.175 Y36.911 Z-4.209 A218.4252 B1.8815 
N1884 X157.175 Y37.591 Z-5.740 A211.7654 B1.7569 
N1885 X157.175 Y38.063 Z-7.374 A205.0300 B1.5954 
N1886 X157.174 Y38.274 Z-9.034 A198.4723 B1.4254 
N1887 X157.173 Y38.196 Z-10.608 A192.4170 B1.2659 
N1888 X157.173 Y37.835 Z-11.968 A187.2567 B1.1311 
N1889 X157.173 Y37.225 Z-13.008 A183.3174 B1.0304 
N1890 X157.172 Y36.411 Z-13.698 A180.6810 B0.9657 
N1891 X157.172 Y35.420 Z-14.046 A179.3302 B0.9340 
N1892 X157.172 Y34.258 Z-14.135 A178.9746 B0.9254 
N1893 X157.172 Y32.914 Z-14.141 A178.9453 B0.9249 
N1894 X157.172 Y31.381 Z-14.140 A178.9439 B0.9254 
N1895 X157.172 Y29.656 Z-14.138 A178.9439 B0.9262 
N1896 X157.172 Y27.745 Z-14.136 A178.9439 B0.9270 
N1897 X157.172 Y25.660 Z-14.134 A178.9439 B0.9278 
N1898 X157.172 Y23.424 Z-14.132 A178.9440 B0.9288 
N1899 X157.172 Y21.064 Z-14.129 A178.9440 B0.9297 
N1900 X157.172 Y18.613 Z-14.127 A178.9440 B0.9308 
N1901 X157.172 Y16.112 Z-14.124 A178.9440 B0.9318 
N1902 X157.172 Y13.600 Z-14.123 A178.9387 B0.9328 
N1903 X157.172 Y11.119 Z-14.151 A178.8044 B0.9337 
N1904 X157.172 Y8.704 Z-14.300 A178.1164 B0.9362 
N1905 X157.172 Y6.389 Z-14.511 A177.0262 B0.9513 
N1906 X157.173 Y4.206 Z-14.665 A176.0161 B0.9728 
N1907 X157.172 Y2.179 Z-14.777 A175.0659 B0.9428 
N1908 X157.172 Y0.324 Z-14.859 A174.1548 B0.8740 
N1909 X157.172 Y-1.348 Z-14.894 A173.3948 B0.8123 
N1910 X157.172 Y-2.832 Z-14.869 A172.8768 B0.7641 
N1911 X157.172 Y-4.147 Z-14.878 A172.2428 B0.7214 
N1912 X157.172 Y-5.329 Z-15.089 A170.7783 B0.6741 
N1913 X157.171 Y-6.437 Z-15.626 A167.8805 B0.6151 
N1914 X157.171 Y-7.544 Z-16.489 A163.4420 B0.5413 
N1915 X157.171 Y-8.707 Z-17.542 A157.8965 B0.4548 
N1916 X157.171 Y-9.938 Z-18.616 A151.8721 B0.3604 
N1917 X157.170 Y-11.220 Z-19.594 A145.8175 B0.2632 
N1918 X157.170 Y-12.539 Z-20.437 A139.8932 B0.1653 
N1919 X157.170 Y-13.893 Z-21.135 A134.1021 B0.0675 
N1920 X157.169 Y-15.278 Z-21.680 A128.4459 B-0.0242 
N1921 X157.169 Y-16.706 Z-22.075 A122.8287 B-0.1027 
N1922 X157.169 Y-18.188 Z-22.313 A117.1662 B-0.1675 
N1923 X157.169 Y-19.689 Z-22.365 A111.5609 B-0.2189 
N1924 X157.168 Y-21.147 Z-22.206 A106.2068 B-0.2571 
N1925 X157.168 Y-22.443 Z-21.821 A101.5106 B-0.2812 
N1926 X157.168 Y-23.440 Z-21.229 A97.9722 B-0.2908 
N1927 X157.168 Y-24.081 Z-20.473 A95.8038 B-0.2880 
N1928 X157.168 Y-24.432 Z-19.599 A94.7695 B-0.2763 
N1929 X157.168 Y-24.605 Z-18.634 A94.4533 B-0.2593 
N1930 X157.169 Y-24.713 Z-17.595 A94.4151 B-0.2393 
N1931 X157.169 Y-24.817 Z-16.497 A94.4149 B-0.2181 
N1932 X157.169 Y-24.925 Z-15.354 A94.4148 B-0.1956 
N1933 X157.169 Y-25.036 Z-14.182 A94.4148 B-0.1695 
N1934 X157.169 Y-25.149 Z-12.997 A94.4148 B-0.1348 
N1935 X157.169 Y-25.260 Z-11.819 A94.4147 B-0.0922 
N1936 X157.169 Y-25.371 Z-10.666 A94.4105 B-0.0512 
N1937 X157.169 Y-25.493 Z-9.557 A94.3392 B-0.0219 
N1938 X157.169 Y-25.651 Z-8.507 A94.0888 B-0.0066 
N1939 X157.169 Y-25.827 Z-7.529 A93.7139 B-0.0012 
N1940 X157.169 Y-26.006 Z-6.629 A93.2792 B0.0000 
N1941 X157.169 Y-26.224 Z-5.814 A92.6269 
N1942 X157.169 Y-26.553 Z-5.086 A91.4518 
N1943 X157.169 Y-27.072 Z-4.436 A89.4115 
N1944 X157.169 Y-27.812 Z-3.834 A86.3627 
N1945 X157.169 Y-28.753 Z-3.238 A82.3622 
N1946 X157.169 Y-29.851 Z-2.601 A77.5534 
N1947 X157.169 Y-31.024 Z-1.890 A72.2248 
N1948 X157.169 Y-32.211 Z-1.086 A66.5870 
N1949 X157.169 Y-33.371 Z-0.175 A60.7438 
N1950 X157.169 Y-34.429 Z0.819 A54.9728 
N1951 X157.169 Y-35.386 Z1.902 A49.2206 
N1952 X157.169 Y-36.263 Z3.113 A43.2605 
N1953 X157.169 Y-37.037 Z4.469 A37.0404 
N1954 X157.169 Y-37.668 Z5.965 A30.5811 
N1955 X157.169 Y-38.096 Z7.560 A24.0467 
N1956 X157.169 Y-38.271 Z9.168 A17.7149 
N1957 X157.169 Y-38.168 Z10.676 A11.9241 
N1958 X157.169 Y-37.797 Z11.962 A7.0532 
N1959 X157.169 Y-37.192 Z12.942 A3.3514 
N1960 X157.169 Y-36.392 Z13.601 A0.8477 
N1961 X157.169 Y-35.422 Z13.954 A359.4852 
N1962 X157.169 Y-34.284 Z14.072 A359.0230 
N1963 X157.169 Y-32.972 Z14.092 A358.9369 
N1964 X157.169 Y-31.477 Z14.092 A358.9291 
N1965 X157.169 Y-29.799 Z14.090 A358.9291 
N1966 X157.169 Y-27.943 Z14.088 
N1967 X157.169 Y-25.921 Z14.085 
N1968 X157.169 Y-23.754 Z14.083 
N1969 X157.169 Y-21.467 Z14.080 
N1970 X157.169 Y-19.095 Z14.077 
N1971 X157.169 Y-16.671 Z14.074 
N1972 X157.169 Y-14.235 Z14.072 A358.9264 
N1973 X157.169 Y-11.825 Z14.103 A358.7772 
N1974 X157.169 Y-9.473 Z14.288 A357.9350 
N1975 X157.169 Y-7.204 Z14.616 A356.3077 
N1976 X157.169 Y-5.048 Z14.907 A354.5814 
N1977 X157.169 Y-3.035 Z15.104 A353.0440 B-0.0017 
N1978 X157.169 Y-1.185 Z15.210 A351.7501 B-0.0243 
N1979 X157.169 Y0.487 Z15.224 A350.7776 B-0.0849 
N1980 X157.169 Y1.977 Z15.149 A350.1794 B-0.1562 
N1981 X157.169 Y3.300 Z15.073 A349.6370 B-0.2053 
N1982 X157.169 Y4.497 Z15.154 A348.4828 B-0.2371 
N1983 X157.168 Y5.627 Z15.534 A346.0498 B-0.2575 
N1984 X157.168 Y6.757 Z16.242 A342.0965 B-0.2636 
N1985 X157.169 Y7.949 Z17.182 A336.8833 B-0.2527 
N1986 X157.169 Y9.217 Z18.185 A331.0119 B-0.2247 
N1987 X157.169 Y10.536 Z19.105 A325.0473 B-0.1817 
N1988 X157.169 Y11.872 Z19.874 A319.2941 B-0.1255 
N1989 X157.169 Y13.215 Z20.484 A313.7777 B-0.0559 
N1990 X157.169 Y14.580 Z20.953 A308.3820 B0.0252 
N1991 X157.170 Y16.002 Z21.296 A302.9141 B0.1129 
N1992 X157.170 Y17.497 Z21.503 A297.2775 B0.2056 
N1993 X157.170 Y19.023 Z21.531 A291.6239 B0.3004 
N1994 X157.171 Y20.485 Z21.343 A286.2965 B0.3922 
N1995 X157.171 Y21.744 Z20.928 A281.7892 B0.4742 
N1996 X157.171 Y22.681 Z20.312 A278.5287 B0.5410 
N1997 X157.171 Y23.277 Z19.546 A276.5919 B0.5910 
N1998 X157.171 Y23.597 Z18.670 A275.7392 B0.6267 
N1999 X157.171 Y23.759 Z17.714 A275.5342 B0.6539 
N2000 X157.172 Y23.879 Z16.696 A275.5208 B0.6794 
N2001 X157.172 Y24.000 Z15.632 A275.5210 B0.7059 
N2002 X157.172 Y24.126 Z14.536 A275.5211 B0.7331 
N2003 X157.172 Y24.253 Z13.422 A275.5213 B0.7608 
N2004 X157.172 Y24.381 Z12.307 A275.5201 B0.7885 
N2005 X157.172 Y24.514 Z11.209 A275.4890 B0.8162 
N2006 X157.172 Y24.672 Z10.146 A275.3342 B0.8441 
N2007 X157.172 Y24.883 Z9.136 A274.9198 B0.8738 
N2008 X157.172 Y25.145 Z8.190 A274.2346 B0.9070 
N2009 X157.172 Y25.400 Z7.311 A273.5082 B0.9404 
N2010 X157.173 Y25.630 Z6.506 A272.8133 B0.9728 
N2011 X157.173 Y25.889 Z5.780 A271.9362 B1.0103 
N2012 X157.173 Y26.267 Z5.132 A270.5079 B1.0640 
N2013 X157.173 Y26.842 Z4.547 A268.1929 B1.1456 
N2014 X157.173 Y27.632 Z3.992 A264.8922 B1.2610 
N2015 X157.174 Y28.619 Z3.422 A260.6625 B1.4108 
N2016 X157.175 Y29.745 Z2.794 A255.6918 B1.5909 
N2017 X157.175 Y30.931 Z2.078 A250.2606 B1.7926 
N2018 X157.176 Y32.133 Z1.253 A244.4848 B2.0034 
N2019 X157.177 Y33.273 Z0.326 A238.6417 B2.1943 
N2020 X157.177 Y34.280 Z-0.667 A233.0089 B2.3295 
N2021 X157.177 Y35.211 Z-1.771 A227.2492 B2.3896 
N2022 X157.177 Y36.076 Z-3.028 A221.1528 B2.3682 
N2023 X157.177 Y36.827 Z-4.438 A214.7732 B2.2742 
N2024 X157.176 Y37.415 Z-5.987 A208.1748 B2.1293 
N2025 X157.176 Y37.780 Z-7.613 A201.5723 B1.9581 
N2026 X157.175 Y37.876 Z-9.217 A195.2878 B1.7820 
N2027 X157.175 Y37.690 Z-10.671 A189.7100 B1.6192 
N2028 X157.174 Y37.247 Z-11.857 A185.1974 B1.4849 
N2029 X157.174 Y36.589 Z-12.710 A181.9482 B1.3883 
N2030 X157.174 Y35.753 Z-13.226 A179.9587 B1.3303 
N2031 X157.174 Y34.757 Z-13.441 A179.1166 B1.3060 
N2032 X157.174 Y33.597 Z-13.479 A178.9605 B1.3012 
N2033 X157.174 Y32.264 Z-13.480 A178.9520 B1.3012 
N2034 X157.174 Y30.752 Z-13.479 A178.9517 B1.3017 
N2035 X157.174 Y29.062 Z-13.477 A178.9517 B1.3023 
N2036 X157.174 Y27.203 Z-13.475 A178.9517 B1.3029 
N2037 X157.174 Y25.188 Z-13.473 A178.9517 B1.3036 
N2038 X157.174 Y23.041 Z-13.471 A178.9517 B1.3044 
N2039 X157.174 Y20.790 Z-13.469 A178.9517 B1.3052 
N2040 X157.174 Y18.465 Z-13.467 A178.9517 B1.3060 
N2041 X157.174 Y16.105 Z-13.464 A178.9517 B1.3068 
N2042 X157.174 Y13.746 Z-13.464 A178.9450 B1.3075 
N2043 X157.174 Y11.424 Z-13.502 A178.7725 B1.3070 
N2044 X157.174 Y9.168 Z-13.707 A177.8405 B1.3031 
N2045 X157.174 Y7.000 Z-14.049 A176.1479 B1.3081 
N2046 X157.174 Y4.949 Z-14.340 A174.4289 B1.3273 
N2047 X157.174 Y3.037 Z-14.560 A172.8068 B1.2904 
N2048 X157.173 Y1.280 Z-14.721 A171.2933 B1.1891 
N2049 X157.173 Y-0.312 Z-14.800 A170.0347 B1.0944 
N2050 X157.173 Y-1.733 Z-14.802 A169.0771 B1.0200 
N2051 X157.172 Y-3.007 Z-14.828 A168.0377 B0.9536 
N2052 X157.172 Y-4.184 Z-15.033 A166.2471 B0.8795 
N2053 X157.172 Y-5.332 Z-15.535 A163.1271 B0.7857 
N2054 X157.172 Y-6.524 Z-16.332 A158.5508 B0.6681 
N2055 X157.171 Y-7.804 Z-17.288 A152.9300 B0.5322 
N2056 X157.171 Y-9.153 Z-18.221 A146.9550 B0.3905 
N2057 X157.170 Y-10.523 Z-19.003 A141.1604 B0.2543 
N2058 X157.170 Y-11.882 Z-19.607 A135.7007 B0.1275 
N2059 X157.169 Y-13.245 Z-20.058 A130.4483 B0.0096 
N2060 X157.169 Y-14.637 Z-20.375 A125.2304 B-0.0948 
N2061 X157.169 Y-16.106 Z-20.574 A119.8080 B-0.1855 
N2062 X157.168 Y-17.630 Z-20.619 A114.2534 B-0.2620 
N2063 X157.168 Y-19.121 Z-20.460 A108.9015 B-0.3207 
N2064 X157.168 Y-20.428 Z-20.069 A104.3139 B-0.3577 
N2065 X157.168 Y-21.415 Z-19.465 A100.9885 B-0.3717 
N2066 X157.168 Y-22.052 Z-18.697 A99.0373 B-0.3668 
N2067 X157.168 Y-22.399 Z-17.811 A98.2447 B-0.3481 
N2068 X157.168 Y-22.592 Z-16.846 A98.0926 B-0.3218 
N2069 X157.168 Y-22.756 Z-15.827 A98.0872 B-0.2929 
N2070 X157.168 Y-22.925 Z-14.772 A98.0872 B-0.2628 
N2071 X157.169 Y-23.098 Z-13.693 A98.0871 B-0.2321 
N2072 X157.169 Y-23.272 Z-12.606 A98.0871 B-0.2008 
N2073 X157.169 Y-23.444 Z-11.526 A98.0870 B-0.1664 
N2074 X157.169 Y-23.613 Z-10.470 A98.0857 B-0.1250 
N2075 X157.169 Y-23.790 Z-9.455 A98.0289 B-0.0792 
N2076 X157.169 Y-24.014 Z-8.500 A97.7285 B-0.0394 
N2077 X157.169 Y-24.292 Z-7.616 A97.1412 B-0.0145 
N2078 X157.169 Y-24.581 Z-6.804 A96.4240 B-0.0040 
N2079 X157.169 Y-24.893 Z-6.069 A95.5318 B-0.0008 
N2080 X157.169 Y-25.281 Z-5.416 A94.2385 B0.0000 
N2081 X157.169 Y-25.811 Z-4.839 A92.2670 
N2082 X157.169 Y-26.528 Z-4.317 A89.4265 
N2083 X157.169 Y-27.426 Z-3.814 A85.7319 
N2084 X157.169 Y-28.473 Z-3.290 A81.2985 
N2085 X157.169 Y-29.617 Z-2.707 A76.3030 
N2086 X157.169 Y-30.790 Z-2.043 A70.9923 
N2087 X157.169 Y-31.958 Z-1.284 A65.4645 
N2088 X157.169 Y-33.078 Z-0.427 A59.8386 
N2089 X157.169 Y-34.077 Z0.493 A54.4165 
N2090 X157.169 Y-34.982 Z1.494 A49.0254 
N2091 X157.169 Y-35.827 Z2.621 A43.3946 
N2092 X157.169 Y-36.595 Z3.899 A37.4301 
N2093 X157.169 Y-37.248 Z5.338 A31.1228 
N2094 X157.169 Y-37.721 Z6.894 A24.6552 
N2095 X157.169 Y-37.955 Z8.482 A18.3228 
N2096 X157.169 Y-37.920 Z9.987 A12.4922 
N2097 X157.169 Y-37.622 Z11.280 A7.5567 
N2098 X157.169 Y-37.097 Z12.279 A3.7670 
N2099 X157.169 Y-36.384 Z12.958 A1.1830 
N2100 X157.169 Y-35.509 Z13.344 A359.6963 
N2101 X157.169 Y-34.479 Z13.500 A359.0872 
N2102 X157.169 Y-33.288 Z13.536 A358.9410 
N2103 X157.169 Y-31.928 Z13.539 A358.9205 
N2104 X157.169 Y-30.397 Z13.537 A358.9200 
N2105 X157.169 Y-28.699 Z13.535 
N2106 X157.169 Y-26.844 Z13.532 
N2107 X157.169 Y-24.849 Z13.529 
N2108 X157.169 Y-22.737 Z13.526 
N2109 X157.169 Y-20.536 Z13.523 
N2110 X157.169 Y-18.276 Z13.520 
N2111 X157.169 Y-15.993 Z13.517 
N2112 X157.169 Y-13.720 Z13.517 A358.9066 
N2113 X157.169 Y-11.489 Z13.587 A358.5925 
N2114 X157.169 Y-9.321 Z13.892 A357.2026 
N2115 X157.169 Y-7.226 Z14.389 A354.7438 
N2116 X157.169 Y-5.225 Z14.846 A352.1072 
N2117 X157.169 Y-3.351 Z15.172 A349.7218 B-0.0113 
N2118 X157.169 Y-1.627 Z15.353 A347.7472 B-0.0694 
N2119 X157.169 Y-0.073 Z15.380 A346.3297 B-0.1519 
N2120 X157.169 Y1.310 Z15.291 A345.4035 B-0.2099 
N2121 X157.168 Y2.556 Z15.212 A344.4882 B-0.2538 
N2122 X157.168 Y3.725 Z15.305 A342.8757 B-0.2874 
N2123 X157.168 Y4.889 Z15.686 A339.9809 B-0.3047 
N2124 X157.168 Y6.116 Z16.354 A335.6595 B-0.2997 
N2125 X157.168 Y7.440 Z17.184 A330.2731 B-0.2701 
N2126 X157.169 Y8.834 Z17.993 A324.5009 B-0.2186 
N2127 X157.169 Y10.232 Z18.646 A318.9505 B-0.1514 
N2128 X157.169 Y11.593 Z19.110 A313.8165 B-0.0714 
N2129 X157.169 Y12.943 Z19.427 A308.8930 B0.0222 
N2130 X157.170 Y14.352 Z19.648 A303.7977 B0.1296 
N2131 X157.170 Y15.862 Z19.769 A298.3367 B0.2515 
N2132 X157.171 Y17.410 Z19.728 A292.7788 B0.3817 
N2133 X157.171 Y18.850 Z19.466 A287.7086 B0.5072 
N2134 X157.171 Y20.015 Z18.974 A283.7404 B0.6148 
N2135 X157.172 Y20.830 Z18.294 A281.1559 B0.6981 
N2136 X157.172 Y21.322 Z17.481 A279.8494 B0.7571 
N2137 X157.172 Y21.597 Z16.579 A279.4232 B0.7969 
N2138 X157.172 Y21.793 Z15.623 A279.3395 B0.8281 
N2139 X157.172 Y21.977 Z14.633 A279.3282 B0.8577 
N2140 X157.172 Y22.161 Z13.623 A279.3281 B0.8874 
N2141 X157.172 Y22.346 Z12.607 A279.3284 B0.9173 
N2142 X157.172 Y22.530 Z11.600 A279.3261 B0.9470 
N2143 X157.173 Y22.722 Z10.618 A279.2709 B0.9772 
N2144 X157.173 Y22.955 Z9.679 A279.0159 B1.0105 
N2145 X157.173 Y23.257 Z8.800 A278.4094 B1.0496 
N2146 X157.173 Y23.624 Z7.987 A277.4498 B1.0963 
N2147 X157.173 Y23.997 Z7.237 A276.3692 B1.1457 
N2148 X157.173 Y24.351 Z6.551 A275.2742 B1.1953 
N2149 X157.173 Y24.728 Z5.934 A273.9971 B1.2517 
N2150 X157.174 Y25.199 Z5.386 A272.2523 B1.3256 
N2151 X157.174 Y25.830 Z4.893 A269.7654 B1.4283 
N2152 X157.174 Y26.641 Z4.426 A266.4455 B1.5647 
N2153 X157.175 Y27.613 Z3.946 A262.3573 B1.7333 
N2154 X157.176 Y28.709 Z3.414 A257.6250 B1.9295 
N2155 X157.176 Y29.864 Z2.803 A252.4728 B2.1442 
N2156 X157.177 Y31.042 Z2.093 A247.0085 B2.3673 
N2157 X157.178 Y32.202 Z1.272 A241.3321 B2.5768 
N2158 X157.178 Y33.227 Z0.392 A235.9313 B2.7342 
N2159 X157.179 Y34.141 Z-0.553 A230.6763 B2.8237 
N2160 X157.179 Y35.017 Z-1.633 A225.1089 B2.8447 
N2161 X157.179 Y35.834 Z-2.873 A219.1589 B2.7979 
N2162 X157.178 Y36.546 Z-4.277 A212.8524 B2.6907 
N2163 X157.178 Y37.095 Z-5.821 A206.3094 B2.5380 
N2164 X157.177 Y37.417 Z-7.427 A199.8074 B2.3588 
N2165 X157.176 Y37.471 Z-8.980 A193.7203 B2.1734 
N2166 X157.176 Y37.255 Z-10.348 A188.4610 B2.0022 
N2167 X157.175 Y36.802 Z-11.431 A184.3226 B1.8622 
N2168 X157.175 Y36.155 Z-12.184 A181.4381 B1.7630 
N2169 X157.175 Y35.347 Z-12.618 A179.7569 B1.7053 
N2170 X157.175 Y34.390 Z-12.789 A179.0879 B1.6822 
N2171 X157.175 Y33.278 Z-12.818 A178.9692 B1.6778 
N2172 X157.175 Y32.003 Z-12.818 A178.9619 B1.6777 
N2173 X157.175 Y30.562 Z-12.817 A178.9616 B1.6781 
N2174 X157.175 Y28.956 Z-12.816 A178.9616 B1.6785 
N2175 X157.175 Y27.194 Z-12.814 A178.9617 B1.6790 
N2176 X157.175 Y25.291 Z-12.813 A178.9617 B1.6795 
N2177 X157.175 Y23.269 Z-12.811 A178.9617 B1.6800 
N2178 X157.175 Y21.153 Z-12.809 A178.9617 B1.6806 
N2179 X157.175 Y18.974 Z-12.807 A178.9617 B1.6812 
