N10 ; PROGRAM NAME: 1373220
N11 ; ORDER       : 13732
N12 ; OPER. NAME  : Spiral Rough Airfoil:107
N13 ; OPER. DESCR.: spiral roughing airfoil/platformy i pioro pwk
N14 ; OPER. TYPE  : rouAirfoil
N15 ; GEO. OPTION : 3
N16 ; MACHINE     : SH_HX151_24_SIM840D
N17 ;             : STARRAG_HECKERT_5axis_finish_milling_machine
N18 ; CONTROL     : SINUMERIK 840D
N19 ; created:   2021-11-09 15:25:49.330241
;-------DODATKOWE DANE-------------------
; PROGRAMISTA : Mariusz Orzechowski
; PARTID      : 132T008743P1005_-
;  ap         : 1.8
;  ae         : 8.0
;  lean_angle : 1.0
;  airf_offset: 0.3
;----------------------------------------
N20 ;----------------------------------------
RAPORT("T13732","Spiral Rough Airfoil:107")
N21 TRAFOOF
N22 D0
N23 G90 G94
N24 STOPRE
N25 M9 ; chlodziwo wyl
N26 ; --- Spiral Rough Airfoil:107 - spiral roughing airfoil/platformy i pioro pwk ---
N28 ;ToolChange : concat=None ,current_tdmid=None, PP.tdmId=940679
N29 MSG(" TLID=940679 D=16.0 R=3.1 Ang=0.0 Len=124.0 ")
N30 TRAFOOF
N31 D0
N32 G0 G53 Z290 B0
N33 G0 X200
N34 G0 Y150
N35 T="7740679"
N36 G0 X500
RAPORT("T13732","ToolChangeStart 7740679")
N37 M6
RAPORT("T13732","ToolChangeEnd")
N38 ; (Preloading tool)
N39 T="7740444"
N40 G0 X200
N41 STOPRE
N42 S2387 M03
N43 STOPRE
N44 TOL(0.1,1,1)
N45 G0 X195.766 A310.1044
N46 TRAORI
N47 G54 D1
N48 D1 
N49 TRANS  X=R4
;shiftX -0.3
;pointsCnt 2222
N50 ;SPIRALA WYK BANDAZA
N51 ; DELTA A > 40.1
N52 TRAFOOF
N53 STOPRE
N54 G0 G53 D0 Z265.000
N55 G1 G53 A310.1044 F10000
N56 TRAORI
N57 G54 D1
N58 TRANS  X=R4
N59 G00 X195.766 Y42.947 ZZ60.268 A310.1044 B0.0000 
N60 M346 ; chlodziwo mgla
N61 X195.766 Y4.704 Z28.058 
N62 G01 X195.766 Y2.697 Z25.658 F572 
N63 X195.766 Y1.530 Z22.755 
N64 X195.766 Y1.318 Z19.634 
N65 X195.766 Y2.080 Z16.599 
N66 X195.766 Y3.743 Z13.949 
N67 X195.763 Y3.951 Z13.710 
N68 X195.760 Y4.189 Z13.438 
N69 X195.756 Y4.464 Z13.122 
N70 X195.752 Y4.785 Z12.755 A310.1021 
N71 X195.748 Y5.158 Z12.328 A310.0948 
N72 X195.742 Y5.588 Z11.837 A310.0804 
N73 X195.736 Y6.078 Z11.279 A310.0604 
N74 X195.730 Y6.627 Z10.651 A310.0500 
N75 X195.722 Y7.231 Z9.955 A310.0704 
N76 X195.714 Y7.890 Z9.199 A310.0930 
N77 X195.705 Y8.597 Z8.393 
N78 X195.696 Y9.341 Z7.545 
N79 X195.686 Y10.109 Z6.669 
N80 X195.677 Y10.889 Z5.781 A310.0852 
N81 X195.667 Y11.665 Z4.897 A310.0781 
N82 X195.658 Y12.423 Z4.033 A310.0757 
N83 X195.649 Y13.152 Z3.202 A310.0796 
N84 X195.641 Y13.839 Z2.419 A310.0923 
N85 X195.633 Y14.477 Z1.693 A310.0930 
N86 X195.626 Y15.059 Z1.032 
N87 X195.619 Y15.582 Z0.436 
N88 X195.614 Y16.051 Z-0.081 A309.9503 
N89 X195.609 Y16.475 Z-0.515 A309.5252 
N90 X195.606 Y16.867 Z-0.860 A308.6407 
N91 X195.605 Y17.244 Z-1.116 A307.1097 
N92 X195.604 Y17.620 Z-1.287 A304.8303 
N93 X195.606 Y18.003 Z-1.387 A301.8314 
N94 X195.608 Y18.396 Z-1.435 A298.2370 
N95 X195.610 Y18.797 Z-1.451 A294.1931 
N96 X195.614 Y19.219 Z-1.447 A289.6856 
N97 X195.617 Y19.652 Z-1.441 A284.9076 
N98 X195.620 Y20.093 Z-1.446 A279.9634 
N99 X195.623 Y20.506 Z-1.469 A275.2804 
N100 X195.625 Y20.908 Z-1.514 A270.6796 
N101 X195.627 Y21.292 Z-1.581 A266.2287 
N102 X195.628 Y21.642 Z-1.665 A262.1079 
N103 X195.629 Y21.961 Z-1.762 A258.2889 
N104 X195.629 Y22.290 Z-1.885 A254.2693 
N105 X195.629 Y22.574 Z-2.012 A250.6985 
N106 X195.629 Y22.847 Z-2.154 A247.1654 
N107 X195.628 Y23.113 Z-2.314 A243.5999 
N108 X195.627 Y23.376 Z-2.495 A239.9428 
N109 X195.625 Y23.628 Z-2.695 A236.2599 
N110 X195.623 Y23.859 Z-2.904 A232.6790 
N111 X195.620 Y24.093 Z-3.149 A228.7978 
N112 X195.617 Y24.327 Z-3.434 A224.5773 
N113 X195.613 Y24.523 Z-3.718 A220.6386 
N114 X195.608 Y24.730 Z-4.087 A215.8074 
N115 X195.603 Y24.894 Z-4.466 A211.1192 
N116 X195.597 Y25.019 Z-4.881 A206.2362 
N117 X195.589 Y25.088 Z-5.319 A201.2980 
N118 X195.582 Y25.086 Z-5.751 A196.5969 
N119 X195.574 Y25.006 Z-6.163 A192.2490 
N120 X195.566 Y24.846 Z-6.538 A188.3543 
N121 X195.558 Y24.601 Z-6.861 A185.0172 
N122 X195.551 Y24.269 Z-7.114 A182.4144 
N123 X195.544 Y23.848 Z-7.289 A180.5939 
N124 X195.538 Y23.334 Z-7.396 A179.4593 
N125 X195.532 Y22.720 Z-7.452 A178.8248 
N126 X195.526 Y21.997 Z-7.474 A178.5107 
N127 X195.519 Y21.161 Z-7.478 A178.3795 
N128 X195.512 Y20.208 Z-7.470 A178.3445 
N129 X195.503 Y19.138 Z-7.458 A178.3505 
N130 X195.494 Y17.957 Z-7.444 A178.3662 
N131 X195.484 Y16.673 Z-7.431 A178.3682 
N132 X195.473 Y15.301 Z-7.418 
N133 X195.462 Y13.858 Z-7.405 A178.3594 
N134 X195.450 Y12.365 Z-7.393 A178.3394 
N135 X195.438 Y10.844 Z-7.380 A178.3196 
N136 X195.426 Y9.319 Z-7.366 A178.3101 
N137 X195.415 Y7.811 Z-7.351 A178.3320 
N138 X195.403 Y6.341 Z-7.338 A178.3682 
N139 X195.392 Y4.924 Z-7.329 
N140 X195.381 Y3.565 Z-7.323 A178.3347 
N141 X195.371 Y2.282 Z-7.353 A177.7955 
N142 X195.360 Y1.072 Z-7.424 A176.5746 
N143 X195.348 Y-0.070 Z-7.549 A174.3568 
N144 X195.336 Y-1.162 Z-7.733 A170.8799 
N145 X195.324 Y-2.229 Z-7.958 A166.0845 
N146 X195.312 Y-3.288 Z-8.167 A160.4499 
N147 X195.301 Y-4.342 Z-8.298 A154.5738 
N148 X195.292 Y-5.387 Z-8.324 A148.7559 
N149 X195.286 Y-6.409 Z-8.219 A143.3251 
N150 X195.282 Y-7.380 Z-7.959 A138.7730 
N151 X195.282 Y-8.282 Z-7.546 A135.3384 
N152 X195.285 Y-9.117 Z-7.003 A132.9570 
N153 X195.290 Y-9.899 Z-6.356 A131.4782 
N154 X195.297 Y-10.644 Z-5.629 A130.7143 
N155 X195.305 Y-11.370 Z-4.847 A130.4294 
N156 X195.313 Y-12.092 Z-4.035 A130.3949 
N157 X195.322 Y-12.816 Z-3.210 A130.4359 
N158 X195.330 Y-13.541 Z-2.390 A130.4686 
N159 X195.339 Y-14.257 Z-1.584 
N160 X195.347 Y-14.954 Z-0.803 
N161 X195.355 Y-15.621 Z-0.055 
N162 X195.362 Y-16.249 Z0.649 
N163 X195.369 Y-16.834 Z1.302 
N164 X195.375 Y-17.371 Z1.903 
N165 X195.380 Y-17.861 Z2.437 A130.3319 
N166 X195.384 Y-18.310 Z2.898 A129.9583 
N167 X195.388 Y-18.721 Z3.283 A129.2681 
N168 X195.390 Y-19.103 Z3.592 A128.1513 
N169 X195.391 Y-19.469 Z3.824 A126.5047 
N170 X195.391 Y-19.830 Z3.985 A124.2570 
N171 X195.390 Y-20.193 Z4.085 A121.4199 
N172 X195.388 Y-20.562 Z4.139 A118.0760 
N173 X195.385 Y-20.938 Z4.163 A114.3362 
N174 X195.382 Y-21.322 Z4.167 A110.2744 
N175 X195.379 Y-21.722 Z4.165 A105.8974 
N176 X195.375 Y-22.130 Z4.168 A101.3392 
N177 X195.372 Y-22.535 Z4.186 A96.7568 
N178 X195.370 Y-22.941 Z4.224 A92.1319 
N179 X195.368 Y-23.294 Z4.277 A88.0569 
N180 X195.366 Y-23.659 Z4.353 A83.7959 
N181 X195.365 Y-23.988 Z4.444 A79.8846 
N182 X195.364 Y-24.290 Z4.546 A76.2337 
N183 X195.364 Y-24.598 Z4.672 A72.4119 
N184 X195.364 Y-24.885 Z4.810 A68.7588 
N185 X195.364 Y-25.153 Z4.959 A65.2443 
N186 X195.365 Y-25.412 Z5.125 A61.7108 
N187 X195.366 Y-25.664 Z5.310 A58.1240 
N188 X195.368 Y-25.926 Z5.531 A54.1822 
N189 X195.370 Y-26.165 Z5.763 A50.3680 
N190 X195.372 Y-26.387 Z6.014 A46.5292 
N191 X195.376 Y-26.633 Z6.341 A41.8416 
N192 X195.380 Y-26.829 Z6.659 A37.5679 
N193 X195.385 Y-27.030 Z7.072 A32.3391 
N194 X195.391 Y-27.178 Z7.497 A27.2360 
N195 X195.399 Y-27.273 Z7.957 A21.9610 
N196 X195.406 Y-27.296 Z8.423 A16.8115 
N197 X195.414 Y-27.233 Z8.862 A12.1007 
N198 X195.422 Y-27.084 Z9.245 A8.0733 
N199 X195.430 Y-26.849 Z9.564 A4.7590 
N200 X195.436 Y-26.527 Z9.808 A2.2364 
N201 X195.442 Y-26.116 Z9.973 A0.5156 
N202 X195.448 Y-25.611 Z10.067 A359.5195 
N203 X195.453 Y-25.004 Z10.110 A359.0557 
N204 X195.459 Y-24.287 Z10.123 A358.9082 
N205 X195.465 Y-23.451 Z10.123 A358.8965 
N206 X195.473 Y-22.494 Z10.120 A358.9174 
N207 X195.481 Y-21.414 Z10.119 A358.9279 
N208 X195.490 Y-20.217 Z10.119 
N209 X195.501 Y-18.912 Z10.119 
N210 X195.511 Y-17.512 Z10.120 
N211 X195.523 Y-16.038 Z10.121 
N212 X195.535 Y-14.510 Z10.122 
N213 X195.547 Y-12.955 Z10.123 A358.9272 
N214 X195.559 Y-11.396 Z10.124 A358.9249 
N215 X195.571 Y-9.859 Z10.125 A358.9203 
N216 X195.583 Y-8.366 Z10.126 A358.9119 
N217 X195.594 Y-6.937 Z10.127 A358.9045 
N218 X195.605 Y-5.586 Z10.128 A358.9005 
N219 X195.614 Y-4.322 Z10.127 A358.9279 
N220 X195.624 Y-3.151 Z10.129 
N221 X195.632 Y-2.062 Z10.132 A358.9125 
N222 X195.641 Y-1.056 Z10.218 A357.8458 
N223 X195.654 Y-0.098 Z10.535 A353.6363 
N224 X195.671 Y0.881 Z11.039 A346.1260 
N225 X195.687 Y1.915 Z11.509 A337.4048 
N226 X195.701 Y2.989 Z11.825 A328.6672 
N227 X195.711 Y4.041 Z11.910 A320.9878 
N228 X195.715 Y5.000 Z11.744 A315.1355 
N229 X195.714 Y5.806 Z11.335 A311.7534 
N230 X195.709 Y6.491 Z10.752 A310.3733 
N231 X195.702 Y7.129 Z10.068 A310.0265 
N232 X195.694 Y7.774 Z9.328 A310.0193 
N233 X195.686 Y8.446 Z8.554 A310.0572 
N234 X195.677 Y9.145 Z7.753 A310.0639 
N235 X195.668 Y9.865 Z6.931 
N236 X195.659 Y10.594 Z6.099 
N237 X195.650 Y11.323 Z5.267 
N238 X195.641 Y12.041 Z4.449 
N239 X195.633 Y12.737 Z3.655 
N240 X195.625 Y13.402 Z2.898 
N241 X195.617 Y14.026 Z2.185 
N242 X195.610 Y14.606 Z1.531 A309.9948 
N243 X195.604 Y15.138 Z0.941 A309.8269 
N244 X195.598 Y15.622 Z0.422 A309.5018 
N245 X195.594 Y16.063 Z-0.023 A308.9366 
N246 X195.590 Y16.469 Z-0.391 A308.0244 
N247 X195.588 Y16.850 Z-0.680 A306.6465 
N248 X195.587 Y17.219 Z-0.894 A304.7081 
N249 X195.587 Y17.585 Z-1.040 A302.1769 
N250 X195.589 Y17.956 Z-1.130 A299.0698 
N251 X195.591 Y18.339 Z-1.178 A295.4359 
N252 X195.593 Y18.737 Z-1.198 A291.3448 
N253 X195.596 Y19.155 Z-1.206 A286.8359 
N254 X195.599 Y19.575 Z-1.218 A282.1972 
N255 X195.602 Y19.990 Z-1.242 A277.5315 
N256 X195.604 Y20.384 Z-1.283 A273.0538 
N257 X195.606 Y20.772 Z-1.345 A268.5854 
N258 X195.607 Y21.126 Z-1.423 A264.4638 
N259 X195.608 Y21.469 Z-1.520 A260.3938 
N260 X195.609 Y21.770 Z-1.625 A256.7411 
N261 X195.609 Y22.078 Z-1.753 A252.9231 
N262 X195.608 Y22.358 Z-1.890 A249.3618 
N263 X195.608 Y22.624 Z-2.041 A245.8552 
N264 X195.607 Y22.882 Z-2.208 A242.3322 
N265 X195.605 Y23.138 Z-2.399 A238.6777 
N266 X195.603 Y23.379 Z-2.604 A235.0505 
N267 X195.601 Y23.599 Z-2.818 A231.5387 
N268 X195.598 Y23.839 Z-3.089 A227.4080 
N269 X195.595 Y24.045 Z-3.361 A223.5088 
N270 X195.591 Y24.250 Z-3.688 A219.1174 
N271 X195.586 Y24.420 Z-4.024 A214.8416 
N272 X195.580 Y24.571 Z-4.422 A210.0369 
N273 X195.573 Y24.670 Z-4.832 A205.3175 
N274 X195.566 Y24.711 Z-5.254 A200.6652 
N275 X195.559 Y24.683 Z-5.665 A196.2860 
N276 X195.551 Y24.578 Z-6.054 A192.2615 
N277 X195.543 Y24.394 Z-6.403 A188.7227 
N278 X195.536 Y24.128 Z-6.702 A185.7387 
N279 X195.529 Y23.775 Z-6.940 A183.3866 
N280 X195.522 Y23.333 Z-7.116 A181.6628 
N281 X195.515 Y22.797 Z-7.238 A180.4675 
N282 X195.509 Y22.161 Z-7.320 A179.6532 
N283 X195.502 Y21.419 Z-7.373 A179.0829 
N284 X195.494 Y20.565 Z-7.407 A178.6637 
N285 X195.486 Y19.599 Z-7.426 A178.3506 
N286 X195.478 Y18.522 Z-7.431 A178.1265 
N287 X195.468 Y17.341 Z-7.424 A177.9840 
N288 X195.458 Y16.066 Z-7.407 A177.9082 
N289 X195.448 Y14.710 Z-7.383 A177.8773 
N290 X195.437 Y13.292 Z-7.356 A177.8658 
N291 X195.426 Y11.830 Z-7.328 A177.8593 
N292 X195.415 Y10.346 Z-7.299 A177.8528 
N293 X195.403 Y8.860 Z-7.269 A177.8618 
N294 X195.392 Y7.393 Z-7.240 A177.8637 
N295 X195.381 Y5.961 Z-7.213 A177.8498 
N296 X195.370 Y4.578 Z-7.202 A177.6433 
N297 X195.360 Y3.254 Z-7.216 A177.0543 
N298 X195.349 Y1.992 Z-7.266 A175.8387 
N299 X195.337 Y0.790 Z-7.359 A173.7723 
N300 X195.326 Y-0.364 Z-7.495 A170.6581 
N301 X195.314 Y-1.488 Z-7.659 A166.4517 
N302 X195.302 Y-2.593 Z-7.808 A161.4867 
N303 X195.292 Y-3.682 Z-7.890 A156.2696 
N304 X195.284 Y-4.751 Z-7.879 A151.0929 
N305 X195.278 Y-5.794 Z-7.758 A146.1845 
N306 X195.274 Y-6.798 Z-7.515 A141.8228 
N307 X195.273 Y-7.746 Z-7.143 A138.2503 
N308 X195.274 Y-8.635 Z-6.655 A135.5266 
N309 X195.278 Y-9.469 Z-6.068 A133.6093 
N310 X195.283 Y-10.256 Z-5.401 A132.4147 
N311 X195.290 Y-11.008 Z-4.677 A131.7836 
N312 X195.297 Y-11.737 Z-3.918 A131.5269 
N313 X195.305 Y-12.453 Z-3.145 A131.4711 
N314 X195.313 Y-13.157 Z-2.376 A131.4981 
N315 X195.320 Y-13.846 Z-1.622 A131.5440 
N316 X195.328 Y-14.516 Z-0.897 
N317 X195.335 Y-15.157 Z-0.203 
N318 X195.341 Y-15.765 Z0.450 A131.5065 
N319 X195.347 Y-16.338 Z1.045 A131.2786 
N320 X195.352 Y-16.872 Z1.580 A130.8448 
N321 X195.356 Y-17.369 Z2.048 A130.1316 
N322 X195.359 Y-17.831 Z2.447 A129.0988 
N323 X195.362 Y-18.259 Z2.781 A127.7214 
N324 X195.363 Y-18.659 Z3.051 A125.9892 
N325 X195.364 Y-19.037 Z3.262 A123.8901 
N326 X195.363 Y-19.400 Z3.420 A121.4126 
N327 X195.362 Y-19.756 Z3.533 A118.5567 
N328 X195.361 Y-20.111 Z3.610 A115.3544 
N329 X195.359 Y-20.468 Z3.660 A111.8394 
N330 X195.356 Y-20.837 Z3.694 A108.0021 
N331 X195.354 Y-21.212 Z3.720 A103.9440 
N332 X195.351 Y-21.592 Z3.750 A99.7297 
N333 X195.349 Y-21.974 Z3.790 A95.4260 
N334 X195.347 Y-22.348 Z3.845 A91.1627 
N335 X195.345 Y-22.688 Z3.914 A87.2326 
N336 X195.344 Y-23.038 Z4.005 A83.1288 
N337 X195.343 Y-23.330 Z4.099 A79.6368 
N338 X195.342 Y-23.630 Z4.214 A75.9715 
N339 X195.342 Y-23.906 Z4.338 A72.5140 
N340 X195.342 Y-24.170 Z4.474 A69.1199 
N341 X195.343 Y-24.431 Z4.629 A65.6524 
N342 X195.344 Y-24.681 Z4.797 A62.2052 
N343 X195.345 Y-24.921 Z4.981 A58.7556 
N344 X195.347 Y-25.156 Z5.184 A55.2028 
N345 X195.349 Y-25.394 Z5.421 A51.3672 
N346 X195.351 Y-25.607 Z5.666 A47.6662 
N347 X195.355 Y-25.836 Z5.974 A43.2857 
N348 X195.358 Y-26.031 Z6.290 A39.0682 
N349 X195.364 Y-26.223 Z6.682 A34.1082 
N350 X195.370 Y-26.371 Z7.097 A29.1409 
N351 X195.376 Y-26.465 Z7.534 A24.1562 
N352 X195.384 Y-26.489 Z7.976 A19.3321 
N353 X195.391 Y-26.435 Z8.392 A14.9537 
N354 X195.399 Y-26.299 Z8.779 A10.9770 
N355 X195.407 Y-26.079 Z9.128 A7.4519 
N356 X195.414 Y-25.771 Z9.421 A4.5176 
N357 X195.421 Y-25.372 Z9.644 A2.2859 
N358 X195.428 Y-24.877 Z9.798 A0.7574 
N359 X195.434 Y-24.281 Z9.892 A359.8072 
N360 X195.440 Y-23.578 Z9.945 A359.2716 
N361 X195.447 Y-22.763 Z9.970 A359.0062 
N362 X195.454 Y-21.830 Z9.978 A358.9034 
N363 X195.462 Y-20.782 Z9.978 A358.8878 
N364 X195.471 Y-19.621 Z9.975 A358.9053 
N365 X195.481 Y-18.358 Z9.973 A358.9224 
N366 X195.492 Y-17.006 Z9.973 
N367 X195.503 Y-15.582 Z9.974 
N368 X195.514 Y-14.106 Z9.975 
N369 X195.526 Y-12.604 Z9.976 A358.9217 
N370 X195.538 Y-11.099 Z9.977 A358.9185 
N371 X195.550 Y-9.614 Z9.979 A358.9135 
N372 X195.561 Y-8.172 Z9.981 A358.9045 
N373 X195.572 Y-6.790 Z9.982 A358.8969 
N374 X195.582 Y-5.484 Z9.984 A358.8935 
N375 X195.591 Y-4.260 Z9.983 A358.9224 
N376 X195.600 Y-3.125 Z9.986 
N377 X195.608 Y-2.068 Z9.991 A358.8942 
N378 X195.618 Y-1.090 Z10.097 A357.5717 
N379 X195.631 Y-0.152 Z10.447 A352.9057 
N380 X195.647 Y0.807 Z10.943 A345.3903 
N381 X195.663 Y1.808 Z11.378 A337.0679 
N382 X195.676 Y2.829 Z11.654 A329.0169 
N383 X195.685 Y3.829 Z11.734 A321.8290 
N384 X195.690 Y4.754 Z11.600 A316.1070 
N385 X195.689 Y5.547 Z11.250 A312.5048 
N386 X195.686 Y6.217 Z10.729 A310.8749 
N387 X195.679 Y6.825 Z10.106 A310.4025 
N388 X195.672 Y7.426 Z9.429 A310.3599 
N389 X195.664 Y8.045 Z8.723 A310.3940 
N390 X195.657 Y8.685 Z7.998 A310.4043 
N391 X195.649 Y9.339 Z7.259 
N392 X195.641 Y9.998 Z6.515 A310.4023 
N393 X195.633 Y10.654 Z5.775 A310.4027 
N394 X195.625 Y11.297 Z5.050 A310.4043 
N395 X195.617 Y11.919 Z4.349 
N396 X195.610 Y12.512 Z3.681 
N397 X195.604 Y13.074 Z3.056 A310.3215 
N398 X195.598 Y13.607 Z2.492 A309.9915 
N399 X195.593 Y14.113 Z1.995 A309.3115 
N400 X195.589 Y14.596 Z1.569 A308.1714 
N401 X195.586 Y15.058 Z1.216 A306.5292 
N402 X195.585 Y15.502 Z0.928 A304.3761 
N403 X195.584 Y15.934 Z0.700 A301.7199 
N404 X195.584 Y16.358 Z0.523 A298.5938 
N405 X195.585 Y16.775 Z0.383 A295.0867 
N406 X195.586 Y17.181 Z0.268 A291.3533 
N407 X195.587 Y17.574 Z0.168 A287.5001 
N408 X195.588 Y17.956 Z0.075 A283.5669 
N409 X195.590 Y18.324 Z-0.015 A279.6410 
N410 X195.591 Y18.682 Z-0.110 A275.7213 
N411 X195.591 Y19.020 Z-0.211 A271.9183 
N412 X195.592 Y19.343 Z-0.319 A268.2028 
N413 X195.592 Y19.649 Z-0.435 A264.6141 
N414 X195.592 Y19.938 Z-0.561 A261.1280 
N415 X195.592 Y20.216 Z-0.697 A257.6975 
N416 X195.591 Y20.483 Z-0.844 A254.3064 
N417 X195.590 Y20.734 Z-1.001 A251.0058 
N418 X195.589 Y20.976 Z-1.170 A247.7190 
N419 X195.587 Y21.206 Z-1.351 A244.4470 
N420 X195.586 Y21.425 Z-1.545 A241.1823 
N421 X195.584 Y21.634 Z-1.753 A237.8951 
N422 X195.581 Y21.829 Z-1.974 A234.6187 
N423 X195.578 Y22.014 Z-2.214 A231.2485 
N424 X195.575 Y22.185 Z-2.469 A227.8478 
N425 X195.571 Y22.338 Z-2.742 A224.4013 
N426 X195.567 Y22.473 Z-3.034 A220.8762 
N427 X195.562 Y22.586 Z-3.347 A217.2636 
N428 X195.557 Y22.671 Z-3.681 A213.5679 
N429 X195.551 Y22.721 Z-4.034 A209.8210 
N430 X195.544 Y22.730 Z-4.404 A206.0206 
N431 X195.537 Y22.687 Z-4.783 A202.2616 
N432 X195.530 Y22.585 Z-5.165 A198.5694 
N433 X195.522 Y22.416 Z-5.543 A195.0037 
N434 X195.513 Y22.171 Z-5.907 A191.6228 
N435 X195.505 Y21.845 Z-6.246 A188.4916 
N436 X195.496 Y21.432 Z-6.552 A185.6438 
N437 X195.487 Y20.927 Z-6.818 A183.1318 
N438 X195.478 Y20.328 Z-7.031 A181.0334 
N439 X195.470 Y19.631 Z-7.186 A179.4004 
N440 X195.462 Y18.839 Z-7.285 A178.2181 
N441 X195.454 Y17.950 Z-7.336 A177.4162 
N442 X195.446 Y16.967 Z-7.347 A176.9110 
N443 X195.438 Y15.896 Z-7.330 A176.6240 
N444 X195.429 Y14.742 Z-7.293 A176.4856 
N445 X195.420 Y13.518 Z-7.243 A176.4333 
N446 X195.411 Y12.236 Z-7.187 A176.4173 
N447 X195.401 Y10.911 Z-7.128 A176.4110 
N448 X195.391 Y9.560 Z-7.067 A176.4153 
N449 X195.382 Y8.199 Z-7.005 A176.4264 
N450 X195.372 Y6.844 Z-6.945 
N451 X195.362 Y5.506 Z-6.897 A176.2821 
N452 X195.352 Y4.197 Z-6.879 A175.7127 
N453 X195.341 Y2.922 Z-6.904 A174.4378 
N454 X195.330 Y1.682 Z-6.972 A172.2700 
N455 X195.319 Y0.471 Z-7.062 A169.2500 
N456 X195.308 Y-0.714 Z-7.147 A165.5433 
N457 X195.298 Y-1.878 Z-7.197 A161.3840 
N458 X195.289 Y-3.018 Z-7.184 A157.0678 
N459 X195.282 Y-4.133 Z-7.090 A152.7983 
N460 X195.276 Y-5.218 Z-6.908 A148.7107 
N461 X195.273 Y-6.268 Z-6.632 A144.9384 
N462 X195.271 Y-7.276 Z-6.258 A141.6308 
N463 X195.271 Y-8.235 Z-5.793 A138.8819 
N464 X195.274 Y-9.143 Z-5.245 A136.7198 
N465 X195.278 Y-10.001 Z-4.628 A135.1469 
N466 X195.283 Y-10.811 Z-3.957 A134.1338 
N467 X195.289 Y-11.580 Z-3.252 A133.5780 
N468 X195.296 Y-12.315 Z-2.532 A133.3464 
N469 X195.303 Y-13.020 Z-1.817 A133.2977 
N470 X195.309 Y-13.696 Z-1.120 A133.3443 
N471 X195.316 Y-14.344 Z-0.458 A133.3569 
N472 X195.322 Y-14.960 Z0.169 
N473 X195.327 Y-15.542 Z0.745 A133.2106 
N474 X195.332 Y-16.092 Z1.263 A132.8107 
N475 X195.335 Y-16.607 Z1.717 A132.1100 
N476 X195.338 Y-17.090 Z2.106 A131.0465 
N477 X195.340 Y-17.545 Z2.430 A129.5748 
N478 X195.341 Y-17.975 Z2.691 A127.6774 
N479 X195.342 Y-18.383 Z2.897 A125.3903 
N480 X195.341 Y-18.771 Z3.056 A122.7724 
N481 X195.340 Y-19.144 Z3.176 A119.8731 
N482 X195.339 Y-19.509 Z3.264 A116.6978 
N483 X195.337 Y-19.869 Z3.327 A113.2710 
N484 X195.335 Y-20.226 Z3.375 A109.6689 
N485 X195.333 Y-20.586 Z3.415 A105.8819 
N486 X195.330 Y-20.940 Z3.455 A102.0404 
N487 X195.328 Y-21.291 Z3.499 A98.1637 
N488 X195.326 Y-21.628 Z3.552 A94.3732 
N489 X195.325 Y-21.953 Z3.615 A90.6672 
N490 X195.323 Y-22.277 Z3.692 A86.9062 
N491 X195.322 Y-22.579 Z3.779 A83.3619 
N492 X195.322 Y-22.876 Z3.880 A79.7987 
N493 X195.321 Y-23.154 Z3.991 A76.3983 
N494 X195.321 Y-23.432 Z4.120 A72.9133 
N495 X195.321 Y-23.689 Z4.256 A69.5988 
N496 X195.322 Y-23.944 Z4.409 A66.2133 
N497 X195.323 Y-24.190 Z4.577 A62.8160 
N498 X195.324 Y-24.425 Z4.759 A59.4255 
N499 X195.326 Y-24.654 Z4.960 A55.9659 
N500 X195.328 Y-24.880 Z5.186 A52.3202 
N501 X195.330 Y-25.085 Z5.421 A48.7639 
N502 X195.333 Y-25.300 Z5.708 A44.6972 
N503 X195.337 Y-25.488 Z6.007 A40.6893 
N504 X195.341 Y-25.667 Z6.358 A36.2446 
N505 X195.347 Y-25.818 Z6.749 A31.5345 
N506 X195.353 Y-25.927 Z7.174 A26.6429 
N507 X195.361 Y-25.983 Z7.634 A21.5484 
N508 X195.369 Y-25.966 Z8.102 A16.5159 
N509 X195.378 Y-25.862 Z8.551 A11.8139 
N510 X195.386 Y-25.665 Z8.952 A7.6736 
N511 X195.394 Y-25.375 Z9.283 A4.2772 
N512 X195.401 Y-24.992 Z9.525 A1.7814 
N513 X195.408 Y-24.516 Z9.677 A0.2054 
N514 X195.413 Y-23.943 Z9.756 A359.3830 
N515 X195.419 Y-23.267 Z9.787 A359.0504 
N516 X195.425 Y-22.480 Z9.794 A358.9661 
N517 X195.432 Y-21.580 Z9.794 A358.9680 
N518 X195.440 Y-20.564 Z9.793 A358.9850 
N519 X195.449 Y-19.437 Z9.794 A358.9905 
N520 X195.458 Y-18.207 Z9.795 
N521 X195.469 Y-16.887 Z9.797 
N522 X195.480 Y-15.494 Z9.800 
N523 X195.491 Y-14.049 Z9.802 
N524 X195.502 Y-12.575 Z9.805 A358.9898 
N525 X195.514 Y-11.095 Z9.808 A358.9873 
N526 X195.525 Y-9.633 Z9.811 A358.9825 
N527 X195.537 Y-8.211 Z9.814 A358.9736 
N528 X195.547 Y-6.847 Z9.817 A358.9655 
N529 X195.557 Y-5.557 Z9.820 A358.9612 
N530 X195.567 Y-4.348 Z9.821 A358.9905 
N531 X195.576 Y-3.227 Z9.824 
N532 X195.584 Y-2.186 Z9.829 A358.9708 
N533 X195.593 Y-1.225 Z9.923 A357.8286 
N534 X195.606 Y-0.312 Z10.250 A353.5170 
N535 X195.621 Y0.615 Z10.740 A346.2563 
N536 X195.636 Y1.574 Z11.177 A338.2231 
N537 X195.649 Y2.550 Z11.471 A330.4110 
N538 X195.659 Y3.507 Z11.590 A323.3384 
N539 X195.665 Y4.408 Z11.524 A317.4139 
N540 X195.666 Y5.200 Z11.261 A313.2593 
N541 X195.663 Y5.861 Z10.823 A311.1393 
N542 X195.658 Y6.437 Z10.271 A310.4099 
N543 X195.652 Y6.988 Z9.662 A310.2727 
N544 X195.645 Y7.547 Z9.025 A310.2832 
N545 X195.638 Y8.120 Z8.372 A310.3007 
N546 X195.631 Y8.703 Z7.710 A310.3065 
N547 X195.623 Y9.290 Z7.045 A310.3107 
N548 X195.616 Y9.873 Z6.386 
N549 X195.609 Y10.445 Z5.740 
N550 X195.603 Y10.999 Z5.115 
N551 X195.596 Y11.530 Z4.517 A310.2884 
N552 X195.590 Y12.042 Z3.967 A310.0384 
N553 X195.586 Y12.537 Z3.474 A309.4366 
N554 X195.582 Y13.023 Z3.048 A308.2987 
N555 X195.579 Y13.504 Z2.691 A306.5151 
N556 X195.578 Y13.980 Z2.397 A304.0976 
N557 X195.577 Y14.447 Z2.154 A301.1631 
N558 X195.577 Y14.901 Z1.948 A297.8529 
N559 X195.577 Y15.340 Z1.771 A294.2688 
N560 X195.577 Y15.763 Z1.612 A290.5121 
N561 X195.578 Y16.164 Z1.463 A286.7165 
N562 X195.578 Y16.543 Z1.320 A282.9529 
N563 X195.578 Y16.901 Z1.179 A279.2486 
N564 X195.578 Y17.238 Z1.037 A275.6337 
N565 X195.578 Y17.554 Z0.892 A272.1341 
N566 X195.578 Y17.854 Z0.744 A268.7129 
N567 X195.577 Y18.136 Z0.591 A265.3912 
N568 X195.577 Y18.403 Z0.431 A262.1440 
N569 X195.575 Y18.656 Z0.265 A258.9632 
N570 X195.574 Y18.897 Z0.091 A255.8353 
N571 X195.573 Y19.125 Z-0.091 A252.7441 
N572 X195.571 Y19.342 Z-0.282 A249.6822 
N573 X195.569 Y19.547 Z-0.482 A246.6432 
N574 X195.567 Y19.740 Z-0.692 A243.6190 
N575 X195.564 Y19.921 Z-0.912 A240.6004 
N576 X195.561 Y20.089 Z-1.143 A237.5795 
N577 X195.558 Y20.245 Z-1.384 A234.5492 
N578 X195.555 Y20.386 Z-1.638 A231.5042 
N579 X195.551 Y20.512 Z-1.903 A228.4346 
N580 X195.547 Y20.622 Z-2.182 A225.3273 
N581 X195.542 Y20.713 Z-2.475 A222.1854 
N582 X195.537 Y20.782 Z-2.780 A219.0109 
N583 X195.532 Y20.828 Z-3.101 A215.7746 
N584 X195.526 Y20.845 Z-3.437 A212.4791 
N585 X195.519 Y20.829 Z-3.788 A209.1221 
N586 X195.512 Y20.773 Z-4.154 A205.7080 
N587 X195.505 Y20.671 Z-4.530 A202.2544 
N588 X195.497 Y20.515 Z-4.914 A198.7828 
N589 X195.488 Y20.297 Z-5.299 A195.3319 
N590 X195.479 Y20.007 Z-5.677 A191.9423 
N591 X195.470 Y19.641 Z-6.041 A188.6387 
N592 X195.460 Y19.190 Z-6.380 A185.4826 
N593 X195.450 Y18.652 Z-6.676 A182.6133 
N594 X195.441 Y18.023 Z-6.914 A180.1510 
N595 X195.432 Y17.306 Z-7.088 A178.1566 
N596 X195.424 Y16.503 Z-7.196 A176.6440 
N597 X195.416 Y15.617 Z-7.241 A175.6027 
N598 X195.409 Y14.652 Z-7.232 A174.9776 
N599 X195.401 Y13.613 Z-7.182 A174.6645 
N600 X195.393 Y12.506 Z-7.108 A174.5395 
N601 X195.386 Y11.342 Z-7.020 A174.5004 
N602 X195.378 Y10.131 Z-6.926 A174.4908 
N603 X195.369 Y8.885 Z-6.827 A174.5065 
N604 X195.361 Y7.619 Z-6.728 A174.5152 
N605 X195.353 Y6.343 Z-6.630 
N606 X195.344 Y5.069 Z-6.548 A174.2929 
N607 X195.335 Y3.804 Z-6.500 A173.5725 
N608 X195.325 Y2.554 Z-6.496 A172.0938 
N609 X195.314 Y1.319 Z-6.528 A169.7434 
N610 X195.304 Y0.097 Z-6.571 A166.6052 
N611 X195.294 Y-1.113 Z-6.598 A162.8664 
N612 X195.284 Y-2.307 Z-6.576 A158.8060 
N613 X195.277 Y-3.479 Z-6.478 A154.7325 
N614 X195.271 Y-4.621 Z-6.291 A150.8253 
N615 X195.267 Y-5.725 Z-6.013 A147.2251 
N616 X195.265 Y-6.786 Z-5.644 A144.0384 
N617 X195.265 Y-7.797 Z-5.189 A141.3472 
N618 X195.266 Y-8.756 Z-4.658 A139.1816 
N619 X195.269 Y-9.664 Z-4.067 A137.5150 
N620 X195.274 Y-10.524 Z-3.430 A136.3045 
N621 X195.279 Y-11.338 Z-2.764 A135.4999 
N622 X195.284 Y-12.108 Z-2.083 A135.0268 
N623 X195.290 Y-12.836 Z-1.404 A134.7984 
N624 X195.297 Y-13.525 Z-0.742 A134.7286 
N625 X195.302 Y-14.174 Z-0.109 A134.7307 
N626 X195.308 Y-14.784 Z0.485 A134.7204 
N627 X195.313 Y-15.357 Z1.027 A134.5766 
N628 X195.317 Y-15.894 Z1.510 A134.1968 
N629 X195.320 Y-16.397 Z1.929 A133.4923 
N630 X195.322 Y-16.869 Z2.283 A132.4073 
N631 X195.324 Y-17.313 Z2.572 A130.9001 
N632 X195.324 Y-17.736 Z2.799 A128.9349 
N633 X195.324 Y-18.142 Z2.970 A126.5107 
N634 X195.323 Y-18.536 Z3.094 A123.6804 
N635 X195.321 Y-18.918 Z3.182 A120.5371 
N636 X195.319 Y-19.291 Z3.244 A117.1529 
N637 X195.317 Y-19.659 Z3.287 A113.5572 
N638 X195.315 Y-20.022 Z3.319 A109.8366 
N639 X195.312 Y-20.380 Z3.348 A106.0264 
N640 X195.310 Y-20.732 Z3.380 A102.1899 
N641 X195.308 Y-21.073 Z3.419 A98.4163 
N642 X195.306 Y-21.403 Z3.466 A94.7072 
N643 X195.304 Y-21.728 Z3.526 A91.0017 
N644 X195.303 Y-22.034 Z3.596 A87.4577 
N645 X195.302 Y-22.329 Z3.677 A83.9980 
N646 X195.301 Y-22.618 Z3.771 A80.5575 
N647 X195.301 Y-22.895 Z3.877 A77.1826 
N648 X195.300 Y-23.159 Z3.994 A73.8985 
N649 X195.300 Y-23.423 Z4.128 A70.5276 
N650 X195.301 Y-23.669 Z4.270 A67.2903 
N651 X195.302 Y-23.911 Z4.427 A64.0014 
N652 X195.303 Y-24.148 Z4.602 A60.6374 
N653 X195.304 Y-24.378 Z4.792 A57.2374 
N654 X195.306 Y-24.593 Z4.995 A53.8681 
N655 X195.308 Y-24.820 Z5.238 A50.0759 
N656 X195.311 Y-25.022 Z5.488 A46.4172 
N657 X195.314 Y-25.233 Z5.795 A42.1835 
N658 X195.318 Y-25.416 Z6.118 A37.9760 
N659 X195.324 Y-25.591 Z6.508 A33.1449 
N660 X195.330 Y-25.730 Z6.940 A28.0452 
N661 X195.338 Y-25.820 Z7.416 A22.6417 
N662 X195.346 Y-25.843 Z7.927 A17.0205 
N663 X195.355 Y-25.773 Z8.427 A11.6492 
N664 X195.364 Y-25.603 Z8.849 A7.1991 
N665 X195.372 Y-25.338 Z9.171 A3.8290 
N666 X195.378 Y-24.984 Z9.396 A1.4811 
N667 X195.384 Y-24.543 Z9.537 A0.0070 
N668 X195.389 Y-24.010 Z9.609 A359.2314 
N669 X195.395 Y-23.376 Z9.636 A358.9296 
N670 X195.401 Y-22.634 Z9.639 A358.8815 
N671 X195.407 Y-21.779 Z9.636 A358.9173 
N672 X195.415 Y-20.810 Z9.635 A358.9422 
N673 X195.423 Y-19.727 Z9.636 
N674 X195.432 Y-18.537 Z9.639 
N675 X195.442 Y-17.252 Z9.641 
N676 X195.453 Y-15.888 Z9.644 
N677 X195.464 Y-14.467 Z9.647 A358.9417 
N678 X195.476 Y-13.008 Z9.650 A358.9415 
N679 X195.487 Y-11.538 Z9.653 A358.9404 
N680 X195.498 Y-10.079 Z9.656 A358.9375 
N681 X195.510 Y-8.653 Z9.660 A358.9308 
N682 X195.520 Y-7.282 Z9.663 A358.9220 
N683 X195.531 Y-5.980 Z9.667 A358.9138 
N684 X195.540 Y-4.759 Z9.668 A358.9242 
N685 X195.549 Y-3.626 Z9.670 A358.9422 
N686 X195.557 Y-2.580 Z9.674 
N687 X195.565 Y-1.613 Z9.709 A358.5446 
N688 X195.576 Y-0.716 Z9.923 A355.8179 
N689 X195.591 Y0.169 Z10.384 A349.4400 
N690 X195.607 Y1.086 Z10.872 A341.4917 
N691 X195.620 Y2.024 Z11.243 A333.5163 
N692 X195.631 Y2.957 Z11.454 A326.1167 
N693 X195.639 Y3.850 Z11.491 A319.6691 
N694 X195.642 Y4.654 Z11.341 A314.7362 
N695 X195.642 Y5.324 Z11.009 A311.8458 
N696 X195.638 Y5.884 Z10.545 A310.6507 
N697 X195.632 Y6.394 Z10.010 A310.3240 
N698 X195.626 Y6.896 Z9.444 A310.2840 
N699 X195.620 Y7.406 Z8.863 A310.2975 
N700 X195.614 Y7.924 Z8.274 A310.3086 
N701 X195.607 Y8.444 Z7.683 A310.3245 
N702 X195.601 Y8.961 Z7.097 A310.3281 
N703 X195.595 Y9.470 Z6.523 
N704 X195.589 Y9.965 Z5.964 
N705 X195.583 Y10.445 Z5.435 A310.2157 
N706 X195.578 Y10.912 Z4.948 A309.8546 
N707 X195.574 Y11.370 Z4.513 A309.1066 
N708 X195.571 Y11.827 Z4.139 A307.7830 
N709 X195.569 Y12.292 Z3.829 A305.7395 
N710 X195.568 Y12.766 Z3.578 A302.9541 
N711 X195.568 Y13.243 Z3.370 A299.5758 
N712 X195.568 Y13.714 Z3.187 A295.8241 
N713 X195.569 Y14.168 Z3.018 A291.8770 
N714 X195.569 Y14.603 Z2.854 A287.8606 
N715 X195.569 Y15.009 Z2.689 A283.9205 
N716 X195.569 Y15.384 Z2.520 A280.1253 
N717 X195.569 Y15.732 Z2.349 A276.4779 
N718 X195.568 Y16.054 Z2.173 A272.9793 
N719 X195.567 Y16.351 Z1.992 A269.6251 
N720 X195.566 Y16.627 Z1.806 A266.3937 
N721 X195.565 Y16.885 Z1.615 A263.2659 
N722 X195.563 Y17.124 Z1.417 A260.2280 
N723 X195.561 Y17.348 Z1.213 A257.2634 
N724 X195.559 Y17.556 Z1.002 A254.3542 
N725 X195.556 Y17.750 Z0.783 A251.4956 
N726 X195.554 Y17.930 Z0.557 A248.6770 
N727 X195.551 Y18.096 Z0.323 A245.8936 
N728 X195.548 Y18.248 Z0.082 A243.1376 
N729 X195.544 Y18.386 Z-0.167 A240.4022 
N730 X195.540 Y18.510 Z-0.423 A237.6782 
N731 X195.537 Y18.620 Z-0.688 A234.9550 
N732 X195.532 Y18.716 Z-0.960 A232.2311 
N733 X195.528 Y18.796 Z-1.240 A229.4929 
N734 X195.523 Y18.861 Z-1.529 A226.7371 
N735 X195.518 Y18.910 Z-1.827 A223.9503 
N736 X195.513 Y18.941 Z-2.135 A221.1287 
N737 X195.507 Y18.952 Z-2.452 A218.2552 
N738 X195.501 Y18.942 Z-2.782 A215.3179 
N739 X195.495 Y18.906 Z-3.123 A212.3074 
N740 X195.488 Y18.843 Z-3.478 A209.2042 
N741 X195.481 Y18.746 Z-3.846 A206.0015 
N742 X195.473 Y18.610 Z-4.227 A202.6894 
N743 X195.465 Y18.427 Z-4.620 A199.2669 
N744 X195.455 Y18.189 Z-5.020 A195.7525 
N745 X195.446 Y17.888 Z-5.421 A192.1640 
N746 X195.436 Y17.515 Z-5.815 A188.5380 
N747 X195.426 Y17.063 Z-6.185 A185.0032 
N748 X195.416 Y16.527 Z-6.509 A181.7224 
N749 X195.406 Y15.908 Z-6.773 A178.8286 
N750 X195.397 Y15.208 Z-6.961 A176.4480 
N751 X195.389 Y14.431 Z-7.068 A174.6695 
N752 X195.382 Y13.583 Z-7.096 A173.4904 
N753 X195.375 Y12.666 Z-7.062 A172.7964 
N754 X195.368 Y11.685 Z-6.983 A172.4315 
N755 X195.362 Y10.643 Z-6.877 A172.2590 
N756 X195.355 Y9.547 Z-6.753 A172.1945 
N757 X195.349 Y8.407 Z-6.617 A172.1994 
N758 X195.342 Y7.232 Z-6.476 A172.2319 
N759 X195.334 Y6.031 Z-6.336 
N760 X195.327 Y4.812 Z-6.204 A172.0955 
N761 X195.319 Y3.585 Z-6.103 A171.4922 
N762 X195.310 Y2.354 Z-6.039 A170.2355 
N763 X195.301 Y1.123 Z-6.008 A168.1850 
N764 X195.291 Y-0.108 Z-5.994 A165.3481 
N765 X195.282 Y-1.337 Z-5.970 A161.8465 
N766 X195.273 Y-2.557 Z-5.902 A157.9851 
N767 X195.266 Y-3.757 Z-5.757 A154.1148 
N768 X195.261 Y-4.924 Z-5.525 A150.4365 
N769 X195.258 Y-6.050 Z-5.202 A147.1027 
N770 X195.256 Y-7.125 Z-4.792 A144.2134 
N771 X195.257 Y-8.147 Z-4.306 A141.8155 
N772 X195.259 Y-9.112 Z-3.756 A139.9117 
N773 X195.262 Y-10.023 Z-3.160 A138.4544 
N774 X195.266 Y-10.883 Z-2.533 A137.3750 
N775 X195.270 Y-11.694 Z-1.891 A136.6104 
N776 X195.276 Y-12.457 Z-1.248 A136.1023 
N777 X195.281 Y-13.171 Z-0.616 A135.7988 
N778 X195.286 Y-13.837 Z-0.007 A135.6503 
N779 X195.291 Y-14.455 Z0.571 A135.5957 
N780 X195.296 Y-15.026 Z1.105 A135.5454 
N781 X195.300 Y-15.556 Z1.587 A135.3675 
N782 X195.304 Y-16.048 Z2.007 A134.9242 
N783 X195.306 Y-16.510 Z2.360 A134.0996 
N784 X195.307 Y-16.946 Z2.646 A132.8242 
N785 X195.308 Y-17.361 Z2.867 A131.0610 
N786 X195.307 Y-17.762 Z3.028 A128.7814 
N787 X195.306 Y-18.156 Z3.136 A125.9901 
N788 X195.304 Y-18.546 Z3.203 A122.7558 
N789 X195.301 Y-18.932 Z3.241 A119.2123 
N790 X195.299 Y-19.310 Z3.264 A115.4918 
N791 X195.296 Y-19.686 Z3.279 A111.6027 
N792 X195.293 Y-20.055 Z3.292 A107.6645 
N793 X195.290 Y-20.411 Z3.311 A103.7819 
N794 X195.288 Y-20.757 Z3.338 A99.9574 
N795 X195.286 Y-21.094 Z3.377 A96.1724 
N796 X195.284 Y-21.407 Z3.424 A92.6243 
N797 X195.283 Y-21.715 Z3.485 A89.0796 
N798 X195.281 Y-22.011 Z3.557 A85.6411 
N799 X195.281 Y-22.295 Z3.641 A82.2816 
N800 X195.280 Y-22.567 Z3.735 A79.0123 
N801 X195.280 Y-22.839 Z3.845 A75.6738 
N802 X195.280 Y-23.089 Z3.961 A72.5281 
N803 X195.280 Y-23.340 Z4.094 A69.2900 
N804 X195.280 Y-23.583 Z4.240 A66.0569 
N805 X195.281 Y-23.818 Z4.398 A62.8297 
N806 X195.282 Y-24.044 Z4.570 A59.5859 
N807 X195.284 Y-24.274 Z4.767 A56.1288 
N808 X195.285 Y-24.491 Z4.978 A52.6846 
N809 X195.288 Y-24.705 Z5.214 A49.0470 
N810 X195.291 Y-24.919 Z5.489 A45.0717 
N811 X195.294 Y-25.121 Z5.793 A40.9260 
N812 X195.299 Y-25.315 Z6.152 A36.2916 
N813 X195.305 Y-25.491 Z6.570 A31.1621 
N814 X195.312 Y-25.625 Z7.035 A25.7093 
N815 X195.320 Y-25.703 Z7.555 A19.8320 
N816 X195.330 Y-25.699 Z8.095 A13.8918 
N817 X195.339 Y-25.591 Z8.589 A8.5638 
N818 X195.347 Y-25.380 Z8.967 A4.5410 
N819 X195.354 Y-25.080 Z9.219 A1.8797 
N820 X195.359 Y-24.696 Z9.370 A0.2851 
N821 X195.364 Y-24.227 Z9.452 A359.4202 
N822 X195.369 Y-23.663 Z9.488 A359.0220 
N823 X195.375 Y-22.996 Z9.499 A358.8950 
N824 X195.381 Y-22.219 Z9.498 A358.8948 
N825 X195.387 Y-21.327 Z9.495 A358.9273 
N826 X195.395 Y-20.322 Z9.495 A358.9347 
N827 X195.404 Y-19.205 Z9.497 
N828 X195.413 Y-17.986 Z9.499 
N829 X195.424 Y-16.678 Z9.501 
N830 X195.434 Y-15.300 Z9.503 A358.9338 
N831 X195.446 Y-13.872 Z9.505 A358.9337 
N832 X195.457 Y-12.417 Z9.507 A358.9336 
N833 X195.468 Y-10.960 Z9.509 A358.9326 
N834 X195.480 Y-9.524 Z9.511 A358.9296 
N835 X195.490 Y-8.131 Z9.513 A358.9227 
N836 X195.501 Y-6.800 Z9.515 A358.9153 
N837 X195.511 Y-5.545 Z9.517 A358.9079 
N838 X195.520 Y-4.375 Z9.517 A358.9267 
N839 X195.528 Y-3.297 Z9.519 A358.9347 
N840 X195.536 Y-2.305 Z9.521 
N841 X195.544 Y-1.395 Z9.579 A358.2465 
N842 X195.555 Y-0.547 Z9.857 A354.6768 
N843 X195.571 Y0.305 Z10.362 A347.5883 
N844 X195.586 Y1.191 Z10.850 A339.4171 
N845 X195.599 Y2.093 Z11.207 A331.4503 
N846 X195.610 Y2.979 Z11.400 A324.2320 
N847 X195.616 Y3.809 Z11.418 A318.1589 
N848 X195.619 Y4.536 Z11.258 A313.7579 
N849 X195.618 Y5.130 Z10.934 A311.3352 
N850 X195.614 Y5.627 Z10.503 A310.3650 
N851 X195.609 Y6.084 Z10.018 A310.0888 
N852 X195.604 Y6.533 Z9.510 A310.0384 
N853 X195.598 Y6.984 Z8.992 A310.0403 
N854 X195.592 Y7.439 Z8.469 A310.0547 
N855 X195.587 Y7.891 Z7.949 A310.0801 
N856 X195.581 Y8.340 Z7.438 
N857 X195.576 Y8.779 Z6.937 
N858 X195.571 Y9.210 Z6.459 A309.9671 
N859 X195.566 Y9.635 Z6.018 A309.5823 
N860 X195.562 Y10.057 Z5.622 A308.8291 
N861 X195.559 Y10.482 Z5.278 A307.5452 
N862 X195.558 Y10.918 Z4.991 A305.5770 
N863 X195.557 Y11.374 Z4.759 A302.8196 
N864 X195.557 Y11.847 Z4.570 A299.3487 
N865 X195.558 Y12.325 Z4.404 A295.4089 
N866 X195.559 Y12.789 Z4.243 A291.2814 
N867 X195.559 Y13.233 Z4.080 A287.1158 
N868 X195.560 Y13.650 Z3.910 A283.0267 
N869 X195.559 Y14.035 Z3.730 A279.1080 
N870 X195.559 Y14.388 Z3.542 A275.3796 
N871 X195.558 Y14.711 Z3.345 A271.8315 
N872 X195.556 Y15.007 Z3.140 A268.4586 
N873 X195.554 Y15.278 Z2.927 A265.2341 
N874 X195.552 Y15.526 Z2.706 A262.1428 
N875 X195.550 Y15.752 Z2.478 A259.1685 
N876 X195.547 Y15.958 Z2.242 A256.2951 
N877 X195.544 Y16.145 Z1.997 A253.5107 
N878 X195.541 Y16.313 Z1.746 A250.8052 
N879 X195.538 Y16.463 Z1.488 A248.1714 
N880 X195.534 Y16.595 Z1.223 A245.6017 
N881 X195.530 Y16.710 Z0.952 A243.0881 
N882 X195.526 Y16.808 Z0.675 A240.6193 
N883 X195.521 Y16.890 Z0.394 A238.1826 
N884 X195.517 Y16.958 Z0.107 A235.7633 
N885 X195.512 Y17.011 Z-0.185 A233.3475 
N886 X195.507 Y17.050 Z-0.483 A230.9218 
N887 X195.502 Y17.075 Z-0.786 A228.4731 
N888 X195.496 Y17.087 Z-1.094 A225.9890 
N889 X195.491 Y17.086 Z-1.409 A223.4567 
N890 X195.485 Y17.070 Z-1.731 A220.8636 
N891 X195.478 Y17.039 Z-2.062 A218.1957 
N892 X195.472 Y16.991 Z-2.401 A215.4384 
N893 X195.465 Y16.923 Z-2.750 A212.5755 
N894 X195.458 Y16.833 Z-3.111 A209.5881 
N895 X195.450 Y16.717 Z-3.485 A206.4608 
N896 X195.442 Y16.568 Z-3.872 A203.1743 
N897 X195.434 Y16.381 Z-4.273 A199.7179 
N898 X195.424 Y16.146 Z-4.684 A196.0945 
N899 X195.415 Y15.855 Z-5.102 A192.3123 
N900 X195.404 Y15.499 Z-5.516 A188.4235 
N901 X195.394 Y15.069 Z-5.910 A184.5564 
N902 X195.384 Y14.559 Z-6.263 A180.8525 
N903 X195.374 Y13.970 Z-6.553 A177.5097 
N904 X195.365 Y13.306 Z-6.758 A174.7541 
N905 X195.357 Y12.574 Z-6.866 A172.7101 
N906 X195.350 Y11.777 Z-6.888 A171.3287 
N907 X195.344 Y10.919 Z-6.841 A170.4710 
N908 X195.339 Y10.001 Z-6.741 A169.9896 
N909 X195.333 Y9.025 Z-6.604 A169.7687 
N910 X195.328 Y7.996 Z-6.442 A169.7087 
N911 X195.322 Y6.920 Z-6.263 A169.7509 
N912 X195.316 Y5.806 Z-6.083 A169.7620 
N913 X195.311 Y4.655 Z-5.898 
N914 X195.304 Y3.480 Z-5.730 A169.4931 
N915 X195.297 Y2.286 Z-5.587 A168.7842 
N916 X195.289 Y1.078 Z-5.475 A167.4398 
N917 X195.281 Y-0.142 Z-5.395 A165.2812 
N918 X195.272 Y-1.372 Z-5.333 A162.2475 
N919 X195.264 Y-2.606 Z-5.253 A158.5855 
N920 X195.256 Y-3.828 Z-5.109 A154.7502 
N921 X195.251 Y-5.020 Z-4.879 A151.0706 
N922 X195.247 Y-6.169 Z-4.556 A147.7451 
N923 X195.246 Y-7.263 Z-4.146 A144.8990 
N924 X195.246 Y-8.298 Z-3.661 A142.5582 
N925 X195.248 Y-9.273 Z-3.119 A140.6934 
N926 X195.251 Y-10.189 Z-2.536 A139.2493 
N927 X195.254 Y-11.049 Z-1.929 A138.1621 
N928 X195.259 Y-11.854 Z-1.313 A137.3812 
N929 X195.263 Y-12.605 Z-0.700 A136.8617 
N930 X195.268 Y-13.301 Z-0.102 A136.5561 
N931 X195.273 Y-13.944 Z0.471 A136.4152 
N932 X195.278 Y-14.535 Z1.010 A136.3799 
N933 X195.282 Y-15.075 Z1.506 A136.3661 
N934 X195.286 Y-15.571 Z1.949 A136.2403 
N935 X195.289 Y-16.031 Z2.329 A135.8337 
N936 X195.291 Y-16.464 Z2.639 A134.9920 
N937 X195.291 Y-16.877 Z2.879 A133.6133 
N938 X195.291 Y-17.275 Z3.053 A131.6736 
N939 X195.290 Y-17.665 Z3.168 A129.1732 
N940 X195.288 Y-18.054 Z3.233 A126.1341 
N941 X195.285 Y-18.445 Z3.260 A122.6239 
N942 X195.282 Y-18.837 Z3.264 A118.7932 
N943 X195.279 Y-19.226 Z3.259 A114.7959 
N944 X195.275 Y-19.605 Z3.254 A110.7592 
N945 X195.272 Y-19.974 Z3.254 A106.7360 
N946 X195.270 Y-20.333 Z3.263 A102.7719 
N947 X195.267 Y-20.680 Z3.285 A98.8969 
N948 X195.265 Y-21.010 Z3.319 A95.1746 
N949 X195.263 Y-21.316 Z3.365 A91.6797 
N950 X195.262 Y-21.630 Z3.426 A88.0670 
N951 X195.261 Y-21.908 Z3.494 A84.8201 
N952 X195.260 Y-22.192 Z3.579 A81.4468 
N953 X195.259 Y-22.459 Z3.672 A78.2209 
N954 X195.259 Y-22.716 Z3.777 A75.0582 
N955 X195.259 Y-22.975 Z3.899 A71.7930 
N956 X195.259 Y-23.216 Z4.028 A68.6772 
N957 X195.259 Y-23.453 Z4.171 A65.5149 
N958 X195.260 Y-23.685 Z4.329 A62.3073 
N959 X195.261 Y-23.916 Z4.506 A58.9854 
N960 X195.263 Y-24.135 Z4.695 A55.6805 
N961 X195.265 Y-24.354 Z4.908 A52.1920 
N962 X195.267 Y-24.576 Z5.157 A48.3838 
N963 X195.270 Y-24.776 Z5.416 A44.6585 
N964 X195.274 Y-24.994 Z5.749 A40.1216 
N965 X195.279 Y-25.185 Z6.107 A35.5073 
N966 X195.285 Y-25.363 Z6.539 A30.2166 
N967 X195.292 Y-25.502 Z7.041 A24.3296 
N968 X195.301 Y-25.571 Z7.575 A18.3083 
N969 X195.310 Y-25.550 Z8.119 A12.3328 
N970 X195.320 Y-25.423 Z8.597 A7.1570 
N971 X195.328 Y-25.196 Z8.951 A3.3712 
N972 X195.334 Y-24.884 Z9.170 A1.0257 
N973 X195.339 Y-24.490 Z9.288 A359.7663 
N974 X195.343 Y-24.010 Z9.343 A359.1779 
N975 X195.348 Y-23.435 Z9.363 A358.9469 
N976 X195.353 Y-22.757 Z9.368 A358.8863 
N977 X195.360 Y-21.967 Z9.366 A358.8928 
N978 X195.366 Y-21.064 Z9.364 A358.9142 
N979 X195.374 Y-20.048 Z9.363 A358.9170 
N980 X195.383 Y-18.922 Z9.364 
N981 X195.393 Y-17.697 Z9.364 
N982 X195.403 Y-16.387 Z9.365 
N983 X195.414 Y-15.010 Z9.366 A358.9164 
N984 X195.425 Y-13.589 Z9.366 A358.9162 
N985 X195.436 Y-12.147 Z9.367 
N986 X195.447 Y-10.707 Z9.367 A358.9152 
N987 X195.458 Y-9.294 Z9.368 A358.9123 
N988 X195.469 Y-7.929 Z9.369 A358.9055 
N989 X195.479 Y-6.629 Z9.370 A358.8971 
N990 X195.488 Y-5.410 Z9.370 A358.8889 
N991 X195.497 Y-4.279 Z9.370 A358.9029 
N992 X195.505 Y-3.242 Z9.369 A358.9170 
N993 X195.513 Y-2.296 Z9.371 
N994 X195.520 Y-1.433 Z9.418 A358.3450 
N995 X195.531 Y-0.636 Z9.677 A355.0560 
N996 X195.546 Y0.161 Z10.191 A348.0057 
N997 X195.561 Y0.994 Z10.708 A339.7237 
N998 X195.575 Y1.847 Z11.102 A331.6262 
N999 X195.585 Y2.680 Z11.329 A324.4045 
N1000 X195.592 Y3.456 Z11.386 A318.3937 
N1001 X195.596 Y4.141 Z11.284 A313.8503 
N1002 X195.596 Y4.704 Z11.033 A311.0979 
N1003 X195.593 Y5.169 Z10.677 A309.7868 
N1004 X195.589 Y5.582 Z10.263 A309.2635 
N1005 X195.584 Y5.975 Z9.821 A309.0801 
N1006 X195.579 Y6.363 Z9.367 A309.0325 
N1007 X195.574 Y6.749 Z8.906 A309.0448 
N1008 X195.569 Y7.133 Z8.447 A309.0759 
N1009 X195.564 Y7.513 Z7.997 
N1010 X195.559 Y7.890 Z7.556 A309.0410 
N1011 X195.554 Y8.269 Z7.146 A308.7268 
N1012 X195.551 Y8.652 Z6.772 A308.0600 
N1013 X195.548 Y9.042 Z6.441 A306.9143 
N1014 X195.546 Y9.443 Z6.155 A305.2098 
N1015 X195.545 Y9.860 Z5.914 A302.8672 
N1016 X195.545 Y10.296 Z5.714 A299.8486 
N1017 X195.545 Y10.749 Z5.542 A296.2388 
N1018 X195.546 Y11.206 Z5.382 A292.2568 
N1019 X195.546 Y11.650 Z5.220 A288.1466 
N1020 X195.547 Y12.074 Z5.051 A284.0267 
N1021 X195.546 Y12.475 Z4.871 A279.9852 
N1022 X195.546 Y12.846 Z4.678 A276.0974 
N1023 X195.545 Y13.187 Z4.473 A272.3865 
N1024 X195.543 Y13.498 Z4.257 A268.8507 
N1025 X195.541 Y13.782 Z4.030 A265.4857 
N1026 X195.539 Y14.039 Z3.792 A262.2773 
N1027 X195.537 Y14.271 Z3.544 A259.2121 
N1028 X195.534 Y14.478 Z3.287 A256.2819 
N1029 X195.530 Y14.661 Z3.020 A253.4779 
N1030 X195.526 Y14.820 Z2.746 A250.7929 
N1031 X195.522 Y14.956 Z2.464 A248.2198 
N1032 X195.518 Y15.070 Z2.175 A245.7511 
N1033 X195.514 Y15.162 Z1.882 A243.3791 
N1034 X195.509 Y15.233 Z1.584 A241.0908 
N1035 X195.504 Y15.285 Z1.283 A238.8681 
N1036 X195.499 Y15.321 Z0.978 A236.6895 
N1037 X195.493 Y15.341 Z0.670 A234.5320 
N1038 X195.488 Y15.348 Z0.359 A232.3728 
N1039 X195.482 Y15.343 Z0.044 A230.1906 
N1040 X195.476 Y15.327 Z-0.274 A227.9656 
N1041 X195.470 Y15.302 Z-0.597 A225.6790 
N1042 X195.464 Y15.266 Z-0.926 A223.3151 
N1043 X195.458 Y15.220 Z-1.259 A220.8595 
N1044 X195.451 Y15.163 Z-1.600 A218.2974 
N1045 X195.444 Y15.094 Z-1.948 A215.6148 
N1046 X195.437 Y15.010 Z-2.305 A212.7970 
N1047 X195.430 Y14.909 Z-2.672 A209.8274 
N1048 X195.422 Y14.787 Z-3.052 A206.6907 
N1049 X195.414 Y14.638 Z-3.444 A203.3688 
N1050 X195.405 Y14.455 Z-3.850 A199.8504 
N1051 X195.396 Y14.231 Z-4.266 A196.1354 
N1052 X195.386 Y13.956 Z-4.691 A192.2307 
N1053 X195.376 Y13.621 Z-5.113 A188.1855 
N1054 X195.366 Y13.216 Z-5.519 A184.1028 
N1055 X195.355 Y12.736 Z-5.891 A180.1070 
N1056 X195.345 Y12.180 Z-6.200 A176.4433 
N1057 X195.336 Y11.554 Z-6.419 A173.3928 
N1058 X195.329 Y10.864 Z-6.536 A171.0902 
N1059 X195.322 Y10.116 Z-6.561 A169.4891 
N1060 X195.317 Y9.312 Z-6.508 A168.4723 
N1061 X195.312 Y8.453 Z-6.393 A167.9094 
N1062 X195.307 Y7.539 Z-6.233 A167.6718 
N1063 X195.303 Y6.572 Z-6.043 A167.6271 
N1064 X195.298 Y5.556 Z-5.836 A167.6844 
N1065 X195.294 Y4.498 Z-5.626 A167.6987 
N1066 X195.289 Y3.399 Z-5.409 
N1067 X195.283 Y2.267 Z-5.203 A167.4862 
N1068 X195.277 Y1.111 Z-5.020 A166.8315 
N1069 X195.270 Y-0.069 Z-4.874 A165.4825 
N1070 X195.262 Y-1.270 Z-4.768 A163.1646 
N1071 X195.254 Y-2.490 Z-4.684 A159.8782 
N1072 X195.246 Y-3.715 Z-4.566 A156.0767 
N1073 X195.240 Y-4.919 Z-4.367 A152.3129 
N1074 X195.236 Y-6.083 Z-4.074 A148.8775 
N1075 X195.234 Y-7.194 Z-3.691 A145.9122 
N1076 X195.234 Y-8.244 Z-3.231 A143.4504 
N1077 X195.235 Y-9.230 Z-2.712 A141.4682 
N1078 X195.237 Y-10.153 Z-2.152 A139.9366 
N1079 X195.240 Y-11.014 Z-1.565 A138.8110 
N1080 X195.245 Y-11.813 Z-0.968 A138.0333 
N1081 X195.249 Y-12.553 Z-0.375 A137.5526 
N1082 X195.254 Y-13.235 Z0.202 A137.3179 
N1083 X195.258 Y-13.861 Z0.753 A137.2561 
N1084 X195.263 Y-14.434 Z1.268 A137.2988 
N1085 X195.266 Y-14.958 Z1.733 
N1086 X195.270 Y-15.436 Z2.156 A137.2769 
N1087 X195.273 Y-15.878 Z2.512 A136.9442 
N1088 X195.274 Y-16.293 Z2.800 A136.1733 
N1089 X195.275 Y-16.693 Z3.013 A134.7797 
N1090 X195.274 Y-17.087 Z3.154 A132.6982 
N1091 X195.272 Y-17.478 Z3.235 A129.9877 
N1092 X195.269 Y-17.867 Z3.270 A126.7711 
N1093 X195.266 Y-18.256 Z3.274 A123.1665 
N1094 X195.263 Y-18.646 Z3.259 A119.2517 
N1095 X195.259 Y-19.035 Z3.236 A115.1587 
N1096 X195.256 Y-19.412 Z3.216 A111.0849 
N1097 X195.253 Y-19.783 Z3.204 A107.0131 
N1098 X195.250 Y-20.141 Z3.204 A103.0261 
N1099 X195.247 Y-20.492 Z3.218 A99.0938 
N1100 X195.245 Y-20.815 Z3.245 A95.4433 
N1101 X195.243 Y-21.131 Z3.285 A91.8413 
N1102 X195.241 Y-21.430 Z3.339 A88.3926 
N1103 X195.240 Y-21.724 Z3.406 A84.9652 
N1104 X195.239 Y-21.993 Z3.481 A81.7792 
N1105 X195.238 Y-22.270 Z3.574 A78.4441 
N1106 X195.238 Y-22.525 Z3.674 A75.3160 
N1107 X195.238 Y-22.775 Z3.787 A72.1790 
N1108 X195.238 Y-23.025 Z3.916 A68.9713 
N1109 X195.238 Y-23.264 Z4.057 A65.8015 
N1110 X195.239 Y-23.496 Z4.210 A62.6180 
N1111 X195.240 Y-23.720 Z4.377 A59.4289 
N1112 X195.242 Y-23.952 Z4.572 A55.9600 
N1113 X195.243 Y-24.172 Z4.782 A52.4854 
N1114 X195.246 Y-24.380 Z5.007 A48.9811 
N1115 X195.249 Y-24.608 Z5.293 A44.8081 
N1116 X195.252 Y-24.803 Z5.582 A40.8282 
N1117 X195.257 Y-25.012 Z5.960 A35.9155 
N1118 X195.263 Y-25.192 Z6.376 A30.7657 
N1119 X195.270 Y-25.342 Z6.873 A24.8942 
N1120 X195.279 Y-25.425 Z7.412 A18.7631 
N1121 X195.288 Y-25.415 Z7.952 A12.8134 
N1122 X195.297 Y-25.302 Z8.433 A7.5987 
N1123 X195.305 Y-25.091 Z8.803 A3.6219 
N1124 X195.312 Y-24.794 Z9.041 A1.0602 
N1125 X195.317 Y-24.417 Z9.168 A359.6906 
N1126 X195.321 Y-23.956 Z9.222 A359.0916 
N1127 X195.326 Y-23.402 Z9.239 A358.8939 
N1128 X195.331 Y-22.745 Z9.241 A358.8569 
N1129 X195.337 Y-21.980 Z9.239 A358.8673 
N1130 X195.343 Y-21.102 Z9.236 A358.8827 
N1131 X195.351 Y-20.112 Z9.236 A358.8838 
N1132 X195.360 Y-19.012 Z9.235 
N1133 X195.369 Y-17.812 Z9.235 
N1134 X195.379 Y-16.526 Z9.234 
N1135 X195.389 Y-15.172 Z9.234 A358.8836 
N1136 X195.400 Y-13.770 Z9.233 A358.8833 
N1137 X195.411 Y-12.345 Z9.232 A358.8833 
N1138 X195.423 Y-10.920 Z9.232 A358.8826 
N1139 X195.433 Y-9.519 Z9.231 A358.8801 
N1140 X195.444 Y-8.165 Z9.231 A358.8739 
N1141 X195.454 Y-6.875 Z9.231 A358.8638 
N1142 X195.463 Y-5.666 Z9.231 A358.8537 
N1143 X195.472 Y-4.546 Z9.230 A358.8553 
N1144 X195.480 Y-3.523 Z9.228 A358.8838 
N1145 X195.487 Y-2.596 Z9.228 
N1146 X195.494 Y-1.756 Z9.246 A358.6687 
N1147 X195.503 Y-0.997 Z9.397 A356.7808 
N1148 X195.516 Y-0.272 Z9.827 A351.1562 
N1149 X195.531 Y0.476 Z10.358 A343.3923 
N1150 X195.545 Y1.245 Z10.808 A335.5149 
N1151 X195.556 Y2.008 Z11.123 A328.2373 
N1152 X195.564 Y2.732 Z11.289 A321.9672 
N1153 X195.570 Y3.393 Z11.317 A316.8300 
N1154 X195.573 Y3.976 Z11.221 A312.9163 
N1155 X195.573 Y4.479 Z11.026 A310.1520 
N1156 X195.572 Y4.915 Z10.756 A308.3140 
N1157 X195.569 Y5.298 Z10.430 A307.2088 
N1158 X195.565 Y5.644 Z10.065 A306.6449 
N1159 X195.561 Y5.967 Z9.676 A306.4205 
N1160 X195.556 Y6.280 Z9.275 A306.3599 
N1161 X195.551 Y6.589 Z8.875 A306.3246 
N1162 X195.547 Y6.901 Z8.484 A306.1960 
N1163 X195.543 Y7.219 Z8.112 A305.8467 
N1164 X195.539 Y7.548 Z7.768 A305.1539 
N1165 X195.536 Y7.892 Z7.457 A304.0243 
N1166 X195.534 Y8.250 Z7.180 A302.4053 
N1167 X195.533 Y8.623 Z6.935 A300.2780 
N1168 X195.532 Y9.011 Z6.720 A297.6287 
N1169 X195.531 Y9.416 Z6.529 A294.4784 
N1170 X195.531 Y9.830 Z6.350 A290.9155 
N1171 X195.531 Y10.247 Z6.175 A287.0804 
N1172 X195.531 Y10.658 Z5.995 A283.0943 
N1173 X195.531 Y11.055 Z5.804 A279.0664 
N1174 X195.530 Y11.429 Z5.600 A275.1090 
N1175 X195.529 Y11.777 Z5.382 A271.2832 
N1176 X195.527 Y12.096 Z5.149 A267.6164 
N1177 X195.525 Y12.385 Z4.903 A264.1223 
N1178 X195.523 Y12.644 Z4.645 A260.8032 
N1179 X195.520 Y12.874 Z4.376 A257.6550 
N1180 X195.516 Y13.074 Z4.096 A254.6742 
N1181 X195.512 Y13.245 Z3.806 A251.8566 
N1182 X195.508 Y13.389 Z3.510 A249.1970 
N1183 X195.503 Y13.504 Z3.206 A246.6882 
N1184 X195.499 Y13.593 Z2.898 A244.3203 
N1185 X195.494 Y13.657 Z2.586 A242.0817 
N1186 X195.488 Y13.698 Z2.271 A239.9563 
N1187 X195.483 Y13.718 Z1.954 A237.9188 
N1188 X195.477 Y13.721 Z1.636 A235.9381 
N1189 X195.471 Y13.708 Z1.315 A233.9810 
N1190 X195.465 Y13.684 Z0.993 A232.0160 
N1191 X195.459 Y13.650 Z0.668 A230.0148 
N1192 X195.453 Y13.607 Z0.340 A227.9525 
N1193 X195.446 Y13.558 Z0.008 A225.8059 
N1194 X195.440 Y13.502 Z-0.327 A223.5557 
N1195 X195.433 Y13.440 Z-0.668 A221.1866 
N1196 X195.427 Y13.371 Z-1.014 A218.6840 
N1197 X195.420 Y13.293 Z-1.367 A216.0341 
N1198 X195.413 Y13.206 Z-1.729 A213.2248 
N1199 X195.405 Y13.105 Z-2.101 A210.2432 
N1200 X195.397 Y12.986 Z-2.483 A207.0765 
N1201 X195.389 Y12.845 Z-2.878 A203.7112 
N1202 X195.381 Y12.674 Z-3.286 A200.1363 
N1203 X195.371 Y12.466 Z-3.705 A196.3540 
N1204 X195.362 Y12.212 Z-4.131 A192.3711 
N1205 X195.352 Y11.902 Z-4.558 A188.2268 
N1206 X195.341 Y11.527 Z-4.972 A184.0085 
N1207 X195.331 Y11.082 Z-5.357 A179.8181 
N1208 X195.321 Y10.563 Z-5.686 A175.8919 
N1209 X195.312 Y9.977 Z-5.924 A172.5782 
N1210 X195.305 Y9.334 Z-6.054 A170.0821 
N1211 X195.298 Y8.639 Z-6.083 A168.3734 
N1212 X195.293 Y7.896 Z-6.030 A167.3120 
N1213 X195.289 Y7.102 Z-5.912 A166.7429 
N1214 X195.285 Y6.258 Z-5.747 A166.5232 
N1215 X195.281 Y5.363 Z-5.553 A166.5087 
N1216 X195.278 Y4.420 Z-5.340 A166.6058 
N1217 X195.273 Y3.432 Z-5.126 A166.6346 
N1218 X195.269 Y2.400 Z-4.908 
N1219 X195.264 Y1.324 Z-4.691 A166.4852 
N1220 X195.258 Y0.218 Z-4.512 A165.7041 
N1221 X195.252 Y-0.919 Z-4.371 A164.1396 
N1222 X195.244 Y-2.085 Z-4.270 A161.5456 
N1223 X195.236 Y-3.275 Z-4.179 A158.0336 
N1224 X195.229 Y-4.467 Z-4.038 A154.1644 
N1225 X195.224 Y-5.633 Z-3.804 A150.5374 
N1226 X195.221 Y-6.753 Z-3.471 A147.3750 
N1227 X195.220 Y-7.816 Z-3.052 A144.7365 
N1228 X195.220 Y-8.818 Z-2.565 A142.6234 
N1229 X195.222 Y-9.757 Z-2.029 A140.9911 
N1230 X195.225 Y-10.633 Z-1.462 A139.7928 
N1231 X195.229 Y-11.446 Z-0.879 A138.9793 
N1232 X195.233 Y-12.200 Z-0.297 A138.4774 
N1233 X195.237 Y-12.896 Z0.271 A138.2094 
N1234 X195.241 Y-13.537 Z0.812 A138.1000 
N1235 X195.245 Y-14.123 Z1.319 A138.0940 
N1236 X195.249 Y-14.657 Z1.783 A138.1066 
N1237 X195.253 Y-15.141 Z2.201 A138.1044 
N1238 X195.255 Y-15.581 Z2.564 A137.9439 
N1239 X195.257 Y-15.983 Z2.867 A137.5105 
N1240 X195.258 Y-16.360 Z3.101 A136.6143 
N1241 X195.258 Y-16.729 Z3.260 A135.0507 
N1242 X195.256 Y-17.103 Z3.343 A132.6547 
N1243 X195.254 Y-17.494 Z3.360 A129.4365 
N1244 X195.250 Y-17.899 Z3.332 A125.5780 
N1245 X195.246 Y-18.310 Z3.285 A121.3554 
N1246 X195.241 Y-18.724 Z3.233 A116.9076 
N1247 X195.237 Y-19.130 Z3.189 A112.4543 
N1248 X195.233 Y-19.520 Z3.160 A108.1285 
N1249 X195.230 Y-19.889 Z3.148 A104.0092 
N1250 X195.227 Y-20.232 Z3.152 A100.1585 
N1251 X195.225 Y-20.569 Z3.172 A96.3462 
N1252 X195.223 Y-20.877 Z3.205 A92.8305 
N1253 X195.221 Y-21.180 Z3.252 A89.3500 
N1254 X195.220 Y-21.456 Z3.309 A86.1478 
N1255 X195.219 Y-21.743 Z3.383 A82.7695 
N1256 X195.218 Y-21.996 Z3.462 A79.7415 
N1257 X195.218 Y-22.251 Z3.555 A76.6432 
N1258 X195.217 Y-22.509 Z3.664 A73.4485 
N1259 X195.217 Y-22.745 Z3.778 A70.4519 
N1260 X195.218 Y-22.979 Z3.906 A67.3981 
N1261 X195.218 Y-23.209 Z4.048 A64.3013 
N1262 X195.219 Y-23.440 Z4.208 A61.0914 
N1263 X195.220 Y-23.663 Z4.383 A57.8518 
N1264 X195.222 Y-23.875 Z4.569 A54.6234 
N1265 X195.224 Y-24.105 Z4.796 A50.9233 
N1266 X195.226 Y-24.325 Z5.047 A47.1033 
N1267 X195.229 Y-24.534 Z5.323 A43.1485 
N1268 X195.234 Y-24.762 Z5.680 A38.3147 
N1269 X195.239 Y-24.967 Z6.082 A33.1697 
N1270 X195.246 Y-25.156 Z6.576 A27.1369 
N1271 X195.255 Y-25.304 Z7.184 A20.0302 
N1272 X195.265 Y-25.344 Z7.786 A13.2410 
N1273 X195.275 Y-25.264 Z8.289 A7.7156 
N1274 X195.282 Y-25.084 Z8.657 A3.7198 
N1275 X195.289 Y-24.824 Z8.897 A1.1162 
N1276 X195.293 Y-24.489 Z9.032 A359.6440 
N1277 X195.298 Y-24.075 Z9.092 A358.9764 
N1278 X195.302 Y-23.574 Z9.108 A358.7732 
N1279 X195.306 Y-22.975 Z9.107 A358.7661 
N1280 X195.312 Y-22.271 Z9.102 A358.8001 
N1281 X195.318 Y-21.455 Z9.100 A358.8081 
N1282 X195.325 Y-20.525 Z9.099 
N1283 X195.333 Y-19.484 Z9.098 
N1284 X195.342 Y-18.339 Z9.097 
N1285 X195.352 Y-17.101 Z9.096 
N1286 X195.362 Y-15.787 Z9.095 A358.8079 
N1287 X195.372 Y-14.417 Z9.094 A358.8077 
N1288 X195.383 Y-13.012 Z9.093 A358.8078 
N1289 X195.394 Y-11.598 Z9.092 A358.8078 
N1290 X195.405 Y-10.199 Z9.091 A358.8066 
N1291 X195.416 Y-8.837 Z9.090 A358.8033 
N1292 X195.426 Y-7.534 Z9.089 A358.7959 
N1293 X195.436 Y-6.307 Z9.089 A358.7859 
N1294 X195.444 Y-5.168 Z9.089 A358.7753 
N1295 X195.452 Y-4.126 Z9.087 A358.7891 
N1296 X195.460 Y-3.185 Z9.085 A358.8081 
N1297 X195.466 Y-2.340 Z9.086 
N1298 X195.473 Y-1.583 Z9.120 A358.3998 
N1299 X195.481 Y-0.905 Z9.304 A356.0810 
N1300 X195.494 Y-0.251 Z9.760 A350.1048 
N1301 X195.509 Y0.429 Z10.306 A342.2167 
N1302 X195.522 Y1.129 Z10.764 A334.3912 
N1303 X195.533 Y1.816 Z11.089 A327.3280 
N1304 X195.542 Y2.463 Z11.274 A321.2984 
N1305 X195.547 Y3.050 Z11.337 A316.3539 
N1306 X195.550 Y3.569 Z11.294 A312.4927 
N1307 X195.552 Y4.020 Z11.166 A309.5997 
N1308 X195.551 Y4.413 Z10.974 A307.4977 
N1309 X195.549 Y4.760 Z10.732 A306.0371 
N1310 X195.547 Y5.072 Z10.453 A305.0558 
N1311 X195.544 Y5.361 Z10.150 A304.3884 
N1312 X195.540 Y5.637 Z9.833 A303.8963 
N1313 X195.537 Y5.906 Z9.510 A303.4626 
N1314 X195.533 Y6.175 Z9.189 A302.9747 
N1315 X195.530 Y6.449 Z8.880 A302.3116 
N1316 X195.527 Y6.735 Z8.588 A301.3686 
N1317 X195.524 Y7.034 Z8.318 A300.0691 
N1318 X195.522 Y7.349 Z8.071 A298.3681 
N1319 X195.521 Y7.680 Z7.845 A296.2347 
N1320 X195.520 Y8.029 Z7.640 A293.6455 
N1321 X195.519 Y8.396 Z7.449 A290.6168 
N1322 X195.519 Y8.776 Z7.265 A287.2128 
N1323 X195.518 Y9.163 Z7.080 A283.5238 
N1324 X195.518 Y9.550 Z6.887 A279.6379 
N1325 X195.517 Y9.929 Z6.681 A275.6661 
N1326 X195.516 Y10.290 Z6.458 A271.7134 
N1327 X195.514 Y10.627 Z6.217 A267.8460 
N1328 X195.512 Y10.937 Z5.958 A264.1143 
N1329 X195.509 Y11.215 Z5.684 A260.5519 
N1330 X195.506 Y11.459 Z5.394 A257.1819 
N1331 X195.502 Y11.668 Z5.092 A254.0189 
N1332 X195.498 Y11.841 Z4.779 A251.0714 
N1333 X195.493 Y11.978 Z4.458 A248.3461 
N1334 X195.488 Y12.080 Z4.132 A245.8446 
N1335 X195.483 Y12.148 Z3.803 A243.5590 
N1336 X195.477 Y12.184 Z3.472 A241.4732 
N1337 X195.471 Y12.192 Z3.141 A239.5676 
N1338 X195.465 Y12.175 Z2.811 A237.8113 
N1339 X195.459 Y12.138 Z2.482 A236.1587 
N1340 X195.453 Y12.086 Z2.154 A234.5542 
N1341 X195.446 Y12.025 Z1.826 A232.9413 
N1342 X195.440 Y11.957 Z1.495 A231.2710 
N1343 X195.433 Y11.888 Z1.163 A229.5016 
N1344 X195.427 Y11.817 Z0.827 A227.5975 
N1345 X195.420 Y11.748 Z0.486 A225.5280 
N1346 X195.413 Y11.681 Z0.139 A223.2706 
N1347 X195.406 Y11.614 Z-0.214 A220.8124 
N1348 X195.399 Y11.546 Z-0.576 A218.1413 
N1349 X195.392 Y11.474 Z-0.947 A215.2471 
N1350 X195.385 Y11.395 Z-1.331 A212.1228 
N1351 X195.377 Y11.303 Z-1.728 A208.7632 
N1352 X195.369 Y11.191 Z-2.139 A205.1637 
N1353 X195.360 Y11.054 Z-2.566 A201.3184 
N1354 X195.351 Y10.881 Z-3.006 A197.2352 
N1355 X195.341 Y10.662 Z-3.455 A192.9369 
N1356 X195.331 Y10.388 Z-3.907 A188.4578 
N1357 X195.320 Y10.049 Z-4.344 A183.9321 
N1358 X195.310 Y9.639 Z-4.739 A179.5924 
N1359 X195.300 Y9.160 Z-5.068 A175.6530 
N1360 X195.292 Y8.619 Z-5.304 A172.3773 
N1361 X195.285 Y8.026 Z-5.432 A169.9631 
N1362 X195.279 Y7.387 Z-5.457 A168.4111 
N1363 X195.275 Y6.703 Z-5.400 A167.5354 
N1364 X195.271 Y5.972 Z-5.287 A167.1037 
N1365 X195.267 Y5.191 Z-5.137 A166.9368 
N1366 X195.263 Y4.360 Z-4.963 A166.9123 
N1367 X195.260 Y3.482 Z-4.771 A166.9961 
N1368 X195.256 Y2.561 Z-4.578 A167.0264 
N1369 X195.251 Y1.592 Z-4.378 
N1370 X195.246 Y0.577 Z-4.200 A166.6297 
N1371 X195.240 Y-0.479 Z-4.080 A165.2903 
N1372 X195.233 Y-1.575 Z-4.005 A162.8976 
N1373 X195.225 Y-2.705 Z-3.943 A159.6294 
N1374 X195.217 Y-3.851 Z-3.843 A155.9203 
N1375 X195.211 Y-4.991 Z-3.664 A152.2285 
N1376 X195.207 Y-6.100 Z-3.387 A148.9397 
N1377 X195.205 Y-7.162 Z-3.014 A146.1955 
N1378 X195.205 Y-8.170 Z-2.565 A143.9970 
N1379 X195.206 Y-9.121 Z-2.057 A142.3115 
N1380 X195.209 Y-10.013 Z-1.511 A141.0683 
N1381 X195.212 Y-10.850 Z-0.946 A140.1763 
N1382 X195.215 Y-11.633 Z-0.379 A139.5556 
N1383 X195.219 Y-12.360 Z0.179 A139.1445 
N1384 X195.223 Y-13.033 Z0.715 A138.8984 
N1385 X195.227 Y-13.650 Z1.222 A138.7839 
N1386 X195.231 Y-14.210 Z1.694 A138.7662 
N1387 X195.234 Y-14.715 Z2.124 A138.8000 
N1388 X195.237 Y-15.168 Z2.506 
N1389 X195.240 Y-15.574 Z2.841 A138.7281 
N1390 X195.242 Y-15.944 Z3.114 A138.3642 
N1391 X195.242 Y-16.291 Z3.320 A137.5376 
N1392 X195.242 Y-16.633 Z3.447 A135.9703 
N1393 X195.240 Y-16.995 Z3.489 A133.3927 
N1394 X195.236 Y-17.395 Z3.451 A129.6995 
N1395 X195.230 Y-17.832 Z3.366 A125.1292 
N1396 X195.225 Y-18.278 Z3.272 A120.2319 
N1397 X195.220 Y-18.721 Z3.192 A115.2936 
N1398 X195.216 Y-19.144 Z3.135 A110.5628 
N1399 X195.212 Y-19.532 Z3.103 A106.2024 
N1400 X195.209 Y-19.889 Z3.094 A102.1863 
N1401 X195.206 Y-20.239 Z3.102 A98.2361 
N1402 X195.204 Y-20.541 Z3.125 A94.8070 
N1403 X195.202 Y-20.853 Z3.163 A91.2404 
N1404 X195.201 Y-21.120 Z3.210 A88.1518 
N1405 X195.199 Y-21.399 Z3.272 A84.9006 
N1406 X195.198 Y-21.658 Z3.342 A81.8358 
N1407 X195.198 Y-21.905 Z3.422 A78.8794 
N1408 X195.197 Y-22.155 Z3.517 A75.8182 
N1409 X195.197 Y-22.394 Z3.621 A72.8384 
N1410 X195.197 Y-22.624 Z3.734 A69.9140 
N1411 X195.197 Y-22.852 Z3.860 A66.9240 
N1412 X195.198 Y-23.079 Z4.002 A63.8643 
N1413 X195.199 Y-23.305 Z4.159 A60.7124 
N1414 X195.200 Y-23.524 Z4.330 A57.5270 
N1415 X195.201 Y-23.735 Z4.514 A54.3248 
N1416 X195.204 Y-23.975 Z4.752 A50.4506 
N1417 X195.206 Y-24.200 Z5.008 A46.5506 
N1418 X195.209 Y-24.422 Z5.301 A42.3358 
N1419 X195.214 Y-24.670 Z5.693 A37.0302 
N1420 X195.220 Y-24.903 Z6.158 A31.0792 
N1421 X195.229 Y-25.111 Z6.739 A24.0139 
N1422 X195.240 Y-25.247 Z7.433 A15.9492 
N1423 X195.251 Y-25.245 Z8.060 A8.8873 
N1424 X195.259 Y-25.118 Z8.503 A3.9867 
N1425 X195.265 Y-24.907 Z8.760 A1.1613 
N1426 X195.270 Y-24.629 Z8.892 A359.7060 
N1427 X195.273 Y-24.280 Z8.951 A359.0404 
N1428 X195.277 Y-23.852 Z8.972 A358.7956 
N1429 X195.281 Y-23.333 Z8.974 A358.7506 
N1430 X195.286 Y-22.715 Z8.970 A358.7758 
N1431 X195.291 Y-21.989 Z8.966 A358.7978 
N1432 X195.297 Y-21.151 Z8.965 
N1433 X195.305 Y-20.200 Z8.964 
N1434 X195.313 Y-19.138 Z8.963 
N1435 X195.322 Y-17.975 Z8.962 A358.7975 
N1436 X195.332 Y-16.725 Z8.960 A358.7967 
N1437 X195.342 Y-15.404 Z8.959 A358.7969 
N1438 X195.353 Y-14.033 Z8.957 A358.7972 
N1439 X195.364 Y-12.635 Z8.955 A358.7975 
N1440 X195.374 Y-11.235 Z8.953 A358.7976 
N1441 X195.385 Y-9.857 Z8.952 A358.7968 
N1442 X195.395 Y-8.524 Z8.950 A358.7942 
N1443 X195.405 Y-7.257 Z8.949 A358.7884 
N1444 X195.415 Y-6.071 Z8.948 A358.7793 
N1445 X195.423 Y-4.978 Z8.947 A358.7709 
N1446 X195.431 Y-3.986 Z8.945 A358.7742 
N1447 X195.437 Y-3.096 Z8.942 A358.7978 
N1448 X195.444 Y-2.307 Z8.942 
N1449 X195.449 Y-1.607 Z8.960 A358.5780 
N1450 X195.457 Y-0.990 Z9.121 A356.5861 
N1451 X195.469 Y-0.405 Z9.560 A350.9600 
N1452 X195.484 Y0.205 Z10.124 A343.1312 
N1453 X195.497 Y0.835 Z10.616 A335.3089 
N1454 X195.508 Y1.449 Z10.969 A328.4269 
N1455 X195.516 Y2.019 Z11.193 A322.6171 
N1456 X195.522 Y2.536 Z11.308 A317.8397 
N1457 X195.526 Y2.996 Z11.337 A313.9510 
N1458 X195.529 Y3.406 Z11.298 A310.8074 
N1459 X195.530 Y3.773 Z11.207 A308.2652 
N1460 X195.530 Y4.105 Z11.075 A306.1885 
N1461 X195.529 Y4.410 Z10.912 A304.4664 
N1462 X195.528 Y4.694 Z10.724 A302.9976 
N1463 X195.527 Y4.965 Z10.518 A301.6875 
N1464 X195.525 Y5.228 Z10.301 A300.4523 
N1465 X195.523 Y5.486 Z10.076 A299.2180 
N1466 X195.521 Y5.744 Z9.849 A297.9191 
N1467 X195.518 Y6.005 Z9.622 A296.4942 
N1468 X195.517 Y6.273 Z9.400 A294.8879 
N1469 X195.515 Y6.549 Z9.183 A293.0550 
N1470 X195.513 Y6.835 Z8.972 A290.9659 
N1471 X195.512 Y7.132 Z8.765 A288.6019 
N1472 X195.511 Y7.441 Z8.562 A285.9501 
N1473 X195.509 Y7.761 Z8.358 A283.0146 
N1474 X195.508 Y8.089 Z8.149 A279.8236 
N1475 X195.507 Y8.422 Z7.931 A276.4217 
N1476 X195.505 Y8.754 Z7.699 A272.8623 
N1477 X195.503 Y9.079 Z7.451 A269.2111 
N1478 X195.501 Y9.388 Z7.183 A265.5456 
N1479 X195.498 Y9.676 Z6.896 A261.9312 
N1480 X195.495 Y9.935 Z6.591 A258.4269 
N1481 X195.491 Y10.160 Z6.270 A255.0888 
N1482 X195.486 Y10.349 Z5.936 A251.9561 
N1483 X195.481 Y10.498 Z5.592 A249.0554 
N1484 X195.476 Y10.607 Z5.242 A246.4064 
N1485 X195.470 Y10.677 Z4.890 A244.0196 
N1486 X195.464 Y10.710 Z4.537 A241.8871 
N1487 X195.458 Y10.709 Z4.186 A239.9849 
N1488 X195.451 Y10.679 Z3.838 A238.2821 
N1489 X195.445 Y10.625 Z3.495 A236.7373 
N1490 X195.438 Y10.553 Z3.154 A235.2937 
N1491 X195.431 Y10.469 Z2.816 A233.8806 
N1492 X195.424 Y10.380 Z2.477 A232.4212 
N1493 X195.418 Y10.291 Z2.137 A230.8506 
N1494 X195.411 Y10.206 Z1.794 A229.1194 
N1495 X195.404 Y10.125 Z1.446 A227.1930 
N1496 X195.397 Y10.050 Z1.092 A225.0436 
N1497 X195.390 Y9.981 Z0.731 A222.6484 
N1498 X195.383 Y9.915 Z0.361 A219.9978 
N1499 X195.375 Y9.849 Z-0.020 A217.0893 
N1500 X195.368 Y9.779 Z-0.413 A213.9195 
N1501 X195.360 Y9.700 Z-0.820 A210.4865 
N1502 X195.352 Y9.604 Z-1.242 A206.7913 
N1503 X195.343 Y9.484 Z-1.679 A202.8403 
N1504 X195.334 Y9.330 Z-2.130 A198.6532 
N1505 X195.324 Y9.133 Z-2.589 A194.2717 
N1506 X195.314 Y8.883 Z-3.046 A189.7676 
N1507 X195.304 Y8.570 Z-3.483 A185.2998 
N1508 X195.294 Y8.192 Z-3.877 A181.0742 
N1509 X195.284 Y7.749 Z-4.207 A177.2655 
N1510 X195.276 Y7.249 Z-4.454 A174.0644 
N1511 X195.269 Y6.698 Z-4.606 A171.6257 
N1512 X195.263 Y6.104 Z-4.663 A169.9802 
N1513 X195.258 Y5.469 Z-4.642 A169.0063 
N1514 X195.254 Y4.790 Z-4.561 A168.5249 
N1515 X195.250 Y4.067 Z-4.441 A168.3581 
N1516 X195.246 Y3.297 Z-4.297 A168.3461 
N1517 X195.243 Y2.481 Z-4.145 A168.3246 
N1518 X195.238 Y1.618 Z-4.000 A168.1105 
N1519 X195.233 Y0.711 Z-3.876 A167.4892 
N1520 X195.227 Y-0.242 Z-3.787 A166.1883 
N1521 X195.220 Y-1.241 Z-3.738 A163.9715 
N1522 X195.212 Y-2.285 Z-3.709 A160.8603 
N1523 X195.204 Y-3.360 Z-3.650 A157.2626 
N1524 X195.198 Y-4.443 Z-3.517 A153.6685 
N1525 X195.193 Y-5.512 Z-3.291 A150.3762 
N1526 X195.191 Y-6.552 Z-2.971 A147.5472 
N1527 X195.190 Y-7.548 Z-2.569 A145.2514 
N1528 X195.190 Y-8.497 Z-2.100 A143.4654 
N1529 X195.192 Y-9.396 Z-1.585 A142.1244 
N1530 X195.195 Y-10.245 Z-1.042 A141.1576 
N1531 X195.198 Y-11.043 Z-0.487 A140.4892 
N1532 X195.202 Y-11.790 Z0.064 A140.0493 
N1533 X195.206 Y-12.485 Z0.598 A139.7799 
N1534 X195.209 Y-13.127 Z1.107 A139.6391 
N1535 X195.213 Y-13.714 Z1.583 A139.5970 
N1536 X195.216 Y-14.245 Z2.020 A139.6279 
N1537 X195.219 Y-14.720 Z2.415 A139.6948 
N1538 X195.222 Y-15.146 Z2.760 
N1539 X195.224 Y-15.527 Z3.069 A139.6885 
N1540 X195.225 Y-15.881 Z3.302 A139.1829 
N1541 X195.225 Y-16.220 Z3.463 A138.0705 
N1542 X195.224 Y-16.561 Z3.543 A136.1336 
N1543 X195.221 Y-16.921 Z3.546 A133.2630 
N1544 X195.216 Y-17.316 Z3.480 A129.3811 
N1545 X195.211 Y-17.754 Z3.368 A124.5879 
N1546 X195.205 Y-18.223 Z3.245 A119.2644 
N1547 X195.199 Y-18.681 Z3.147 A114.0464 
N1548 X195.195 Y-19.100 Z3.086 A109.3000 
N1549 X195.191 Y-19.487 Z3.054 A104.9353 
N1550 X195.188 Y-19.826 Z3.045 A101.0959 
N1551 X195.186 Y-20.166 Z3.054 A97.2498 
N1552 X195.184 Y-20.454 Z3.076 A93.9726 
N1553 X195.182 Y-20.757 Z3.114 A90.4878 
N1554 X195.180 Y-21.014 Z3.160 A87.5249 
N1555 X195.179 Y-21.275 Z3.218 A84.4713 
N1556 X195.178 Y-21.540 Z3.291 A81.3305 
N1557 X195.178 Y-21.773 Z3.366 A78.5312 
N1558 X195.177 Y-22.010 Z3.455 A75.6351 
N1559 X195.177 Y-22.250 Z3.558 A72.6445 
N1560 X195.177 Y-22.474 Z3.668 A69.7911 
N1561 X195.177 Y-22.692 Z3.787 A66.9456 
N1562 X195.178 Y-22.909 Z3.919 A64.0371 
N1563 X195.178 Y-23.123 Z4.064 A61.0742 
N1564 X195.179 Y-23.325 Z4.217 A58.1638 
N1565 X195.180 Y-23.522 Z4.382 A55.2192 
N1566 X195.182 Y-23.712 Z4.557 A52.2516 
N1567 X195.184 Y-23.895 Z4.745 A49.2412 
N1568 X195.186 Y-24.078 Z4.955 A46.0518 
N1569 X195.188 Y-24.248 Z5.173 A42.8821 
N1570 X195.191 Y-24.404 Z5.397 A39.7529 
N1571 X195.194 Y-24.561 Z5.657 A36.2765 
N1572 X195.198 Y-24.710 Z5.943 A32.5796 
N1573 X195.201 Y-24.834 Z6.228 A29.0169 
N1574 X195.206 Y-24.955 Z6.570 A24.8668 
N1575 X195.212 Y-25.049 Z6.932 A20.5920 
N1576 X195.218 Y-25.117 Z7.334 A15.9455 
N1577 X195.225 Y-25.143 Z7.748 A11.2302 
N1578 X195.233 Y-25.119 Z8.177 A6.3896 
N1579 X195.240 Y-25.040 Z8.567 A1.9745 
N1580 X195.247 Y-24.910 Z8.907 A358.0614 
N1581 X195.253 Y-24.736 Z9.186 A354.7410 
N1582 X195.258 Y-24.520 Z9.405 A351.9848 
N1583 X195.263 Y-24.269 Z9.557 A349.8523 
N1584 X195.266 Y-23.987 Z9.641 A348.3646 
N1585 X195.269 Y-23.675 Z9.662 A347.5202 
N1586 X195.271 Y-23.329 Z9.624 A347.3019 
N1587 X195.272 Y-22.942 Z9.538 A347.6486 
N1588 X195.274 Y-22.498 Z9.418 A348.4780 
N1589 X195.276 Y-21.981 Z9.327 A349.1854 
N1590 X195.281 Y-21.363 Z9.323 
N1591 X195.287 Y-20.592 Z9.337 
N1592 X195.294 Y-19.676 Z9.359 
N1593 X195.303 Y-18.646 Z9.381 A349.1111 
N1594 X195.312 Y-17.551 Z9.427 A348.6057 
N1595 X195.321 Y-16.398 Z9.438 A348.2920 
N1596 X195.330 Y-15.210 Z9.413 A348.2561 
N1597 X195.339 Y-14.002 Z9.359 A348.5305 
N1598 X195.347 Y-12.787 Z9.305 A348.8922 
N1599 X195.356 Y-11.578 Z9.278 A349.0937 
N1600 X195.365 Y-10.389 Z9.281 A349.0706 
N1601 X195.375 Y-9.239 Z9.303 A348.9252 
N1602 X195.383 Y-8.146 Z9.328 A348.8175 
N1603 X195.392 Y-7.123 Z9.351 A348.8364 
N1604 X195.400 Y-6.182 Z9.375 A348.9500 
N1605 X195.407 Y-5.326 Z9.402 A349.1405 
N1606 X195.413 Y-4.560 Z9.451 A349.1854 
N1607 X195.420 Y-3.869 Z9.509 
N1608 X195.426 Y-3.230 Z9.567 
N1609 X195.431 Y-2.621 Z9.619 
N1610 X195.437 Y-2.011 Z9.656 
N1611 X195.442 Y-1.392 Z9.695 A348.8328 
N1612 X195.450 Y-0.833 Z9.890 A346.3181 
N1613 X195.458 Y-0.307 Z10.114 A342.9361 
N1614 X195.465 Y0.173 Z10.354 A338.9401 
N1615 X195.473 Y0.614 Z10.577 A334.8092 
N1616 X195.479 Y1.024 Z10.785 A330.6362 
N1617 X195.485 Y1.407 Z10.964 A326.6373 
N1618 X195.491 Y1.765 Z11.105 A322.9601 
N1619 X195.495 Y2.106 Z11.210 A319.5945 
N1620 X195.499 Y2.432 Z11.281 A316.4966 
N1621 X195.502 Y2.747 Z11.321 A313.6297 
N1622 X195.504 Y3.052 Z11.334 A310.9570 
N1623 X195.506 Y3.349 Z11.322 A308.4438 
N1624 X195.508 Y3.639 Z11.288 A306.0571 
N1625 X195.509 Y3.923 Z11.233 A303.7710 
N1626 X195.510 Y4.201 Z11.159 A301.5597 
N1627 X195.510 Y4.476 Z11.069 A299.3956 
N1628 X195.510 Y4.747 Z10.963 A297.2559 
N1629 X195.510 Y5.017 Z10.843 A295.1181 
N1630 X195.510 Y5.284 Z10.711 A292.9594 
N1631 X195.509 Y5.552 Z10.567 A290.7590 
N1632 X195.509 Y5.819 Z10.411 A288.4998 
N1633 X195.508 Y6.087 Z10.244 A286.1663 
N1634 X195.506 Y6.356 Z10.065 A283.7433 
N1635 X195.505 Y6.626 Z9.875 A281.2211 
N1636 X195.504 Y6.896 Z9.671 A278.5949 
N1637 X195.502 Y7.166 Z9.454 A275.8629 
N1638 X195.500 Y7.435 Z9.220 A273.0275 
N1639 X195.497 Y7.699 Z8.969 A270.1000 
N1640 X195.494 Y7.957 Z8.700 A267.1006 
N1641 X195.491 Y8.203 Z8.412 A264.0556 
N1642 X195.487 Y8.434 Z8.104 A260.9956 
N1643 X195.483 Y8.645 Z7.777 A257.9612 
N1644 X195.478 Y8.831 Z7.432 A254.9967 
N1645 X195.473 Y8.988 Z7.073 A252.1414 
N1646 X195.468 Y9.113 Z6.702 A249.4310 
N1647 X195.462 Y9.202 Z6.322 A246.8981 
N1648 X195.455 Y9.257 Z5.939 A244.5687 
N1649 X195.448 Y9.276 Z5.555 A242.4528 
N1650 X195.441 Y9.263 Z5.172 A240.5421 
N1651 X195.434 Y9.221 Z4.794 A238.8169 
N1652 X195.427 Y9.156 Z4.421 A237.2450 
N1653 X195.420 Y9.073 Z4.054 A235.7761 
N1654 X195.413 Y8.978 Z3.691 A234.3412 
N1655 X195.405 Y8.879 Z3.331 A232.8571 
N1656 X195.398 Y8.782 Z2.970 A231.2493 
N1657 X195.391 Y8.689 Z2.606 A229.4606 
N1658 X195.384 Y8.604 Z2.239 A227.4536 
N1659 X195.376 Y8.525 Z1.867 A225.2032 
N1660 X195.369 Y8.453 Z1.487 A222.6908 
N1661 X195.362 Y8.383 Z1.099 A219.9122 
N1662 X195.354 Y8.313 Z0.702 A216.8773 
N1663 X195.346 Y8.236 Z0.294 A213.5976 
N1664 X195.338 Y8.148 Z-0.125 A210.0851 
N1665 X195.329 Y8.040 Z-0.554 A206.3576 
N1666 X195.321 Y7.907 Z-0.992 A202.4450 
N1667 X195.311 Y7.739 Z-1.435 A198.3870 
N1668 X195.302 Y7.528 Z-1.874 A194.2526 
N1669 X195.292 Y7.268 Z-2.300 A190.1455 
N1670 X195.283 Y6.955 Z-2.698 A186.1722 
N1671 X195.273 Y6.586 Z-3.054 A182.4649 
N1672 X195.265 Y6.164 Z-3.352 A179.1617 
N1673 X195.257 Y5.692 Z-3.584 A176.3604 
N1674 X195.250 Y5.176 Z-3.745 A174.1028 
N1675 X195.243 Y4.619 Z-3.836 A172.3987 
N1676 X195.238 Y4.024 Z-3.863 A171.2290 
N1677 X195.234 Y3.391 Z-3.837 A170.4893 
N1678 X195.229 Y2.719 Z-3.776 A169.9935 
N1679 X195.225 Y2.006 Z-3.703 A169.5061 
N1680 X195.220 Y1.248 Z-3.633 A168.8086 
N1681 X195.214 Y0.446 Z-3.579 A167.7025 
N1682 X195.208 Y-0.404 Z-3.546 A166.0140 
N1683 X195.201 Y-1.300 Z-3.530 A163.6643 
N1684 X195.194 Y-2.241 Z-3.509 A160.7488 
N1685 X195.187 Y-3.217 Z-3.455 A157.5095 
N1686 X195.181 Y-4.214 Z-3.338 A154.2193 
N1687 X195.177 Y-5.213 Z-3.142 A151.1225 
N1688 X195.174 Y-6.198 Z-2.859 A148.4052 
N1689 X195.172 Y-7.155 Z-2.495 A146.1525 
N1690 X195.172 Y-8.078 Z-2.063 A144.3672 
N1691 X195.174 Y-8.962 Z-1.580 A143.0150 
N1692 X195.176 Y-9.803 Z-1.062 A142.0435 
N1693 X195.179 Y-10.601 Z-0.526 A141.3843 
N1694 X195.182 Y-11.353 Z0.012 A140.9664 
N1695 X195.186 Y-12.058 Z0.539 A140.7261 
N1696 X195.190 Y-12.713 Z1.044 A140.6159 
N1697 X195.193 Y-13.316 Z1.518 A140.5974 
N1698 X195.196 Y-13.866 Z1.956 A140.6402 
N1699 X195.199 Y-14.362 Z2.351 A140.6971 
N1700 X195.201 Y-14.808 Z2.699 
N1701 X195.204 Y-15.208 Z3.011 
N1702 X195.205 Y-15.574 Z3.260 A140.3423 
N1703 X195.205 Y-15.918 Z3.439 A139.4548 
N1704 X195.204 Y-16.255 Z3.541 A137.8444 
N1705 X195.202 Y-16.604 Z3.563 A135.3192 
N1706 X195.198 Y-16.985 Z3.508 A131.7404 
N1707 X195.192 Y-17.408 Z3.397 A127.1885 
N1708 X195.186 Y-17.866 Z3.265 A121.9911 
N1709 X195.180 Y-18.323 Z3.150 A116.7587 
N1710 X195.176 Y-18.751 Z3.069 A111.8776 
N1711 X195.171 Y-19.158 Z3.017 A107.2599 
N1712 X195.168 Y-19.517 Z2.991 A103.1939 
N1713 X195.165 Y-19.866 Z2.987 A99.2387 
N1714 X195.163 Y-20.175 Z3.000 A95.7254 
N1715 X195.160 Y-20.481 Z3.028 A92.2192 
N1716 X195.159 Y-20.747 Z3.067 A89.1546 
N1717 X195.158 Y-21.022 Z3.120 A85.9621 
N1718 X195.156 Y-21.279 Z3.183 A82.9405 
N1719 X195.156 Y-21.519 Z3.254 A80.0794 
N1720 X195.155 Y-21.763 Z3.339 A77.1278 
N1721 X195.155 Y-22.003 Z3.435 A74.1760 
N1722 X195.155 Y-22.224 Z3.536 A71.3932 
N1723 X195.155 Y-22.445 Z3.649 A68.5482 
N1724 X195.155 Y-22.664 Z3.776 A65.6470 
N1725 X195.156 Y-22.874 Z3.910 A62.7869 
N1726 X195.157 Y-23.076 Z4.054 A59.9468 
N1727 X195.158 Y-23.273 Z4.209 A57.0748 
N1728 X195.159 Y-23.464 Z4.375 A54.1793 
N1729 X195.160 Y-23.648 Z4.552 A51.2501 
N1730 X195.162 Y-23.823 Z4.739 A48.3100 
N1731 X195.164 Y-23.988 Z4.935 A45.3778 
N1732 X195.166 Y-24.142 Z5.137 A42.4644 
N1733 X195.169 Y-24.294 Z5.362 A39.3490 
N1734 X195.172 Y-24.432 Z5.593 A36.2645 
N1735 X195.175 Y-24.555 Z5.826 A33.2449 
N1736 X195.178 Y-24.669 Z6.078 A30.0829 
N1737 X195.182 Y-24.774 Z6.352 A26.7217 
N1738 X195.186 Y-24.858 Z6.621 A23.5068 
N1739 X195.190 Y-24.928 Z6.909 A20.1215 
N1740 X195.195 Y-24.979 Z7.217 A16.5539 
N1741 X195.200 Y-25.007 Z7.511 A13.1977 
N1742 X195.206 Y-25.012 Z7.842 A9.4417 
N1743 X195.211 Y-24.990 Z8.152 A5.9427 
N1744 X195.217 Y-24.938 Z8.473 A2.2895 
N1745 X195.223 Y-24.855 Z8.784 A358.7148 
N1746 X195.229 Y-24.742 Z9.079 A355.2591 
N1747 X195.235 Y-24.597 Z9.356 A351.9165 
N1748 X195.240 Y-24.419 Z9.606 A348.7449 
N1749 X195.246 Y-24.214 Z9.820 A345.8326 
N1750 X195.250 Y-23.985 Z9.994 A343.2282 
N1751 X195.254 Y-23.735 Z10.122 A340.9720 
N1752 X195.258 Y-23.472 Z10.204 A339.1086 
N1753 X195.260 Y-23.201 Z10.239 A337.6850 
N1754 X195.262 Y-22.929 Z10.224 A336.7898 
N1755 X195.263 Y-22.661 Z10.157 A336.5097 
N1756 X195.263 Y-22.390 Z10.040 A336.8560 
N1757 X195.262 Y-22.106 Z9.896 A337.6104 
N1758 X195.262 Y-21.782 Z9.735 A338.6624 
N1759 X195.264 Y-21.397 Z9.659 A338.9927 
N1760 X195.267 Y-20.898 Z9.632 
N1761 X195.272 Y-20.253 Z9.620 
N1762 X195.278 Y-19.469 Z9.614 
N1763 X195.285 Y-18.579 Z9.628 A338.7065 
N1764 X195.293 Y-17.628 Z9.690 A337.7297 
N1765 X195.301 Y-16.646 Z9.701 A337.1032 
N1766 X195.308 Y-15.661 Z9.648 A337.1082 
N1767 X195.314 Y-14.681 Z9.552 A337.7114 
N1768 X195.320 Y-13.696 Z9.468 A338.4791 
N1769 X195.327 Y-12.700 Z9.442 A338.9927 
N1770 X195.336 Y-11.694 Z9.497 
N1771 X195.345 Y-10.673 Z9.574 
N1772 X195.354 Y-9.652 Z9.661 
N1773 X195.364 Y-8.670 Z9.788 A338.6096 
N1774 X195.373 Y-7.745 Z9.892 A338.4557 
N1775 X195.381 Y-6.895 Z9.972 A338.5560 
N1776 X195.388 Y-6.120 Z10.037 A338.8524 
N1777 X195.395 Y-5.417 Z10.121 A338.9927 
N1778 X195.402 Y-4.774 Z10.222 
N1779 X195.408 Y-4.171 Z10.321 
N1780 X195.414 Y-3.585 Z10.413 
N1781 X195.420 Y-3.001 Z10.491 
N1782 X195.426 Y-2.416 Z10.543 
N1783 X195.430 Y-1.835 Z10.559 
N1784 X195.435 Y-1.275 Z10.558 A338.7407 
N1785 X195.439 Y-0.762 Z10.577 A337.8700 
N1786 X195.443 Y-0.298 Z10.586 A336.7559 
N1787 X195.446 Y0.112 Z10.605 A335.3118 
N1788 X195.450 Y0.478 Z10.649 A333.4412 
N1789 X195.453 Y0.812 Z10.728 A331.0819 
N1790 X195.458 Y1.121 Z10.833 A328.3547 
N1791 X195.462 Y1.416 Z10.951 A325.4247 
N1792 X195.466 Y1.701 Z11.069 A322.4289 
N1793 X195.470 Y1.982 Z11.179 A319.4267 
N1794 X195.474 Y2.262 Z11.276 A316.4485 
N1795 X195.477 Y2.542 Z11.357 A313.5244 
N1796 X195.480 Y2.823 Z11.420 A310.6573 
N1797 X195.483 Y3.104 Z11.465 A307.8340 
N1798 X195.486 Y3.385 Z11.494 A305.0478 
N1799 X195.488 Y3.667 Z11.505 A302.2929 
N1800 X195.490 Y3.950 Z11.498 A299.5618 
N1801 X195.492 Y4.232 Z11.474 A296.8490 
N1802 X195.493 Y4.513 Z11.431 A294.1557 
N1803 X195.494 Y4.794 Z11.371 A291.4709 
N1804 X195.495 Y5.072 Z11.291 A288.8005 
N1805 X195.495 Y5.348 Z11.193 A286.1303 
N1806 X195.495 Y5.621 Z11.075 A283.4655 
N1807 X195.495 Y5.889 Z10.937 A280.7973 
N1808 X195.494 Y6.154 Z10.779 A278.1250 
N1809 X195.493 Y6.411 Z10.600 A275.4513 
N1810 X195.491 Y6.662 Z10.400 A272.7721 
N1811 X195.489 Y6.903 Z10.177 A270.0907 
N1812 X195.486 Y7.134 Z9.932 A267.4116 
N1813 X195.483 Y7.351 Z9.665 A264.7406 
N1814 X195.480 Y7.553 Z9.376 A262.0850 
N1815 X195.475 Y7.738 Z9.066 A259.4544 
N1816 X195.471 Y7.903 Z8.735 A256.8643 
N1817 X195.466 Y8.044 Z8.385 A254.3311 
N1818 X195.460 Y8.161 Z8.018 A251.8714 
N1819 X195.454 Y8.250 Z7.637 A249.5036 
N1820 X195.447 Y8.311 Z7.246 A247.2476 
N1821 X195.440 Y8.343 Z6.846 A245.1212 
N1822 X195.433 Y8.345 Z6.443 A243.1321 
N1823 X195.426 Y8.320 Z6.038 A241.2769 
N1824 X195.418 Y8.271 Z5.634 A239.5445 
N1825 X195.411 Y8.200 Z5.234 A237.9129 
N1826 X195.403 Y8.113 Z4.838 A236.3436 
N1827 X195.395 Y8.016 Z4.445 A234.7822 
N1828 X195.387 Y7.914 Z4.055 A233.1639 
N1829 X195.379 Y7.811 Z3.666 A231.4295 
N1830 X195.372 Y7.711 Z3.277 A229.5307 
N1831 X195.364 Y7.616 Z2.886 A227.4318 
N1832 X195.356 Y7.525 Z2.492 A225.1062 
N1833 X195.348 Y7.439 Z2.092 A222.5377 
N1834 X195.340 Y7.353 Z1.687 A219.7278 
N1835 X195.332 Y7.264 Z1.276 A216.6931 
N1836 X195.324 Y7.166 Z0.858 A213.4560 
N1837 X195.316 Y7.055 Z0.436 A210.0428 
N1838 X195.307 Y6.924 Z0.010 A206.4881 
N1839 X195.298 Y6.768 Z-0.415 A202.8374 
N1840 X195.289 Y6.580 Z-0.836 A199.1372 
N1841 X195.280 Y6.355 Z-1.246 A195.4434 
N1842 X195.271 Y6.090 Z-1.638 A191.8282 
N1843 X195.262 Y5.782 Z-2.004 A188.3610 
N1844 X195.253 Y5.430 Z-2.335 A185.1068 
N1845 X195.245 Y5.034 Z-2.625 A182.1273 
N1846 X195.237 Y4.596 Z-2.869 A179.4699 
N1847 X195.230 Y4.119 Z-3.063 A177.1505 
N1848 X195.223 Y3.603 Z-3.210 A175.1541 
N1849 X195.217 Y3.050 Z-3.312 A173.4473 
N1850 X195.211 Y2.461 Z-3.376 A171.9661 
N1851 X195.205 Y1.834 Z-3.409 A170.6075 
N1852 X195.200 Y1.168 Z-3.423 A169.2365 
N1853 X195.194 Y0.461 Z-3.425 A167.7177 
N1854 X195.188 Y-0.289 Z-3.421 A165.9367 
N1855 X195.182 Y-1.085 Z-3.411 A163.8102 
N1856 X195.175 Y-1.926 Z-3.388 A161.3145 
N1857 X195.169 Y-2.808 Z-3.339 A158.5158 
N1858 X195.163 Y-3.724 Z-3.244 A155.5696 
N1859 X195.159 Y-4.659 Z-3.086 A152.6739 
N1860 X195.155 Y-5.599 Z-2.852 A150.0129 
N1861 X195.153 Y-6.531 Z-2.541 A147.7096 
N1862 X195.153 Y-7.442 Z-2.160 A145.8088 
N1863 X195.153 Y-8.326 Z-1.721 A144.3013 
N1864 X195.155 Y-9.178 Z-1.239 A143.1615 
N1865 X195.157 Y-9.991 Z-0.728 A142.3664 
N1866 X195.160 Y-10.763 Z-0.201 A141.8788 
N1867 X195.163 Y-11.489 Z0.324 A141.6327 
N1868 X195.167 Y-12.171 Z0.835 A141.5419 
N1869 X195.170 Y-12.805 Z1.319 A141.5301 
N1870 X195.173 Y-13.389 Z1.767 A141.5460 
N1871 X195.176 Y-13.922 Z2.176 A141.5808 
N1872 X195.179 Y-14.401 Z2.541 A141.5909 
N1873 X195.181 Y-14.828 Z2.865 
N1874 X195.183 Y-15.211 Z3.149 A141.5290 
N1875 X195.183 Y-15.566 Z3.359 A140.9616 
N1876 X195.183 Y-15.911 Z3.492 A139.6753 
N1877 X195.181 Y-16.266 Z3.534 A137.4008 
N1878 X195.177 Y-16.644 Z3.498 A134.1124 
N1879 X195.172 Y-17.049 Z3.407 A129.9692 
N1880 X195.167 Y-17.474 Z3.289 A125.2831 
N1881 X195.161 Y-17.916 Z3.169 A120.2546 
N1882 X195.155 Y-18.358 Z3.065 A115.1905 
N1883 X195.151 Y-18.783 Z2.989 A110.3468 
N1884 X195.147 Y-19.167 Z2.945 A105.9758 
N1885 X195.143 Y-19.533 Z2.924 A101.8233 
N1886 X195.140 Y-19.864 Z2.925 A98.0644 
N1887 X195.138 Y-20.179 Z2.943 A94.4782 
N1888 X195.136 Y-20.462 Z2.974 A91.2398 
N1889 X195.135 Y-20.753 Z3.021 A87.8702 
N1890 X195.134 Y-21.005 Z3.074 A84.9356 
N1891 X195.133 Y-21.257 Z3.141 A81.9584 
N1892 X195.132 Y-21.512 Z3.221 A78.9023 
N1893 X195.131 Y-21.744 Z3.307 A76.0801 
N1894 X195.131 Y-21.972 Z3.404 A73.2441 
N1895 X195.131 Y-22.199 Z3.513 A70.3582 
N1896 X195.131 Y-22.418 Z3.632 A67.5047 
N1897 X195.132 Y-22.627 Z3.759 A64.7122 
N1898 X195.132 Y-22.831 Z3.896 A61.8906 
N1899 X195.133 Y-23.031 Z4.045 A59.0459 
N1900 X195.134 Y-23.221 Z4.202 A56.2134 
N1901 X195.136 Y-23.404 Z4.369 A53.3784 
N1902 X195.137 Y-23.579 Z4.545 A50.5406 
N1903 X195.139 Y-23.745 Z4.729 A47.6985 
N1904 X195.141 Y-23.906 Z4.927 A44.7824 
N1905 X195.144 Y-24.055 Z5.131 A41.8878 
N1906 X195.146 Y-24.192 Z5.340 A39.0243 
N1907 X195.149 Y-24.322 Z5.564 A36.0670 
N1908 X195.152 Y-24.442 Z5.799 A33.0408 
N1909 X195.155 Y-24.547 Z6.036 A30.0828 
N1910 X195.158 Y-24.639 Z6.280 A27.1004 
N1911 X195.162 Y-24.722 Z6.547 A23.8996 
N1912 X195.166 Y-24.787 Z6.809 A20.8265 
N1913 X195.170 Y-24.837 Z7.083 A17.6533 
N1914 X195.175 Y-24.870 Z7.374 A14.3137 
N1915 X195.180 Y-24.883 Z7.652 A11.1564 
N1916 X195.185 Y-24.874 Z7.964 A7.6256 
N1917 X195.190 Y-24.844 Z8.257 A4.3044 
N1918 X195.196 Y-24.786 Z8.568 A0.7489 
N1919 X195.202 Y-24.701 Z8.872 A357.2400 
N1920 X195.208 Y-24.588 Z9.166 A353.7635 
N1921 X195.214 Y-24.444 Z9.450 A350.3011 
N1922 X195.220 Y-24.269 Z9.714 A346.9316 
N1923 X195.225 Y-24.067 Z9.949 A343.7279 
N1924 X195.231 Y-23.836 Z10.152 A340.7141 
N1925 X195.235 Y-23.585 Z10.312 A337.9903 
N1926 X195.239 Y-23.315 Z10.426 A335.5848 
N1927 X195.243 Y-23.034 Z10.492 A333.5566 
N1928 X195.245 Y-22.747 Z10.509 A331.9363 
N1929 X195.247 Y-22.460 Z10.480 A330.7536 
N1930 X195.247 Y-22.178 Z10.405 A330.0703 
N1931 X195.247 Y-21.904 Z10.285 A329.9416 
N1932 X195.247 Y-21.632 Z10.124 A330.3317 
N1933 X195.245 Y-21.348 Z9.934 A331.1400 
N1934 X195.244 Y-21.033 Z9.726 A332.2095 
N1935 X195.243 Y-20.663 Z9.525 A333.2894 
N1936 X195.244 Y-20.213 Z9.365 A334.0209 
N1937 X195.246 Y-19.666 Z9.274 A334.1090 
N1938 X195.251 Y-19.023 Z9.249 A333.5518 
N1939 X195.257 Y-18.300 Z9.263 A332.5743 
N1940 X195.263 Y-17.521 Z9.285 A331.4772 
N1941 X195.269 Y-16.712 Z9.288 A330.5735 
N1942 X195.275 Y-15.903 Z9.244 A330.2291 
N1943 X195.279 Y-15.111 Z9.146 A330.6601 
N1944 X195.283 Y-14.333 Z9.015 A331.7629 
N1945 X195.287 Y-13.549 Z8.894 A333.1920 
N1946 X195.292 Y-12.743 Z8.818 A334.6096 
N1947 X195.298 Y-11.911 Z8.811 A335.7760 
N1948 X195.306 Y-11.056 Z8.872 A336.6059 
N1949 X195.314 Y-10.192 Z8.985 A337.1635 
N1950 X195.324 Y-9.335 Z9.126 A337.5686 
N1951 X195.333 Y-8.503 Z9.278 A337.9033 
N1952 X195.342 Y-7.706 Z9.432 A338.1959 
N1953 X195.350 Y-6.954 Z9.584 A338.4419 
N1954 X195.358 Y-6.253 Z9.735 A338.6137 
N1955 X195.366 Y-5.601 Z9.888 A338.6655 
N1956 X195.373 Y-4.996 Z10.049 A338.5124 
N1957 X195.381 Y-4.428 Z10.225 A338.0838 
N1958 X195.388 Y-3.888 Z10.412 A337.3789 
N1959 X195.395 Y-3.367 Z10.596 A336.4937 
N1960 X195.402 Y-2.859 Z10.768 A335.4999 
N1961 X195.409 Y-2.359 Z10.918 A334.4372 
N1962 X195.414 Y-1.869 Z11.029 A333.4212 
N1963 X195.419 Y-1.401 Z11.085 A332.6220 
N1964 X195.422 Y-0.964 Z11.091 A332.0159 
N1965 X195.425 Y-0.562 Z11.057 A331.5511 
N1966 X195.426 Y-0.199 Z11.005 A331.0710 
N1967 X195.428 Y0.134 Z10.964 A330.3105 
N1968 X195.430 Y0.436 Z10.948 A329.1816 
N1969 X195.433 Y0.715 Z10.967 A327.6040 
N1970 X195.435 Y0.976 Z11.023 A325.5778 
N1971 X195.439 Y1.228 Z11.112 A323.1422 
N1972 X195.443 Y1.478 Z11.223 A320.3951 
N1973 X195.447 Y1.730 Z11.344 A317.4605 
N1974 X195.451 Y1.986 Z11.463 A314.4345 
N1975 X195.454 Y2.248 Z11.573 A311.3689 
N1976 X195.458 Y2.515 Z11.669 A308.3048 
N1977 X195.462 Y2.786 Z11.750 A305.2566 
N1978 X195.465 Y3.061 Z11.813 A302.2178 
N1979 X195.468 Y3.341 Z11.860 A299.1823 
N1980 X195.470 Y3.624 Z11.888 A296.1516 
N1981 X195.472 Y3.910 Z11.897 A293.1252 
N1982 X195.474 Y4.198 Z11.886 A290.1038 
N1983 X195.476 Y4.486 Z11.853 A287.0908 
N1984 X195.477 Y4.773 Z11.798 A284.0896 
N1985 X195.478 Y5.058 Z11.719 A281.0970 
N1986 X195.478 Y5.337 Z11.615 A278.1416 
N1987 X195.478 Y5.610 Z11.486 A275.2168 
N1988 X195.477 Y5.873 Z11.329 A272.3325 
N1989 X195.476 Y6.123 Z11.147 A269.5180 
N1990 X195.474 Y6.357 Z10.937 A266.7755 
N1991 X195.471 Y6.571 Z10.702 A264.1251 
N1992 X195.468 Y6.764 Z10.440 A261.5836 
N1993 X195.464 Y6.932 Z10.155 A259.1655 
N1994 X195.460 Y7.074 Z9.848 A256.8786 
N1995 X195.455 Y7.188 Z9.520 A254.7233 
N1996 X195.449 Y7.275 Z9.173 A252.6945 
N1997 X195.443 Y7.335 Z8.810 A250.7810 
N1998 X195.437 Y7.371 Z8.432 A248.9611 
N1999 X195.430 Y7.383 Z8.040 A247.2050 
N2000 X195.423 Y7.377 Z7.637 A245.4776 
N2001 X195.415 Y7.354 Z7.224 A243.7497 
N2002 X195.407 Y7.315 Z6.804 A242.0058 
N2003 X195.399 Y7.262 Z6.378 A240.2433 
N2004 X195.391 Y7.196 Z5.949 A238.4647 
N2005 X195.383 Y7.116 Z5.521 A236.6619 
N2006 X195.374 Y7.027 Z5.094 A234.8148 
N2007 X195.366 Y6.931 Z4.669 A232.8944 
N2008 X195.358 Y6.831 Z4.246 A230.8705 
N2009 X195.349 Y6.728 Z3.825 A228.7165 
N2010 X195.341 Y6.623 Z3.405 A226.4119 
N2011 X195.333 Y6.516 Z2.986 A223.9441 
N2012 X195.324 Y6.406 Z2.566 A221.3122 
N2013 X195.316 Y6.290 Z2.147 A218.5295 
N2014 X195.308 Y6.166 Z1.731 A215.6217 
N2015 X195.299 Y6.029 Z1.317 A212.6171 
N2016 X195.291 Y5.877 Z0.908 A209.5418 
N2017 X195.282 Y5.707 Z0.505 A206.4183 
N2018 X195.273 Y5.516 Z0.110 A203.2700 
N2019 X195.265 Y5.301 Z-0.275 A200.1204 
N2020 X195.256 Y5.060 Z-0.648 A196.9889 
N2021 X195.248 Y4.791 Z-1.006 A193.8955 
N2022 X195.239 Y4.492 Z-1.347 A190.8609 
N2023 X195.231 Y4.162 Z-1.667 A187.9028 
N2024 X195.223 Y3.800 Z-1.964 A185.0365 
N2025 X195.215 Y3.404 Z-2.236 A182.2755 
N2026 X195.207 Y2.974 Z-2.479 A179.6300 
N2027 X195.199 Y2.510 Z-2.692 A177.1021 
N2028 X195.192 Y2.011 Z-2.874 A174.6844 
N2029 X195.185 Y1.476 Z-3.025 A172.3620 
N2030 X195.178 Y0.904 Z-3.143 A170.1081 
N2031 X195.172 Y0.294 Z-3.231 A167.8813 
N2032 X195.166 Y-0.357 Z-3.289 A165.6320 
N2033 X195.160 Y-1.049 Z-3.316 A163.3173 
N2034 X195.154 Y-1.783 Z-3.310 A160.9122 
N2035 X195.148 Y-2.558 Z-3.267 A158.4190 
N2036 X195.143 Y-3.371 Z-3.177 A155.8840 
N2037 X195.139 Y-4.213 Z-3.032 A153.3925 
N2038 X195.136 Y-5.076 Z-2.823 A151.0417 
N2039 X195.134 Y-5.949 Z-2.549 A148.9111 
N2040 X195.132 Y-6.822 Z-2.211 A147.0514 
N2041 X195.132 Y-7.686 Z-1.816 A145.4847 
N2042 X195.133 Y-8.534 Z-1.373 A144.2134 
N2043 X195.135 Y-9.358 Z-0.894 A143.2246 
N2044 X195.138 Y-10.153 Z-0.393 A142.4853 
N2045 X195.140 Y-10.913 Z0.117 A141.9482 
N2046 X195.143 Y-11.633 Z0.624 A141.5634 
N2047 X195.147 Y-12.310 Z1.115 A141.2949 
N2048 X195.150 Y-12.938 Z1.583 A141.1225 
N2049 X195.153 Y-13.513 Z2.021 A141.0323 
N2050 X195.155 Y-14.034 Z2.423 A140.9819 
N2051 X195.158 Y-14.504 Z2.779 A140.8713 
N2052 X195.160 Y-14.932 Z3.078 A140.5199 
N2053 X195.160 Y-15.328 Z3.310 A139.7368 
N2054 X195.160 Y-15.701 Z3.473 A138.4202 
N2055 X195.159 Y-16.050 Z3.578 A136.6642 
N2056 X195.158 Y-16.363 Z3.648 A134.7699 
N2057 X195.157 Y-16.631 Z3.704 A133.0361 
N2058 X195.155 Y-16.850 Z3.751 A131.5621 
N2059 X195.154 Y-17.054 Z3.771 A129.9564 
N2060 X195.151 Y-17.292 Z3.731 A127.5525 
N2061 X195.146 Y-17.632 Z3.605 A123.5204 
N2062 X195.139 Y-18.085 Z3.420 A117.9410 
N2063 X195.131 Y-18.657 Z3.225 A111.0016 
N2064 X195.124 Y-19.239 Z3.091 A104.1225 
N2065 X195.118 Y-19.847 Z3.024 A97.0706 
N2066 X195.115 Y-20.244 Z3.021 A92.5009 
N2067 X195.112 Y-20.615 Z3.048 A88.2089 
N2068 X195.110 Y-20.954 Z3.101 A84.2630 
N2069 X195.109 Y-21.239 Z3.166 A80.9114 
N2070 X195.108 Y-21.463 Z3.230 A78.2275 
N2071 X195.108 Y-21.682 Z3.305 A75.5652 
N2072 X195.107 Y-21.899 Z3.390 A72.8956 
N2073 X195.107 Y-22.111 Z3.485 A70.2271 
N2074 X195.107 Y-22.314 Z3.587 A67.6098 
N2075 X195.108 Y-22.507 Z3.696 A65.0615 
N2076 X195.108 Y-22.696 Z3.813 A62.5136 
N2077 X195.109 Y-22.879 Z3.938 A59.9654 
N2078 X195.109 Y-23.056 Z4.072 A57.4147 
N2079 X195.110 Y-23.227 Z4.213 A54.8716 
N2080 X195.112 Y-23.389 Z4.359 A52.3607 
N2081 X195.113 Y-23.546 Z4.513 A49.8365 
N2082 X195.114 Y-23.696 Z4.675 A47.2947 
N2083 X195.116 Y-23.841 Z4.844 A44.7315 
N2084 X195.118 Y-23.980 Z5.022 A42.1447 
N2085 X195.120 Y-24.111 Z5.207 A39.5391 
N2086 X195.122 Y-24.235 Z5.399 A36.9070 
N2087 X195.125 Y-24.352 Z5.599 A34.2455 
N2088 X195.127 Y-24.460 Z5.806 A31.5605 
N2089 X195.130 Y-24.560 Z6.019 A28.8537 
N2090 X195.134 Y-24.670 Z6.290 A25.4860 
N2091 X195.139 Y-24.783 Z6.620 A21.4676 
N2092 X195.145 Y-24.889 Z7.011 A16.8051 
N2093 X195.152 Y-24.974 Z7.458 A11.5507 
N2094 X195.162 Y-25.024 Z8.100 A4.1208 
N2095 X195.175 Y-24.981 Z8.790 A356.1477 
N2096 X195.185 Y-24.868 Z9.331 A349.7821 
N2097 X195.195 Y-24.689 Z9.806 A343.9671 
N2098 X195.200 Y-24.536 Z10.043 A340.8266 
N2099 X195.202 Y-24.412 Z10.114 A339.5928 
N2100 X195.202 Y-24.301 Z10.084 A339.4806 
N2101 X195.202 Y-24.172 Z10.038 A339.4936 
N2102 X195.203 Y-23.998 Z10.024 A338.9598 
N2103 X195.205 Y-23.773 Z10.057 A337.6838 
N2104 X195.208 Y-23.499 Z10.109 A335.9390 
N2105 X195.211 Y-23.189 Z10.144 A334.1126 
N2106 X195.214 Y-22.855 Z10.137 A332.5261 
N2107 X195.215 Y-22.507 Z10.077 A331.3319 
N2108 X195.216 Y-22.151 Z9.965 A330.6019 
N2109 X195.216 Y-21.789 Z9.804 A330.3565 
N2110 X195.215 Y-21.418 Z9.604 A330.5174 
N2111 X195.214 Y-21.029 Z9.384 A330.9213 
N2112 X195.213 Y-20.612 Z9.164 A331.3608 
N2113 X195.213 Y-20.160 Z8.957 A331.6946 
N2114 X195.214 Y-19.670 Z8.770 A331.8635 
N2115 X195.215 Y-19.143 Z8.606 A331.8525 
N2116 X195.217 Y-18.583 Z8.465 A331.6770 
N2117 X195.219 Y-17.998 Z8.344 A331.3889 
N2118 X195.222 Y-17.397 Z8.238 A331.0853 
N2119 X195.225 Y-16.790 Z8.142 A330.8590 
N2120 X195.228 Y-16.185 Z8.051 A330.7905 
N2121 X195.231 Y-15.584 Z7.964 A330.9463 
N2122 X195.234 Y-14.987 Z7.876 A331.3870 
N2123 X195.237 Y-14.392 Z7.786 A332.1562 
N2124 X195.240 Y-13.790 Z7.692 A333.2788 
N2125 X195.243 Y-13.176 Z7.601 A334.7204 
N2126 X195.246 Y-12.544 Z7.519 A336.4171 
N2127 X195.250 Y-11.891 Z7.456 A338.2657 
N2128 X195.255 Y-11.218 Z7.426 A340.1235 
N2129 X195.260 Y-10.532 Z7.440 A341.8274 
N2130 X195.267 Y-9.841 Z7.505 A343.2749 
N2131 X195.274 Y-9.153 Z7.619 A344.4048 
N2132 X195.282 Y-8.476 Z7.779 A345.1872 
N2133 X195.291 Y-7.818 Z7.977 A345.6243 
N2134 X195.300 Y-7.184 Z8.204 A345.7429 
N2135 X195.309 Y-6.579 Z8.452 A345.5634 
N2136 X195.318 Y-6.005 Z8.715 A345.0943 
N2137 X195.326 Y-5.465 Z8.991 A344.3340 
N2138 X195.335 Y-4.958 Z9.276 A343.2816 
N2139 X195.344 Y-4.484 Z9.567 A341.9557 
N2140 X195.353 Y-4.038 Z9.859 A340.4070 
N2141 X195.361 Y-3.617 Z10.140 A338.7399 
N2142 X195.368 Y-3.217 Z10.396 A337.1056 
N2143 X195.375 Y-2.837 Z10.610 A335.6644 
N2144 X195.380 Y-2.473 Z10.776 A334.5035 
N2145 X195.385 Y-2.121 Z10.891 A333.6426 
N2146 X195.389 Y-1.782 Z10.958 A333.0733 
N2147 X195.392 Y-1.447 Z10.991 A332.6465 
N2148 X195.395 Y-1.118 Z11.001 A332.2323 
N2149 X195.397 Y-0.798 Z10.997 A331.7521 
N2150 X195.399 Y-0.492 Z10.983 A331.1623 
N2151 X195.401 Y-0.211 Z10.964 A330.4637 
N2152 X195.402 Y0.047 Z10.961 A329.4851 
N2153 X195.405 Y0.295 Z11.001 A327.9228 
N2154 X195.408 Y0.519 Z11.067 A326.0565 
N2155 X195.411 Y0.741 Z11.175 A323.6690 
N2156 X195.415 Y0.953 Z11.304 A321.0494 
N2157 X195.419 Y1.174 Z11.453 A318.1093 
N2158 X195.424 Y1.400 Z11.606 A315.0390 
N2159 X195.428 Y1.641 Z11.760 A311.8009 
N2160 X195.433 Y1.901 Z11.910 A308.4003 
N2161 X195.437 Y2.168 Z12.043 A305.0141 
N2162 X195.441 Y2.458 Z12.165 A301.4457 
N2163 X195.445 Y2.748 Z12.264 A297.9677 
N2164 X195.449 Y3.069 Z12.349 A294.2214 
N2165 X195.452 Y3.391 Z12.409 A290.5206 
N2166 X195.456 Y3.734 Z12.444 A286.6532 
N2167 X195.458 Y4.074 Z12.447 A282.8539 
N2168 X195.460 Y4.398 Z12.416 A279.2597 
N2169 X195.461 Y4.699 Z12.351 A275.9257 
N2170 X195.462 Y4.968 Z12.254 A272.9385 
N2171 X195.461 Y5.204 Z12.128 A270.2733 
N2172 X195.460 Y5.412 Z11.974 A267.8743 
N2173 X195.458 Y5.593 Z11.797 A265.7003 
N2174 X195.456 Y5.755 Z11.593 A263.6521 
N2175 X195.453 Y5.899 Z11.364 A261.7057 
N2176 X195.449 Y6.025 Z11.109 A259.8345 
N2177 X195.445 Y6.134 Z10.829 A258.0301 
N2178 X195.440 Y6.224 Z10.524 A256.2824 
N2179 X195.435 Y6.296 Z10.196 A254.5809 
N2180 X195.429 Y6.350 Z9.845 A252.9155 
N2181 X195.422 Y6.385 Z9.473 A251.2745 
N2182 X195.416 Y6.403 Z9.083 A249.6417 
N2183 X195.408 Y6.405 Z8.677 A247.9984 
N2184 X195.401 Y6.392 Z8.256 A246.3255 
N2185 X195.393 Y6.365 Z7.823 A244.6070 
N2186 X195.385 Y6.326 Z7.381 A242.8316 
N2187 X195.376 Y6.275 Z6.932 A240.9942 
N2188 X195.368 Y6.213 Z6.480 A239.0915 
N2189 X195.359 Y6.140 Z6.026 A237.1183 
N2190 X195.350 Y6.058 Z5.573 A235.0686 
N2191 X195.342 Y5.968 Z5.122 A232.9370 
N2192 X195.333 Y5.870 Z4.676 A230.7192 
N2193 X195.324 Y5.764 Z4.233 A228.4128 
N2194 X195.315 Y5.652 Z3.797 A226.0177 
N2195 X195.307 Y5.532 Z3.366 A223.5369 
N2196 X195.298 Y5.405 Z2.942 A220.9768 
N2197 X195.290 Y5.268 Z2.525 A218.3458 
N2198 X195.281 Y5.122 Z2.116 A215.6539 
N2199 X195.273 Y4.966 Z1.714 A212.9107 
N2200 X195.264 Y4.797 Z1.321 A210.1243 
N2201 X195.256 Y4.614 Z0.936 A207.3022 
N2202 X195.248 Y4.417 Z0.560 A204.4513 
N2203 X195.240 Y4.204 Z0.193 A201.5767 
N2204 X195.231 Y3.973 Z-0.165 A198.6824 
N2205 X195.223 Y3.722 Z-0.512 A195.7721 
N2206 X195.215 Y3.451 Z-0.849 A192.8484 
N2207 X195.207 Y3.155 Z-1.173 A189.9140 
N2208 X195.199 Y2.834 Z-1.484 A186.9721 
N2209 X195.191 Y2.485 Z-1.780 A184.0265 
N2210 X195.183 Y2.106 Z-2.059 A181.0818 
N2211 X195.175 Y1.694 Z-2.317 A178.1447 
N2212 X195.167 Y1.246 Z-2.552 A175.2238 
N2213 X195.159 Y0.761 Z-2.758 A172.3299 
N2214 X195.152 Y0.237 Z-2.933 A169.4747 
N2215 X195.145 Y-0.329 Z-3.070 A166.6712 
N2216 X195.138 Y-0.935 Z-3.166 A163.9338 
N2217 X195.132 Y-1.584 Z-3.214 A161.2780 
N2218 X195.127 Y-2.273 Z-3.210 A158.7214 
N2219 X195.122 Y-2.999 Z-3.150 A156.2906 
N2220 X195.118 Y-3.759 Z-3.028 A154.0166 
N2221 X195.115 Y-4.548 Z-2.844 A151.9253 
N2222 X195.113 Y-5.359 Z-2.598 A150.0282 
N2223 X195.111 Y-6.187 Z-2.293 A148.3234 
N2224 X195.111 Y-7.024 Z-1.934 A146.8067 
N2225 X195.111 Y-7.862 Z-1.530 A145.4749 
N2226 X195.112 Y-8.693 Z-1.087 A144.3231 
N2227 X195.114 Y-9.509 Z-0.616 A143.3411 
N2228 X195.116 Y-10.301 Z-0.127 A142.5161 
N2229 X195.119 Y-11.060 Z0.368 A141.8343 
N2230 X195.122 Y-11.781 Z0.860 A141.2793 
N2231 X195.124 Y-12.455 Z1.337 A140.8342 
N2232 X195.127 Y-13.078 Z1.791 A140.4830 
N2233 X195.130 Y-13.645 Z2.215 A140.2119 
N2234 X195.133 Y-14.155 Z2.603 A140.0080 
N2235 X195.135 Y-14.607 Z2.953 A139.8585 
N2236 X195.137 Y-15.000 Z3.263 A139.7573 
N2237 X195.139 Y-15.338 Z3.532 A139.6993 
N2238 X195.141 Y-15.622 Z3.765 A139.6980 
N2239 X195.143 Y-15.858 Z3.959 A139.7122 
N2240 X195.144 Y-16.056 Z4.120 A139.7072 
N2241 X195.144 Y-16.235 Z4.229 A139.3669 
N2242 X195.143 Y-16.426 Z4.262 A138.2306 
N2243 X195.140 Y-16.676 Z4.187 A135.6634 
N2244 X195.133 Y-17.039 Z3.987 A131.0435 
N2245 X195.124 Y-17.540 Z3.701 A124.4540 
N2246 X195.114 Y-18.125 Z3.425 A117.0213 
N2247 X195.105 Y-18.806 Z3.196 A108.7384 
N2248 X195.098 Y-19.363 Z3.083 A102.1797 
N2249 X195.094 Y-19.825 Z3.038 A96.8314 
N2250 X195.090 Y-20.272 Z3.036 A91.6775 
N2251 X195.087 Y-20.676 Z3.071 A87.0085 
N2252 X195.086 Y-20.929 Z3.112 A84.0523 
N2253 X195.085 Y-21.176 Z3.165 A81.1540 
N2254 X195.084 Y-21.418 Z3.230 A78.2638 
N2255 X195.083 Y-21.656 Z3.307 A75.3893 
N2256 X195.083 Y-21.888 Z3.395 A72.5353 
N2257 X195.083 Y-22.104 Z3.489 A69.8175 
N2258 X195.083 Y-22.308 Z3.590 A67.1960 
N2259 X195.083 Y-22.507 Z3.700 A64.5867 
N2260 X195.083 Y-22.699 Z3.818 A61.9897 
N2261 X195.084 Y-22.885 Z3.945 A59.4022 
N2262 X195.085 Y-23.065 Z4.079 A56.8208 
N2263 X195.086 Y-23.238 Z4.221 A54.2424 
N2264 X195.087 Y-23.404 Z4.371 A51.6633 
N2265 X195.088 Y-23.565 Z4.528 A49.0796 
N2266 X195.090 Y-23.718 Z4.693 A46.4883 
N2267 X195.091 Y-23.864 Z4.865 A43.8866 
N2268 X195.093 Y-24.003 Z5.045 A41.2712 
N2269 X195.096 Y-24.137 Z5.235 A38.5998 
N2270 X195.098 Y-24.263 Z5.433 A35.9006 
N2271 X195.100 Y-24.380 Z5.637 A33.1889 
N2272 X195.103 Y-24.488 Z5.848 A30.4601 
N2273 X195.106 Y-24.586 Z6.066 A27.7128 
N2274 X195.109 Y-24.675 Z6.288 A24.9576 
N2275 X195.113 Y-24.773 Z6.582 A21.3903 
N2276 X195.118 Y-24.858 Z6.897 A17.6316 
N2277 X195.123 Y-24.927 Z7.237 A13.6420 
N2278 X195.129 Y-24.974 Z7.597 A9.4565 
N2279 X195.137 Y-24.997 Z8.089 A3.7768 
N2280 X195.148 Y-24.958 Z8.688 A356.8573 
N2281 X195.158 Y-24.856 Z9.219 A350.6204 
N2282 X195.170 Y-24.655 Z9.816 A343.3797 
N2283 X195.179 Y-24.434 Z10.239 A337.9293 
N2284 X195.186 Y-24.205 Z10.532 A333.7675 
N2285 X195.190 Y-24.014 Z10.666 A331.3864 
N2286 X195.191 Y-23.854 Z10.687 A330.3090 
N2287 X195.191 Y-23.703 Z10.636 A329.9890 
N2288 X195.191 Y-23.539 Z10.546 A329.9959 
N2289 X195.190 Y-23.349 Z10.436 A330.0634 
N2290 X195.190 Y-23.125 Z10.315 A330.0913 
N2291 X195.189 Y-22.864 Z10.180 A330.0696 
N2292 X195.189 Y-22.565 Z10.032 A330.0234 
N2293 X195.189 Y-22.230 Z9.869 A329.9703 
N2294 X195.188 Y-21.858 Z9.693 A329.9186 
N2295 X195.188 Y-21.451 Z9.505 A329.8739 
N2296 X195.188 Y-21.012 Z9.309 A329.8383 
N2297 X195.188 Y-20.544 Z9.109 A329.8101 
N2298 X195.188 Y-20.049 Z8.910 A329.7828 
N2299 X195.189 Y-19.533 Z8.716 A329.7502 
N2300 X195.190 Y-19.000 Z8.531 A329.7144 
N2301 X195.191 Y-18.454 Z8.360 A329.6829 
N2302 X195.192 Y-17.900 Z8.204 A329.6649 
N2303 X195.194 Y-17.341 Z8.066 A329.6702 
N2304 X195.196 Y-16.780 Z7.947 A329.7226 
N2305 X195.199 Y-16.218 Z7.845 A329.8649 
N2306 X195.202 Y-15.656 Z7.754 A330.1625 
N2307 X195.204 Y-15.092 Z7.666 A330.7028 
N2308 X195.207 Y-14.524 Z7.574 A331.5853 
N2309 X195.210 Y-13.948 Z7.472 A332.8726 
N2310 X195.212 Y-13.358 Z7.362 A334.5572 
N2311 X195.215 Y-12.749 Z7.253 A336.5493 
N2312 X195.218 Y-12.118 Z7.163 A338.7064 
N2313 X195.222 Y-11.466 Z7.108 A340.8391 
N2314 X195.227 Y-10.798 Z7.105 A342.7673 
N2315 X195.234 Y-10.121 Z7.162 A344.3627 
N2316 X195.241 Y-9.444 Z7.279 A345.5699 
N2317 X195.249 Y-8.774 Z7.448 A346.3829 
N2318 X195.258 Y-8.118 Z7.660 A346.8266 
N2319 X195.267 Y-7.483 Z7.904 A346.9327 
N2320 X195.276 Y-6.871 Z8.172 A346.7298 
N2321 X195.286 Y-6.288 Z8.454 A346.2404 
N2322 X195.295 Y-5.736 Z8.748 A345.4733 
N2323 X195.304 Y-5.215 Z9.050 A344.4279 
N2324 X195.313 Y-4.724 Z9.357 A343.1188 
N2325 X195.322 Y-4.260 Z9.663 A341.5944 
N2326 X195.331 Y-3.815 Z9.958 A339.9623 
N2327 X195.339 Y-3.382 Z10.221 A338.4321 
N2328 X195.346 Y-2.950 Z10.426 A337.2505 
N2329 X195.351 Y-2.509 Z10.555 A336.6100 
N2330 X195.356 Y-2.039 Z10.613 A336.4257 
N2331 X195.361 Y-1.508 Z10.649 A336.0935 
N2332 X195.368 Y-0.854 Z10.761 A334.2392 
N2333 X195.379 Y-0.015 Z11.057 A328.7761 
N2334 X195.392 Y1.046 Z11.335 A320.1020 
N2335 X195.392 Y7.460 Z19.007 
N2336 G00 X195.392 Y33.117 Z49.694 
RAPORT("T13732","Spiral Rough Airfoil:107 End")
N2338 ;trailer : concat=None
; points cnt = 2274
N2339 MSG (" --- GROUPED OF SUBPROGRAM --- ")
N2340 FGROUP()
N2341 TRAFOOF
N10 ; PROGRAM NAME: 1373220
N11 ; ORDER       : 13732
N12 ; OPER. NAME  : Spiral Rough Airfoil:108
N13 ; OPER. DESCR.: spiral roughing airfoil
N14 ; OPER. TYPE  : rouAirfoil
N15 ; GEO. OPTION : 3
N16 ; MACHINE     : SH_HX151_24_SIM840D
N17 ;             : STARRAG_HECKERT_5axis_finish_milling_machine
N18 ; CONTROL     : SINUMERIK 840D
N19 ; created:   2021-11-09 15:25:57.552114
;-------DODATKOWE DANE-------------------
; PROGRAMISTA : Mariusz Orzechowski
; PARTID      : 132T008743P1005_-
;  ap         : 1.8
;  ae         : 8.0
;  lean_angle : 1.0
;  airf_offset: 0.3
;----------------------------------------
N20 ;----------------------------------------
RAPORT("T13732","Spiral Rough Airfoil:108")
N21 TRAFOOF
N22 D0
N23 G0 G90 G94 Z260.0
N24 STOPRE
N25 M9 ; chlodziwo wyl
N26 ; --- Spiral Rough Airfoil:108 - spiral roughing airfoil ---
N28 ;ToolChange : concat=None ,current_tdmid=None, PP.tdmId=940679
N29 TRAFOOF
N30 D0
N31 G0 G54 Z270.0
N32 S2387 M03
N33 STOPRE
N34 TOL(0.1,1,1)
N35 G0  A1.2065
N36 TRAORI
N37 G54 D1
N38 D2 
N39 TRANS  X=R3
;shiftX 0.3
;pointsCnt 2222
N40 ;SPIRALA WYK NOZKA
N41 X177.440 Y20.970 Z70.189 A1.2065 B0.0000 
N42 M346 ; chlodziwo mgla
N43 X177.440 Y22.023 Z20.200 
N44 G01 X177.440 Y21.544 Z17.108 F572 
N45 X177.440 Y20.134 Z14.315 
N46 X177.440 Y17.930 Z12.095 
N47 X177.440 Y15.147 Z10.665 
N48 X177.440 Y12.059 Z10.164 
N49 X177.436 Y11.895 Z10.163 
N50 X177.432 Y11.698 Z10.163 
N51 X177.426 Y11.447 Z10.162 
N52 X177.419 Y11.126 Z10.161 
N53 X177.410 Y10.734 Z10.160 A1.2095 
N54 X177.398 Y10.251 Z10.159 A1.2219 
N55 X177.385 Y9.666 Z10.159 A1.2448 
N56 X177.368 Y8.970 Z10.158 A1.2692 
N57 X177.349 Y8.149 Z10.153 A1.2429 
N58 X177.327 Y7.200 Z10.149 A1.2192 
N59 X177.302 Y6.121 Z10.148 
N60 X177.273 Y4.915 Z10.147 
N61 X177.242 Y3.591 Z10.146 
N62 X177.209 Y2.163 Z10.145 
N63 X177.173 Y0.653 Z10.144 A1.2193 
N64 X177.137 Y-0.918 Z10.142 A1.2193 
N65 X177.099 Y-2.521 Z10.141 A1.2196 
N66 X177.061 Y-4.128 Z10.140 A1.2209 
N67 X177.024 Y-5.711 Z10.139 A1.2236 
N68 X176.988 Y-7.242 Z10.137 A1.2274 
N69 X176.954 Y-8.696 Z10.137 A1.2305 
N70 X176.922 Y-10.054 Z10.136 A1.2311 
N71 X176.893 Y-11.298 Z10.135 A1.2280 
N72 X176.867 Y-12.419 Z10.134 A1.2192 
N73 X176.844 Y-13.412 Z10.134 
N74 X176.824 Y-14.278 Z10.135 
N75 X176.806 Y-15.024 Z10.138 A1.2615 
N76 X176.792 Y-15.654 Z10.168 A1.6422 
N77 X176.782 Y-16.182 Z10.237 A2.5417 
N78 X176.775 Y-16.613 Z10.361 A4.1684 
N79 X176.772 Y-16.979 Z10.549 A6.6540 
N80 X176.771 Y-17.291 Z10.793 A9.9119 
N81 X176.772 Y-17.578 Z11.087 A13.8711 
N82 X176.774 Y-17.854 Z11.419 A18.4034 
N83 X176.777 Y-18.140 Z11.781 A23.4666 
N84 X176.780 Y-18.427 Z12.129 A28.5181 
N85 X176.781 Y-18.720 Z12.454 A33.4754 
N86 X176.782 Y-19.045 Z12.775 A38.6746 
N87 X176.782 Y-19.318 Z13.013 A42.8099 
N88 X176.781 Y-19.633 Z13.254 A47.3452 
N89 X176.780 Y-19.911 Z13.440 A51.1697 
N90 X176.778 Y-20.183 Z13.600 A54.7972 
N91 X176.775 Y-20.477 Z13.749 A58.5731 
N92 X176.771 Y-20.771 Z13.877 A62.2617 
N93 X176.767 Y-21.052 Z13.978 A65.6822 
N94 X176.763 Y-21.337 Z14.063 A69.1032 
N95 X176.758 Y-21.624 Z14.130 A72.4860 
N96 X176.752 Y-21.936 Z14.181 A76.1137 
N97 X176.746 Y-22.264 Z14.213 A79.8953 
N98 X176.739 Y-22.579 Z14.221 A83.4979 
N99 X176.731 Y-22.905 Z14.206 A87.2392 
N100 X176.721 Y-23.284 Z14.157 A91.6047 
N101 X176.711 Y-23.621 Z14.083 A95.5419 
N102 X176.698 Y-24.024 Z13.953 A100.3520 
N103 X176.685 Y-24.385 Z13.788 A104.8336 
N104 X176.672 Y-24.725 Z13.579 A109.2762 
N105 X176.658 Y-25.037 Z13.317 A113.7286 
N106 X176.644 Y-25.291 Z13.012 A117.8761 
N107 X176.632 Y-25.464 Z12.692 A121.4111 
N108 X176.620 Y-25.567 Z12.334 A124.6176 
N109 X176.610 Y-25.582 Z11.949 A127.3183 
N110 X176.602 Y-25.501 Z11.552 A129.3678 
N111 X176.595 Y-25.325 Z11.139 A130.8051 
N112 X176.590 Y-25.055 Z10.697 A131.7302 
N113 X176.586 Y-24.699 Z10.217 A132.2673 
N114 X176.582 Y-24.265 Z9.688 A132.5476 
N115 X176.579 Y-23.762 Z9.107 A132.6735 
N116 X176.576 Y-23.196 Z8.466 A132.7143 
N117 X176.572 Y-22.575 Z7.768 A132.7156 
N118 X176.569 Y-21.905 Z7.017 A132.7094 
N119 X176.564 Y-21.198 Z6.221 A132.7117 
N120 X176.560 Y-20.461 Z5.391 A132.7209 
N121 X176.556 Y-19.706 Z4.538 A132.7287 
N122 X176.551 Y-18.940 Z3.676 A132.7086 
N123 X176.547 Y-18.179 Z2.815 A132.6982 
N124 X176.542 Y-17.428 Z1.964 
N125 X176.538 Y-16.692 Z1.126 A132.7269 
N126 X176.532 Y-16.009 Z0.296 A133.2352 
N127 X176.526 Y-15.380 Z-0.530 A134.3523 
N128 X176.517 Y-14.812 Z-1.358 A136.3223 
N129 X176.508 Y-14.297 Z-2.199 A139.3219 
N130 X176.496 Y-13.821 Z-3.066 A143.5216 
N131 X176.484 Y-13.345 Z-3.957 A148.8243 
N132 X176.474 Y-12.815 Z-4.841 A154.7543 
N133 X176.466 Y-12.195 Z-5.683 A160.8902 
N134 X176.464 Y-11.462 Z-6.451 A166.8971 
N135 X176.467 Y-10.606 Z-7.089 A172.1863 
N136 X176.478 Y-9.635 Z-7.541 A176.0691 
N137 X176.496 Y-8.567 Z-7.819 A178.4957 
N138 X176.520 Y-7.414 Z-7.971 A179.8459 
N139 X176.547 Y-6.178 Z-8.044 A180.4980 
N140 X176.577 Y-4.864 Z-8.073 A180.7322 
N141 X176.610 Y-3.477 Z-8.082 A180.7584 
N142 X176.644 Y-2.028 Z-8.087 A180.7186 
N143 X176.679 Y-0.533 Z-8.097 A180.7023 
N144 X176.714 Y0.991 Z-8.109 
N145 X176.750 Y2.522 Z-8.122 
N146 X176.786 Y4.036 Z-8.136 A180.7042 
N147 X176.820 Y5.509 Z-8.149 A180.7138 
N148 X176.853 Y6.919 Z-8.161 A180.7181 
N149 X176.884 Y8.247 Z-8.173 A180.7172 
N150 X176.913 Y9.476 Z-8.183 A180.7069 
N151 X176.939 Y10.594 Z-8.193 A180.7023 
N152 X176.963 Y11.599 Z-8.203 
N153 X176.983 Y12.486 Z-8.212 
N154 X177.001 Y13.256 Z-8.224 A180.7698 
N155 X177.016 Y13.915 Z-8.254 A181.0905 
N156 X177.028 Y14.470 Z-8.311 A181.7905 
N157 X177.036 Y14.935 Z-8.413 A183.0880 
N158 X177.041 Y15.320 Z-8.569 A185.1318 
N159 X177.043 Y15.645 Z-8.783 A187.9458 
N160 X177.043 Y15.935 Z-9.050 A191.5042 
N161 X177.042 Y16.210 Z-9.358 A195.6648 
N162 X177.040 Y16.469 Z-9.678 A200.0770 
N163 X177.037 Y16.740 Z-10.018 A204.8824 
N164 X177.035 Y17.027 Z-10.361 A209.9117 
N165 X177.034 Y17.321 Z-10.681 A214.8392 
N166 X177.034 Y17.605 Z-10.957 A219.3582 
N167 X177.034 Y17.902 Z-11.212 A223.8320 
N168 X177.035 Y18.200 Z-11.435 A228.0988 
N169 X177.037 Y18.463 Z-11.609 A231.7120 
N170 X177.040 Y18.750 Z-11.775 A235.5169 
