N10 ; PROGRAM NAME: 1373285
N11 ; ORDER       : 13732
N12 ; OPER. NAME  : Side Milling:101
N13 ; OPER. DESCR.: FEEEND : POMA D1
N14 ; OPER. TYPE  : sideMill
N15 ; GEO. OPTION : 1
N16 ; MACHINE     : SH_HX151_24_SIM840D
N17 ;             : STARRAG_HECKERT_5axis_finish_milling_machine
N18 ; CONTROL     : SINUMERIK 840D
N19 ; created:   2021-11-10 08:05:13.056557
;-------DODATKOWE DANE-------------------
; PROGRAMISTA : Mariusz Orzechowski
; PARTID      : 132T008743P1005_-
;  ap         : 5.0
;  ae         : 5.0
;  lean_angle : 0.0
;  fin_offset : 0.0
;----------------------------------------
N20 ;----------------------------------------
RAPORT("T13732","Side Milling:101")
N21 TRAFOOF
N22 D0
N23 G90 G94
N24 STOPRE
N25 M9 ; chlodziwo wyl
N26 ; --- Side Milling:101 - FEEEND : POMA D1 ---
N28 ;ToolChange : concat=None ,current_tdmid=None, PP.tdmId=940983
N29 MSG(" TLID=940983 D=10.0 R=0.0 Ang=0.0 Len=116.0 ")
N30 TRAFOOF
N31 D0
N32 G0 G53 Z290 B0
N33 G0 X200
N34 G0 Y150
N35 T="7740983"
N36 G0 X500
RAPORT("T13732","ToolChangeStart 7740983")
N37 M6
RAPORT("T13732","ToolChangeEnd")
N38 ; (Preloading tool)
N39 T="7740984"
N40 G0 X200
N41 STOPRE
N42 S2864 M03
N43 STOPRE
N44 TOL(0.1,1,1)
N45 G0 X164.886 A221.0395
N46 TRAORI
N47 G54 D1
N48 D1 
N49 TRANS  X=R20
N50 ; DELTA A > 40.1
N51 TRAFOOF
N52 STOPRE
N53 G0 G53 D0 Z265.000
N54 G1 G53 A221.0395 F10000
N55 TRAORI
N56 G54 D1
N57 TRANS  X=R20
N58 G00 X164.886 Y97.065 Z3.361 A221.0395 B3.0304 
N59 M342 ; chlodziwo woda
N60 X162.861 Y64.289 Z41.065 
N61 D1 
N62 G01 G41 X162.861 Y56.742 Z34.505 F286
N63 G01 X162.861 Y56.742 Z34.505 F286 
N64 X162.861 Y56.617 Z34.395 
N65 X162.861 Y56.491 Z34.286 
N66 X162.861 Y56.365 Z34.176 
N67 X162.861 Y56.257 Z34.083 
N68 X162.861 Y56.149 Z33.989 
N69 X162.861 Y56.042 Z33.895 
N70 X162.861 Y55.934 Z33.802 
N71 X162.861 Y55.826 Z33.708 
N72 X162.861 Y55.718 Z33.614 
N73 X162.861 Y55.610 Z33.520 
N74 X162.861 Y55.502 Z33.427 
N75 X162.861 Y55.395 Z33.333 
N76 X162.861 Y55.287 Z33.239 
N77 X162.861 Y55.179 Z33.146 
N78 X162.861 Y55.071 Z33.052 
N79 X162.861 Y54.963 Z32.958 
N80 X162.861 Y54.856 Z32.864 
N81 X162.861 Y54.748 Z32.771 
N82 X162.861 Y54.640 Z32.677 
N83 X162.861 Y54.532 Z32.583 
N84 X162.861 Y54.424 Z32.489 
N85 X162.861 Y54.316 Z32.396 
N86 X162.861 Y54.209 Z32.302 
N87 X162.861 Y54.101 Z32.208 
N88 X162.861 Y53.993 Z32.115 
N89 X162.861 Y53.885 Z32.021 
N90 X162.861 Y53.777 Z31.927 
N91 X162.861 Y53.670 Z31.833 
N92 X162.861 Y53.562 Z31.740 
N93 X162.861 Y53.454 Z31.646 
N94 X162.861 Y53.346 Z31.552 
N95 X162.861 Y53.238 Z31.459 
N96 X162.861 Y53.130 Z31.365 
N97 X162.861 Y53.023 Z31.271 
N98 X162.861 Y52.915 Z31.177 
N99 X162.861 Y52.807 Z31.084 
N100 X162.861 Y52.699 Z30.990 
N101 X162.861 Y52.591 Z30.896 
N102 X162.861 Y52.483 Z30.802 
N103 X162.861 Y52.375 Z30.708 
N104 X162.861 Y52.267 Z30.615 
N105 X162.861 Y52.159 Z30.521 
N106 X162.861 Y52.051 Z30.427 
N107 X162.861 Y51.944 Z30.333 
N108 X162.861 Y51.836 Z30.239 
N109 X162.861 Y51.728 Z30.145 
N110 X162.861 Y51.620 Z30.051 
N111 X162.861 Y51.512 Z29.958 
N112 X162.861 Y51.404 Z29.864 
N113 X162.861 Y51.296 Z29.770 
N114 X162.861 Y51.188 Z29.676 
N115 X162.861 Y51.080 Z29.582 
N116 X162.861 Y50.972 Z29.488 
N117 X162.861 Y50.864 Z29.394 
N118 X162.861 Y50.756 Z29.300 
N119 X162.861 Y50.648 Z29.207 
N120 X162.861 Y50.540 Z29.113 
N121 X162.861 Y50.432 Z29.019 
N122 X162.861 Y50.324 Z28.925 
N123 X162.861 Y50.216 Z28.831 
N124 X162.861 Y50.108 Z28.737 
N125 X162.861 Y50.000 Z28.643 
N126 X162.861 Y49.892 Z28.550 
N127 X162.861 Y49.784 Z28.456 
N128 X162.861 Y49.676 Z28.362 
N129 X162.861 Y49.568 Z28.268 
N130 X162.861 Y49.460 Z28.174 
N131 X162.861 Y49.352 Z28.080 
N132 X162.861 Y49.244 Z27.986 
N133 X162.861 Y49.136 Z27.892 
N134 X162.861 Y49.028 Z27.799 
N135 X162.861 Y48.920 Z27.705 
N136 X162.861 Y48.812 Z27.611 
N137 X162.861 Y48.704 Z27.517 
N138 X162.861 Y48.596 Z27.423 
N139 X162.861 Y48.488 Z27.329 
N140 X162.861 Y48.380 Z27.235 
N141 X162.861 Y48.272 Z27.142 
N142 X162.861 Y48.164 Z27.048 
N143 X162.861 Y48.056 Z26.954 
N144 X162.861 Y47.948 Z26.860 
N145 X162.861 Y47.840 Z26.766 
N146 X162.861 Y47.732 Z26.672 
N147 X162.861 Y47.624 Z26.578 
N148 X162.861 Y47.516 Z26.484 
N149 X162.861 Y47.408 Z26.391 
N150 X162.861 Y47.300 Z26.297 
N151 X162.861 Y47.192 Z26.203 
N152 X162.861 Y47.084 Z26.109 
N153 X162.861 Y46.976 Z26.015 
N154 X162.861 Y46.868 Z25.921 
N155 X162.861 Y46.760 Z25.827 
N156 X162.861 Y46.652 Z25.734 
N157 X162.861 Y46.544 Z25.640 
N158 X162.861 Y46.436 Z25.546 
N159 X162.861 Y46.328 Z25.452 
N160 X162.861 Y46.221 Z25.358 
N161 X162.861 Y46.113 Z25.264 
N162 X162.861 Y46.005 Z25.170 
N163 X162.861 Y45.897 Z25.076 
N164 X162.861 Y45.789 Z24.983 
N165 X162.861 Y45.681 Z24.889 
N166 X162.861 Y45.573 Z24.795 
N167 X162.861 Y45.465 Z24.701 
N168 X162.861 Y45.357 Z24.607 
N169 X162.861 Y45.249 Z24.513 
N170 X162.861 Y45.141 Z24.419 
N171 X162.861 Y45.033 Z24.326 
N172 X162.861 Y44.925 Z24.232 
N173 X162.861 Y44.817 Z24.138 
N174 X162.861 Y44.709 Z24.044 
N175 X162.861 Y44.601 Z23.950 
N176 X162.861 Y44.493 Z23.856 
N177 X162.861 Y44.385 Z23.762 
N178 X162.861 Y44.277 Z23.668 
N179 X162.861 Y44.169 Z23.575 
N180 X162.861 Y44.061 Z23.481 
N181 X162.861 Y43.953 Z23.387 
N182 X162.861 Y43.845 Z23.293 
N183 X162.861 Y43.737 Z23.199 
N184 X162.861 Y43.629 Z23.105 
N185 X162.861 Y43.521 Z23.011 
N186 X162.861 Y43.413 Z22.918 
N187 X162.861 Y43.305 Z22.824 
N188 X162.861 Y43.197 Z22.730 
N189 X162.861 Y43.089 Z22.636 
N190 X162.861 Y42.981 Z22.542 
N191 X162.861 Y42.873 Z22.448 
N192 X162.861 Y42.765 Z22.354 
N193 X162.861 Y42.657 Z22.260 
N194 X162.861 Y42.549 Z22.167 
N195 X162.861 Y42.441 Z22.073 
N196 X162.861 Y42.333 Z21.979 
N197 X162.861 Y42.225 Z21.885 
N198 X162.861 Y42.117 Z21.791 
N199 X162.861 Y42.009 Z21.697 
N200 X162.861 Y41.901 Z21.603 
N201 X162.861 Y41.793 Z21.510 
N202 X162.861 Y41.685 Z21.416 
N203 X162.861 Y41.577 Z21.322 
N204 X162.861 Y41.469 Z21.228 
N205 X162.861 Y41.361 Z21.134 
N206 X162.861 Y41.253 Z21.040 
N207 X162.861 Y41.145 Z20.946 
N208 X162.861 Y41.037 Z20.852 
N209 X162.861 Y40.929 Z20.759 
N210 X162.861 Y40.821 Z20.665 
N211 X162.861 Y40.713 Z20.571 
N212 X162.861 Y40.605 Z20.477 
N213 X162.861 Y40.498 Z20.383 
N214 X162.861 Y40.390 Z20.289 
N215 X162.861 Y40.282 Z20.195 
N216 X162.861 Y40.174 Z20.102 
N217 X162.861 Y40.066 Z20.008 
N218 X162.861 Y39.958 Z19.914 
N219 X162.861 Y39.850 Z19.820 
N220 X162.861 Y39.742 Z19.726 
N221 X162.861 Y39.634 Z19.632 
N222 X162.861 Y39.526 Z19.538 
N223 X162.861 Y39.418 Z19.444 
N224 X162.861 Y39.310 Z19.351 
N225 X162.861 Y39.202 Z19.257 
N226 X162.861 Y39.094 Z19.163 
N227 X162.861 Y38.986 Z19.069 
N228 X162.861 Y38.878 Z18.975 
N229 X162.861 Y38.770 Z18.881 
N230 X162.861 Y38.662 Z18.787 
N231 X162.861 Y38.554 Z18.694 
N232 X162.861 Y38.446 Z18.600 
N233 X162.861 Y38.338 Z18.506 
N234 X162.861 Y38.230 Z18.412 
N235 X162.861 Y38.122 Z18.318 
N236 X162.861 Y38.014 Z18.224 
N237 X162.861 Y37.906 Z18.130 
N238 X162.861 Y37.798 Z18.036 
N239 X162.861 Y37.690 Z17.943 
N240 X162.861 Y37.582 Z17.849 
N241 X162.861 Y37.474 Z17.755 
N242 X162.861 Y37.366 Z17.661 
N243 X162.861 Y37.258 Z17.567 
N244 X162.861 Y37.150 Z17.473 
N245 X162.861 Y37.042 Z17.379 
N246 X162.861 Y36.934 Z17.286 
N247 X162.861 Y36.826 Z17.192 
N248 X162.861 Y36.718 Z17.098 
N249 X162.861 Y36.610 Z17.004 
N250 X162.861 Y36.502 Z16.910 
N251 X162.861 Y36.394 Z16.816 
N252 X162.861 Y36.286 Z16.722 
N253 X162.861 Y36.178 Z16.628 
N254 X162.861 Y36.070 Z16.535 
N255 X162.861 Y35.962 Z16.441 
N256 X162.861 Y35.854 Z16.347 
N257 X162.861 Y35.746 Z16.253 
N258 X162.861 Y35.638 Z16.159 
N259 X162.861 Y35.530 Z16.065 
N260 X162.861 Y35.422 Z15.971 
N261 X162.861 Y35.314 Z15.878 
N262 X162.861 Y35.206 Z15.784 
N263 X162.861 Y35.098 Z15.690 
N264 X162.861 Y34.990 Z15.596 
N265 X162.861 Y34.882 Z15.502 
N266 X162.861 Y34.775 Z15.408 
N267 X162.861 Y34.667 Z15.314 
N268 X162.861 Y34.559 Z15.220 
N269 X162.861 Y34.451 Z15.127 
N270 X162.861 Y34.343 Z15.033 
N271 X162.861 Y34.235 Z14.939 
N272 X162.861 Y34.127 Z14.845 
N273 X162.861 Y34.019 Z14.751 
N274 X162.861 Y33.911 Z14.657 
N275 X162.861 Y33.803 Z14.563 
N276 X162.861 Y33.695 Z14.470 
N277 X162.861 Y33.587 Z14.376 
N278 X162.861 Y33.479 Z14.282 
N279 X162.861 Y33.371 Z14.188 
N280 X162.861 Y33.263 Z14.094 
N281 X162.861 Y33.155 Z14.000 
N282 X162.861 Y33.047 Z13.906 
N283 X162.861 Y32.939 Z13.812 
N284 X162.861 Y32.831 Z13.719 
N285 X162.861 Y32.723 Z13.625 
N286 X162.861 Y32.615 Z13.531 
N287 X162.861 Y32.507 Z13.437 
N288 X162.861 Y32.399 Z13.343 
N289 X162.861 Y32.291 Z13.249 
N290 X162.861 Y32.183 Z13.155 
N291 X162.861 Y32.075 Z13.062 
N292 X162.861 Y31.967 Z12.968 
N293 X162.861 Y31.859 Z12.874 
N294 X162.861 Y31.751 Z12.780 
N295 X162.861 Y31.643 Z12.686 
N296 X162.861 Y31.535 Z12.592 
N297 X162.861 Y31.427 Z12.498 
N298 X162.861 Y31.319 Z12.404 
N299 X162.861 Y31.211 Z12.311 
N300 X162.861 Y31.103 Z12.217 
N301 X162.861 Y30.995 Z12.123 
N302 X162.861 Y30.887 Z12.029 
N303 X162.861 Y30.779 Z11.935 
N304 X162.861 Y30.671 Z11.841 
N305 X162.861 Y30.563 Z11.747 
N306 X162.861 Y30.455 Z11.654 
N307 X162.861 Y30.347 Z11.560 
N308 X162.861 Y30.239 Z11.466 
N309 X162.861 Y30.131 Z11.372 
N310 X162.861 Y30.023 Z11.278 
N311 X162.861 Y29.915 Z11.184 
N312 X162.861 Y29.807 Z11.090 
N313 X162.861 Y29.699 Z10.996 
N314 X162.861 Y29.591 Z10.903 
N315 X162.861 Y29.483 Z10.809 
N316 X162.861 Y29.375 Z10.715 
N317 X162.861 Y29.267 Z10.621 
N318 X162.861 Y29.159 Z10.527 
N319 X162.861 Y29.052 Z10.433 
N320 X162.861 Y28.944 Z10.339 
N321 X162.861 Y28.836 Z10.246 
N322 X162.861 Y28.728 Z10.152 
N323 X162.861 Y28.620 Z10.058 
N324 X162.861 Y28.512 Z9.964 
N325 X162.861 Y28.404 Z9.870 
N326 X162.861 Y28.296 Z9.776 
N327 X162.861 Y28.188 Z9.682 
N328 X162.861 Y28.080 Z9.588 
N329 X162.861 Y27.972 Z9.495 
N330 X162.861 Y27.864 Z9.401 
N331 X162.861 Y27.756 Z9.307 
N332 X162.861 Y27.648 Z9.213 
N333 X162.861 Y27.540 Z9.119 
N334 X162.861 Y27.432 Z9.025 
N335 X162.861 Y27.324 Z8.931 
N336 X162.861 Y27.216 Z8.838 
N337 X162.861 Y27.108 Z8.744 
N338 X162.861 Y27.000 Z8.650 
N339 X162.861 Y26.892 Z8.556 
N340 X162.861 Y26.784 Z8.462 
N341 X162.861 Y26.676 Z8.368 
N342 X162.861 Y26.568 Z8.274 
N343 X162.861 Y26.460 Z8.180 
N344 X162.861 Y26.352 Z8.087 
N345 X162.861 Y26.244 Z7.993 
N346 X162.861 Y26.136 Z7.899 
N347 X162.861 Y26.028 Z7.805 
N348 X162.861 Y25.920 Z7.711 
N349 X162.861 Y25.812 Z7.617 
N350 X162.861 Y25.704 Z7.523 
N351 X162.861 Y25.596 Z7.430 
N352 X162.861 Y25.488 Z7.336 
N353 X162.861 Y25.380 Z7.242 
N354 X162.861 Y25.272 Z7.148 
N355 X162.861 Y25.164 Z7.054 
N356 X162.861 Y25.056 Z6.960 
N357 X162.861 Y24.948 Z6.866 
N358 X162.861 Y24.840 Z6.772 
N359 X162.861 Y24.732 Z6.679 
N360 X162.861 Y24.624 Z6.585 
N361 X162.861 Y24.516 Z6.491 
N362 X162.861 Y24.408 Z6.397 
N363 X162.861 Y24.300 Z6.303 
N364 X162.861 Y24.192 Z6.209 
N365 X162.861 Y24.084 Z6.115 
N366 X162.861 Y23.976 Z6.022 
N367 X162.861 Y23.868 Z5.928 
N368 X162.861 Y23.760 Z5.834 
N369 X162.861 Y23.652 Z5.740 
N370 X162.861 Y23.544 Z5.646 
N371 X162.861 Y23.436 Z5.552 
N372 X162.861 Y23.329 Z5.458 
N373 X162.861 Y23.221 Z5.364 
N374 X162.861 Y23.113 Z5.271 
N375 X162.861 Y23.005 Z5.177 
N376 X162.861 Y22.897 Z5.083 
N377 X162.861 Y22.789 Z4.989 
N378 X162.861 Y22.681 Z4.895 
N379 X162.861 Y22.573 Z4.801 
N380 X162.861 Y22.465 Z4.707 
N381 X162.861 Y22.357 Z4.614 
N382 X162.861 Y22.249 Z4.520 
N383 X162.861 Y22.141 Z4.426 
N384 X162.860 Y22.033 Z4.332 
N385 X162.858 Y21.925 Z4.238 
N386 X162.851 Y21.817 Z4.144 
N387 X162.839 Y21.710 Z4.050 
N388 X162.823 Y21.603 Z3.956 
N389 X162.801 Y21.497 Z3.863 
N390 X162.775 Y21.392 Z3.770 
N391 X162.743 Y21.287 Z3.677 
N392 X162.707 Y21.183 Z3.585 
N393 X162.667 Y21.081 Z3.494 
N394 X162.621 Y20.980 Z3.404 
N395 X162.572 Y20.880 Z3.314 
N396 X162.517 Y20.782 Z3.226 
N397 X162.459 Y20.685 Z3.138 
N398 X162.395 Y20.590 Z3.052 
N399 X162.328 Y20.496 Z2.968 
N400 X162.256 Y20.405 Z2.884 
N401 X162.180 Y20.315 Z2.802 
N402 X162.100 Y20.228 Z2.722 
N403 X162.016 Y20.143 Z2.644 
N404 X161.928 Y20.060 Z2.567 
N405 X161.836 Y19.980 Z2.492 
N406 X161.741 Y19.902 Z2.419 
N407 X161.642 Y19.827 Z2.349 
N408 X161.539 Y19.754 Z2.280 
N409 X161.434 Y19.684 Z2.214 
N410 X161.324 Y19.617 Z2.150 
N411 X161.213 Y19.553 Z2.088 
N412 X161.097 Y19.492 Z2.029 
N413 X160.980 Y19.434 Z1.972 
N414 X160.859 Y19.379 Z1.918 
N415 X160.736 Y19.328 Z1.866 
N416 X160.611 Y19.279 Z1.818 
N417 X160.483 Y19.234 Z1.772 
N418 X160.353 Y19.193 Z1.728 
N419 X160.221 Y19.154 Z1.688 
N420 X160.087 Y19.120 Z1.651 
N421 X159.952 Y19.088 Z1.616 
N422 X159.815 Y19.060 Z1.585 
N423 X159.677 Y19.036 Z1.556 
N424 X159.538 Y19.016 Z1.531 
N425 X159.398 Y18.999 Z1.509 
N426 X159.256 Y18.986 Z1.489 
N427 X159.115 Y18.976 Z1.474 
N428 X158.972 Y18.970 Z1.461 
N429 X158.830 Y18.968 Z1.451 
N430 X158.687 Y18.969 Z1.445 
N431 X158.544 Y18.973 Z1.440 
N432 X158.401 Y18.976 Z1.436 
N433 X158.258 Y18.980 Z1.431 
N434 X158.115 Y18.984 Z1.427 
N435 X157.972 Y18.988 Z1.423 
N436 X157.829 Y18.992 Z1.418 
N437 X157.686 Y18.995 Z1.414 
N438 X157.543 Y18.999 Z1.409 
N439 X157.400 Y19.003 Z1.405 
N440 X157.257 Y19.007 Z1.401 
N441 X157.114 Y19.011 Z1.396 
N442 X156.971 Y19.014 Z1.392 
N443 X156.828 Y19.018 Z1.388 
N444 X156.685 Y19.022 Z1.383 
N445 X156.542 Y19.026 Z1.379 
N446 X156.399 Y19.030 Z1.374 
N447 X156.256 Y19.033 Z1.370 
N448 X156.113 Y19.037 Z1.366 
N449 X155.970 Y19.041 Z1.361 
N450 X155.827 Y19.045 Z1.357 
N451 X155.684 Y19.049 Z1.353 
N452 X155.542 Y19.052 Z1.348 
N453 X155.399 Y19.056 Z1.344 
N454 X155.256 Y19.060 Z1.339 
N455 X155.113 Y19.064 Z1.335 
N456 X154.970 Y19.068 Z1.331 
N457 X154.827 Y19.071 Z1.326 
N458 X154.684 Y19.075 Z1.322 
N459 X154.541 Y19.079 Z1.318 
N460 X154.398 Y19.083 Z1.313 
N461 X154.255 Y19.087 Z1.309 
N462 X154.112 Y19.090 Z1.304 
N463 X153.969 Y19.094 Z1.300 
N464 X153.826 Y19.098 Z1.296 
N465 X153.683 Y19.102 Z1.291 
N466 X153.540 Y19.106 Z1.287 
N467 X153.397 Y19.109 Z1.283 
N468 X153.254 Y19.113 Z1.278 
N469 X153.111 Y19.117 Z1.274 
N470 X152.968 Y19.121 Z1.269 
N471 X152.825 Y19.125 Z1.265 
N472 X152.682 Y19.128 Z1.261 
N473 X152.539 Y19.132 Z1.256 
N474 X152.396 Y19.136 Z1.252 
N475 X152.253 Y19.140 Z1.248 
N476 X152.110 Y19.144 Z1.243 
N477 X151.968 Y19.147 Z1.239 
N478 X151.825 Y19.151 Z1.234 
N479 X151.682 Y19.155 Z1.230 
N480 X151.539 Y19.159 Z1.226 
N481 X151.396 Y19.163 Z1.221 
N482 X151.253 Y19.166 Z1.217 
N483 X151.110 Y19.170 Z1.213 
N484 X150.967 Y19.174 Z1.208 
N485 X150.824 Y19.178 Z1.204 
N486 X150.681 Y19.182 Z1.199 
N487 X150.538 Y19.185 Z1.195 
N488 X150.395 Y19.189 Z1.191 
N489 X150.252 Y19.193 Z1.186 
N490 X150.109 Y19.197 Z1.182 
N491 X149.966 Y19.201 Z1.178 
N492 X149.823 Y19.204 Z1.173 
N493 X149.680 Y19.208 Z1.169 
N494 X149.537 Y19.212 Z1.164 
N495 X149.394 Y19.216 Z1.160 
N496 X149.251 Y19.220 Z1.156 
N497 X149.108 Y19.223 Z1.151 
N498 X148.965 Y19.227 Z1.147 
N499 X148.822 Y19.231 Z1.143 
N500 X148.679 Y19.235 Z1.138 
N501 X148.537 Y19.239 Z1.134 
N502 X148.394 Y19.243 Z1.129 
N503 X148.251 Y19.246 Z1.125 
N504 X148.108 Y19.250 Z1.121 
N505 X147.965 Y19.254 Z1.116 
N506 X147.822 Y19.258 Z1.112 
N507 X147.679 Y19.262 Z1.108 
N508 X147.536 Y19.265 Z1.103 
N509 X147.393 Y19.269 Z1.099 
N510 X147.250 Y19.273 Z1.095 
N511 X147.107 Y19.277 Z1.090 
N512 X146.964 Y19.281 Z1.086 
N513 X146.821 Y19.284 Z1.081 
N514 X146.678 Y19.288 Z1.077 
N515 X146.535 Y19.292 Z1.073 
N516 X146.392 Y19.296 Z1.068 
N517 X146.249 Y19.300 Z1.064 
N518 X146.106 Y19.303 Z1.060 
N519 X145.963 Y19.307 Z1.055 
N520 X145.820 Y19.311 Z1.051 
N521 X145.677 Y19.315 Z1.046 
N522 X145.534 Y19.319 Z1.042 
N523 X145.391 Y19.322 Z1.038 
N524 X145.248 Y19.326 Z1.033 
N525 X145.106 Y19.330 Z1.029 
N526 X144.963 Y19.334 Z1.025 
N527 X144.820 Y19.338 Z1.020 
N528 X144.677 Y19.341 Z1.016 
N529 X144.534 Y19.345 Z1.011 
N530 X144.391 Y19.349 Z1.007 
N531 X144.248 Y19.353 Z1.003 
N532 X144.105 Y19.357 Z0.998 
N533 X143.962 Y19.360 Z0.994 
N534 X143.819 Y19.364 Z0.990 
N535 X143.676 Y19.368 Z0.985 
N536 X143.533 Y19.372 Z0.981 
N537 X143.390 Y19.376 Z0.976 
N538 X143.247 Y19.379 Z0.972 
N539 X143.104 Y19.383 Z0.968 
N540 X142.961 Y19.387 Z0.963 
N541 X142.818 Y19.391 Z0.959 
N542 X142.675 Y19.395 Z0.955 
N543 X142.532 Y19.398 Z0.950 
N544 X142.389 Y19.402 Z0.946 
N545 X142.246 Y19.406 Z0.941 
N546 X142.103 Y19.410 Z0.937 
N547 X141.960 Y19.414 Z0.933 
N548 X141.817 Y19.417 Z0.928 
N549 X141.674 Y19.421 Z0.924 
N550 X141.532 Y19.425 Z0.920 
N551 X141.389 Y19.429 Z0.915 
N552 X141.246 Y19.433 Z0.911 
N553 X141.103 Y19.436 Z0.906 
N554 X140.960 Y19.440 Z0.902 
N555 X140.817 Y19.444 Z0.898 
N556 X140.674 Y19.448 Z0.893 
N557 X140.531 Y19.452 Z0.889 
N558 X140.388 Y19.455 Z0.885 
N559 X140.245 Y19.459 Z0.880 
N560 X140.102 Y19.463 Z0.876 
N561 X139.959 Y19.467 Z0.871 
N562 X139.816 Y19.471 Z0.867 
N563 X139.673 Y19.474 Z0.863 
N564 X139.530 Y19.478 Z0.858 
N565 X139.387 Y19.482 Z0.854 
N566 X139.244 Y19.486 Z0.850 
N567 X139.101 Y19.490 Z0.845 
N568 X138.958 Y19.493 Z0.841 
N569 X138.815 Y19.497 Z0.837 
N570 X138.672 Y19.501 Z0.832 
N571 X138.529 Y19.505 Z0.828 
N572 X138.386 Y19.509 Z0.823 
N573 X138.243 Y19.513 Z0.819 
N574 X138.101 Y19.520 Z0.818 
N575 X137.958 Y19.530 Z0.819 
N576 X137.816 Y19.545 Z0.824 
N577 X137.674 Y19.563 Z0.832 
N578 X137.533 Y19.585 Z0.844 
N579 X137.393 Y19.610 Z0.858 
N580 X137.254 Y19.639 Z0.876 
N581 X137.116 Y19.671 Z0.896 
N582 X136.980 Y19.707 Z0.920 
N583 X136.845 Y19.746 Z0.947 
N584 X136.711 Y19.789 Z0.977 
N585 X136.580 Y19.835 Z1.010 
N586 X136.451 Y19.884 Z1.046 
N587 X136.323 Y19.937 Z1.085 
N588 X136.198 Y19.992 Z1.126 
N589 X136.076 Y20.051 Z1.171 
N590 X135.956 Y20.113 Z1.218 
N591 X135.839 Y20.178 Z1.268 
N592 X135.724 Y20.246 Z1.321 
N593 X135.613 Y20.316 Z1.377 
N594 X135.505 Y20.390 Z1.435 
N595 X135.400 Y20.466 Z1.495 
N596 X135.298 Y20.544 Z1.558 
N597 X135.200 Y20.625 Z1.623 
N598 X135.105 Y20.709 Z1.691 
N599 X135.014 Y20.795 Z1.760 
N600 X134.927 Y20.883 Z1.832 
N601 X134.844 Y20.973 Z1.906 
N602 X134.765 Y21.065 Z1.982 
N603 X134.690 Y21.159 Z2.059 
N604 X134.619 Y21.254 Z2.139 
N605 X134.552 Y21.351 Z2.219 
N606 X134.490 Y21.450 Z2.302 
N607 X134.432 Y21.551 Z2.386 
N608 X134.379 Y21.652 Z2.472 
N609 X134.330 Y21.755 Z2.558 
N610 X134.286 Y21.859 Z2.646 
N611 X134.246 Y21.964 Z2.735 
N612 X134.212 Y22.069 Z2.825 
N613 X134.181 Y22.176 Z2.916 
N614 X134.156 Y22.283 Z3.008 
N615 X134.136 Y22.390 Z3.100 
N616 X134.120 Y22.498 Z3.193 
N617 X134.109 Y22.606 Z3.286 
N618 X134.103 Y22.714 Z3.380 
N619 X134.102 Y22.822 Z3.473 
N620 X134.102 Y22.930 Z3.567 
N621 X134.102 Y23.038 Z3.661 
N622 X134.102 Y23.146 Z3.755 
N623 X134.102 Y23.254 Z3.849 
N624 X134.102 Y23.362 Z3.943 
N625 X134.102 Y23.470 Z4.037 
N626 X134.102 Y23.578 Z4.130 
N627 X134.102 Y23.686 Z4.224 
N628 X134.102 Y23.794 Z4.318 
N629 X134.102 Y23.902 Z4.412 
N630 X134.102 Y24.010 Z4.506 
N631 X134.102 Y24.118 Z4.600 
N632 X134.102 Y24.226 Z4.694 
N633 X134.102 Y24.334 Z4.787 
N634 X134.102 Y24.441 Z4.881 
N635 X134.102 Y24.549 Z4.975 
N636 X134.102 Y24.657 Z5.069 
N637 X134.102 Y24.765 Z5.163 
N638 X134.102 Y24.873 Z5.257 
N639 X134.102 Y24.981 Z5.351 
N640 X134.102 Y25.089 Z5.445 
N641 X134.102 Y25.197 Z5.538 
N642 X134.102 Y25.305 Z5.632 
N643 X134.102 Y25.413 Z5.726 
N644 X134.102 Y25.521 Z5.820 
N645 X134.102 Y25.629 Z5.914 
N646 X134.102 Y25.737 Z6.008 
N647 X134.102 Y25.845 Z6.102 
N648 X134.102 Y25.953 Z6.195 
N649 X134.102 Y26.061 Z6.289 
N650 X134.102 Y26.169 Z6.383 
N651 X134.102 Y26.277 Z6.477 
N652 X134.102 Y26.385 Z6.571 
N653 X134.102 Y26.493 Z6.665 
N654 X134.102 Y26.601 Z6.759 
N655 X134.102 Y26.709 Z6.853 
N656 X134.102 Y26.817 Z6.946 
N657 X134.102 Y26.925 Z7.040 
N658 X134.102 Y27.033 Z7.134 
N659 X134.102 Y27.141 Z7.228 
N660 X134.102 Y27.249 Z7.322 
N661 X134.102 Y27.357 Z7.416 
N662 X134.102 Y27.465 Z7.510 
N663 X134.102 Y27.573 Z7.603 
N664 X134.102 Y27.681 Z7.697 
N665 X134.102 Y27.789 Z7.791 
N666 X134.102 Y27.897 Z7.885 
N667 X134.102 Y28.005 Z7.979 
N668 X134.102 Y28.113 Z8.073 
N669 X134.102 Y28.221 Z8.167 
N670 X134.102 Y28.329 Z8.261 
N671 X134.102 Y28.437 Z8.354 
N672 X134.102 Y28.545 Z8.448 
N673 X134.102 Y28.653 Z8.542 
N674 X134.102 Y28.761 Z8.636 
N675 X134.102 Y28.869 Z8.730 
N676 X134.102 Y28.977 Z8.824 
N677 X134.102 Y29.085 Z8.918 
N678 X134.102 Y29.193 Z9.011 
N679 X134.102 Y29.301 Z9.105 
N680 X134.102 Y29.409 Z9.199 
N681 X134.102 Y29.517 Z9.293 
N682 X134.102 Y29.625 Z9.387 
N683 X134.102 Y29.733 Z9.481 
N684 X134.102 Y29.841 Z9.575 
N685 X134.102 Y29.949 Z9.669 
N686 X134.102 Y30.057 Z9.762 
N687 X134.102 Y30.164 Z9.856 
N688 X134.102 Y30.272 Z9.950 
N689 X134.102 Y30.380 Z10.044 
N690 X134.102 Y30.488 Z10.138 
N691 X134.102 Y30.596 Z10.232 
N692 X134.102 Y30.704 Z10.326 
N693 X134.102 Y30.812 Z10.419 
N694 X134.102 Y30.920 Z10.513 
N695 X134.102 Y31.028 Z10.607 
N696 X134.102 Y31.136 Z10.701 
N697 X134.102 Y31.244 Z10.795 
N698 X134.102 Y31.352 Z10.889 
N699 X134.102 Y31.460 Z10.983 
N700 X134.102 Y31.568 Z11.077 
N701 X134.102 Y31.676 Z11.170 
N702 X134.102 Y31.784 Z11.264 
N703 X134.102 Y31.892 Z11.358 
N704 X134.102 Y32.000 Z11.452 
N705 X134.102 Y32.108 Z11.546 
N706 X134.102 Y32.216 Z11.640 
N707 X134.102 Y32.324 Z11.734 
N708 X134.102 Y32.432 Z11.827 
N709 X134.102 Y32.540 Z11.921 
N710 X134.102 Y32.648 Z12.015 
N711 X134.102 Y32.756 Z12.109 
N712 X134.102 Y32.864 Z12.203 
N713 X134.102 Y32.972 Z12.297 
N714 X134.102 Y33.080 Z12.391 
N715 X134.102 Y33.188 Z12.485 
N716 X134.102 Y33.296 Z12.578 
N717 X134.102 Y33.404 Z12.672 
N718 X134.102 Y33.512 Z12.766 
N719 X134.102 Y33.620 Z12.860 
N720 X134.102 Y33.728 Z12.954 
N721 X134.102 Y33.836 Z13.048 
N722 X134.102 Y33.944 Z13.142 
N723 X134.102 Y34.052 Z13.235 
N724 X134.102 Y34.160 Z13.329 
N725 X134.102 Y34.268 Z13.423 
N726 X134.102 Y34.376 Z13.517 
N727 X134.102 Y34.484 Z13.611 
N728 X134.102 Y34.592 Z13.705 
N729 X134.102 Y34.700 Z13.799 
N730 X134.102 Y34.808 Z13.893 
N731 X134.102 Y34.916 Z13.986 
N732 X134.102 Y35.024 Z14.080 
N733 X134.102 Y35.132 Z14.174 
N734 X134.102 Y35.240 Z14.268 
N735 X134.102 Y35.348 Z14.362 
N736 X134.102 Y35.456 Z14.456 
N737 X134.102 Y35.564 Z14.550 
N738 X134.102 Y35.672 Z14.643 
N739 X134.102 Y35.780 Z14.737 
N740 X134.102 Y35.887 Z14.831 
N741 X134.102 Y35.995 Z14.925 
N742 X134.102 Y36.103 Z15.019 
N743 X134.102 Y36.211 Z15.113 
N744 X134.102 Y36.319 Z15.207 
N745 X134.102 Y36.427 Z15.301 
N746 X134.102 Y36.535 Z15.394 
N747 X134.102 Y36.643 Z15.488 
N748 X134.102 Y36.751 Z15.582 
N749 X134.102 Y36.859 Z15.676 
N750 X134.102 Y36.967 Z15.770 
N751 X134.102 Y37.075 Z15.864 
N752 X134.102 Y37.183 Z15.958 
N753 X134.102 Y37.291 Z16.051 
N754 X134.102 Y37.399 Z16.145 
N755 X134.102 Y37.507 Z16.239 
N756 X134.102 Y37.615 Z16.333 
N757 X134.102 Y37.723 Z16.427 
N758 X134.102 Y37.831 Z16.520 
N759 X134.102 Y37.938 Z16.614 
N760 X134.102 Y38.046 Z16.708 
N761 X134.102 Y38.154 Z16.802 
N762 X134.102 Y38.262 Z16.895 
N763 X134.102 Y38.370 Z16.989 
N764 X134.102 Y38.478 Z17.083 
N765 X134.102 Y38.585 Z17.176 
N766 X134.102 Y38.693 Z17.270 
N767 X134.102 Y38.801 Z17.364 
N768 X134.102 Y38.909 Z17.458 
N769 X134.102 Y39.017 Z17.551 
N770 X134.102 Y39.124 Z17.645 
N771 X134.102 Y39.232 Z17.739 
N772 X134.102 Y39.340 Z17.833 
N773 X134.102 Y39.448 Z17.926 
N774 X134.102 Y39.556 Z18.020 
N775 X134.102 Y39.664 Z18.114 
N776 X134.102 Y39.771 Z18.207 
N777 X134.102 Y39.879 Z18.301 
N778 X134.102 Y39.987 Z18.395 
N779 X134.102 Y40.095 Z18.489 
N780 X134.102 Y40.203 Z18.582 
N781 X134.102 Y40.310 Z18.676 
N782 X134.102 Y40.418 Z18.770 
N783 X134.102 Y40.526 Z18.863 
N784 X134.102 Y40.634 Z18.957 
N785 X134.102 Y40.742 Z19.051 
N786 X134.102 Y40.849 Z19.145 
N787 X134.102 Y40.957 Z19.238 
N788 X134.102 Y41.065 Z19.332 
N789 X134.102 Y41.173 Z19.426 
N790 X134.102 Y41.281 Z19.520 
N791 G40 X134.102 Y48.828 Z26.080 F286
N792 X134.102 Y48.828 Z26.080 
N793 G00 X136.127 Y81.604 Z-11.624 
RAPORT("T13732","Side Milling:101 End")
N795 ;trailer : concat=None
; points cnt = 729
N796 MSG (" --- GROUPED OF SUBPROGRAM --- ")
N797 FGROUP()
N798 TRAFOOF
N10 ; PROGRAM NAME: 1373285
N11 ; ORDER       : 13732
N12 ; OPER. NAME  : Side Milling:102
N13 ; OPER. DESCR.: FSSEND : POMA D2
N14 ; OPER. TYPE  : sideMill
N15 ; GEO. OPTION : 1
N16 ; MACHINE     : SH_HX151_24_SIM840D
N17 ;             : STARRAG_HECKERT_5axis_finish_milling_machine
N18 ; CONTROL     : SINUMERIK 840D
N19 ; created:   2021-11-10 08:05:19.183695
;-------DODATKOWE DANE-------------------
; PROGRAMISTA : Mariusz Orzechowski
; PARTID      : 132T008743P1005_-
;  ap         : 5.0
;  ae         : 5.0
;  lean_angle : 0.0
;  fin_offset : 0.0
;----------------------------------------
N20 ;----------------------------------------
RAPORT("T13732","Side Milling:102")
N21 TRAFOOF
N22 D0
N23 G0 G90 G94 Z260.0
N24 STOPRE
N25 M9 ; chlodziwo wyl
N26 ; --- Side Milling:102 - FSSEND : POMA D2 ---
N28 ;ToolChange : concat=None ,current_tdmid=None, PP.tdmId=940983
N29 TRAFOOF
N30 D0
N31 G0 G54 Z270.0
N32 S2864 M03
N33 STOPRE
N34 TOL(0.1,1,1)
N35 G0  A221.0395
N36 TRAORI
N37 G54 D1
N38 D2 
N39 ; DELTA A > 40.1
N40 TRAFOOF
N41 STOPRE
N42 G0 G53 D0 Z265.000
N43 G1 G53 A221.0395 F10000
N44 TRAORI
N45 G54 D2
N46 TRANS 
N47 G00 X137.026 Y65.732 Z-25.373 A221.0395 B3.0304 
N48 M342 ; chlodziwo woda
N49 X135.001 Y32.956 Z12.331 
N50 D2 
N51 G01 G41 X135.001 Y25.409 Z5.771 F286
N52 G01 X135.001 Y25.409 Z5.771 F286 
N53 X135.001 Y23.145 Z3.803 
N54 X135.001 Y19.371 Z0.522 
N55 X135.001 Y8.774 Z-8.690 
N56 X135.001 Y5.000 Z-11.971 
N57 G40 X135.001 Y-2.547 Z-18.531 F286
N58 X135.001 Y-2.547 Z-18.531 
N59 G00 X137.026 Y30.229 Z-56.236 
RAPORT("T13732","Side Milling:102 End")
N61 ;trailer : concat=None
; points cnt = 6
N62 MSG (" --- GROUPED OF SUBPROGRAM --- ")
N63 FGROUP()
N64 TRAFOOF
N10 ; PROGRAM NAME: 1373285
N11 ; ORDER       : 13732
N12 ; OPER. NAME  : Side Milling:103
N13 ; OPER. DESCR.: DFAZEND 
N14 ; OPER. TYPE  : sideMill
N15 ; GEO. OPTION : 1
N16 ; MACHINE     : SH_HX151_24_SIM840D
N17 ;             : STARRAG_HECKERT_5axis_finish_milling_machine
N18 ; CONTROL     : SINUMERIK 840D
N19 ; created:   2021-11-10 08:05:22.336678
;-------DODATKOWE DANE-------------------
; PROGRAMISTA : Mariusz Orzechowski
; PARTID      : 132T008743P1005_-
;  ap         : 5.0
;  ae         : 5.0
;  lean_angle : 0.0
;  fin_offset : 0.0
;----------------------------------------
N20 ;----------------------------------------
RAPORT("T13732","Side Milling:103")
N21 TRAFOOF
N22 D0
N23 G0 G90 G94 Z260.0
N24 STOPRE
N25 M9 ; chlodziwo wyl
N26 ; --- Side Milling:103 - DFAZEND  ---
N28 ;ToolChange : concat=None ,current_tdmid=None, PP.tdmId=940984
N29 MSG(" TLID=940984 D=12.0 R=0.0 Ang=0.0 Len=120.0 ")
N30 TRAFOOF
N31 D0
N32 G0 G53 Z290 B0
N33 G0 X200
N34 G0 Y150
N35 T="7740984"
N36 G0 X500
RAPORT("T13732","ToolChangeStart 7740984")
N37 M6
RAPORT("T13732","ToolChangeEnd")
N38 ; (Preloading tool)
N39 T="7759057"
N40 G0 X200
N41 STOPRE
N42 S2652 M03
N43 STOPRE
N44 TOL(0.1,1,1)
N45 G0 X141.322 A221.0395
N46 TRAORI
N47 G54 D1
N48 D1 
N49 TRANS  X=R21
N50 ; DELTA A > 40.1
N51 TRAFOOF
N52 STOPRE
N53 G0 G53 D0 Z265.000
N54 G1 G53 A221.0395 F10000
N55 TRAORI
N56 G54 D1
N57 TRANS  X=R21
N58 G00 X141.322 Y11.310 Z-72.451 A221.0395 B3.0304 
N59 M342 ; chlodziwo woda
N60 X139.297 Y-21.466 Z-34.746 
N61 G01 X139.297 Y-13.919 Z-28.186 F424 
N62 X139.297 Y-13.353 Z-27.693 
N63 X139.297 Y-12.787 Z-27.201 
N64 X139.297 Y-12.221 Z-26.709 
N65 X139.297 Y-11.654 Z-26.217 
N66 X139.297 Y-11.088 Z-25.725 
N67 X139.297 Y-10.522 Z-25.233 
N68 X139.297 Y-9.956 Z-24.741 
N69 X139.297 Y-9.390 Z-24.249 
N70 X139.297 Y-8.824 Z-23.757 
N71 X139.297 Y-8.258 Z-23.265 
N72 X139.297 Y-7.692 Z-22.773 
N73 X139.297 Y-7.126 Z-22.281 
N74 X139.297 Y-6.598 Z-21.822 
N75 X139.297 Y-6.070 Z-21.363 
N76 X139.297 Y-5.542 Z-20.903 
N77 X139.297 Y-5.013 Z-20.444 
N78 X139.297 Y-4.485 Z-19.985 
N79 X139.297 Y-3.957 Z-19.526 
N80 X139.297 Y-3.429 Z-19.067 
N81 X139.297 Y-2.900 Z-18.608 
N82 X139.297 Y-2.372 Z-18.148 
N83 X139.297 Y-1.844 Z-17.689 
N84 X139.297 Y-1.316 Z-17.230 
N85 X139.297 Y-0.788 Z-16.771 
N86 X139.297 Y-0.259 Z-16.312 
N87 X139.297 Y0.269 Z-15.853 
N88 X139.297 Y0.797 Z-15.393 
N89 X139.297 Y1.325 Z-14.934 
N90 X139.297 Y1.854 Z-14.475 
N91 X139.297 Y2.382 Z-14.016 
N92 X139.297 Y2.910 Z-13.557 
N93 X139.297 Y3.438 Z-13.097 
N94 X139.297 Y4.004 Z-12.605 
N95 X139.297 Y4.570 Z-12.113 
N96 X139.297 Y5.136 Z-11.621 
N97 X139.297 Y5.702 Z-11.129 
N98 X139.297 Y6.268 Z-10.637 
N99 X139.297 Y6.834 Z-10.145 
N100 X139.297 Y7.400 Z-9.653 
N101 X139.297 Y7.966 Z-9.161 
N102 X139.702 Y14.522 Z-16.702 F1000 
N103 G00 X141.322 Y40.742 Z-46.866 
RAPORT("T13732","Side Milling:103 End")
N105 ;trailer : concat=None
; points cnt = 42
N106 MSG (" --- GROUPED OF SUBPROGRAM --- ")
N107 FGROUP()
N108 TRAFOOF
N10 ; PROGRAM NAME: 1373285
N11 ; ORDER       : 13732
N12 ; OPER. NAME  : Side Milling:104
N13 ; OPER. DESCR.: NNTEEND : Lejek D5
N14 ; OPER. TYPE  : sideMill
N15 ; GEO. OPTION : 1
N16 ; MACHINE     : SH_HX151_24_SIM840D
N17 ;             : STARRAG_HECKERT_5axis_finish_milling_machine
N18 ; CONTROL     : SINUMERIK 840D
N19 ; created:   2021-11-10 08:05:27.012255
;-------DODATKOWE DANE-------------------
; PROGRAMISTA : Mariusz Orzechowski
; PARTID      : 132T008743P1005_-
;  ap         : 5.0
;  ae         : 5.0
;  lean_angle : 0.0
;  fin_offset : 0.0
;----------------------------------------
N20 ;----------------------------------------
RAPORT("T13732","Side Milling:104")
N21 TRAFOOF
N22 D0
N23 G0 G90 G94 Z260.0
N24 STOPRE
N25 M9 ; chlodziwo wyl
N26 ; --- Side Milling:104 - NNTEEND : Lejek D5 ---
N28 ;ToolChange : concat=None ,current_tdmid=None, PP.tdmId=959057
N29 MSG(" TLID=959057 D=6.0 R=0.6 Ang=0.0 Len=100.0 ")
N30 TRAFOOF
N31 D0
N32 G0 G53 Z290 B0
N33 G0 X200
N34 G0 Y150
N35 T="7759057"
N36 G0 X500
RAPORT("T13732","ToolChangeStart 7759057")
N37 M6
RAPORT("T13732","ToolChangeEnd")
N38 ; (Preloading tool)
N39 T="7740983"
N40 G0 X200
N41 STOPRE
N42 S3713 M03
N43 STOPRE
N44 TOL(0.1,1,1)
N45 G0 X152.416 A311.0000
N46 TRAORI
N47 G54 D1
N48 ; DELTA A > 40.1
N49 TRAFOOF
N50 STOPRE
N51 G0 G53 D0 Z265.000
N52 G1 G53 A311.0000 F10000
N53 TRAORI
N54 G54 D1
N55 TRANS 
N56 G00 X152.416 Y67.147 Z9.583 A311.0000 B0.0000 
N57 M342 ; chlodziwo woda
N58 X152.416 Y29.412 Z-23.220 
N59 D5 
N60 G01 G42 X150.821 Y22.935 Z-15.770 F193
N61 G01 X150.821 Y22.935 Z-15.770 F193 
N62 X150.342 Y20.992 Z-13.535 
N63 X149.863 Y19.049 Z-11.300 
N64 X148.905 Y15.156 Z-6.821 
N65 X148.426 Y13.213 Z-4.586 
N66 G40 X148.426 Y13.213 Z-4.586 F193
N67 
N68 G00 X148.426 Y50.949 Z28.217 
RAPORT("T13732","Side Milling:104 End")
N70 ;trailer : concat=None
; points cnt = 6
N71 MSG (" --- GROUPED OF SUBPROGRAM --- ")
N72 FGROUP()
N73 TRAFOOF
N10 ; PROGRAM NAME: 1373285
N11 ; ORDER       : 13732
N12 ; OPER. NAME  : Side Milling:105
N13 ; OPER. DESCR.: NNTEEND : Lejek D6
N14 ; OPER. TYPE  : sideMill
N15 ; GEO. OPTION : 1
N16 ; MACHINE     : SH_HX151_24_SIM840D
N17 ;             : STARRAG_HECKERT_5axis_finish_milling_machine
N18 ; CONTROL     : SINUMERIK 840D
N19 ; created:   2021-11-10 08:05:31.278023
;-------DODATKOWE DANE-------------------
; PROGRAMISTA : Mariusz Orzechowski
; PARTID      : 132T008743P1005_-
;  ap         : 5.0
;  ae         : 5.0
;  lean_angle : 0.0
;  fin_offset : 0.0
;----------------------------------------
N20 ;----------------------------------------
RAPORT("T13732","Side Milling:105")
N21 TRAFOOF
N22 D0
N23 G0 G90 G94 Z260.0
N24 STOPRE
N25 M9 ; chlodziwo wyl
N26 ; --- Side Milling:105 - NNTEEND : Lejek D6 ---
N28 ;ToolChange : concat=None ,current_tdmid=None, PP.tdmId=959057
N29 TRAFOOF
N30 D0
N31 G0 G54 Z270.0
N32 S3713 M03
N33 STOPRE
N34 TOL(0.1,1,1)
N35 G0  A311.0000
N36 TRAORI
N37 G54 D1
N38 ; DELTA A > 40.1
N39 TRAFOOF
N40 STOPRE
N41 G0 G53 D0 Z265.000
N42 G1 G53 A311.0000 F10000
N43 TRAORI
N44 G54 D1
N45 TRANS 
N46 G00 X146.166 Y67.447 Z9.238 A311.0000 B0.0000 
N47 M342 ; chlodziwo woda
N48 X146.166 Y29.711 Z-23.565 
N49 D6 
N50 G01 G41 X146.927 Y23.170 Z-16.039 F193
N51 G01 X146.927 Y23.170 Z-16.039 F193 
N52 X146.952 Y22.952 Z-15.789 
N53 X146.977 Y22.734 Z-15.538 
N54 X147.003 Y22.515 Z-15.287 
N55 X147.028 Y22.297 Z-15.036 
N56 X147.053 Y22.079 Z-14.785 
N57 X147.079 Y21.861 Z-14.534 
N58 X147.104 Y21.643 Z-14.284 
N59 X147.129 Y21.425 Z-14.033 
N60 X147.155 Y21.207 Z-13.782 
N61 X147.180 Y20.989 Z-13.531 
N62 X147.205 Y20.771 Z-13.280 
N63 X147.231 Y20.553 Z-13.029 
N64 X147.256 Y20.335 Z-12.779 
N65 X147.281 Y20.117 Z-12.528 
N66 X147.307 Y19.899 Z-12.277 
N67 X147.332 Y19.681 Z-12.026 
N68 X147.358 Y19.463 Z-11.775 
N69 X147.383 Y19.245 Z-11.524 
N70 X147.408 Y19.031 Z-11.278 
N71 X147.433 Y18.817 Z-11.032 
N72 X147.458 Y18.603 Z-10.786 
N73 X147.482 Y18.389 Z-10.540 
N74 X147.507 Y18.175 Z-10.294 
N75 X147.532 Y17.961 Z-10.047 
N76 X147.557 Y17.747 Z-9.801 
N77 X147.582 Y17.533 Z-9.555 
N78 X147.607 Y17.319 Z-9.309 
N79 X147.632 Y17.105 Z-9.063 
N80 X147.657 Y16.891 Z-8.817 
N81 X147.681 Y16.677 Z-8.570 
N82 X147.706 Y16.463 Z-8.324 
N83 X147.731 Y16.249 Z-8.078 
N84 X147.756 Y16.035 Z-7.832 
N85 X147.781 Y15.821 Z-7.586 
N86 X147.806 Y15.607 Z-7.340 
N87 X147.831 Y15.393 Z-7.093 
N88 X147.856 Y15.179 Z-6.847 
N89 X147.881 Y14.961 Z-6.596 
N90 X147.906 Y14.743 Z-6.346 
N91 X147.932 Y14.525 Z-6.095 
N92 X147.957 Y14.307 Z-5.844 
N93 X147.982 Y14.089 Z-5.593 
N94 X148.008 Y13.871 Z-5.342 
N95 X148.033 Y13.653 Z-5.091 
N96 X148.058 Y13.435 Z-4.841 
N97 X148.084 Y13.217 Z-4.590 
N98 G40 X148.084 Y13.217 Z-4.590 F193
N99 
N100 G00 X148.084 Y50.952 Z28.213 
RAPORT("T13732","Side Milling:105 End")
N102 ;trailer : concat=None
; points cnt = 48
N103 M9 ; chlodziwo wyl.
N104 M9 ; chlodziwo wyl.
N105 MSG (" --- KONIEC PROGRAMU --- ")
N106 TRANS
N107 G54
N108 FGROUP()
N109 TRAFOOF
N110 STOPRE
N111 G0 G53 D0 Z290.0 M9 M5
N112 G0 G53 Y150 A0 B0
N113 M17
