N10 ; PROGRAM NAME: 1373214
N11 ; ORDER       : 13732
N12 ; OPER. NAME  : Spiral Rough Rhombic:105
N13 ; OPER. DESCR.: spiral roughing rhombic/bandaz zgr
N14 ; OPER. TYPE  : rouRoot
N15 ; GEO. OPTION : 4
N16 ; MACHINE     : SH_HX151_24_SIM840D
N17 ;             : STARRAG_HECKERT_5axis_finish_milling_machine
N18 ; CONTROL     : SINUMERIK 840D
N19 ; created:   2021-11-10 08:28:46.536312
;-------DODATKOWE DANE-------------------
; PROGRAMISTA : Mariusz Orzechowski
; PARTID      : 132T008743P1005_-
;  ap         : 2.5
;  ae         : 24.0
;  lean_angle : 1.0
;  fin_offset : 0.6
;----------------------------------------
N20 ;----------------------------------------
RAPORT("T13732","Spiral Rough Rhombic:105")
N21 TRAFOOF
N22 D0
N23 G90 G94
N24 STOPRE
N25 M9 ; chlodziwo wyl
N26 ; --- Spiral Rough Rhombic:105 - spiral roughing rhombic/bandaz zgr ---
N28 ;ToolChange : concat=None ,current_tdmid=None, PP.tdmId=958060
N29 MSG(" TLID=958060 D=40.0 R=6.0 Ang=0.0 Len=90.0 ")
N30 TRAFOOF
N31 D0
N32 G0 G53 Z290 B0
N33 G0 X200
N34 G0 Y150
N35 T="7758060"
N36 G0 X500
RAPORT("T13732","ToolChangeStart 7758060")
N37 M6
RAPORT("T13732","ToolChangeEnd")
N38 ; (Preloading tool)
N39 T="7740679"
N40 G0 X200
N41 STOPRE
N42 S2148 M03
N43 STOPRE
N44 TOL(0.1,1,1)
N45 G0 X200.192 A88.5986
N46 TRAORI
N47 G54 D1
N48 D1 
N49 ; DELTA A > 40.1
N50 TRAFOOF
N51 STOPRE
N52 G0 G53 D0 Z265.000
N53 G1 G53 A88.5986 F10000
N54 TRAORI
N55 G54 D1
N56 TRANS 
N57 G00 X200.192 Y-90.096 Z-39.807 A88.5986 B0.0000 
N58 M346 ; chlodziwo mgla
N59 X200.192 Y-40.111 Z-41.030 
N60 G01 X200.192 Y-37.018 Z-40.562 F3007 
N61 X200.192 Y-34.220 Z-39.162 
N62 X200.192 Y-31.993 Z-36.965 
N63 X200.192 Y-30.553 Z-34.187 
N64 X200.192 Y-30.042 Z-31.101 
N65 X200.192 Y-30.018 Z-27.766 
N66 X200.192 Y-29.995 Z-24.491 
N67 X200.192 Y-29.973 Z-21.328 
N68 X200.192 Y-29.952 Z-18.326 
N69 X200.192 Y-29.932 Z-15.525 
N70 X200.192 Y-29.914 Z-12.955 
N71 X200.192 Y-29.898 Z-10.636 
N72 X200.192 Y-29.884 Z-8.577 
N73 X200.192 Y-29.871 Z-6.776 
N74 X200.192 Y-29.870 Z-5.223 A88.5591 
N75 X200.192 Y-29.960 Z-3.898 A88.1386 
N76 X200.192 Y-30.301 Z-2.768 A86.6333 
N77 X200.192 Y-31.054 Z-1.768 A83.3124 
N78 X200.192 Y-32.144 Z-0.809 A78.3837 
N79 X200.192 Y-33.393 Z0.182 A72.5122 
N80 X200.192 Y-34.707 Z1.262 A66.0045 
N81 X200.192 Y-36.008 Z2.467 A59.0905 
N82 X200.192 Y-37.232 Z3.816 A51.9185 
N83 X200.192 Y-38.303 Z5.293 A44.7016 
N84 X200.192 Y-39.141 Z6.835 A37.7713 
N85 X200.192 Y-39.750 Z8.440 A31.0135 
N86 X200.192 Y-40.119 Z10.096 A24.3892 
N87 X200.192 Y-40.212 Z11.733 A18.0818 
N88 X200.192 Y-40.017 Z13.279 A12.2640 
N89 X200.192 Y-39.537 Z14.654 A7.1264 
N90 X200.192 Y-38.792 Z15.750 A3.0053 
N91 X200.192 Y-37.812 Z16.433 A0.4102 
N92 X200.192 Y-36.630 Z16.699 A359.3948 
N93 X200.192 Y-35.246 Z16.760 A359.1727 
N94 X200.192 Y-33.645 Z16.770 A359.1477 
N95 X200.192 Y-31.820 Z16.775 A359.1476 
N96 X200.192 Y-29.769 Z16.780 
N97 X200.192 Y-27.500 Z16.786 
N98 X200.192 Y-25.031 Z16.793 
N99 X200.192 Y-22.389 Z16.799 
N100 X200.192 Y-19.610 Z16.807 
N101 X200.192 Y-16.736 Z16.814 
N102 X200.192 Y-13.817 Z16.821 
N103 X200.192 Y-10.903 Z16.829 
N104 X200.192 Y-8.043 Z16.836 
N105 X200.192 Y-5.286 Z16.843 
N106 X200.192 Y-2.672 Z16.850 
N107 X200.192 Y-0.237 Z16.856 
N108 X200.192 Y1.994 Z16.862 
N109 X200.192 Y4.006 Z16.867 
N110 X200.192 Y5.792 Z16.872 A359.1468 
N111 X200.192 Y7.355 Z16.892 A359.0805 
N112 X200.192 Y8.705 Z16.999 A358.6366 
N113 X200.192 Y9.868 Z17.331 A357.2131 
N114 X200.192 Y10.894 Z18.016 A354.2056 
N115 X200.192 Y11.854 Z18.991 A349.8080 B-0.0008 
N116 X200.192 Y12.808 Z20.107 A344.5819 B-0.0041 
N117 X200.192 Y13.803 Z21.286 A338.8054 B-0.0134 
N118 X200.192 Y14.870 Z22.465 A332.6943 B-0.0274 
N119 X200.192 Y16.017 Z23.581 A326.4569 B-0.0373 
N120 X200.192 Y17.238 Z24.585 A320.2475 B-0.0339 
N121 X200.192 Y18.522 Z25.448 A314.1546 B-0.0161 
N122 X200.192 Y19.859 Z26.157 A308.1935 B0.0069 
N123 X200.192 Y21.250 Z26.705 A302.3148 B0.0245 
N124 X200.192 Y22.687 Z27.080 A296.5052 B0.0316 
N125 X200.192 Y24.137 Z27.258 A290.8464 B0.0289 
N126 X200.192 Y25.551 Z27.224 A285.4579 B0.0201 
N127 X200.192 Y26.874 Z26.973 A280.4834 B0.0106 
N128 X200.192 Y28.041 Z26.512 A276.0998 B0.0040 
N129 X200.192 Y28.969 Z25.863 A272.5835 B0.0011 
N130 X200.192 Y29.566 Z25.056 A270.2948 B0.0000 
N131 X200.192 Y29.843 Z24.123 A269.2136 
N132 X200.192 Y29.933 Z23.075 A268.8469 
N133 X200.192 Y29.951 Z21.915 A268.7553 B0.0014 
N134 X200.192 Y29.948 Z20.649 A268.7443 B0.0042 
N135 X200.192 Y29.942 Z19.286 A268.7442 B0.0095 
N136 X200.192 Y29.936 Z17.843 B0.0176 
N137 X200.192 Y29.929 Z16.339 B0.0277 
N138 X200.192 Y29.922 Z14.799 A268.7442 B0.0394 
N139 X200.192 Y29.915 Z13.246 A268.7442 B0.0525 
N140 X200.192 Y29.908 Z11.708 A268.7442 B0.0667 
N141 X200.192 Y29.901 Z10.210 A268.7442 B0.0814 
N142 X200.192 Y29.895 Z8.774 A268.7442 B0.0963 
N143 X200.192 Y29.889 Z7.420 A268.7443 B0.1110 
N144 X200.192 Y29.884 Z6.165 A268.7418 B0.1253 
N145 X200.192 Y29.894 Z5.017 A268.6792 B0.1390 
N146 X200.192 Y29.964 Z3.981 A268.3619 B0.1535 
N147 X200.192 Y30.184 Z3.053 A267.4008 B0.1717 
N148 X200.193 Y30.675 Z2.212 A265.2570 B0.1998 
N149 X200.193 Y31.462 Z1.413 A261.7687 B0.2444 
N150 X200.193 Y32.439 Z0.611 A257.3221 B0.3088 
N151 X200.193 Y33.513 Z-0.231 A252.2548 B0.3929 
N152 X200.194 Y34.633 Z-1.145 A246.7269 B0.4932 
N153 X200.194 Y35.745 Z-2.150 A240.9036 B0.6015 
N154 X200.194 Y36.817 Z-3.265 A234.8316 B0.7030 
N155 X200.194 Y37.830 Z-4.516 A228.4745 B0.7706 
N156 X200.194 Y38.704 Z-5.871 A222.0997 B0.7720 
N157 X200.194 Y39.396 Z-7.298 A215.8452 B0.7061 
N158 X200.194 Y39.910 Z-8.823 A209.5244 B0.6041 
N159 X200.194 Y40.212 Z-10.424 A203.1789 B0.4955 
N160 X200.193 Y40.254 Z-12.024 A197.0453 B0.3943 
N161 X200.193 Y40.014 Z-13.540 A191.3517 B0.3059 
N162 X200.193 Y39.493 Z-14.874 A186.3650 B0.2332 
N163 X200.192 Y38.709 Z-15.915 A182.4441 B0.1788 
N164 X200.192 Y37.697 Z-16.531 A180.0904 B0.1438 
N165 X200.192 Y36.484 Z-16.748 A179.2583 B0.1260 
N166 X200.192 Y35.067 Z-16.791 A179.1008 B0.1186 
N167 X200.192 Y33.432 Z-16.797 A179.0863 B0.1140 
N168 X200.192 Y31.571 Z-16.799 A179.0863 B0.1091 
N169 X200.192 Y29.485 Z-16.803 B0.1038 
N170 X200.192 Y27.183 Z-16.806 A179.0863 B0.0980 
N171 X200.192 Y24.684 Z-16.810 B0.0920 
N172 X200.192 Y22.017 Z-16.814 A179.0863 B0.0857 
N173 X200.192 Y19.219 Z-16.818 B0.0794 
N174 X200.192 Y16.334 Z-16.822 A179.0863 B0.0731 
N175 X200.192 Y13.411 Z-16.827 B0.0669 
N176 X200.192 Y10.500 Z-16.831 A179.0863 B0.0611 
N177 X200.192 Y7.651 Z-16.835 B0.0556 
N178 X200.192 Y4.912 Z-16.840 B0.0506 
N179 X200.192 Y2.323 Z-16.844 A179.0863 B0.0461 
N180 X200.192 Y-0.083 Z-16.847 B0.0418 
N181 X200.192 Y-2.282 Z-16.850 B0.0367 
N182 X200.192 Y-4.260 Z-16.853 A179.0863 B0.0298 
N183 X200.192 Y-6.011 Z-16.856 A179.0845 B0.0224 
N184 X200.192 Y-7.540 Z-16.879 A179.0008 B0.0163 
N185 X200.192 Y-8.859 Z-16.997 A178.5027 B0.0128 
N186 X200.192 Y-9.994 Z-17.362 A176.9301 B0.0151 
N187 X200.192 Y-11.001 Z-18.095 A173.7052 B0.0275 
N188 X200.192 Y-11.953 Z-19.100 A169.1558 B0.0511 
N189 X200.192 Y-12.905 Z-20.229 A163.8432 B0.0794 
N190 X200.192 Y-13.903 Z-21.409 A158.0326 B0.0982 
N191 X200.192 Y-14.969 Z-22.572 A151.9548 B0.0990 
N192 X200.192 Y-16.119 Z-23.675 A145.7298 B0.0829 
N193 X200.192 Y-17.373 Z-24.700 A139.3530 B0.0534 
N194 X200.192 Y-18.705 Z-25.585 A133.0336 B0.0171 
N195 X200.192 Y-20.066 Z-26.279 A127.0080 B-0.0152 
N196 X200.192 Y-21.447 Z-26.787 A121.2290 B-0.0357 
N197 X200.192 Y-22.855 Z-27.117 A115.5845 B-0.0415 
N198 X200.192 Y-24.266 Z-27.255 A110.1065 B-0.0345 
N199 X200.192 Y-25.638 Z-27.188 A104.9059 B-0.0213 
N200 X200.192 Y-26.918 Z-26.912 A100.1040 B-0.0093 
N201 X200.192 Y-28.057 Z-26.436 A95.8293 B-0.0025 
N202 X200.192 Y-28.974 Z-25.776 A92.3514 B0.0000 
N203 X200.192 Y-29.567 Z-24.960 A90.0622 
N204 X200.192 Y-29.846 Z-24.019 A88.9577 
N205 X200.192 Y-29.937 Z-22.964 A88.5658 
N206 X200.192 Y-29.951 Z-21.799 A88.4656 
N207 X200.192 Y-29.942 Z-20.529 A88.4542 
N208 X200.192 Y-29.929 Z-19.165 A88.4541 
N209 X200.192 Y-29.915 Z-17.722 
N210 X200.192 Y-29.901 Z-16.221 
N211 X200.192 Y-29.887 Z-14.686 
N212 X200.192 Y-29.872 Z-13.141 
N213 X200.192 Y-29.857 Z-11.612 
N214 X200.192 Y-29.843 Z-10.126 
N215 X200.192 Y-29.830 Z-8.704 
N216 X200.192 Y-29.817 Z-7.365 
N217 X200.192 Y-29.805 Z-6.125 A88.4523 
N218 X200.192 Y-29.810 Z-4.994 A88.3873 
N219 X200.192 Y-29.883 Z-3.973 A88.0359 
N220 X200.192 Y-30.113 Z-3.059 A87.0119 
N221 X200.192 Y-30.610 Z-2.228 A84.8215 
N222 X200.192 Y-31.398 Z-1.436 A81.3133 
N223 X200.192 Y-32.374 Z-0.637 A76.8507 
N224 X200.192 Y-33.450 Z0.205 A71.7577 
N225 X200.192 Y-34.573 Z1.123 A66.1921 
N226 X200.192 Y-35.695 Z2.140 A60.2912 
N227 X200.192 Y-36.779 Z3.275 A54.1174 
N228 X200.192 Y-37.789 Z4.541 A47.7134 
N229 X200.192 Y-38.654 Z5.910 A41.3033 
N230 X200.192 Y-39.341 Z7.362 A34.9621 
N231 X200.192 Y-39.842 Z8.906 A28.5825 
N232 X200.192 Y-40.118 Z10.504 A22.2627 
N233 X200.192 Y-40.130 Z12.080 A16.2316 
N234 X200.192 Y-39.866 Z13.558 A10.6765 
N235 X200.192 Y-39.331 Z14.853 A5.8268 
N236 X200.192 Y-38.542 Z15.848 A2.0643 
N237 X200.192 Y-37.536 Z16.424 A359.8513 
N238 X200.192 Y-36.335 Z16.627 A359.0581 
N239 X200.192 Y-34.935 Z16.666 A358.8947 
N240 X200.192 Y-33.322 Z16.666 A358.8792 
N241 X200.192 Y-31.490 Z16.662 A358.8792 
N242 X200.192 Y-29.440 Z16.658 
N243 X200.192 Y-27.181 Z16.653 
N244 X200.192 Y-24.733 Z16.648 
N245 X200.192 Y-22.124 Z16.643 
N246 X200.192 Y-19.389 Z16.637 
N247 X200.192 Y-16.571 Z16.631 
N248 X200.192 Y-13.719 Z16.625 A358.8789 
N249 X200.192 Y-10.879 Z16.624 A358.8576 
N250 X200.192 Y-8.101 Z16.653 A358.7006 
N251 X200.192 Y-5.428 Z16.693 A358.4566 
N252 X200.192 Y-2.901 Z16.725 A358.2077 
N253 X200.192 Y-0.550 Z16.748 A357.9609 
N254 X200.192 Y1.601 Z16.761 A357.7328 
N255 X200.192 Y3.539 Z16.758 A357.5569 
N256 X200.192 Y5.257 Z16.730 A357.4907 
N257 X200.192 Y6.761 Z16.715 A357.3861 
N258 X200.192 Y8.067 Z16.822 A356.7843 B-0.0033 
N259 X200.192 Y9.206 Z17.185 A355.0726 B-0.0132 
N260 X200.192 Y10.236 Z17.898 A351.7977 B-0.0322 
N261 X200.192 Y11.227 Z18.885 A347.1857 B-0.0586 
N262 X200.192 Y12.232 Z20.000 A341.7797 B-0.0857 
N263 X200.192 Y13.285 Z21.147 A335.9321 B-0.1015 
N264 X200.192 Y14.403 Z22.255 A329.8912 B-0.0989 
N265 X200.192 Y15.585 Z23.276 A323.8214 B-0.0808 
N266 X200.192 Y16.828 Z24.178 A317.8202 B-0.0511 
N267 X200.192 Y18.122 Z24.939 A311.9372 B-0.0133 
N268 X200.192 Y19.463 Z25.550 A306.1661 B0.0263 
N269 X200.192 Y20.853 Z26.005 A300.4538 B0.0631 
N270 X200.192 Y22.283 Z26.289 A294.7979 B0.0954 
N271 X200.192 Y23.720 Z26.379 A289.2790 B0.1229 
N272 X200.192 Y25.117 Z26.261 A284.0111 B0.1459 
N273 X200.192 Y26.406 Z25.929 A279.1885 B0.1650 
N274 X200.192 Y27.504 Z25.393 A275.0765 B0.1813 
N275 X200.193 Y28.309 Z24.680 A272.0374 B0.1956 
N276 X200.193 Y28.767 Z23.826 A270.3003 B0.2080 
N277 X200.193 Y28.961 Z22.858 A269.5718 B0.2191 
N278 X200.193 Y29.026 Z21.783 A269.3426 B0.2301 
N279 X200.193 Y29.043 Z20.606 A269.2984 B0.2416 
N280 X200.193 Y29.050 Z19.337 A269.2966 B0.2539 
N281 X200.193 Y29.057 Z17.987 A269.2966 B0.2669 
N282 X200.193 Y29.064 Z16.576 A269.2967 B0.2806 
N283 X200.193 Y29.072 Z15.123 A269.2967 B0.2946 
N284 X200.193 Y29.080 Z13.652 A269.2956 B0.3088 
N285 X200.193 Y29.091 Z12.188 A269.2812 B0.3227 
N286 X200.193 Y29.113 Z10.755 A269.2185 B0.3355 
N287 X200.193 Y29.152 Z9.374 A269.0727 B0.3473 
N288 X200.193 Y29.190 Z8.067 A268.9192 B0.3588 
N289 X200.193 Y29.204 Z6.848 A268.8504 B0.3692 
N290 X200.193 Y29.211 Z5.730 A268.8104 B0.3787 
N291 X200.193 Y29.258 Z4.717 A268.5997 B0.3893 
N292 X200.193 Y29.422 Z3.809 A267.8882 B0.4060 
N293 X200.193 Y29.808 Z2.991 A266.2158 B0.4363 
N294 X200.193 Y30.490 Z2.229 A263.2293 B0.4871 
N295 X200.194 Y31.417 Z1.473 A259.0832 B0.5609 
N296 X200.194 Y32.484 Z0.681 A254.1611 B0.6557 
N297 X200.194 Y33.617 Z-0.180 A248.7177 B0.7667 
N298 X200.195 Y34.743 Z-1.125 A243.0027 B0.8847 
N299 X200.195 Y35.819 Z-2.160 A237.1445 B0.9971 
N300 X200.195 Y36.845 Z-3.317 A231.0318 B1.0864 
N301 X200.196 Y37.787 Z-4.607 A224.7018 B1.1232 
N302 X200.195 Y38.567 Z-5.981 A218.4420 B1.0896 
N303 X200.195 Y39.174 Z-7.445 A212.1849 B1.0028 
N304 X200.195 Y39.593 Z-9.003 A205.8457 B0.8938 
N305 X200.194 Y39.776 Z-10.598 A199.6083 B0.7829 
N306 X200.194 Y39.691 Z-12.149 A193.7007 B0.6797 
N307 X200.194 Y39.330 Z-13.569 A188.3548 B0.5912 
N308 X200.194 Y38.705 Z-14.752 A183.8913 B0.5235 
N309 X200.193 Y37.844 Z-15.580 A180.7235 B0.4803 
N310 X200.193 Y36.784 Z-15.975 A179.1787 B0.4612 
N311 X200.193 Y35.536 Z-16.075 A178.7631 B0.4574 
N312 X200.193 Y34.087 Z-16.083 A178.6997 B0.4592 
N313 X200.193 Y32.427 Z-16.075 A178.6972 B0.4622 
N314 X200.193 Y30.552 Z-16.065 A178.6972 B0.4657 
N315 X200.193 Y28.466 Z-16.054 A178.6972 B0.4695 
N316 X200.193 Y26.183 Z-16.042 A178.6972 B0.4737 
N317 X200.193 Y23.724 Z-16.029 A178.6973 B0.4782 
N318 X200.193 Y21.122 Z-16.015 A178.6973 B0.4830 
N319 X200.193 Y18.414 Z-16.001 A178.6973 B0.4880 
N320 X200.194 Y15.644 Z-15.986 A178.6973 B0.4931 
N321 X200.194 Y12.859 Z-15.971 A178.6973 B0.4982 
N322 X200.194 Y10.107 Z-15.957 A178.6967 B0.5033 
N323 X200.194 Y7.435 Z-15.953 A178.6532 B0.5082 
N324 X200.194 Y4.881 Z-15.988 A178.4320 B0.5137 
N325 X200.194 Y2.483 Z-16.039 A178.0971 B0.5222 
N326 X200.194 Y0.267 Z-16.070 A177.8100 B0.5326 
N327 X200.194 Y-1.749 Z-16.113 A177.4392 B0.5336 
N328 X200.194 Y-3.554 Z-16.146 A177.0829 B0.5181 
N329 X200.194 Y-5.146 Z-16.132 A176.9099 B0.4965 
N330 X200.193 Y-6.535 Z-16.144 A176.6471 B0.4752 
N331 X200.193 Y-7.744 Z-16.341 A175.6108 B0.4525 
N332 X200.193 Y-8.820 Z-16.867 A173.1386 B0.4256 
N333 X200.193 Y-9.837 Z-17.760 A168.9884 B0.3920 
N334 X200.193 Y-10.864 Z-18.880 A163.6357 B0.3511 
N335 X200.193 Y-11.942 Z-20.063 A157.6986 B0.3028 
N336 X200.193 Y-13.073 Z-21.192 A151.6241 B0.2478 
N337 X200.193 Y-14.255 Z-22.219 A145.5933 B0.1864 
N338 X200.192 Y-15.502 Z-23.141 A139.5705 B0.1176 
N339 X200.192 Y-16.814 Z-23.938 A133.5842 B0.0437 
N340 X200.192 Y-18.152 Z-24.564 A127.8286 B-0.0252 
N341 X200.192 Y-19.511 Z-25.018 A122.2761 B-0.0824 
N342 X200.191 Y-20.903 Z-25.308 A116.8042 B-0.1277 
N343 X200.191 Y-22.313 Z-25.418 A111.4228 B-0.1624 
N344 X200.191 Y-23.709 Z-25.333 A106.1998 B-0.1877 
N345 X200.191 Y-25.026 Z-25.039 A101.3242 B-0.2044 
N346 X200.191 Y-26.169 Z-24.536 A97.1092 B-0.2134 
N347 X200.191 Y-27.028 Z-23.847 A93.9556 B-0.2152 
N348 X200.191 Y-27.543 Z-23.007 A92.0987 B-0.2108 
N349 X200.191 Y-27.792 Z-22.047 A91.2665 B-0.2019 
N350 X200.191 Y-27.898 Z-20.982 A90.9939 B-0.1903 
N351 X200.191 Y-27.949 Z-19.821 A90.9470 B-0.1756 
N352 X200.191 Y-27.992 Z-18.574 A90.9457 B-0.1557 
N353 X200.191 Y-28.037 Z-17.254 A90.9457 B-0.1288 
N354 X200.192 Y-28.083 Z-15.879 A90.9457 B-0.0959 
N355 X200.192 Y-28.131 Z-14.469 A90.9456 B-0.0621 
N356 X200.192 Y-28.180 Z-13.048 A90.9456 B-0.0335 
N357 X200.192 Y-28.228 Z-11.638 A90.9451 B-0.0136 
N358 X200.192 Y-28.279 Z-10.263 A90.9263 B-0.0033 
N359 X200.192 Y-28.343 Z-8.944 A90.8410 B0.0000 
N360 X200.192 Y-28.417 Z-7.699 A90.6998 
N361 X200.192 Y-28.482 Z-6.542 A90.5703 
N362 X200.192 Y-28.537 Z-5.482 A90.4592 
N363 X200.192 Y-28.645 Z-4.527 A90.1116 
N364 X200.192 Y-28.906 Z-3.674 A89.0930 
N365 X200.192 Y-29.395 Z-2.908 A87.0613 
N366 X200.192 Y-30.143 Z-2.193 A83.8564 
N367 X200.192 Y-31.095 Z-1.483 A79.6566 
N368 X200.192 Y-32.164 Z-0.739 A74.7893 
N369 X200.192 Y-33.286 Z0.070 A69.4759 
N370 X200.192 Y-34.401 Z0.956 A63.9195 
N371 X200.192 Y-35.473 Z1.932 A58.2116 
N372 X200.192 Y-36.495 Z3.018 A52.3065 
N373 X200.192 Y-37.444 Z4.230 A46.1916 
N374 X200.192 Y-38.268 Z5.551 A40.0032 
N375 X200.192 Y-38.938 Z6.976 A33.7595 
N376 X200.192 Y-39.429 Z8.499 A27.4390 
N377 X200.192 Y-39.695 Z10.067 A21.2120 
N378 X200.192 Y-39.701 Z11.593 A15.3440 
N379 X200.192 Y-39.442 Z13.009 A9.9957 
N380 X200.192 Y-38.928 Z14.235 A5.3801 
N381 X200.192 Y-38.180 Z15.159 A1.8759 
N382 X200.192 Y-37.230 Z15.694 A359.8162 
N383 X200.192 Y-36.098 Z15.890 A359.0469 
N384 X200.192 Y-34.779 Z15.930 A358.8789 
N385 X200.192 Y-33.261 Z15.931 A358.8599 
N386 X200.192 Y-31.537 Z15.927 A358.8598 
N387 X200.192 Y-29.608 Z15.922 
N388 X200.192 Y-27.483 Z15.917 
N389 X200.192 Y-25.180 Z15.911 
N390 X200.192 Y-22.725 Z15.905 
N391 X200.192 Y-20.149 Z15.899 
N392 X200.192 Y-17.492 Z15.892 
N393 X200.192 Y-14.798 Z15.886 A358.8594 
N394 X200.192 Y-12.109 Z15.887 A358.8250 
N395 X200.192 Y-9.470 Z15.958 A358.4797 
N396 X200.192 Y-6.919 Z16.117 A357.6715 
N397 X200.192 Y-4.493 Z16.258 A356.7981 
N398 X200.192 Y-2.224 Z16.360 A355.9610 
N399 X200.192 Y-0.136 Z16.419 A355.2151 B-0.0017 
N400 X200.192 Y1.758 Z16.440 A354.5788 B-0.0201 
N401 X200.192 Y3.447 Z16.399 A354.1902 B-0.0667 
N402 X200.191 Y4.934 Z16.315 A354.0162 B-0.1250 
N403 X200.191 Y6.239 Z16.308 A353.5663 B-0.1718 
N404 X200.191 Y7.401 Z16.554 A352.0783 B-0.2007 
N405 X200.191 Y8.475 Z17.138 A349.1014 B-0.2158 
N406 X200.191 Y9.528 Z18.025 A344.6884 B-0.2198 
N407 X200.191 Y10.611 Z19.071 A339.3462 B-0.2129 
N408 X200.191 Y11.742 Z20.137 A333.5832 B-0.1948 
N409 X200.191 Y12.917 Z21.134 A327.7532 B-0.1656 
N410 X200.191 Y14.129 Z22.022 A322.0042 B-0.1250 
N411 X200.192 Y15.376 Z22.785 A316.3744 B-0.0726 
N412 X200.192 Y16.659 Z23.418 A310.8564 B-0.0103 
N413 X200.192 Y17.983 Z23.915 A305.4067 B0.0560 
N414 X200.192 Y19.359 Z24.274 A299.9434 B0.1222 
N415 X200.193 Y20.784 Z24.476 A294.4526 B0.1872 
N416 X200.193 Y22.226 Z24.496 A289.0109 B0.2501 
N417 X200.193 Y23.625 Z24.311 A283.8085 B0.3096 
N418 X200.193 Y24.878 Z23.911 A279.1840 B0.3632 
N419 X200.193 Y25.871 Z23.312 A275.5415 B0.4090 
N420 X200.193 Y26.517 Z22.554 A273.2062 B0.4449 
N421 X200.193 Y26.858 Z21.672 A272.0473 B0.4719 
N422 X200.194 Y27.013 Z20.690 A271.6124 B0.4938 
N423 X200.194 Y27.084 Z19.619 A271.5146 B0.5138 
N424 X200.194 Y27.138 Z18.467 A271.5015 B0.5342 
N425 X200.194 Y27.200 Z17.247 A271.4642 B0.5557 
N426 X200.194 Y27.272 Z15.975 A271.3908 B0.5773 
N427 X200.194 Y27.344 Z14.668 A271.3173 B0.5975 
N428 X200.194 Y27.412 Z13.348 A271.2536 B0.6162 
N429 X200.194 Y27.488 Z12.034 A271.1521 B0.6338 
N430 X200.194 Y27.592 Z10.750 A270.9174 B0.6510 
N431 X200.194 Y27.741 Z9.513 A270.4620 B0.6695 
N432 X200.194 Y27.898 Z8.340 A269.9212 B0.6895 
N433 X200.194 Y28.004 Z7.246 A269.5483 B0.7076 
N434 X200.194 Y28.058 Z6.240 A269.3598 B0.7223 
N435 X200.194 Y28.117 Z5.328 A269.1378 B0.7370 
N436 X200.194 Y28.275 Z4.511 A268.4866 B0.7593 
N437 X200.195 Y28.636 Z3.777 A266.9611 B0.7992 
N438 X200.195 Y29.280 Z3.096 A264.1923 B0.8654 
N439 X200.195 Y30.186 Z2.419 A260.2149 B0.9597 
N440 X200.195 Y31.254 Z1.703 A255.3948 B1.0766 
N441 X200.196 Y32.403 Z0.912 A250.0144 B1.2084 
N442 X200.196 Y33.549 Z0.035 A244.3697 B1.3427 
N443 X200.197 Y34.626 Z-0.920 A238.6989 B1.4657 
N444 X200.197 Y35.644 Z-1.977 A232.8833 B1.5656 
N445 X200.197 Y36.611 Z-3.174 A226.7671 B1.6231 
N446 X200.197 Y37.455 Z-4.482 A220.5727 B1.6155 
N447 X200.197 Y38.141 Z-5.885 A214.3704 B1.5465 
N448 X200.197 Y38.658 Z-7.396 A208.0500 B1.4411 
N449 X200.196 Y38.961 Z-8.975 A201.7347 B1.3215 
N450 X200.196 Y39.007 Z-10.539 A195.6815 B1.2005 
N451 X200.195 Y38.785 Z-12.005 A190.1080 B1.0871 
N452 X200.195 Y38.299 Z-13.272 A185.3090 B0.9908 
N453 X200.195 Y37.575 Z-14.229 A181.6530 B0.9202 
N454 X200.195 Y36.651 Z-14.773 A179.5383 B0.8812 
N455 X200.195 Y35.551 Z-14.950 A178.8229 B0.8692 
N456 X200.195 Y34.268 Z-14.976 A178.6921 B0.8689 
N457 X200.195 Y32.789 Z-14.971 A178.6800 B0.8716 
N458 X200.195 Y31.109 Z-14.962 A178.6800 B0.8749 
N459 X200.195 Y29.227 Z-14.951 A178.6801 B0.8785 
N460 X200.195 Y27.153 Z-14.939 A178.6801 B0.8826 
N461 X200.195 Y24.905 Z-14.927 A178.6801 B0.8870 
N462 X200.195 Y22.508 Z-14.913 A178.6802 B0.8916 
N463 X200.195 Y19.994 Z-14.899 A178.6802 B0.8965 
N464 X200.195 Y17.403 Z-14.884 A178.6802 B0.9016 
N465 X200.195 Y14.777 Z-14.870 A178.6803 B0.9067 
N466 X200.195 Y12.160 Z-14.855 A178.6803 B0.9118 
N467 X200.195 Y9.597 Z-14.842 A178.6724 B0.9167 
N468 X200.195 Y7.126 Z-14.867 A178.5037 B0.9204 
N469 X200.195 Y4.782 Z-14.978 A177.9295 B0.9237 
N470 X200.195 Y2.592 Z-15.100 A177.2107 B0.9326 
N471 X200.195 Y0.580 Z-15.193 A176.5295 B0.9431 
N472 X200.195 Y-1.246 Z-15.307 A175.6939 B0.9315 
N473 X200.195 Y-2.875 Z-15.379 A174.9772 B0.8939 
N474 X200.195 Y-4.308 Z-15.382 A174.5342 B0.8521 
N475 X200.195 Y-5.565 Z-15.447 A173.8450 B0.8100 
N476 X200.194 Y-6.690 Z-15.786 A172.0056 B0.7582 
N477 X200.194 Y-7.751 Z-16.496 A168.5093 B0.6900 
N478 X200.194 Y-8.827 Z-17.523 A163.4653 B0.6037 
N479 X200.194 Y-9.965 Z-18.681 A157.5406 B0.5042 
N480 X200.193 Y-11.164 Z-19.798 A151.3872 B0.3980 
N481 X200.193 Y-12.400 Z-20.785 A145.3794 B0.2902 
N482 X200.192 Y-13.665 Z-21.625 A139.5761 B0.1820 
N483 X200.192 Y-14.961 Z-22.323 A133.9342 B0.0739 
N484 X200.192 Y-16.276 Z-22.864 A128.4974 B-0.0270 
N485 X200.192 Y-17.621 Z-23.257 A123.1629 B-0.1147 
N486 X200.191 Y-19.015 Z-23.502 A117.8128 B-0.1887 
N487 X200.191 Y-20.434 Z-23.575 A112.5032 B-0.2494 
N488 X200.191 Y-21.836 Z-23.454 A107.3538 B-0.2966 
N489 X200.191 Y-23.137 Z-23.121 A102.6377 B-0.3296 
N490 X200.191 Y-24.224 Z-22.579 A98.7538 B-0.3476 
N491 X200.191 Y-24.990 Z-21.854 A96.1001 B-0.3502 
N492 X200.191 Y-25.437 Z-20.987 A94.6812 B-0.3405 
N493 X200.191 Y-25.667 Z-20.010 A94.1190 B-0.3230 
N494 X200.191 Y-25.792 Z-18.941 A93.9930 B-0.3008 
N495 X200.191 Y-25.894 Z-17.793 A93.9857 B-0.2762 
N496 X200.191 Y-26.000 Z-16.582 A93.9856 B-0.2501 
N497 X200.191 Y-26.110 Z-15.323 A93.9856 B-0.2231 
N498 X200.191 Y-26.222 Z-14.033 A93.9855 B-0.1950 
N499 X200.191 Y-26.336 Z-12.733 A93.9855 B-0.1625 
N500 X200.192 Y-26.448 Z-11.443 A93.9851 B-0.1183 
N501 X200.192 Y-26.565 Z-10.186 A93.9563 B-0.0674 
N502 X200.192 Y-26.714 Z-8.981 A93.7690 B-0.0274 
N503 X200.192 Y-26.899 Z-7.845 A93.3870 B-0.0070 
N504 X200.192 Y-27.077 Z-6.788 A92.9827 B-0.0010 
N505 X200.192 Y-27.220 Z-5.817 A92.6624 B0.0000 
N506 X200.192 Y-27.375 Z-4.941 A92.2526 
N507 X200.192 Y-27.653 Z-4.164 A91.2800 
N508 X200.192 Y-28.141 Z-3.474 A89.3668 
N509 X200.192 Y-28.871 Z-2.842 A86.3559 
N510 X200.192 Y-29.812 Z-2.224 A82.3448 
N511 X200.192 Y-30.876 Z-1.577 A77.6677 
N512 X200.192 Y-31.993 Z-0.877 A72.5813 
N513 X200.192 Y-33.113 Z-0.104 A67.2541 
N514 X200.192 Y-34.189 Z0.743 A61.8490 
N515 X200.192 Y-35.210 Z1.673 A56.3682 
N516 X200.192 Y-36.175 Z2.708 A50.7332 
N517 X200.192 Y-37.069 Z3.863 A44.9066 
N518 X200.192 Y-37.860 Z5.139 A38.9210 
N519 X200.192 Y-38.519 Z6.537 A32.7664 
N520 X200.192 Y-39.007 Z8.043 A26.4858 
N521 X200.192 Y-39.272 Z9.590 A20.3133 
N522 X200.192 Y-39.279 Z11.074 A14.5756 
N523 X200.192 Y-39.031 Z12.430 A9.4284 
N524 X200.192 Y-38.544 Z13.594 A5.0264 
N525 X200.192 Y-37.841 Z14.462 A1.7189 
N526 X200.192 Y-36.950 Z14.966 A359.7708 
N527 X200.192 Y-35.891 Z15.156 A359.0250 
N528 X200.192 Y-34.657 Z15.194 A358.8618 
N529 X200.192 Y-33.237 Z15.195 A358.8408 
N530 X200.192 Y-31.626 Z15.191 A358.8405 
N531 X200.192 Y-29.824 Z15.186 
N532 X200.192 Y-27.839 Z15.180 
N533 X200.192 Y-25.688 Z15.174 
N534 X200.192 Y-23.393 Z15.168 
N535 X200.192 Y-20.985 Z15.161 
N536 X200.192 Y-18.497 Z15.154 
N537 X200.192 Y-15.968 Z15.147 
N538 X200.192 Y-13.439 Z15.143 A358.8273 
N539 X200.192 Y-10.948 Z15.189 A358.5988 
N540 X200.192 Y-8.528 Z15.408 A357.5638 
N541 X200.192 Y-6.205 Z15.710 A355.9763 
N542 X200.192 Y-4.012 Z15.956 A354.3860 
N543 X200.192 Y-1.973 Z16.134 A352.8916 B-0.0083 
N544 X200.192 Y-0.108 Z16.230 A351.6109 B-0.0534 
N545 X200.191 Y1.569 Z16.232 A350.6676 B-0.1286 
N546 X200.191 Y3.053 Z16.136 A350.1510 B-0.1961 
N547 X200.191 Y4.363 Z16.038 A349.7055 B-0.2429 
N548 X200.191 Y5.545 Z16.115 A348.5878 B-0.2771 
N549 X200.191 Y6.656 Z16.499 A346.1606 B-0.2986 
N550 X200.191 Y7.760 Z17.203 A342.2563 B-0.3037 
N551 X200.191 Y8.907 Z18.115 A337.2257 B-0.2906 
N552 X200.191 Y10.109 Z19.076 A331.6487 B-0.2601 
N553 X200.191 Y11.345 Z19.962 A326.0124 B-0.2148 
N554 X200.191 Y12.591 Z20.719 A320.5592 B-0.1567 
N555 X200.192 Y13.842 Z21.340 A315.3173 B-0.0860 
N556 X200.192 Y15.109 Z21.836 A310.2017 B-0.0035 
N557 X200.192 Y16.418 Z22.218 A305.0781 B0.0867 
N558 X200.192 Y17.795 Z22.487 A299.8043 B0.1823 
N559 X200.193 Y19.239 Z22.618 A294.3774 B0.2823 
N560 X200.193 Y20.702 Z22.571 A288.9627 B0.3836 
N561 X200.193 Y22.080 Z22.313 A283.9290 B0.4800 
N562 X200.194 Y23.243 Z21.841 A279.7397 B0.5649 
N563 X200.194 Y24.083 Z21.185 A276.7950 B0.6324 
N564 X200.194 Y24.591 Z20.391 A275.1309 B0.6819 
N565 X200.194 Y24.857 Z19.493 A274.4203 B0.7177 
N566 X200.194 Y24.991 Z18.513 A274.2439 B0.7461 
N567 X200.194 Y25.093 Z17.466 A274.2185 B0.7733 
N568 X200.195 Y25.212 Z16.367 A274.1437 B0.8023 
N569 X200.195 Y25.352 Z15.228 A273.9851 B0.8320 
N570 X200.195 Y25.493 Z14.064 A273.8168 B0.8595 
N571 X200.195 Y25.625 Z12.892 A273.6771 B0.8841 
N572 X200.195 Y25.766 Z11.731 A273.4845 B0.9073 
N573 X200.195 Y25.956 Z10.602 A273.0576 B0.9325 
N574 X200.195 Y26.223 Z9.520 A272.2590 B0.9633 
N575 X200.195 Y26.513 Z8.495 A271.2827 B0.9982 
N576 X200.195 Y26.732 Z7.536 A270.5222 B1.0295 
N577 X200.195 Y26.858 Z6.653 A270.0897 B1.0535 
N578 X200.195 Y26.945 Z5.854 A269.7910 B1.0739 
N579 X200.196 Y27.110 Z5.137 A269.1477 B1.1024 
N580 X200.196 Y27.467 Z4.496 A267.6750 B1.1527 
N581 X200.196 Y28.092 Z3.901 A265.0320 B1.2347 
N582 X200.196 Y28.982 Z3.309 A261.1942 B1.3498 
N583 X200.197 Y30.042 Z2.673 A256.5009 B1.4893 
N584 X200.197 Y31.192 Z1.961 A251.2395 B1.6427 
N585 X200.198 Y32.354 Z1.157 A245.6720 B1.7957 
N586 X200.198 Y33.439 Z0.279 A240.1440 B1.9313 
N587 X200.199 Y34.443 Z-0.678 A234.6322 B2.0401 
N588 X200.199 Y35.406 Z-1.761 A228.8531 B2.1134 
N589 X200.199 Y36.292 Z-2.975 A222.8519 B2.1319 
N590 X200.199 Y37.045 Z-4.295 A216.7886 B2.0876 
N591 X200.198 Y37.652 Z-5.733 A210.5768 B1.9952 
N592 X200.198 Y38.075 Z-7.273 A204.2493 B1.8748 
N593 X200.198 Y38.262 Z-8.837 A198.0686 B1.7416 
N594 X200.197 Y38.189 Z-10.338 A192.2870 B1.6069 
N595 X200.197 Y37.855 Z-11.685 A187.1520 B1.4823 
N596 X200.196 Y37.281 Z-12.771 A183.0025 B1.3805 
N597 X200.196 Y36.501 Z-13.491 A180.2127 B1.3129 
N598 X200.196 Y35.549 Z-13.801 A178.9828 B1.2839 
N599 X200.196 Y34.432 Z-13.866 A178.7006 B1.2787 
N600 X200.196 Y33.136 Z-13.868 A178.6633 B1.2804 
N601 X200.196 Y31.652 Z-13.859 A178.6621 B1.2835 
N602 X200.196 Y29.978 Z-13.849 A178.6622 B1.2869 
N603 X200.196 Y28.119 Z-13.838 A178.6622 B1.2908 
N604 X200.196 Y26.087 Z-13.826 A178.6622 B1.2950 
N605 X200.196 Y23.902 Z-13.813 A178.6623 B1.2995 
N606 X200.196 Y21.592 Z-13.799 A178.6623 B1.3043 
N607 X200.196 Y19.190 Z-13.784 A178.6624 B1.3093 
N608 X200.196 Y16.734 Z-13.770 A178.6625 B1.3144 
N609 X200.196 Y14.264 Z-13.755 A178.6625 B1.3195 
N610 X200.196 Y11.822 Z-13.740 A178.6626 B1.3246 
N611 X200.196 Y9.446 Z-13.731 A178.6382 B1.3291 
N612 X200.196 Y7.169 Z-13.793 A178.3081 B1.3295 
N613 X200.196 Y5.017 Z-13.987 A177.3492 B1.3252 
N614 X200.196 Y3.011 Z-14.202 A176.1584 B1.3266 
N615 X200.196 Y1.171 Z-14.386 A174.9626 B1.3281 
N616 X200.196 Y-0.501 Z-14.577 A173.6355 B1.2957 
N617 X200.196 Y-1.994 Z-14.699 A172.5096 B1.2295 
N618 X200.196 Y-3.313 Z-14.766 A171.5938 B1.1596 
N619 X200.195 Y-4.491 Z-14.938 A170.2360 B1.0861 
N620 X200.195 Y-5.594 Z-15.407 A167.5841 B0.9930 
N621 X200.195 Y-6.703 Z-16.231 A163.2801 B0.8707 
N622 X200.194 Y-7.891 Z-17.305 A157.6118 B0.7213 
N623 X200.194 Y-9.166 Z-18.412 A151.3694 B0.5586 
N624 X200.193 Y-10.480 Z-19.381 A145.2561 B0.3982 
N625 X200.193 Y-11.787 Z-20.152 A139.5757 B0.2485 
N626 X200.192 Y-13.083 Z-20.746 A134.2532 B0.1085 
N627 X200.192 Y-14.380 Z-21.186 A129.1666 B-0.0204 
N628 X200.191 Y-15.701 Z-21.489 A124.1653 B-0.1337 
N629 X200.191 Y-17.080 Z-21.667 A119.0516 B-0.2329 
N630 X200.191 Y-18.502 Z-21.691 A113.8759 B-0.3173 
N631 X200.191 Y-19.905 Z-21.526 A108.8580 B-0.3842 
N632 X200.190 Y-21.173 Z-21.147 A104.4093 B-0.4295 
N633 X200.190 Y-22.178 Z-20.558 A100.9980 B-0.4505 
N634 X200.190 Y-22.855 Z-19.795 A98.8816 B-0.4488 
N635 X200.190 Y-23.248 Z-18.900 A97.8932 B-0.4305 
N636 X200.191 Y-23.467 Z-17.908 A97.6210 B-0.4020 
N637 X200.191 Y-23.634 Z-16.845 A97.5967 B-0.3688 
N638 X200.191 Y-23.803 Z-15.728 A97.5966 B-0.3338 
N639 X200.191 Y-23.978 Z-14.572 A97.5965 B-0.2975 
N640 X200.191 Y-24.156 Z-13.394 A97.5964 B-0.2606 
N641 X200.191 Y-24.335 Z-12.211 A97.5963 B-0.2234 
N642 X200.191 Y-24.512 Z-11.041 A97.5962 B-0.1856 
N643 X200.191 Y-24.690 Z-9.903 A97.5687 B-0.1418 
N644 X200.192 Y-24.911 Z-8.819 A97.3322 B-0.0892 
N645 X200.192 Y-25.197 Z-7.806 A96.7585 B-0.0424 
N646 X200.192 Y-25.489 Z-6.865 A96.0776 B-0.0144 
N647 X200.192 Y-25.741 Z-6.002 A95.4717 B-0.0031 
N648 X200.192 Y-25.981 Z-5.222 A94.8443 B0.0000 
N649 X200.192 Y-26.307 Z-4.533 A93.7886 
N650 X200.192 Y-26.815 Z-3.931 A91.8982 
N651 X200.192 Y-27.545 Z-3.391 A88.9927 
N652 X200.192 Y-28.483 Z-2.870 A85.1149 
N653 X200.192 Y-29.554 Z-2.325 A80.5520 
N654 X200.192 Y-30.676 Z-1.730 A75.6208 
N655 X200.192 Y-31.802 Z-1.068 A70.4805 
N656 X200.192 Y-32.893 Z-0.335 A65.2724 
N657 X200.192 Y-33.918 Z0.465 A60.0994 
N658 X200.192 Y-34.882 Z1.343 A54.8958 
N659 X200.192 Y-35.791 Z2.320 A49.5589 
N660 X200.192 Y-36.642 Z3.417 A43.9997 
N661 X200.192 Y-37.416 Z4.653 A38.1627 
N662 X200.192 Y-38.078 Z6.033 A32.0449 
N663 X200.192 Y-38.576 Z7.533 A25.7512 
N664 X200.192 Y-38.851 Z9.070 A19.5748 
N665 X200.192 Y-38.868 Z10.526 A13.9139 
N666 X200.192 Y-38.637 Z11.829 A8.9394 
N667 X200.192 Y-38.183 Z12.934 A4.7358 
N668 X200.192 Y-37.527 Z13.753 A1.6055 
N669 X200.192 Y-36.699 Z14.230 A359.7570 
N670 X200.192 Y-35.714 Z14.418 A359.0154 
N671 X200.192 Y-34.567 Z14.458 A358.8449 
N672 X200.192 Y-33.247 Z14.460 A358.8208 
N673 X200.192 Y-31.750 Z14.456 A358.8199 
N674 X200.192 Y-30.077 Z14.450 
N675 X200.192 Y-28.235 Z14.445 
N676 X200.192 Y-26.239 Z14.438 
N677 X200.192 Y-24.108 Z14.432 
N678 X200.192 Y-21.871 Z14.425 
N679 X200.192 Y-19.557 Z14.417 
N680 X200.192 Y-17.202 Z14.410 
N681 X200.192 Y-14.840 Z14.403 A358.8188 
N682 X200.192 Y-12.507 Z14.412 A358.7474 
N683 X200.192 Y-10.232 Z14.554 A358.0945 
N684 X200.192 Y-8.031 Z14.949 A356.2173 
N685 X200.192 Y-5.921 Z15.407 A353.7613 
N686 X200.192 Y-3.927 Z15.789 A351.3095 B-0.0040 
N687 X200.192 Y-2.072 Z16.063 A349.0542 B-0.0419 
N688 X200.191 Y-0.382 Z16.197 A347.2210 B-0.1302 
N689 X200.191 Y1.125 Z16.176 A345.9864 B-0.2056 
N690 X200.191 Y2.456 Z16.049 A345.2328 B-0.2607 
N691 X200.191 Y3.653 Z15.965 A344.3773 B-0.3076 
N692 X200.191 Y4.784 Z16.094 A342.6543 B-0.3416 
N693 X200.191 Y5.913 Z16.521 A339.6027 B-0.3555 
N694 X200.191 Y7.098 Z17.207 A335.2478 B-0.3444 
N695 X200.191 Y8.353 Z18.008 A330.0722 B-0.3083 
N696 X200.191 Y9.648 Z18.769 A324.6813 B-0.2517 
N697 X200.191 Y10.934 Z19.392 A319.5169 B-0.1806 
N698 X200.192 Y12.189 Z19.861 A314.6919 B-0.0974 
N699 X200.192 Y13.433 Z20.206 A310.0537 B-0.0012 
N700 X200.192 Y14.719 Z20.462 A305.3272 B0.1081 
N701 X200.193 Y16.096 Z20.641 A300.2727 B0.2316 
N702 X200.193 Y17.560 Z20.705 A294.9229 B0.3679 
N703 X200.194 Y19.026 Z20.594 A289.6247 B0.5079 
N704 X200.194 Y20.347 Z20.269 A284.9403 B0.6381 
N705 X200.194 Y21.385 Z19.737 A281.3718 B0.7467 
N706 X200.195 Y22.088 Z19.042 A279.1145 B0.8289 
N707 X200.195 Y22.503 Z18.231 A277.9917 B0.8870 
N708 X200.195 Y22.734 Z17.338 A277.6192 B0.9278 
N709 X200.195 Y22.899 Z16.388 A277.5317 B0.9613 
N710 X200.195 Y23.071 Z15.401 A277.4310 B0.9953 
N711 X200.195 Y23.270 Z14.390 A277.2258 B1.0311 
N712 X200.195 Y23.473 Z13.367 A276.9940 B1.0652 
N713 X200.195 Y23.669 Z12.343 A276.7774 B1.0959 
N714 X200.196 Y23.883 Z11.338 A276.4594 B1.1265 
N715 X200.196 Y24.169 Z10.371 A275.7960 B1.1639 
N716 X200.196 Y24.562 Z9.454 A274.6157 B1.2137 
N717 X200.196 Y24.995 Z8.588 A273.1624 B1.2713 
N718 X200.196 Y25.349 Z7.774 A271.9301 B1.3236 
N719 X200.196 Y25.580 Z7.021 A271.1270 B1.3633 
N720 X200.196 Y25.720 Z6.338 A270.6462 B1.3932 
N721 X200.197 Y25.905 Z5.726 A269.9562 B1.4298 
N722 X200.197 Y26.271 Z5.180 A268.4798 B1.4923 
N723 X200.197 Y26.888 Z4.676 A265.9169 B1.5908 
N724 X200.198 Y27.756 Z4.171 A262.2305 B1.7261 
N725 X200.198 Y28.800 Z3.621 A257.6935 B1.8876 
N726 X200.199 Y29.940 Z2.994 A252.5911 B2.0627 
N727 X200.199 Y31.116 Z2.269 A247.1119 B2.2373 
N728 X200.200 Y32.225 Z1.463 A241.6547 B2.3900 
N729 X200.200 Y33.223 Z0.597 A236.3858 B2.5094 
N730 X200.200 Y34.171 Z-0.370 A230.9713 B2.5949 
N731 X200.201 Y35.080 Z-1.478 A225.2317 B2.6363 
N732 X200.200 Y35.893 Z-2.709 A219.3203 B2.6199 
N733 X200.200 Y36.581 Z-4.067 A213.2304 B2.5481 
N734 X200.200 Y37.117 Z-5.553 A206.9302 B2.4355 
N735 X200.199 Y37.444 Z-7.108 A200.6275 B2.2969 
N736 X200.199 Y37.519 Z-8.635 A194.6434 B2.1461 
N737 X200.198 Y37.338 Z-10.044 A189.2171 B1.9966 
N738 X200.198 Y36.913 Z-11.238 A184.6403 B1.8637 
N739 X200.198 Y36.278 Z-12.118 A181.2409 B1.7628 
N740 X200.197 Y35.468 Z-12.601 A179.3443 B1.7066 
N741 X200.197 Y34.505 Z-12.746 A178.7494 B1.6899 
N742 X200.197 Y33.381 Z-12.763 A178.6531 B1.6891 
N743 X200.197 Y32.086 Z-12.757 A178.6442 B1.6917 
N744 X200.197 Y30.613 Z-12.748 A178.6442 B1.6950 
N745 X200.197 Y28.965 Z-12.737 A178.6443 B1.6986 
N746 X200.197 Y27.149 Z-12.726 A178.6443 B1.7026 
N747 X200.197 Y25.180 Z-12.713 A178.6444 B1.7070 
N748 X200.198 Y23.080 Z-12.700 A178.6445 B1.7116 
N749 X200.198 Y20.878 Z-12.685 A178.6445 B1.7164 
N750 X200.198 Y18.606 Z-12.671 A178.6446 B1.7215 
N751 X200.198 Y16.301 Z-12.656 A178.6447 B1.7265 
N752 X200.198 Y14.000 Z-12.641 A178.6448 B1.7316 
N753 X200.198 Y11.739 Z-12.627 A178.6448 B1.7366 
N754 X200.198 Y9.552 Z-12.622 A178.6046 B1.7405 
N755 X200.198 Y7.466 Z-12.715 A178.1429 B1.7359 
N756 X200.198 Y5.497 Z-12.992 A176.8145 B1.7178 
N757 X200.197 Y3.658 Z-13.331 A175.0369 B1.7001 
N758 X200.197 Y1.962 Z-13.639 A173.2075 B1.6813 
N759 X200.197 Y0.412 Z-13.928 A171.3023 B1.6215 
N760 X200.197 Y-0.984 Z-14.141 A169.5990 B1.5173 
N761 X200.197 Y-2.236 Z-14.316 A167.9975 B1.4057 
N762 X200.196 Y-3.392 Z-14.608 A165.8611 B1.2864 
N763 X200.196 Y-4.531 Z-15.175 A162.4562 B1.1389 
N764 X200.195 Y-5.740 Z-16.041 A157.5394 B0.9527 
N765 X200.194 Y-7.070 Z-17.067 A151.5067 B0.7361 
N766 X200.194 Y-8.478 Z-18.023 A145.2482 B0.5155 
N767 X200.193 Y-9.870 Z-18.753 A139.4864 B0.3154 
N768 X200.192 Y-11.192 Z-19.239 A134.4204 B0.1435 
N769 X200.192 Y-12.465 Z-19.542 A129.8006 B-0.0062 
N770 X200.191 Y-13.750 Z-19.721 A125.2638 B-0.1380 
N771 X200.191 Y-15.108 Z-19.805 A120.4901 B-0.2572 
N772 X200.191 Y-16.522 Z-19.759 A115.5558 B-0.3612 
N773 X200.190 Y-17.901 Z-19.531 A110.8210 B-0.4424 
N774 X200.190 Y-19.104 Z-19.089 A106.8238 B-0.4929 
N775 X200.190 Y-20.016 Z-18.442 A104.0031 B-0.5102 
N776 X200.190 Y-20.609 Z-17.632 A102.4719 B-0.4992 
N777 X200.190 Y-20.952 Z-16.704 A101.9738 B-0.4685 
N778 X200.190 Y-21.196 Z-15.704 A101.9172 B-0.4290 
N779 X200.191 Y-21.434 Z-14.664 A101.9168 B-0.3871 
N780 X200.191 Y-21.679 Z-13.597 A101.9167 B-0.3442 
N781 X200.191 Y-21.926 Z-12.519 A101.9166 B-0.3009 
N782 X200.191 Y-22.172 Z-11.445 A101.9165 B-0.2577 
N783 X200.191 Y-22.414 Z-10.391 A101.9164 B-0.2149 
N784 X200.191 Y-22.655 Z-9.373 A101.8873 B-0.1713 
N785 X200.191 Y-22.943 Z-8.416 A101.6048 B-0.1249 
N786 X200.192 Y-23.321 Z-7.539 A100.8611 B-0.0771 
N787 X200.192 Y-23.722 Z-6.735 A99.9108 B-0.0354 
N788 X200.192 Y-24.088 Z-5.999 A98.9910 B-0.0106 
N789 X200.192 Y-24.434 Z-5.336 A98.0512 B-0.0020 
N790 X200.192 Y-24.838 Z-4.756 A96.7726 B0.0000 
N791 X200.192 Y-25.396 Z-4.260 A94.7649 
N792 X200.192 Y-26.153 Z-3.824 A91.8320 
N793 X200.192 Y-27.105 Z-3.410 A87.9973 
N794 X200.192 Y-28.192 Z-2.974 A83.4877 
N795 X200.192 Y-29.329 Z-2.486 A78.6403 
N796 X200.192 Y-30.462 Z-1.935 A73.6519 
N797 X200.192 Y-31.567 Z-1.314 A68.6039 
N798 X200.192 Y-32.607 Z-0.630 A63.6275 
N799 X200.192 Y-33.572 Z0.115 A58.7514 
N800 X200.192 Y-34.476 Z0.931 A53.8669 
N801 X200.192 Y-35.333 Z1.842 A48.8468 
N802 X200.192 Y-36.153 Z2.879 A43.5385 
N803 X200.192 Y-36.923 Z4.077 A37.8178 
N804 X200.192 Y-37.603 Z5.444 A31.6943 
N805 X200.192 Y-38.127 Z6.946 A25.3305 
N806 X200.192 Y-38.430 Z8.491 A19.0697 
N807 X200.192 Y-38.472 Z9.939 A13.3966 
N808 X200.192 Y-38.267 Z11.202 A8.5430 
N809 X200.192 Y-37.850 Z12.254 A4.5229 
N810 X200.192 Y-37.249 Z13.027 A1.5541 
N811 X200.192 Y-36.487 Z13.479 A359.8011 
N812 X200.192 Y-35.580 Z13.671 A359.0436 
N813 X200.192 Y-34.522 Z13.721 A358.8358 
N814 X200.192 Y-33.305 Z13.726 A358.7999 
N815 X200.192 Y-31.923 Z13.721 A358.7973 
N816 X200.192 Y-30.379 Z13.716 
N817 X200.192 Y-28.679 Z13.710 
N818 X200.192 Y-26.837 Z13.703 
N819 X200.192 Y-24.870 Z13.696 
N820 X200.192 Y-22.805 Z13.689 
N821 X200.192 Y-20.667 Z13.682 
N822 X200.192 Y-18.488 Z13.674 
N823 X200.192 Y-16.299 Z13.666 
N824 X200.192 Y-14.132 Z13.660 A358.7892 
N825 X200.192 Y-12.013 Z13.694 A358.6138 
N826 X200.192 Y-9.961 Z13.944 A357.4754 
N827 X200.192 Y-7.972 Z14.512 A354.7852 
N828 X200.192 Y-6.045 Z15.161 A351.3561 
N829 X200.192 Y-4.200 Z15.728 A347.8626 B-0.0140 
N830 X200.192 Y-2.469 Z16.139 A344.6819 B-0.0714 
N831 X200.191 Y-0.890 Z16.342 A342.1574 B-0.1582 
N832 X200.191 Y0.510 Z16.332 A340.4631 B-0.2289 
N833 X200.191 Y1.748 Z16.192 A339.3566 B-0.2842 
N834 X200.191 Y2.887 Z16.084 A338.1729 B-0.3306 
N835 X200.191 Y4.010 Z16.168 A336.1658 B-0.3601 
N836 X200.191 Y5.187 Z16.508 A332.9360 B-0.3632 
N837 X200.191 Y6.456 Z17.044 A328.5811 B-0.3344 
N838 X200.191 Y7.796 Z17.625 A323.6441 B-0.2763 
N839 X200.191 Y9.135 Z18.102 A318.7803 B-0.1982 
N840 X200.192 Y10.410 Z18.407 A314.3664 B-0.1089 
N841 X200.192 Y11.632 Z18.574 A310.2884 B-0.0078 
N842 X200.192 Y12.884 Z18.673 A306.0917 B0.1119 
N843 X200.193 Y14.252 Z18.739 A301.3712 B0.2580 
N844 X200.193 Y15.723 Z18.725 A296.2119 B0.4278 
N845 X200.194 Y17.163 Z18.543 A291.2052 B0.6025 
N846 X200.194 Y18.389 Z18.147 A287.0741 B0.7583 
N847 X200.195 Y19.292 Z17.560 A284.2375 B0.8800 
N848 X200.195 Y19.884 Z16.837 A282.6357 B0.9670 
N849 X200.195 Y20.254 Z16.025 A281.9281 B1.0270 
N850 X200.195 Y20.516 Z15.163 A281.6632 B1.0721 
N851 X200.196 Y20.753 Z14.278 A281.5074 B1.1120 
N852 X200.196 Y21.000 Z13.386 A281.3075 B1.1513 
N853 X200.196 Y21.251 Z12.497 A281.0721 B1.1890 
N854 X200.196 Y21.509 Z11.622 A280.7794 B1.2257 
N855 X200.196 Y21.808 Z10.780 A280.2744 B1.2672 
N856 X200.196 Y22.207 Z9.989 A279.2871 B1.3237 
N857 X200.196 Y22.739 Z9.258 A277.6507 B1.4021 
N858 X200.197 Y23.314 Z8.571 A275.7066 B1.4914 
N859 X200.197 Y23.800 Z7.920 A274.0140 B1.5717 
N860 X200.197 Y24.158 Z7.311 A272.7497 B1.6360 
N861 X200.197 Y24.414 Z6.756 A271.8408 B1.6868 
N862 X200.198 Y24.677 Z6.259 A270.8587 B1.7412 
N863 X200.198 Y25.082 Z5.815 A269.2505 B1.8210 
N864 X200.198 Y25.699 Z5.405 A266.7199 B1.9374 
N865 X200.199 Y26.538 Z4.991 A263.2037 B2.0913 
N866 X200.199 Y27.550 Z4.533 A258.8768 B2.2728 
N867 X200.200 Y28.660 Z4.000 A254.0110 B2.4676 
N868 X200.201 Y29.826 Z3.366 A248.7177 B2.6633 
N869 X200.201 Y30.961 Z2.637 A243.3189 B2.8376 
N870 X200.202 Y31.964 Z1.859 A238.2358 B2.9711 
N871 X200.202 Y32.884 Z1.014 A233.2255 B3.0671 
N872 X200.202 Y33.788 Z0.038 A227.8856 B3.1273 
N873 X200.202 Y34.643 Z-1.079 A222.2289 B3.1403 
N874 X200.202 Y35.406 Z-2.332 A216.3365 B3.0984 
N875 X200.202 Y36.049 Z-3.731 A210.1630 B3.0060 
N876 X200.201 Y36.523 Z-5.248 A203.8089 B2.8736 
N877 X200.201 Y36.767 Z-6.790 A197.6109 B2.7150 
N878 X200.200 Y36.756 Z-8.253 A191.8918 B2.5461 
N879 X200.200 Y36.502 Z-9.548 A186.8929 B2.3837 
N880 X200.199 Y36.028 Z-10.581 A182.9034 B2.2465 
N881 X200.199 Y35.373 Z-11.274 A180.2005 B2.1513 
N882 X200.199 Y34.567 Z-11.584 A178.9623 B2.1077 
N883 X200.199 Y33.618 Z-11.652 A178.6691 B2.0987 
N884 X200.199 Y32.514 Z-11.655 A178.6297 B2.0997 
N885 X200.199 Y31.248 Z-11.647 A178.6276 B2.1026 
N886 X200.199 Y29.816 Z-11.637 A178.6276 B2.1059 
N887 X200.199 Y28.222 Z-11.626 A178.6277 B2.1097 
N888 X200.199 Y26.477 Z-11.614 A178.6278 B2.1137 
N889 X200.199 Y24.597 Z-11.601 A178.6279 B2.1181 
N890 X200.199 Y22.605 Z-11.588 A178.6279 B2.1228 
N891 X200.199 Y20.528 Z-11.574 A178.6280 B2.1276 
N892 X200.199 Y18.399 Z-11.559 A178.6281 B2.1326 
N893 X200.199 Y16.251 Z-11.544 A178.6282 B2.1376 
N894 X200.199 Y14.118 Z-11.530 A178.6283 B2.1426 
N895 X200.199 Y12.032 Z-11.516 A178.6284 B2.1475 
N896 X200.199 Y10.023 Z-11.509 A178.5977 B2.1513 
N897 X200.199 Y8.111 Z-11.598 A178.1581 B2.1438 
N898 X200.199 Y6.306 Z-11.920 A176.6599 B2.1105 
N899 X200.199 Y4.604 Z-12.410 A174.2481 B2.0596 
N900 X200.198 Y3.012 Z-12.892 A171.6172 B2.0052 
N901 X200.198 Y1.533 Z-13.335 A168.9225 B1.9121 
N902 X200.198 Y0.172 Z-13.700 A166.3801 B1.7576 
N903 X200.197 Y-1.084 Z-14.022 A163.8851 B1.5829 
N904 X200.196 Y-2.288 Z-14.432 A160.8956 B1.3983 
N905 X200.196 Y-3.528 Z-15.053 A156.7959 B1.1820 
N906 X200.195 Y-4.886 Z-15.882 A151.4217 B0.9248 
N907 X200.194 Y-6.372 Z-16.760 A145.2729 B0.6451 
N908 X200.193 Y-7.876 Z-17.448 A139.3730 B0.3855 
N909 X200.192 Y-9.264 Z-17.832 A134.4313 B0.1763 
N910 X200.192 Y-10.526 Z-17.968 A130.3200 B0.0122 
N911 X200.191 Y-11.759 Z-17.972 A126.4369 B-0.1267 
N912 X200.191 Y-13.066 Z-17.912 A122.2474 B-0.2548 
N913 X200.191 Y-14.443 Z-17.759 A117.7704 B-0.3699 
N914 X200.190 Y-15.769 Z-17.441 A113.5329 B-0.4571 
N915 X200.190 Y-16.882 Z-16.914 A110.1888 B-0.5037 
N916 X200.190 Y-17.689 Z-16.192 A108.1154 B-0.5086 
N917 X200.190 Y-18.200 Z-15.322 A107.2747 B-0.4813 
N918 X200.190 Y-18.555 Z-14.369 A107.1094 B-0.4393 
N919 X200.191 Y-18.882 Z-13.384 A107.0914 B-0.3943 
N920 X200.191 Y-19.207 Z-12.388 A107.0905 B-0.3486 
N921 X200.191 Y-19.531 Z-11.396 A107.0903 B-0.3032 
N922 X200.191 Y-19.850 Z-10.421 A107.0902 B-0.2585 
N923 X200.191 Y-20.159 Z-9.476 A107.0901 B-0.2152 
N924 X200.191 Y-20.463 Z-8.576 A107.0491 B-0.1740 
N925 X200.191 Y-20.823 Z-7.752 A106.6868 B-0.1349 
N926 X200.192 Y-21.287 Z-7.023 A105.7671 B-0.0938 
N927 X200.192 Y-21.783 Z-6.372 A104.5678 B-0.0523 
N928 X200.192 Y-22.258 Z-5.785 A103.3202 B-0.0220 
N929 X200.192 Y-22.721 Z-5.264 A101.9931 B-0.0073 
N930 X200.192 Y-23.228 Z-4.818 A100.3630 B-0.0020 
N931 X200.192 Y-23.863 Z-4.448 A98.0962 B0.0000 
N932 X200.192 Y-24.674 Z-4.135 A94.9995 
N933 X200.192 Y-25.658 Z-3.841 A91.0969 
N934 X200.192 Y-26.769 Z-3.522 A86.5813 
N935 X200.192 Y-27.927 Z-3.149 A81.7635 
N936 X200.192 Y-29.073 Z-2.712 A76.8759 
N937 X200.192 Y-30.185 Z-2.205 A71.9852 
N938 X200.192 Y-31.245 Z-1.631 A67.1448 
N939 X200.192 Y-32.224 Z-1.003 A62.4728 
N940 X200.192 Y-33.125 Z-0.323 A57.9321 
N941 X200.192 Y-33.972 Z0.423 A53.3900 
N942 X200.192 Y-34.784 Z1.260 A48.6962 
N943 X200.192 Y-35.580 Z2.230 A43.6427 
N944 X200.192 Y-36.358 Z3.382 A38.0444 
N945 X200.192 Y-37.073 Z4.731 A31.9012 
N946 X200.192 Y-37.645 Z6.239 A25.4211 
N947 X200.192 Y-38.000 Z7.810 A18.9799 
N948 X200.192 Y-38.088 Z9.283 A13.1499 
N949 X200.192 Y-37.926 Z10.534 A8.2995 
N950 X200.192 Y-37.559 Z11.542 A4.4219 
N951 X200.192 Y-37.019 Z12.279 A1.5850 
N952 X200.192 Y-36.332 Z12.709 A359.9160 
N953 X200.192 Y-35.510 Z12.906 A359.1440 
N954 X200.192 Y-34.547 Z12.976 A358.8582 
N955 X200.192 Y-33.436 Z12.991 A358.7818 
N956 X200.192 Y-32.172 Z12.988 A358.7715 
N957 X200.192 Y-30.757 Z12.983 A358.7714 
N958 X200.192 Y-29.196 Z12.977 
N959 X200.192 Y-27.503 Z12.970 
N960 X200.192 Y-25.693 Z12.963 
N961 X200.192 Y-23.790 Z12.955 
N962 X200.192 Y-21.820 Z12.947 
N963 X200.192 Y-19.810 Z12.939 
N964 X200.192 Y-17.789 Z12.931 
N965 X200.192 Y-15.785 Z12.923 A358.7714 
N966 X200.192 Y-13.822 Z12.919 A358.7539 
N967 X200.192 Y-11.921 Z12.970 A358.5033 
N968 X200.192 Y-10.089 Z13.286 A357.0826 
N969 X200.192 Y-8.302 Z13.994 A353.7811 
N970 X200.192 Y-6.529 Z14.867 A349.3380 
N971 X200.192 Y-4.779 Z15.686 A344.6042 B-0.0179 
N972 X200.192 Y-3.092 Z16.311 A340.2084 B-0.0824 
N973 X200.191 Y-1.534 Z16.662 A336.6410 B-0.1556 
N974 X200.191 Y-0.153 Z16.727 A334.1459 B-0.2125 
N975 X200.191 Y1.056 Z16.583 A332.5457 B-0.2597 
N976 X200.191 Y2.168 Z16.388 A331.1896 B-0.3002 
N977 X200.191 Y3.288 Z16.312 A329.2756 B-0.3240 
N978 X200.191 Y4.496 Z16.434 A326.3161 B-0.3184 
N979 X200.191 Y5.813 Z16.699 A322.3938 B-0.2768 
N980 X200.191 Y7.177 Z16.957 A318.1061 B-0.2049 
N981 X200.192 Y8.482 Z17.072 A314.1537 B-0.1176 
N982 X200.192 Y9.684 Z17.023 A310.7444 B-0.0233 
N983 X200.192 Y10.870 Z16.902 A307.3725 B0.0888 
N984 X200.193 Y12.172 Z16.796 A303.3720 B0.2380 
N985 X200.193 Y13.593 Z16.667 A298.7612 B0.4250 
N986 X200.194 Y14.966 Z16.402 A294.3070 B0.6209 
N987 X200.194 Y16.096 Z15.942 A290.8406 B0.7901 
N988 X200.195 Y16.905 Z15.315 A288.6620 B0.9155 
N989 X200.195 Y17.447 Z14.579 A287.5585 B1.0004 
N990 X200.195 Y17.828 Z13.791 A287.0916 B1.0584 
N991 X200.196 Y18.144 Z12.990 A286.8772 B1.1035 
N992 X200.196 Y18.446 Z12.201 A286.6892 B1.1444 
N993 X200.196 Y18.752 Z11.436 A286.4411 B1.1846 
N994 X200.196 Y19.086 Z10.710 A286.0184 B1.2294 
N995 X200.196 Y19.489 Z10.041 A285.2288 B1.2887 
N996 X200.196 Y20.017 Z9.446 A283.8148 B1.3751 
N997 X200.197 Y20.694 Z8.922 A281.6515 B1.4947 
N998 X200.197 Y21.405 Z8.436 A279.2155 B1.6256 
N999 X200.198 Y22.021 Z7.967 A277.0473 B1.7432 
N1000 X200.198 Y22.532 Z7.522 A275.2125 B1.8448 
N1001 X200.198 Y22.955 Z7.110 A273.6593 B1.9333 
N1002 X200.199 Y23.361 Z6.739 A272.1191 B2.0221 
N1003 X200.199 Y23.859 Z6.406 A270.1493 B2.1317 
N1004 X200.199 Y24.515 Z6.092 A267.4859 B2.2734 
N1005 X200.200 Y25.339 Z5.769 A264.0727 B2.4473 
N1006 X200.201 Y26.307 Z5.404 A259.9916 B2.6461 
N1007 X200.201 Y27.363 Z4.969 A255.4445 B2.8565 
N1008 X200.202 Y28.482 Z4.440 A250.4847 B3.0693 
N1009 X200.203 Y29.629 Z3.800 A245.2048 B3.2681 
N1010 X200.203 Y30.656 Z3.103 A240.2102 B3.4224 
N1011 X200.203 Y31.551 Z2.374 A235.5678 B3.5300 
N1012 X200.204 Y32.422 Z1.544 A230.7272 B3.6043 
N1013 X200.204 Y33.292 Z0.566 A225.4508 B3.6430 
N1014 X200.204 Y34.115 Z-0.563 A219.8202 B3.6351 
N1015 X200.204 Y34.855 Z-1.849 A213.8412 B3.5745 
N1016 X200.203 Y35.469 Z-3.291 A207.5394 B3.4629 
N1017 X200.203 Y35.892 Z-4.828 A201.1502 B3.3089 
N1018 X200.202 Y36.072 Z-6.339 A195.0979 B3.1289 
N1019 X200.202 Y36.001 Z-7.719 A189.7020 B2.9432 
N1020 X200.201 Y35.705 Z-8.882 A185.1929 B2.7725 
N1021 X200.201 Y35.217 Z-9.757 A181.7914 B2.6361 
N1022 X200.200 Y34.573 Z-10.295 A179.6753 B2.5491 
N1023 X200.200 Y33.795 Z-10.506 A178.8259 B2.5145 
N1024 X200.200 Y32.880 Z-10.547 A178.6383 B2.5084 
N1025 X200.200 Y31.818 Z-10.546 A178.6126 B2.5099 
N1026 X200.200 Y30.604 Z-10.537 A178.6118 B2.5129 
N1027 X200.200 Y29.236 Z-10.527 A178.6119 B2.5163 
N1028 X200.200 Y27.719 Z-10.516 A178.6120 B2.5200 
N1029 X200.200 Y26.065 Z-10.504 A178.6121 B2.5241 
N1030 X200.200 Y24.292 Z-10.492 A178.6121 B2.5285 
N1031 X200.200 Y22.421 Z-10.478 A178.6122 B2.5331 
N1032 X200.200 Y20.481 Z-10.464 A178.6123 B2.5379 
N1033 X200.200 Y18.500 Z-10.450 A178.6124 B2.5427 
N1034 X200.200 Y16.510 Z-10.435 A178.6126 B2.5476 
N1035 X200.200 Y14.542 Z-10.421 A178.6127 B2.5525 
N1036 X200.200 Y12.623 Z-10.407 A178.6128 B2.5572 
N1037 X200.200 Y10.778 Z-10.396 A178.6038 B2.5614 
N1038 X200.200 Y9.026 Z-10.445 A178.3413 B2.5567 
N1039 X200.200 Y7.371 Z-10.719 A177.0889 B2.5195 
N1040 X200.200 Y5.794 Z-11.310 A174.3313 B2.4340 
N1041 X200.200 Y4.277 Z-12.025 A170.7528 B2.3219 
N1042 X200.199 Y2.816 Z-12.722 A166.9156 B2.1760 
N1043 X200.198 Y1.415 Z-13.339 A163.1014 B1.9526 
N1044 X200.197 Y0.071 Z-13.868 A159.3853 B1.6814 
N1045 X200.196 Y-1.268 Z-14.415 A155.3138 B1.3986 
N1046 X200.195 Y-2.684 Z-15.060 A150.4307 B1.0931 
N1047 X200.194 Y-4.221 Z-15.760 A144.7483 B0.7643 
N1048 X200.193 Y-5.809 Z-16.330 A139.0001 B0.4499 
N1049 X200.193 Y-7.272 Z-16.587 A134.2129 B0.2018 
N1050 X200.192 Y-8.524 Z-16.526 A130.6843 B0.0311 
N1051 X200.192 Y-9.676 Z-16.299 A127.7058 B-0.0973 
N1052 X200.191 Y-10.870 Z-16.023 A124.5150 B-0.2141 
N1053 X200.191 Y-12.141 Z-15.706 A120.9337 B-0.3236 
N1054 X200.191 Y-13.366 Z-15.266 A117.5294 B-0.4052 
N1055 X200.190 Y-14.386 Z-14.645 A114.9933 B-0.4419 
N1056 X200.190 Y-15.117 Z-13.846 A113.6915 B-0.4333 
N1057 X200.191 Y-15.620 Z-12.929 A113.3737 B-0.3963 
N1058 X200.191 Y-16.058 Z-11.981 A113.3413 B-0.3530 
N1059 X200.191 Y-16.485 Z-11.038 A113.3395 B-0.3096 
N1060 X200.191 Y-16.903 Z-10.115 A113.3394 B-0.2671 
N1061 X200.191 Y-17.306 Z-9.224 A113.3393 B-0.2260 
N1062 X200.191 Y-17.690 Z-8.375 A113.3392 B-0.1869 
N1063 X200.191 Y-18.062 Z-7.582 A113.2876 B-0.1506 
N1064 X200.192 Y-18.491 Z-6.883 A112.8588 B-0.1180 
N1065 X200.192 Y-19.026 Z-6.302 A111.7987 B-0.0867 
N1066 X200.192 Y-19.605 Z-5.810 A110.3751 B-0.0549 
N1067 X200.192 Y-20.185 Z-5.386 A108.7752 B-0.0285 
N1068 X200.192 Y-20.769 Z-5.027 A107.0024 B-0.0120 
N1069 X200.192 Y-21.384 Z-4.732 A104.9636 B-0.0040 
N1070 X200.192 Y-22.099 Z-4.505 A102.3925 B-0.0010 
N1071 X200.192 Y-22.966 Z-4.331 A99.0861 B0.0000 
N1072 X200.192 Y-23.991 Z-4.174 A95.0552 
N1073 X200.192 Y-25.134 Z-3.989 A90.4731 
N1074 X200.192 Y-26.326 Z-3.745 A85.6109 
N1075 X200.192 Y-27.506 Z-3.429 A80.7139 
N1076 X200.192 Y-28.641 Z-3.041 A75.8889 
N1077 X200.192 Y-29.732 Z-2.581 A71.1153 
N1078 X200.192 Y-30.756 Z-2.056 A66.4721 
N1079 X200.192 Y-31.687 Z-1.486 A62.0692 
N1080 X200.192 Y-32.539 Z-0.872 A57.8295 
N1081 X200.192 Y-33.341 Z-0.199 A53.6047 
N1082 X200.192 Y-34.117 Z0.559 A49.2255 
N1083 X200.192 Y-34.896 Z1.450 A44.4472 
N1084 X200.192 Y-35.687 Z2.535 A39.0276 
N1085 X200.192 Y-36.449 Z3.846 A32.9074 
N1086 X200.192 Y-37.095 Z5.353 A26.2986 
N1087 X200.192 Y-37.534 Z6.961 A19.5980 
N1088 X200.192 Y-37.706 Z8.500 A13.4166 
N1089 X200.192 Y-37.615 Z9.799 A8.3237 
N1090 X200.192 Y-37.313 Z10.797 A4.4556 
N1091 X200.192 Y-36.848 Z11.507 A1.7041 
N1092 X200.192 Y-36.248 Z11.928 A0.0709 
N1093 X200.192 Y-35.522 Z12.123 A359.3127 
N1094 X200.192 Y-34.665 Z12.213 A358.9534 
N1095 X200.192 Y-33.671 Z12.251 A358.7873 
N1096 X200.192 Y-32.533 Z12.257 A358.7444 
N1097 X200.192 Y-31.251 Z12.252 A358.7417 
N1098 X200.192 Y-29.830 Z12.245 
N1099 X200.192 Y-28.282 Z12.238 
N1100 X200.192 Y-26.621 Z12.231 
N1101 X200.192 Y-24.868 Z12.223 
N1102 X200.192 Y-23.049 Z12.215 
N1103 X200.192 Y-21.188 Z12.207 
N1104 X200.192 Y-19.315 Z12.198 
N1105 X200.192 Y-17.454 Z12.190 
N1106 X200.192 Y-15.631 Z12.181 A358.7417 
N1107 X200.192 Y-13.863 Z12.178 A358.7235 
N1108 X200.192 Y-12.166 Z12.223 A358.4982 
N1109 X200.192 Y-10.541 Z12.517 A357.1870 
N1110 X200.192 Y-8.949 Z13.273 A353.7435 
N1111 X200.192 Y-7.323 Z14.354 A348.5021 
N1112 X200.192 Y-5.624 Z15.493 A342.3891 B-0.0083 
N1113 X200.192 Y-3.890 Z16.455 A336.3330 B-0.0609 
N1114 X200.191 Y-2.227 Z17.071 A331.1829 B-0.1242 
N1115 X200.191 Y-0.729 Z17.311 A327.3063 B-0.1608 
N1116 X200.191 Y0.553 Z17.208 A324.8167 B-0.1872 
N1117 X200.191 Y1.669 Z16.893 A323.2640 B-0.2123 
N1118 X200.191 Y2.753 Z16.557 A321.7458 B-0.2283 
N1119 X200.191 Y3.925 Z16.333 A319.5080 B-0.2184 
N1120 X200.191 Y5.196 Z16.197 A316.5426 B-0.1744 
N1121 X200.192 Y6.473 Z16.019 A313.4570 B-0.1054 
N1122 X200.192 Y7.646 Z15.703 A310.8542 B-0.0294 
N1123 X200.192 Y8.733 Z15.286 A308.6119 B0.0529 
N1124 X200.192 Y9.876 Z14.891 A305.9661 B0.1670 
N1125 X200.193 Y11.133 Z14.545 A302.6157 B0.3279 
N1126 X200.194 Y12.370 Z14.147 A299.2005 B0.5095 
N1127 X200.194 Y13.401 Z13.612 A296.5774 B0.6679 
N1128 X200.194 Y14.155 Z12.947 A295.0576 B0.7798 
N1129 X200.195 Y14.691 Z12.211 A294.3934 B0.8497 
N1130 X200.195 Y15.107 Z11.464 A294.1575 B0.8949 
N1131 X200.195 Y15.485 Z10.749 A293.9994 B0.9323 
N1132 X200.195 Y15.874 Z10.096 A293.6796 B0.9750 
N1133 X200.195 Y16.320 Z9.524 A292.9869 B1.0363 
N1134 X200.196 Y16.854 Z9.047 A291.7696 B1.1263 
N1135 X200.196 Y17.515 Z8.671 A289.8467 B1.2561 
N1136 X200.197 Y18.316 Z8.382 A287.1783 B1.4275 
N1137 X200.197 Y19.119 Z8.118 A284.3645 B1.6049 
N1138 X200.198 Y19.856 Z7.859 A281.7200 B1.7706 
N1139 X200.198 Y20.558 Z7.614 A279.1225 B1.9322 
N1140 X200.199 Y21.229 Z7.382 A276.5743 B2.0902 
N1141 X200.199 Y21.879 Z7.162 A274.0537 B2.2462 
N1142 X200.200 Y22.560 Z6.951 A271.3494 B2.4118 
N1143 X200.200 Y23.321 Z6.739 A268.2745 B2.5956 
N1144 X200.201 Y24.172 Z6.504 A264.7839 B2.7974 
N1145 X200.202 Y25.101 Z6.227 A260.9138 B3.0124 
N1146 X200.202 Y26.083 Z5.890 A256.7529 B3.2327 
N1147 X200.203 Y27.110 Z5.475 A252.2935 B3.4543 
N1148 X200.204 Y28.220 Z4.944 A247.3338 B3.6742 
N1149 X200.205 Y29.287 Z4.324 A242.3503 B3.8580 
N1150 X200.205 Y30.169 Z3.699 A237.9876 B3.9818 
N1151 X200.205 Y30.984 Z3.022 A233.7127 B4.0669 
N1152 X200.205 Y31.828 Z2.208 A228.9777 B4.1253 
N1153 X200.205 Y32.684 Z1.230 A223.7256 B4.1494 
N1154 X200.205 Y33.505 Z0.081 A218.0193 B4.1278 
N1155 X200.205 Y34.248 Z-1.251 A211.8606 B4.0523 
N1156 X200.205 Y34.851 Z-2.738 A205.3865 B3.9210 
N1157 X200.204 Y35.243 Z-4.289 A198.9551 B3.7431 
N1158 X200.204 Y35.380 Z-5.759 A193.0689 B3.5417 
N1159 X200.203 Y35.277 Z-7.035 A188.0630 B3.3435 
N1160 X200.202 Y34.970 Z-8.052 A184.1054 B3.1712 
N1161 X200.202 Y34.500 Z-8.779 A181.2686 B3.0406 
N1162 X200.202 Y33.895 Z-9.214 A179.5546 B2.9598 
N1163 X200.201 Y33.164 Z-9.393 A178.8277 B2.9260 
N1164 X200.201 Y32.305 Z-9.438 A178.6278 B2.9184 
N1165 X200.201 Y31.308 Z-9.438 A178.5970 B2.9195 
N1166 X200.201 Y30.167 Z-9.429 A178.5963 B2.9224 
N1167 X200.201 Y28.883 Z-9.419 A178.5964 B2.9257 
N1168 X200.201 Y27.461 Z-9.408 A178.5965 B2.9294 
N1169 X200.202 Y25.914 Z-9.397 A178.5966 B2.9335 
N1170 X200.202 Y24.258 Z-9.384 A178.5967 B2.9377 
N1171 X200.202 Y22.516 Z-9.370 A178.5968 B2.9423 
N1172 X200.202 Y20.712 Z-9.357 A178.5969 B2.9469 
N1173 X200.202 Y18.876 Z-9.343 A178.5970 B2.9517 
N1174 X200.202 Y17.036 Z-9.328 A178.5971 B2.9565 
N1175 X200.202 Y15.219 Z-9.314 A178.5973 B2.9612 
N1176 X200.202 Y13.450 Z-9.301 A178.5974 B2.9658 
N1177 X200.202 Y11.750 Z-9.288 A178.5972 B2.9702 
N1178 X200.202 Y10.134 Z-9.293 A178.5220 B2.9712 
N1179 X200.202 Y8.607 Z-9.437 A177.8556 B2.9482 
N1180 X200.201 Y7.151 Z-9.938 A175.6028 B2.8611 
N1181 X200.201 Y5.708 Z-10.839 A171.4012 B2.6892 
N1182 X200.200 Y4.227 Z-11.904 A166.0730 B2.4498 
N1183 X200.199 Y2.682 Z-12.969 A160.1843 B2.1097 
N1184 X200.197 Y1.105 Z-13.864 A154.4293 B1.6747 
N1185 X200.196 Y-0.514 Z-14.615 A148.6837 B1.2299 
N1186 X200.195 Y-2.193 Z-15.237 A142.8229 B0.8089 
N1187 X200.193 Y-3.869 Z-15.640 A137.2602 B0.4374 
N1188 X200.192 Y-5.346 Z-15.667 A133.0106 B0.1721 
N1189 X200.192 Y-6.534 Z-15.333 A130.3739 B0.0201 
N1190 X200.192 Y-7.567 Z-14.814 A128.5487 B-0.0726 
N1191 X200.191 Y-8.582 Z-14.234 A126.8037 B-0.1465 
N1192 X200.191 Y-9.649 Z-13.648 A124.7573 B-0.2183 
N1193 X200.191 Y-10.698 Z-13.008 A122.7336 B-0.2727 
N1194 X200.191 Y-11.599 Z-12.249 A121.3426 B-0.2908 
N1195 X200.191 Y-12.296 Z-11.364 A120.8479 B-0.2735 
N1196 X200.191 Y-12.885 Z-10.432 A120.8089 B-0.2418 
N1197 X200.191 Y-13.451 Z-9.520 A120.8088 B-0.2097 
N1198 X200.191 Y-13.994 Z-8.645 A120.8088 B-0.1790 
N1199 X200.191 Y-14.509 Z-7.815 A120.8088 B-0.1499 
N1200 X200.191 Y-14.989 Z-7.040 A120.8087 B-0.1227 
N1201 X200.192 Y-15.441 Z-6.333 A120.7628 B-0.0981 
N1202 X200.192 Y-15.928 Z-5.738 A120.3444 B-0.0783 
N1203 X200.192 Y-16.508 Z-5.285 A119.2662 B-0.0620 
N1204 X200.192 Y-17.142 Z-4.947 A117.6989 B-0.0451 
N1205 X200.192 Y-17.820 Z-4.704 A115.7244 B-0.0281 
N1206 X200.192 Y-18.531 Z-4.535 A113.4146 B-0.0141 
N1207 X200.192 Y-19.257 Z-4.419 A110.8916 B-0.0055 
N1208 X200.192 Y-20.046 Z-4.356 A107.9802 B-0.0016 
N1209 X200.192 Y-20.960 Z-4.341 A104.4498 B0.0000 
N1210 X200.192 Y-22.017 Z-4.344 A100.2697 
N1211 X200.192 Y-23.186 Z-4.318 A95.5942 
N1212 X200.192 Y-24.409 Z-4.229 A90.6637 
N1213 X200.192 Y-25.629 Z-4.060 A85.6975 
N1214 X200.192 Y-26.811 Z-3.808 A80.8175 
N1215 X200.192 Y-27.953 Z-3.475 A76.0076 
N1216 X200.192 Y-29.056 Z-3.061 A71.2372 
N1217 X200.192 Y-30.074 Z-2.585 A66.6891 
N1218 X200.192 Y-30.986 Z-2.070 A62.4477 
N1219 X200.192 Y-31.820 Z-1.512 A58.3870 
N1220 X200.192 Y-32.607 Z-0.900 A54.3538 
N1221 X200.192 Y-33.373 Z-0.207 A50.1738 
N1222 X200.192 Y-34.150 Z0.612 A45.6058 
N1223 X200.192 Y-34.952 Z1.618 A40.4008 
N1224 X200.192 Y-35.751 Z2.855 A34.4430 
N1225 X200.192 Y-36.466 Z4.313 A27.8780 
N1226 X200.192 Y-37.000 Z5.910 A21.0842 
N1227 X200.192 Y-37.283 Z7.502 A14.5844 
N1228 X200.192 Y-37.297 Z8.900 A9.0258 
N1229 X200.192 Y-37.087 Z9.973 A4.8216 
N1230 X200.192 Y-36.712 Z10.714 A1.9311 
N1231 X200.192 Y-36.209 Z11.164 A0.1729 
N1232 X200.192 Y-35.590 Z11.374 A359.3485 
N1233 X200.192 Y-34.851 Z11.459 A359.0131 
N1234 X200.192 Y-33.984 Z11.505 A358.8200 
N1235 X200.192 Y-32.981 Z11.524 A358.7271 
N1236 X200.192 Y-31.840 Z11.522 A358.7088 
N1237 X200.192 Y-30.564 Z11.516 A358.7083 
N1238 X200.192 Y-29.160 Z11.509 
N1239 X200.192 Y-27.642 Z11.501 
N1240 X200.192 Y-26.028 Z11.493 
N1241 X200.192 Y-24.341 Z11.484 
N1242 X200.192 Y-22.606 Z11.476 
N1243 X200.192 Y-20.850 Z11.467 
N1244 X200.192 Y-19.100 Z11.458 
N1245 X200.192 Y-17.380 Z11.449 
N1246 X200.192 Y-15.710 Z11.440 A358.7083 
N1247 X200.192 Y-14.107 Z11.435 A358.6974 
N1248 X200.192 Y-12.579 Z11.460 A358.5564 
N1249 X200.192 Y-11.125 Z11.672 A357.6157 
N1250 X200.192 Y-9.708 Z12.364 A354.5375 
N1251 X200.192 Y-8.226 Z13.560 A348.9736 
N1252 X200.192 Y-6.559 Z15.050 A341.4910 B-0.0014 
N1253 X200.192 Y-4.675 Z16.490 A333.2231 B-0.0278 
N1254 X200.192 Y-2.754 Z17.486 A325.8461 B-0.0784 
N1255 X200.192 Y-0.971 Z17.967 A319.9878 B-0.0921 
N1256 X200.192 Y0.525 Z17.946 A316.0513 B-0.0806 
N1257 X200.192 Y1.679 Z17.501 A314.0894 B-0.0718 
N1258 X200.192 Y2.634 Z16.835 A313.2290 B-0.0708 
N1259 X200.192 Y3.612 Z16.166 A312.2381 B-0.0592 
N1260 X200.192 Y4.634 Z15.512 A310.9835 B-0.0306 
N1261 X200.192 Y5.630 Z14.817 A309.8112 B0.0068 
N1262 X200.192 Y6.558 Z14.061 A308.9283 B0.0437 
N1263 X200.192 Y7.453 Z13.289 A308.1214 B0.0852 
N1264 X200.192 Y8.370 Z12.560 A307.0557 B0.1462 
N1265 X200.193 Y9.288 Z11.871 A305.7970 B0.2257 
N1266 X200.193 Y10.122 Z11.176 A304.7357 B0.3024 
N1267 X200.193 Y10.808 Z10.447 A304.1801 B0.3537 
N1268 X200.193 Y11.365 Z9.716 A304.0353 B0.3796 
N1269 X200.193 Y11.853 Z9.031 A304.0093 B0.3964 
N1270 X200.193 Y12.332 Z8.437 A303.7960 B0.4243 
N1271 X200.193 Y12.875 Z7.984 A303.0159 B0.4897 
N1272 X200.194 Y13.515 Z7.684 A301.5149 B0.6057 
N1273 X200.194 Y14.242 Z7.510 A299.3700 B0.7682 
N1274 X200.195 Y15.088 Z7.455 A296.4746 B0.9840 
N1275 X200.196 Y15.943 Z7.435 A293.3870 B1.2120 
N1276 X200.197 Y16.790 Z7.429 A290.2290 B1.4429 
N1277 X200.197 Y17.713 Z7.454 A286.6621 B1.7003 
N1278 X200.198 Y18.716 Z7.486 A282.7083 B1.9811 
N1279 X200.199 Y19.738 Z7.488 A278.6465 B2.2647 
N1280 X200.200 Y20.740 Z7.447 A274.6375 B2.5392 
N1281 X200.201 Y21.729 Z7.362 A270.6550 B2.8053 
N1282 X200.202 Y22.719 Z7.226 A266.6361 B3.0655 
N1283 X200.203 Y23.708 Z7.036 A262.5748 B3.3187 
N1284 X200.204 Y24.684 Z6.788 A258.5086 B3.5619 
N1285 X200.204 Y25.652 Z6.477 A254.4035 B3.7965 
N1286 X200.205 Y26.718 Z6.059 A249.7718 B4.0406 
N1287 X200.206 Y27.909 Z5.484 A244.4168 B4.2781 
N1288 X200.206 Y28.824 Z4.929 A240.0848 B4.4280 
N1289 X200.207 Y29.592 Z4.375 A236.2532 B4.5233 
N1290 X200.207 Y30.395 Z3.709 A232.0328 B4.5957 
N1291 X200.207 Y31.254 Z2.878 A227.1928 B4.6441 
N1292 X200.207 Y32.119 Z1.874 A221.8272 B4.6564 
N1293 X200.207 Y32.932 Z0.705 A216.0601 B4.6212 
N1294 X200.207 Y33.643 Z-0.615 A209.9894 B4.5314 
N1295 X200.206 Y34.196 Z-2.042 A203.8056 B4.3869 
N1296 X200.206 Y34.545 Z-3.489 A197.8053 B4.1989 
N1297 X200.205 Y34.669 Z-4.851 A192.3385 B3.9891 
N1298 X200.204 Y34.581 Z-6.037 A187.6639 B3.7827 
N1299 X200.204 Y34.312 Z-6.991 A183.9310 B3.6018 
N1300 X200.203 Y33.895 Z-7.695 A181.1710 B3.4602 
N1301 X200.203 Y33.352 Z-8.125 A179.4677 B3.3705 
N1302 X200.203 Y32.694 Z-8.295 A178.7776 B3.3345 
N1303 X200.203 Y31.915 Z-8.331 A178.6083 B3.3272 
N1304 X200.203 Y31.007 Z-8.330 A178.5820 B3.3282 
N1305 X200.203 Y29.965 Z-8.322 A178.5812 B3.3310 
N1306 X200.203 Y28.787 Z-8.312 A178.5813 B3.3343 
N1307 X200.203 Y27.480 Z-8.302 A178.5814 B3.3378 
N1308 X200.203 Y26.053 Z-8.290 A178.5815 B3.3417 
N1309 X200.203 Y24.523 Z-8.278 A178.5816 B3.3459 
N1310 X200.203 Y22.909 Z-8.265 A178.5817 B3.3503 
N1311 X200.203 Y21.235 Z-8.251 A178.5818 B3.3549 
N1312 X200.203 Y19.528 Z-8.237 A178.5820 B3.3596 
N1313 X200.203 Y17.814 Z-8.223 A178.5821 B3.3643 
N1314 X200.203 Y16.119 Z-8.209 A178.5822 B3.3689 
N1315 X200.203 Y14.464 Z-8.196 A178.5824 B3.3735 
N1316 X200.203 Y12.867 Z-8.183 A178.5825 B3.3778 
N1317 X200.203 Y11.341 Z-8.172 A178.5776 B3.3817 
N1318 X200.203 Y9.891 Z-8.204 A178.3933 B3.3769 
N1319 X200.203 Y8.508 Z-8.459 A177.2504 B3.3269 
N1320 X200.202 Y7.138 Z-9.282 A173.5798 B3.1509 
N1321 X200.201 Y5.631 Z-10.727 A166.8498 B2.7949 
N1322 X200.199 Y3.810 Z-12.518 A157.7458 B2.2217 
N1323 X200.197 Y1.676 Z-14.142 A147.9737 B1.4422 
N1324 X200.194 Y-0.489 Z-15.163 A139.4836 B0.7236 
N1325 X200.193 Y-2.412 Z-15.524 A133.0842 B0.2220 
N1326 X200.192 Y-3.819 Z-15.230 A129.6356 B-0.0245 
N1327 X200.192 Y-4.632 Z-14.386 A129.3434 B-0.0412 
N1328 X200.192 Y-5.402 Z-13.479 B-0.0381 
N1329 X200.192 Y-6.186 Z-12.557 B-0.0349 
N1330 X200.192 Y-6.978 Z-11.624 B-0.0317 
N1331 X200.192 Y-7.773 Z-10.688 B-0.0285 
N1332 X200.192 Y-8.562 Z-9.759 B-0.0253 
N1333 X200.192 Y-9.335 Z-8.848 A129.3434 B-0.0221 
N1334 X200.192 Y-10.083 Z-7.968 B-0.0191 
N1335 X200.192 Y-10.796 Z-7.129 B-0.0162 
N1336 X200.192 Y-11.464 Z-6.342 B-0.0135 
N1337 X200.192 Y-12.081 Z-5.616 B-0.0110 
N1338 X200.192 Y-12.643 Z-4.958 A129.3340 B-0.0088 
N1339 X200.192 Y-13.186 Z-4.403 A129.1060 B-0.0090 
N1340 X200.192 Y-13.788 Z-4.012 A128.2421 B-0.0131 
N1341 X200.192 Y-14.450 Z-3.776 A126.7362 B-0.0168 
N1342 X200.192 Y-15.185 Z-3.682 A124.5705 B-0.0169 
N1343 X200.192 Y-16.026 Z-3.724 A121.6520 B-0.0126 
N1344 X200.192 Y-16.896 Z-3.818 A118.4256 B-0.0065 
N1345 X200.192 Y-17.757 Z-3.927 A115.1231 B-0.0024 
N1346 X200.192 Y-18.671 Z-4.063 A111.5140 B-0.0006 
N1347 X200.192 Y-19.690 Z-4.219 A107.4134 B0.0000 
N1348 X200.192 Y-20.807 Z-4.360 A102.8965 
N1349 X200.192 Y-21.970 Z-4.449 A98.1927 
N1350 X200.192 Y-23.130 Z-4.464 A93.5046 
N1351 X200.192 Y-24.276 Z-4.403 A88.8638 
N1352 X200.192 Y-25.439 Z-4.261 A84.1164 
N1353 X200.192 Y-26.676 Z-4.016 A79.0029 
N1354 X200.192 Y-27.930 Z-3.655 A73.7067 
N1355 X200.192 Y-29.083 Z-3.210 A68.6936 
N1356 X200.192 Y-30.111 Z-2.709 A64.0518 
N1357 X200.192 Y-31.036 Z-2.161 A59.6932 
N1358 X200.192 Y-31.889 Z-1.561 A55.4615 
N1359 X200.192 Y-32.708 Z-0.885 A51.1581 
N1360 X200.192 Y-33.522 Z-0.094 A46.5562 
N1361 X200.192 Y-34.345 Z0.861 A41.4471 
N1362 X200.192 Y-35.156 Z2.013 A35.7371 
N1363 X200.192 Y-35.886 Z3.347 A29.5790 
N1364 X200.192 Y-36.455 Z4.787 A23.3175 
N1365 X200.192 Y-36.812 Z6.231 A17.3218 
N1366 X200.192 Y-36.943 Z7.574 A11.9158 
N1367 X200.192 Y-36.867 Z8.719 A7.3992 
N1368 X200.192 Y-36.618 Z9.628 A3.8413 
N1369 X200.192 Y-36.230 Z10.303 A1.1987 
N1370 X200.192 Y-35.721 Z10.695 A359.6546 
N1371 X200.192 Y-35.099 Z10.823 A359.1462 
N1372 X200.192 Y-34.359 Z10.841 A359.0807 
N1373 X200.192 Y-33.491 Z10.843 A359.0778 
N1374 X200.192 Y-32.489 Z10.844 A359.0776 
N1375 X200.192 Y-31.353 Z10.846 
N1376 X200.192 Y-30.085 Z10.847 
N1377 X200.192 Y-28.695 Z10.849 
N1378 X200.192 Y-27.198 Z10.851 
N1379 X200.192 Y-25.613 Z10.853 
N1380 X200.192 Y-23.964 Z10.856 
N1381 X200.192 Y-22.275 Z10.858 
N1382 X200.192 Y-20.574 Z10.860 
N1383 X200.192 Y-18.885 Z10.862 
N1384 X200.192 Y-17.232 Z10.865 
N1385 X200.192 Y-15.633 Z10.867 A359.0776 
N1386 X200.192 Y-14.102 Z10.871 A359.0676 
N1387 X200.192 Y-12.645 Z10.903 A358.9413 
N1388 X200.192 Y-11.260 Z11.119 A358.0245 
N1389 X200.192 Y-9.904 Z11.857 A354.8069 
N1390 X200.192 Y-8.453 Z13.201 A348.6628 
N1391 X200.192 Y-6.718 Z14.965 A339.9542 B-0.0011 
N1392 X200.192 Y-4.638 Z16.690 A330.1047 B-0.0248 
N1393 X200.192 Y-2.511 Z17.796 A321.5954 B-0.0632 
N1394 X200.192 Y-0.594 Z18.244 A315.1237 B-0.0523 
N1395 X200.192 Y0.904 Z18.083 A311.1923 B-0.0176 
N1396 X200.192 Y1.931 Z17.436 A309.7943 B0.0039 
N1397 X200.192 Y2.724 Z16.562 A309.6694 B0.0079 
N1398 X200.192 Y3.505 Z15.652 B0.0095 
N1399 X200.192 Y4.296 Z14.732 B0.0110 
N1400 X200.192 Y5.091 Z13.807 B0.0126 
N1401 X200.192 Y5.881 Z12.887 B0.0142 
N1402 X200.192 Y6.657 Z11.984 B0.0157 
N1403 X200.192 Y7.409 Z11.108 B0.0172 
N1404 X200.192 Y8.128 Z10.272 B0.0186 
N1405 X200.192 Y8.804 Z9.485 B0.0200 
N1406 X200.192 Y9.430 Z8.756 B0.0212 
N1407 X200.192 Y10.002 Z8.092 A309.6673 B0.0225 
N1408 X200.192 Y10.538 Z7.516 A309.5354 B0.0329 
N1409 X200.192 Y11.119 Z7.094 A308.8462 B0.0843 
N1410 X200.193 Y11.794 Z6.856 A307.3274 B0.1994 
N1411 X200.193 Y12.521 Z6.747 A305.2498 B0.3598 
N1412 X200.194 Y13.352 Z6.776 A302.4131 B0.5802 
N1413 X200.195 Y14.242 Z6.879 A299.1243 B0.8356 
N1414 X200.195 Y15.104 Z6.986 A295.8390 B1.0898 
N1415 X200.196 Y16.038 Z7.130 A292.1572 B1.3724 
N1416 X200.197 Y17.102 Z7.302 A287.8771 B1.6968 
N1417 X200.199 Y18.256 Z7.451 A283.2154 B2.0438 
N1418 X200.200 Y19.428 Z7.539 A278.4854 B2.3881 
N1419 X200.201 Y20.586 Z7.553 A273.8188 B2.7183 
N1420 X200.202 Y21.725 Z7.491 A269.2132 B3.0329 
N1421 X200.203 Y22.846 Z7.353 A264.6470 B3.3318 
N1422 X200.204 Y23.932 Z7.141 A260.1728 B3.6118 
N1423 X200.205 Y24.957 Z6.862 A255.8764 B3.8700 
N1424 X200.205 Y26.021 Z6.491 A251.3143 B4.1300 
N1425 X200.206 Y27.336 Z5.914 A245.4948 B4.4101 
N1426 X200.207 Y28.267 Z5.389 A241.1668 B4.5720 
N1427 X200.207 Y29.010 Z4.888 A237.5365 B4.6706 
N1428 X200.207 Y29.788 Z4.286 A233.5559 B4.7485 
N1429 X200.208 Y30.632 Z3.530 A228.9647 B4.8067 
N1430 X200.208 Y31.501 Z2.604 A223.8175 B4.8337 
N1431 X200.208 Y32.339 Z1.511 A218.2374 B4.8174 
N1432 X200.207 Y33.092 Z0.270 A212.3564 B4.7492 
N1433 X200.207 Y33.705 Z-1.079 A206.3549 B4.6272 
N1434 X200.207 Y34.134 Z-2.467 A200.4888 B4.4586 
N1435 X200.206 Y34.354 Z-3.810 A195.0229 B4.2600 
N1436 X200.205 Y34.371 Z-5.035 A190.1557 B4.0519 
N1437 X200.205 Y34.203 Z-6.079 A186.0650 B3.8558 
N1438 X200.204 Y33.876 Z-6.903 A182.8493 B3.6896 
N1439 X200.204 Y33.414 Z-7.476 A180.6034 B3.5681 
N1440 X200.203 Y32.832 Z-7.754 A179.5092 B3.5068 
N1441 X200.203 Y32.134 Z-7.828 A179.2194 B3.4896 
N1442 X200.203 Y31.312 Z-7.841 A179.1743 B3.4861 
N1443 X200.203 Y30.358 Z-7.844 A179.1702 B3.4849 
N1444 X200.203 Y29.271 Z-7.846 A179.1702 B3.4838 
N1445 X200.203 Y28.050 Z-7.849 A179.1702 B3.4825 
N1446 X200.203 Y26.706 Z-7.852 A179.1701 B3.4812 
N1447 X200.203 Y25.249 Z-7.855 A179.1701 B3.4797 
N1448 X200.203 Y23.699 Z-7.858 A179.1700 B3.4781 
N1449 X200.203 Y22.077 Z-7.861 A179.1700 B3.4764 
N1450 X200.203 Y20.409 Z-7.865 A179.1699 B3.4747 
N1451 X200.203 Y18.722 Z-7.868 A179.1699 B3.4729 
N1452 X200.203 Y17.044 Z-7.872 A179.1698 B3.4712 
N1453 X200.203 Y15.400 Z-7.875 A179.1698 B3.4695 
N1454 X200.203 Y13.812 Z-7.879 A179.1697 B3.4679 
N1455 X200.203 Y12.299 Z-7.882 A179.1697 B3.4663 
N1456 X200.203 Y10.872 Z-7.891 A179.1452 B3.4636 
N1457 X200.203 Y9.538 Z-7.971 A178.8164 B3.4466 
N1458 X200.203 Y8.289 Z-8.309 A177.3715 B3.3772 
N1459 X200.202 Y7.074 Z-9.154 A173.6535 B3.1926 
N1460 X200.201 Y5.787 Z-10.442 A167.7212 B2.8745 
N1461 X200.200 Y4.330 Z-11.941 A160.2983 B2.4184 
N1462 X200.198 Y2.684 Z-13.386 A152.2810 B1.8161 
N1463 X200.196 Y1.029 Z-14.421 A145.2485 B1.2119 
N1464 X200.194 Y-0.534 Z-15.065 A139.3411 B0.7125 
N1465 X200.193 Y-1.901 Z-15.332 A134.8162 B0.3520 
N1466 X200.192 Y-3.040 Z-15.298 A131.5891 B0.1112 
N1467 X200.192 Y-3.881 Z-14.971 A129.9160 B-0.0056 
N1468 X200.192 Y-4.472 Z-14.432 A129.5216 B-0.0305 
N1469 X200.192 Y-4.990 Z-13.834 A129.4976 B-0.0305 
N1470 X200.192 Y-5.504 Z-13.232 B-0.0289 
N1471 G00 X200.172 Y-44.087 Z-45.034 
RAPORT("T13732","Spiral Rough Rhombic:105 End")
N1473 ;trailer : concat=None
; points cnt = 1411
N1474 MSG (" --- GROUPED OF SUBPROGRAM --- ")
N1475 FGROUP()
N1476 TRAFOOF
N10 ; PROGRAM NAME: 1373214
N11 ; ORDER       : 13732
N12 ; OPER. NAME  : Spiral Finish Rhombic:106
N13 ; OPER. DESCR.: Spiral Finish rhombic shroud
N14 ; OPER. TYPE  : rhombMillFinish
N15 ; GEO. OPTION : 2
N16 ; MACHINE     : SH_HX151_24_SIM840D
N17 ;             : STARRAG_HECKERT_5axis_finish_milling_machine
N18 ; CONTROL     : SINUMERIK 840D
N19 ; created:   2021-11-10 08:28:55.846429
;-------DODATKOWE DANE-------------------
; PROGRAMISTA : Mariusz Orzechowski
; PARTID      : 132T008743P1005_-
;  ae         : 24.0
;  lean_angle : 1.0
;  pln_offset : 0.45
;----------------------------------------
N20 ;----------------------------------------
RAPORT("T13732","Spiral Finish Rhombic:106")
N21 TRAFOOF
N22 D0
N23 G0 G90 G94 Z260.0
N24 STOPRE
N25 M9 ; chlodziwo wyl
N26 ; --- Spiral Finish Rhombic:106 - Spiral Finish rhombic shroud ---
N28 ;ToolChange : concat=None ,current_tdmid=None, PP.tdmId=958060
N29 TRAFOOF
N30 D0
N31 G0 G54 Z270.0
N32 S2148 M03
N33 STOPRE
N34 TOL(0.01,1,1)
N35 G0  A359.0000
N36 TRAORI
N37 G54 D1
N38 D1 
N39 X200.192 Y-56.711 Z59.848 A359.0000 B0.0000 
N40 M346 ; chlodziwo mgla
N41 X200.192 Y-57.584 Z9.855 
N42 G01 X200.192 Y-47.584 Z9.855 F800 
N43 X200.192 Y-42.584 Z9.855 
N44 X200.192 Y-42.317 Z9.855 
N45 X200.192 Y-42.051 Z9.855 
N46 X200.192 Y-41.784 Z9.855 
N47 X200.192 Y-41.517 Z9.855 
N48 X200.192 Y-41.251 Z9.855 
N49 X200.192 Y-40.984 Z9.855 
N50 X200.192 Y-40.717 Z9.855 
N51 X200.192 Y-40.451 Z9.855 
N52 X200.192 Y-40.184 Z9.855 
N53 X200.192 Y-39.917 Z9.855 
N54 X200.192 Y-39.651 Z9.855 
N55 X200.192 Y-39.384 Z9.855 
N56 X200.192 Y-39.117 Z9.855 
N57 X200.192 Y-38.851 Z9.855 
N58 X200.192 Y-38.584 Z9.855 
N59 X200.192 Y-38.317 Z9.855 
N60 X200.192 Y-38.051 Z9.855 
N61 X200.192 Y-37.784 Z9.855 
N62 X200.192 Y-37.517 Z9.855 
N63 X200.192 Y-37.251 Z9.855 
N64 X200.192 Y-36.984 Z9.855 
N65 X200.192 Y-36.717 Z9.855 
N66 X200.192 Y-36.451 Z9.855 
N67 X200.192 Y-36.184 Z9.855 
N68 X200.192 Y-35.917 Z9.855 
N69 X200.192 Y-35.651 Z9.855 
N70 X200.192 Y-35.384 Z9.855 
N71 X200.192 Y-35.117 Z9.855 
N72 X200.192 Y-34.851 Z9.855 
N73 X200.192 Y-34.584 Z9.855 
N74 X200.192 Y-34.317 Z9.855 
N75 X200.192 Y-34.051 Z9.855 
N76 X200.192 Y-33.784 Z9.855 
N77 X200.192 Y-33.517 Z9.855 
N78 X200.192 Y-33.251 Z9.855 
N79 X200.192 Y-32.984 Z9.855 
N80 X200.192 Y-32.717 Z9.855 
N81 X200.192 Y-32.451 Z9.855 
N82 X200.192 Y-32.184 Z9.855 
N83 X200.192 Y-31.917 Z9.855 
N84 X200.192 Y-31.651 Z9.855 
N85 X200.192 Y-31.384 Z9.855 
N86 X200.192 Y-31.117 Z9.855 
N87 X200.192 Y-30.851 Z9.855 
N88 X200.192 Y-30.584 Z9.855 
N89 X200.192 Y-30.317 Z9.855 
N90 X200.192 Y-30.051 Z9.855 
N91 X200.192 Y-29.784 Z9.855 
N92 X200.192 Y-29.517 Z9.855 
N93 X200.192 Y-29.251 Z9.855 
N94 X200.192 Y-28.984 Z9.855 
N95 X200.192 Y-28.717 Z9.855 
N96 X200.192 Y-28.451 Z9.855 
N97 X200.192 Y-28.184 Z9.855 
N98 X200.192 Y-27.917 Z9.855 
N99 X200.192 Y-27.651 Z9.855 
N100 X200.192 Y-27.384 Z9.855 
N101 X200.192 Y-27.117 Z9.855 
N102 X200.192 Y-26.851 Z9.855 
N103 X200.192 Y-26.584 Z9.855 
N104 X200.192 Y-26.317 Z9.855 
N105 X200.192 Y-26.051 Z9.855 
N106 X200.192 Y-25.784 Z9.855 
N107 X200.192 Y-25.517 Z9.855 
N108 X200.192 Y-25.251 Z9.855 
N109 X200.192 Y-24.984 Z9.855 
N110 X200.192 Y-24.717 Z9.855 
N111 X200.192 Y-24.451 Z9.855 
N112 X200.192 Y-24.184 Z9.855 
N113 X200.192 Y-23.917 Z9.855 
N114 X200.192 Y-23.651 Z9.855 
N115 X200.192 Y-23.384 Z9.855 
N116 X200.192 Y-23.117 Z9.855 
N117 X200.192 Y-22.851 Z9.855 
N118 X200.192 Y-22.584 Z9.855 
N119 X200.192 Y6.566 Z9.855 
N120 X200.192 Y6.833 Z9.855 
N121 X200.192 Y7.100 Z9.855 
N122 X200.192 Y7.366 Z9.855 
N123 X200.192 Y7.633 Z9.855 
N124 X200.192 Y7.900 Z9.855 
N125 X200.192 Y8.166 Z9.855 
N126 X200.192 Y8.433 Z9.855 
N127 X200.192 Y8.700 Z9.855 
N128 X200.192 Y8.966 Z9.855 
N129 X200.192 Y9.233 Z9.855 
N130 X200.192 Y9.500 Z9.855 
N131 X200.192 Y9.766 Z9.855 
N132 X200.192 Y10.033 Z9.855 
N133 X200.192 Y10.300 Z9.855 
N134 X200.192 Y10.566 Z9.855 
N135 X200.192 Y10.833 Z9.855 
N136 X200.192 Y11.100 Z9.855 
N137 X200.192 Y11.366 Z9.855 
N138 X200.192 Y11.633 Z9.855 
N139 X200.192 Y11.900 Z9.855 
N140 X200.192 Y12.166 Z9.855 
N141 X200.192 Y12.433 Z9.855 
N142 X200.192 Y12.700 Z9.855 
N143 X200.192 Y12.966 Z9.855 
N144 X200.192 Y13.233 Z9.855 
N145 X200.192 Y13.500 Z9.855 
N146 X200.192 Y13.766 Z9.855 
N147 X200.192 Y14.033 Z9.855 
N148 X200.192 Y14.300 Z9.855 
N149 X200.192 Y14.566 Z9.855 
N150 X200.192 Y14.833 Z9.855 
N151 X200.192 Y15.100 Z9.855 
N152 X200.192 Y15.366 Z9.855 
N153 X200.192 Y15.633 Z9.855 
N154 X200.192 Y15.900 Z9.855 
N155 X200.192 Y16.166 Z9.855 
N156 X200.192 Y16.433 Z9.855 
N157 X200.192 Y16.700 Z9.855 
N158 X200.192 Y16.966 Z9.855 
N159 X200.192 Y17.233 Z9.855 
N160 X200.192 Y17.500 Z9.855 
N161 X200.192 Y17.766 Z9.855 
N162 X200.192 Y18.033 Z9.855 
N163 X200.192 Y18.300 Z9.855 
N164 X200.192 Y18.566 Z9.855 
N165 X200.192 Y18.833 Z9.855 
N166 X200.192 Y19.100 Z9.855 
N167 X200.192 Y19.366 Z9.855 
N168 X200.192 Y19.633 Z9.855 
N169 X200.192 Y19.900 Z9.855 
N170 X200.192 Y20.166 Z9.855 
N171 X200.192 Y20.433 Z9.855 
N172 X200.192 Y20.700 Z9.855 
N173 X200.192 Y20.966 Z9.855 
N174 X200.192 Y21.233 Z9.855 
N175 X200.192 Y21.500 Z9.855 
N176 X200.192 Y21.766 Z9.855 
N177 X200.192 Y22.033 Z9.855 
N178 X200.192 Y22.300 Z9.855 
N179 X200.192 Y22.566 Z9.855 
N180 X200.192 Y22.833 Z9.855 
N181 X200.192 Y23.100 Z9.855 
N182 X200.192 Y23.366 Z9.855 
N183 X200.192 Y23.633 Z9.855 
N184 X200.192 Y23.900 Z9.855 
N185 X200.192 Y24.166 Z9.855 
N186 X200.192 Y24.433 Z9.855 
N187 X200.192 Y24.700 Z9.855 
N188 X200.192 Y24.966 Z9.855 
N189 X200.192 Y25.233 Z9.855 
N190 X200.192 Y25.500 Z9.855 
N191 X200.192 Y25.766 Z9.855 
N192 X200.192 Y26.033 Z9.855 
N193 X200.192 Y26.300 Z9.855 
N194 X200.192 Y26.566 Z9.855 
N195 X200.192 Y26.741 Z19.854 
N196 G00 X200.192 Y27.613 Z69.846 
N197 ; DELTA A > 40.1
N198 TRAFOOF
N199 STOPRE
N200 G0 G53 D0 Z265.000
N201 G1 G53 A310.0000 F10000
N202 TRAORI
N203 G54 D1
N204 TRANS 
N205 G00 X200.192 Y36.687 Z67.129 A310.0000 
N206 X200.192 Y-1.615 Z34.989 
N207 G01 X200.192 Y-9.275 Z28.562 F800 
N208 X200.192 Y-5.995 Z24.788 
N209 X200.192 Y-5.820 Z24.587 
N210 X200.192 Y-5.645 Z24.385 
N211 X200.192 Y-5.470 Z24.184 
N212 X200.192 Y-5.295 Z23.983 
N213 X200.192 Y-5.120 Z23.782 
N214 X200.192 Y-4.945 Z23.580 
N215 X200.192 Y-4.770 Z23.379 
N216 X200.192 Y-4.595 Z23.178 
N217 X200.192 Y-4.420 Z22.977 
N218 X200.192 Y-4.245 Z22.775 
N219 X200.192 Y-4.070 Z22.574 
N220 X200.192 Y-3.896 Z22.373 
N221 X200.192 Y-3.721 Z22.172 
N222 X200.192 Y-3.546 Z21.970 
N223 X200.192 Y-3.371 Z21.769 
N224 X200.192 Y-3.196 Z21.568 
N225 X200.192 Y-3.021 Z21.367 
N226 X200.192 Y-2.846 Z21.165 
N227 X200.192 Y-2.671 Z20.964 
N228 X200.192 Y-2.496 Z20.763 
N229 X200.192 Y-2.321 Z20.562 
N230 X200.192 Y-2.146 Z20.360 
N231 X200.192 Y-1.971 Z20.159 
N232 X200.192 Y-1.796 Z19.958 
N233 X200.192 Y-1.621 Z19.757 
N234 X200.192 Y-1.446 Z19.555 
N235 X200.192 Y-1.271 Z19.354 
N236 X200.192 Y-1.096 Z19.153 
N237 X200.192 Y-0.921 Z18.952 
N238 X200.192 Y-0.746 Z18.750 
N239 X200.192 Y-0.571 Z18.549 
N240 X200.192 Y-0.397 Z18.348 
N241 X200.192 Y-0.222 Z18.147 
N242 X200.192 Y-0.047 Z17.945 
N243 X200.192 Y0.128 Z17.744 
N244 X200.192 Y0.303 Z17.543 
N245 X200.192 Y0.478 Z17.341 
N246 X200.192 Y0.653 Z17.140 
N247 X200.192 Y0.828 Z16.939 
N248 X200.192 Y1.003 Z16.738 
N249 X200.192 Y1.178 Z16.536 
N250 X200.192 Y1.353 Z16.335 
N251 X200.192 Y1.528 Z16.134 
N252 X200.192 Y1.703 Z15.933 
N253 X200.192 Y1.878 Z15.731 
N254 X200.192 Y2.053 Z15.530 
N255 X200.192 Y2.228 Z15.329 
N256 X200.192 Y2.403 Z15.128 
N257 X200.192 Y2.578 Z14.926 
N258 X200.192 Y2.753 Z14.725 
N259 X200.192 Y2.928 Z14.524 
N260 X200.192 Y3.102 Z14.323 
N261 X200.192 Y3.277 Z14.121 
N262 X200.192 Y3.452 Z13.920 
N263 X200.192 Y3.627 Z13.719 
N264 X200.192 Y3.802 Z13.518 
N265 X200.192 Y3.977 Z13.316 
N266 X200.192 Y4.152 Z13.115 
N267 X200.192 Y4.327 Z12.914 
N268 X200.192 Y4.502 Z12.713 
N269 X200.192 Y4.677 Z12.511 
N270 X200.192 Y4.852 Z12.310 
N271 X200.192 Y5.027 Z12.109 
N272 X200.192 Y5.202 Z11.908 
N273 X200.192 Y5.377 Z11.706 
N274 X200.192 Y5.552 Z11.505 
N275 X200.192 Y5.727 Z11.304 
N276 X200.192 Y5.902 Z11.103 
N277 X200.192 Y6.077 Z10.901 
N278 X200.192 Y6.252 Z10.700 
N279 X200.192 Y6.426 Z10.499 
N280 X200.192 Y6.601 Z10.298 
N281 X200.192 Y6.776 Z10.096 
N282 X200.192 Y6.951 Z9.895 
N283 X200.192 Y7.126 Z9.694 
N284 X200.192 Y20.483 Z-5.671 
N285 X200.192 Y20.658 Z-5.872 
N286 X200.192 Y20.833 Z-6.073 
N287 X200.192 Y21.007 Z-6.275 
N288 X200.192 Y21.182 Z-6.476 
N289 X200.192 Y21.357 Z-6.677 
N290 X200.192 Y21.532 Z-6.878 
N291 X200.192 Y21.707 Z-7.080 
N292 X200.192 Y21.882 Z-7.281 
N293 X200.192 Y22.057 Z-7.482 
N294 X200.192 Y22.232 Z-7.684 
N295 X200.192 Y22.407 Z-7.885 
N296 X200.192 Y22.582 Z-8.086 
N297 X200.192 Y22.757 Z-8.287 
N298 X200.192 Y22.932 Z-8.489 
N299 X200.192 Y23.107 Z-8.690 
N300 X200.192 Y23.282 Z-8.891 
N301 X200.192 Y23.457 Z-9.092 
N302 X200.192 Y23.632 Z-9.294 
N303 X200.192 Y23.807 Z-9.495 
N304 X200.192 Y23.982 Z-9.696 
N305 X200.192 Y24.157 Z-9.897 
N306 X200.192 Y24.332 Z-10.099 
N307 X200.192 Y24.506 Z-10.300 
N308 X200.192 Y24.681 Z-10.501 
N309 X200.192 Y24.856 Z-10.702 
N310 X200.192 Y25.031 Z-10.904 
N311 X200.192 Y25.206 Z-11.105 
N312 X200.192 Y25.381 Z-11.306 
N313 X200.192 Y25.556 Z-11.507 
N314 X200.192 Y25.731 Z-11.709 
N315 X200.192 Y25.906 Z-11.910 
N316 X200.192 Y26.081 Z-12.111 
N317 X200.192 Y26.256 Z-12.312 
N318 X200.192 Y26.431 Z-12.514 
N319 X200.192 Y26.606 Z-12.715 
N320 X200.192 Y26.781 Z-12.916 
N321 X200.192 Y26.956 Z-13.117 
N322 X200.192 Y27.131 Z-13.319 
N323 X200.192 Y27.306 Z-13.520 
N324 X200.192 Y27.481 Z-13.721 
N325 X200.192 Y27.656 Z-13.922 
N326 X200.192 Y27.830 Z-14.124 
N327 X200.192 Y28.005 Z-14.325 
N328 X200.192 Y28.180 Z-14.526 
N329 X200.192 Y28.355 Z-14.727 
N330 X200.192 Y28.530 Z-14.929 
N331 X200.192 Y28.705 Z-15.130 
N332 X200.192 Y28.880 Z-15.331 
N333 X200.192 Y29.055 Z-15.532 
N334 X200.192 Y29.230 Z-15.734 
N335 X200.192 Y29.405 Z-15.935 
N336 X200.192 Y29.580 Z-16.136 
N337 X200.192 Y29.755 Z-16.338 
N338 X200.192 Y29.930 Z-16.539 
N339 X200.192 Y30.105 Z-16.740 
N340 X200.192 Y30.280 Z-16.941 
N341 X200.192 Y30.455 Z-17.143 
N342 X200.192 Y30.630 Z-17.344 
N343 X200.192 Y30.805 Z-17.545 
N344 X200.192 Y30.980 Z-17.746 
N345 X200.192 Y31.155 Z-17.948 
N346 X200.192 Y31.329 Z-18.149 
N347 X200.192 Y31.504 Z-18.350 
N348 X200.192 Y31.679 Z-18.551 
N349 X200.192 Y31.854 Z-18.753 
N350 X200.192 Y32.029 Z-18.954 
N351 X200.192 Y32.204 Z-19.155 
N352 X200.192 Y32.379 Z-19.356 
N353 X200.192 Y32.554 Z-19.558 
N354 X200.192 Y32.729 Z-19.759 
N355 X200.192 Y32.904 Z-19.960 
N356 X200.192 Y33.079 Z-20.161 
N357 X200.192 Y33.254 Z-20.363 
N358 X200.192 Y33.429 Z-20.564 
N359 X200.192 Y33.604 Z-20.765 
N360 X200.192 Y41.264 Z-14.337 
N361 G00 X200.192 Y79.566 Z17.802 
N362 ; DELTA A > 40.1
N363 TRAFOOF
N364 STOPRE
N365 G0 G53 D0 Z265.000
N366 G1 G53 A178.9965 F10000
N367 TRAORI
N368 G54 D1
N369 TRANS 
N370 G00 X203.258 Y44.013 Z-66.840 A178.9965 B3.7807 
N371 X200.732 Y44.941 Z-16.912 
N372 G01 X200.227 Y45.127 Z-6.927 F800 
N373 X200.227 Y40.127 Z-6.921 
N374 X200.227 Y39.860 Z-6.921 
N375 X200.227 Y39.594 Z-6.921 
N376 X200.227 Y39.327 Z-6.920 
N377 X200.227 Y39.060 Z-6.920 
N378 X200.227 Y38.794 Z-6.920 
N379 X200.227 Y38.527 Z-6.919 
N380 X200.227 Y38.260 Z-6.919 
N381 X200.227 Y37.994 Z-6.919 
N382 X200.227 Y37.727 Z-6.919 
N383 X200.227 Y37.460 Z-6.918 
N384 X200.227 Y37.194 Z-6.918 
N385 X200.227 Y36.927 Z-6.918 
N386 X200.227 Y36.660 Z-6.917 
N387 X200.227 Y36.394 Z-6.917 
N388 X200.227 Y36.127 Z-6.917 
N389 X200.227 Y35.860 Z-6.916 
N390 X200.227 Y35.594 Z-6.916 
N391 X200.227 Y35.327 Z-6.916 
N392 X200.227 Y35.060 Z-6.916 
N393 X200.227 Y34.794 Z-6.915 
N394 X200.227 Y34.527 Z-6.915 
N395 X200.227 Y34.260 Z-6.915 
N396 X200.227 Y33.994 Z-6.914 
N397 X200.227 Y33.727 Z-6.914 
N398 X200.227 Y33.460 Z-6.914 
N399 X200.227 Y33.194 Z-6.913 
N400 X200.227 Y32.927 Z-6.913 
N401 X200.227 Y32.660 Z-6.913 
N402 X200.227 Y32.394 Z-6.913 
N403 X200.227 Y32.127 Z-6.912 
N404 X200.227 Y31.860 Z-6.912 
N405 X200.227 Y31.594 Z-6.912 
N406 X200.227 Y31.327 Z-6.911 
N407 X200.227 Y31.060 Z-6.911 
N408 X200.227 Y30.794 Z-6.911 
N409 X200.227 Y30.527 Z-6.911 
N410 X200.227 Y30.260 Z-6.910 
N411 X200.227 Y29.994 Z-6.910 
N412 X200.227 Y29.727 Z-6.910 
N413 X200.227 Y29.460 Z-6.909 
N414 X200.227 Y29.194 Z-6.909 
N415 X200.227 Y28.927 Z-6.909 
N416 X200.227 Y28.660 Z-6.908 
N417 X200.227 Y28.394 Z-6.908 
N418 X200.227 Y28.127 Z-6.908 
N419 X200.227 Y27.860 Z-6.908 
N420 X200.227 Y27.594 Z-6.907 
N421 X200.227 Y27.327 Z-6.907 
N422 X200.227 Y27.060 Z-6.907 
N423 X200.227 Y26.794 Z-6.906 
N424 X200.227 Y26.527 Z-6.906 
N425 X200.227 Y26.260 Z-6.906 
N426 X200.227 Y25.994 Z-6.905 
N427 X200.227 Y25.727 Z-6.905 
N428 X200.227 Y25.460 Z-6.905 
N429 X200.227 Y25.194 Z-6.905 
N430 X200.227 Y24.927 Z-6.904 
N431 X200.227 Y24.660 Z-6.904 
N432 X200.227 Y24.394 Z-6.904 
N433 X200.227 Y24.127 Z-6.903 
N434 X200.227 Y23.860 Z-6.903 
N435 X200.227 Y23.594 Z-6.903 
N436 X200.227 Y23.327 Z-6.903 
N437 X200.227 Y23.060 Z-6.902 
N438 X200.227 Y22.794 Z-6.902 
N439 X200.227 Y22.527 Z-6.902 
N440 X200.227 Y22.260 Z-6.901 
N441 X200.227 Y21.994 Z-6.901 
N442 X200.227 Y21.727 Z-6.901 
N443 X200.227 Y21.460 Z-6.900 
N444 X200.227 Y21.194 Z-6.900 
N445 X200.227 Y20.927 Z-6.900 
N446 X200.227 Y20.660 Z-6.900 
N447 X200.227 Y20.394 Z-6.899 
N448 X200.227 Y20.127 Z-6.899 
N449 X200.227 Y-9.051 Z-6.867 
N450 X200.227 Y-9.318 Z-6.866 
N451 X200.227 Y-9.585 Z-6.866 
N452 X200.227 Y-9.851 Z-6.866 
N453 X200.227 Y-10.118 Z-6.865 
N454 X200.227 Y-10.385 Z-6.865 
N455 X200.227 Y-10.651 Z-6.865 
N456 X200.227 Y-10.918 Z-6.864 
N457 X200.227 Y-11.185 Z-6.864 
N458 X200.227 Y-11.451 Z-6.864 
N459 X200.227 Y-11.718 Z-6.864 
N460 X200.227 Y-11.985 Z-6.863 
N461 X200.227 Y-12.251 Z-6.863 
N462 X200.227 Y-12.518 Z-6.863 
N463 X200.227 Y-12.785 Z-6.862 
N464 X200.227 Y-13.051 Z-6.862 
N465 X200.227 Y-13.318 Z-6.862 
N466 X200.227 Y-13.585 Z-6.861 
N467 X200.227 Y-13.851 Z-6.861 
N468 X200.227 Y-14.118 Z-6.861 
N469 X200.227 Y-14.385 Z-6.861 
N470 X200.227 Y-14.651 Z-6.860 
N471 X200.227 Y-14.918 Z-6.860 
N472 X200.227 Y-15.185 Z-6.860 
N473 X200.227 Y-15.451 Z-6.859 
N474 X200.227 Y-15.718 Z-6.859 
N475 X200.227 Y-15.985 Z-6.859 
N476 X200.227 Y-16.251 Z-6.859 
N477 X200.227 Y-16.518 Z-6.858 
N478 X200.227 Y-16.785 Z-6.858 
N479 X200.227 Y-17.051 Z-6.858 
N480 X200.227 Y-17.318 Z-6.857 
N481 X200.227 Y-17.585 Z-6.857 
N482 X200.227 Y-17.851 Z-6.857 
N483 X200.227 Y-18.118 Z-6.856 
N484 X200.227 Y-18.385 Z-6.856 
N485 X200.227 Y-18.651 Z-6.856 
N486 X200.227 Y-18.918 Z-6.856 
N487 X200.227 Y-19.185 Z-6.855 
N488 X200.227 Y-19.451 Z-6.855 
N489 X200.227 Y-19.718 Z-6.855 
N490 X200.227 Y-19.985 Z-6.854 
N491 X200.227 Y-20.251 Z-6.854 
N492 X200.227 Y-20.518 Z-6.854 
N493 X200.227 Y-20.785 Z-6.853 
N494 X200.227 Y-21.051 Z-6.853 
N495 X200.227 Y-21.318 Z-6.853 
N496 X200.227 Y-21.585 Z-6.853 
N497 X200.227 Y-21.851 Z-6.852 
N498 X200.227 Y-22.118 Z-6.852 
N499 X200.227 Y-22.385 Z-6.852 
N500 X200.227 Y-22.651 Z-6.851 
N501 X200.227 Y-22.918 Z-6.851 
N502 X200.227 Y-23.185 Z-6.851 
N503 X200.227 Y-23.451 Z-6.851 
N504 X200.227 Y-23.718 Z-6.850 
N505 X200.227 Y-23.985 Z-6.850 
N506 X200.227 Y-24.251 Z-6.850 
N507 X200.227 Y-24.518 Z-6.849 
N508 X200.227 Y-24.785 Z-6.849 
N509 X200.227 Y-25.051 Z-6.849 
N510 X200.227 Y-25.318 Z-6.848 
N511 X200.227 Y-25.585 Z-6.848 
N512 X200.227 Y-25.851 Z-6.848 
N513 X200.227 Y-26.118 Z-6.848 
N514 X200.227 Y-26.385 Z-6.847 
N515 X200.227 Y-26.651 Z-6.847 
N516 X200.227 Y-26.918 Z-6.847 
N517 X200.227 Y-27.185 Z-6.846 
N518 X200.227 Y-27.451 Z-6.846 
N519 X200.227 Y-27.718 Z-6.846 
N520 X200.227 Y-27.985 Z-6.845 
N521 X200.227 Y-28.251 Z-6.845 
N522 X200.227 Y-28.518 Z-6.845 
N523 X200.227 Y-28.785 Z-6.845 
N524 X200.227 Y-29.051 Z-6.844 
N525 X200.732 Y-29.237 Z-16.830 
N526 G00 X203.258 Y-30.165 Z-66.757 
N527 ; DELTA A > 40.1
N528 TRAFOOF
N529 STOPRE
N530 G0 G53 D0 Z265.000
N531 G1 G53 A130.0000 F10000
N532 TRAORI
N533 G54 D1
N534 TRANS 
N535 G00 X200.192 Y-39.172 Z-64.141 A130.0000 B0.0000 
N536 X200.192 Y-0.870 Z-32.001 
N537 G01 X200.192 Y6.791 Z-25.573 F800 
N538 X200.192 Y3.511 Z-21.800 
N539 X200.192 Y3.336 Z-21.599 
N540 X200.192 Y3.161 Z-21.397 
N541 X200.192 Y2.986 Z-21.196 
N542 X200.192 Y2.811 Z-20.995 
N543 X200.192 Y2.636 Z-20.793 
N544 X200.192 Y2.461 Z-20.592 
N545 X200.192 Y2.286 Z-20.391 
N546 X200.192 Y2.111 Z-20.190 
N547 X200.192 Y1.936 Z-19.988 
N548 X200.192 Y1.761 Z-19.787 
N549 X200.192 Y1.586 Z-19.586 
N550 X200.192 Y1.411 Z-19.385 
N551 X200.192 Y1.236 Z-19.183 
N552 X200.192 Y1.061 Z-18.982 
N553 X200.192 Y0.886 Z-18.781 
N554 X200.192 Y0.711 Z-18.580 
N555 X200.192 Y0.536 Z-18.378 
N556 X200.192 Y0.361 Z-18.177 
N557 X200.192 Y0.186 Z-17.976 
N558 X200.192 Y0.012 Z-17.775 
N559 X200.192 Y-0.163 Z-17.573 
N560 X200.192 Y-0.338 Z-17.372 
N561 X200.192 Y-0.513 Z-17.171 
N562 X200.192 Y-0.688 Z-16.970 
N563 X200.192 Y-0.863 Z-16.768 
N564 X200.192 Y-1.038 Z-16.567 
N565 X200.192 Y-1.213 Z-16.366 
N566 X200.192 Y-1.388 Z-16.165 
N567 X200.192 Y-1.563 Z-15.963 
N568 X200.192 Y-1.738 Z-15.762 
N569 X200.192 Y-1.913 Z-15.561 
N570 X200.192 Y-2.088 Z-15.360 
N571 X200.192 Y-2.263 Z-15.158 
N572 X200.192 Y-2.438 Z-14.957 
N573 X200.192 Y-2.613 Z-14.756 
N574 X200.192 Y-2.788 Z-14.555 
N575 X200.192 Y-2.963 Z-14.353 
N576 X200.192 Y-3.138 Z-14.152 
N577 X200.192 Y-3.313 Z-13.951 
N578 X200.192 Y-3.487 Z-13.750 
N579 X200.192 Y-3.662 Z-13.548 
N580 X200.192 Y-3.837 Z-13.347 
N581 X200.192 Y-4.012 Z-13.146 
N582 X200.192 Y-4.187 Z-12.945 
N583 X200.192 Y-4.362 Z-12.743 
N584 X200.192 Y-4.537 Z-12.542 
N585 X200.192 Y-4.712 Z-12.341 
N586 X200.192 Y-4.887 Z-12.139 
N587 X200.192 Y-5.062 Z-11.938 
N588 X200.192 Y-5.237 Z-11.737 
N589 X200.192 Y-5.412 Z-11.536 
N590 X200.192 Y-5.587 Z-11.334 
N591 X200.192 Y-5.762 Z-11.133 
N592 X200.192 Y-5.937 Z-10.932 
N593 X200.192 Y-6.112 Z-10.731 
N594 X200.192 Y-6.287 Z-10.529 
N595 X200.192 Y-6.462 Z-10.328 
N596 X200.192 Y-6.637 Z-10.127 
N597 X200.192 Y-6.811 Z-9.926 
N598 X200.192 Y-6.986 Z-9.724 
N599 X200.192 Y-7.161 Z-9.523 
N600 X200.192 Y-7.336 Z-9.322 
N601 X200.192 Y-7.511 Z-9.121 
N602 X200.192 Y-7.686 Z-8.919 
N603 X200.192 Y-7.861 Z-8.718 
N604 X200.192 Y-8.036 Z-8.517 
N605 X200.192 Y-8.211 Z-8.316 
N606 X200.192 Y-8.386 Z-8.114 
N607 X200.192 Y-8.561 Z-7.913 
N608 X200.192 Y-8.736 Z-7.712 
N609 X200.192 Y-8.911 Z-7.511 
N610 X200.192 Y-9.086 Z-7.309 
N611 X200.192 Y-9.261 Z-7.108 
N612 X200.192 Y-9.436 Z-6.907 
N613 X200.192 Y-9.611 Z-6.706 
N614 X200.192 Y-22.939 Z8.627 
N615 X200.192 Y-23.114 Z8.828 
N616 X200.192 Y-23.289 Z9.029 
N617 X200.192 Y-23.464 Z9.230 
N618 X200.192 Y-23.639 Z9.432 
N619 X200.192 Y-23.814 Z9.633 
N620 X200.192 Y-23.989 Z9.834 
N621 X200.192 Y-24.163 Z10.035 
N622 X200.192 Y-24.338 Z10.237 
N623 X200.192 Y-24.513 Z10.438 
N624 X200.192 Y-24.688 Z10.639 
N625 X200.192 Y-24.863 Z10.840 
N626 X200.192 Y-25.038 Z11.042 
N627 X200.192 Y-25.213 Z11.243 
N628 X200.192 Y-25.388 Z11.444 
N629 X200.192 Y-25.563 Z11.646 
N630 X200.192 Y-25.738 Z11.847 
N631 X200.192 Y-25.913 Z12.048 
N632 X200.192 Y-26.088 Z12.249 
N633 X200.192 Y-26.263 Z12.451 
N634 X200.192 Y-26.438 Z12.652 
N635 X200.192 Y-26.613 Z12.853 
N636 X200.192 Y-26.788 Z13.054 
N637 X200.192 Y-26.963 Z13.256 
N638 X200.192 Y-27.138 Z13.457 
N639 X200.192 Y-27.313 Z13.658 
N640 X200.192 Y-27.487 Z13.859 
N641 X200.192 Y-27.662 Z14.061 
N642 X200.192 Y-27.837 Z14.262 
N643 X200.192 Y-28.012 Z14.463 
N644 X200.192 Y-28.187 Z14.664 
N645 X200.192 Y-28.362 Z14.866 
N646 X200.192 Y-28.537 Z15.067 
N647 X200.192 Y-28.712 Z15.268 
N648 X200.192 Y-28.887 Z15.469 
N649 X200.192 Y-29.062 Z15.671 
N650 X200.192 Y-29.237 Z15.872 
N651 X200.192 Y-29.412 Z16.073 
N652 X200.192 Y-29.587 Z16.274 
N653 X200.192 Y-29.762 Z16.476 
N654 X200.192 Y-29.937 Z16.677 
N655 X200.192 Y-30.112 Z16.878 
N656 X200.192 Y-30.287 Z17.079 
N657 X200.192 Y-30.462 Z17.281 
N658 X200.192 Y-30.637 Z17.482 
N659 X200.192 Y-30.812 Z17.683 
N660 X200.192 Y-30.986 Z17.884 
N661 X200.192 Y-31.161 Z18.086 
N662 X200.192 Y-31.336 Z18.287 
N663 X200.192 Y-31.511 Z18.488 
N664 X200.192 Y-31.686 Z18.689 
N665 X200.192 Y-31.861 Z18.891 
N666 X200.192 Y-32.036 Z19.092 
N667 X200.192 Y-32.211 Z19.293 
N668 X200.192 Y-32.386 Z19.495 
N669 X200.192 Y-32.561 Z19.696 
N670 X200.192 Y-32.736 Z19.897 
N671 X200.192 Y-32.911 Z20.098 
N672 X200.192 Y-33.086 Z20.300 
N673 X200.192 Y-33.261 Z20.501 
N674 X200.192 Y-33.436 Z20.702 
N675 X200.192 Y-33.611 Z20.903 
N676 X200.192 Y-33.786 Z21.105 
N677 X200.192 Y-33.961 Z21.306 
N678 X200.192 Y-34.136 Z21.507 
N679 X200.192 Y-34.311 Z21.708 
N680 X200.192 Y-34.485 Z21.910 
N681 X200.192 Y-34.660 Z22.111 
N682 X200.192 Y-34.835 Z22.312 
N683 X200.192 Y-35.010 Z22.513 
N684 X200.192 Y-35.185 Z22.715 
N685 X200.192 Y-35.360 Z22.916 
N686 X200.192 Y-35.535 Z23.117 
N687 X200.192 Y-35.710 Z23.318 
N688 X200.192 Y-35.885 Z23.520 
N689 X200.192 Y-36.060 Z23.721 
N690 X200.192 Y-42.621 Z31.268 
N691 G00 X200.192 Y-80.923 Z-0.871 
RAPORT("T13732","Spiral Finish Rhombic:106 End")
N693 ;trailer : concat=None
; points cnt = 616
N694 M347 ; mgla wyl
N695 M347 ; mgla wyl
N696 MSG (" --- KONIEC PROGRAMU --- ")
N697 TRANS
N698 G54
N699 FGROUP()
N700 TRAFOOF
N701 STOPRE
N702 G0 G53 D0 Z290.0 M9 M5
N703 G0 G53 Y150 A0 B0
N704 M17
