N10 ; PROGRAM NAME: 1373213
N11 ; ORDER       : 13732
N12 ; OPER. NAME  : Spiral Rough Airfoil:104
N13 ; OPER. DESCR.: spiral roughing airfoil/pioro zgr
N14 ; OPER. TYPE  : rouAirfoil
N15 ; GEO. OPTION : 6
N16 ; MACHINE     : SH_HX151_24_SIM840D
N17 ;             : STARRAG_HECKERT_5axis_finish_milling_machine
N18 ; CONTROL     : SINUMERIK 840D
N19 ; created:   2021-11-10 08:28:33.000457
;-------DODATKOWE DANE-------------------
; PROGRAMISTA : Mariusz Orzechowski
; PARTID      : 132T008743P1005_-
;  ap         : 3.0
;  ae         : 13.0
;  lean_angle : 1.0
;  airf_offset: 1.0
;----------------------------------------
N20 ;----------------------------------------
RAPORT("T13732","Spiral Rough Airfoil:104")
N21 TRAFOOF
N22 D0
N23 G90 G94
N24 STOPRE
N25 M9 ; chlodziwo wyl
N26 ; --- Spiral Rough Airfoil:104 - spiral roughing airfoil/pioro zgr ---
N28 ;ToolChange : concat=None ,current_tdmid=None, PP.tdmId=940969
N29 MSG(" TLID=940969 D=25.0 R=5.0 Ang=0.0 Len=95.0 ")
N30 TRAFOOF
N31 D0
N32 G0 G53 Z290 B0
N33 G0 X200
N34 G0 Y150
N35 T="7740969"
N36 G0 X500
RAPORT("T13732","ToolChangeStart 7740969")
N37 M6
RAPORT("T13732","ToolChangeEnd")
N38 ; (Preloading tool)
N39 T="7758060"
N40 G0 X200
N41 STOPRE
N42 S1909 M03
N43 STOPRE
N44 TOL(0.1,1,1)
N45 G0 X181.469 A178.7282
N46 TRAORI
N47 G54 D1
N48 D1 
N49 ; DELTA A > 40.1
N50 TRAFOOF
N51 STOPRE
N52 G0 G53 D0 Z265.000
N53 G1 G53 A178.7282 F10000
N54 TRAORI
N55 G54 D1
N56 TRANS 
N57 G00 XX181.469 Y46.428 Z-76.896 A178.7282 B0.0000 
N58 M346 ; chlodziwo mgla
N59 X181.469 Y47.538 Z-26.909 
N60 G01 XX181.469 Y47.063 Z-23.816 F859 
N61 X181.469 Y45.656 Z-21.022 
N62 XX181.469 Y43.454 Z-18.799 
N63 X181.469 YYYYYYYY40.673 Z-17.366 
N64 X181.469 Y37.585 Z-16.861 
N65 X181.469 Y31.933 Z-16.840 A178.6825 
N66 X181.469 Y26.369 Z-16.815 A178.6489 
N67 X181.469 Y20.972 Z-16.790 A178.7089 
N68 X181.469 Y15.809 Z-16.779 
N69 X181.469 Y10.945 Z-16.769 
N70 X181.469 Y6.433 Z-16.762 A178.6956 
N71 X181.469 Y2.307 Z-16.755 A178.6835 
N72 X181.469 Y-1.413 Z-16.748 A178.6778 
N73 X181.469 Y-4.721 Z-16.739 A178.7053 
N74 X181.469 Y-7.622 Z-16.737 A178.7089 
N75 X181.469 Y-10.145 Z-16.736 
N76 X181.469 Y-12.320 Z-16.751 A178.5616 
N77 X181.469 Y-14.172 Z-16.840 A177.7293 
N78 X181.469 Y-15.755 Z-17.070 A175.5531 
N79 X181.469 Y-17.144 Z-17.529 A171.1168 
N80 X181.469 Y-18.449 Z-18.203 A164.2259 
N81 X181.469 Y-19.778 Z-18.980 A155.4101 
N82 X181.469 Y-21.218 Z-19.750 A145.0851 
N83 X181.469 Y-22.777 Z-20.351 A134.0995 
N84 X181.469 Y-24.363 Z-20.648 A123.4320 
N85 X181.469 Y-25.843 Z-20.595 A113.8923 
N86 X181.469 Y-27.113 Z-20.224 A105.9070 
N87 X181.469 Y-28.129 Z-19.604 A99.5430 
N88 X181.469 Y-28.880 Z-18.795 A94.7722 
N89 X181.469 Y-29.365 Z-17.843 A91.6307 
N90 X181.469 Y-29.637 Z-16.777 A89.8048 
N91 X181.469 Y-29.770 Z-15.611 A88.8375 
N92 X181.469 Y-29.822 Z-14.351 A88.3730 
N93 X181.469 Y-29.830 Z-13.005 A88.1839 
N94 X181.469 Y-29.816 Z-11.584 A88.1374 
N95 X181.469 Y-29.794 Z-10.105 A88.1486 
N96 X181.469 Y-29.771 Z-8.588 A88.1665 
N97 X181.469 Y-29.752 Z-7.055 A88.1723 
N98 X181.469 Y-29.735 Z-5.529 A88.1669 
N99 X181.469 Y-29.718 Z-4.033 A88.1751 
N100 X181.469 Y-29.704 Z-2.589 
N101 X181.469 Y-29.692 Z-1.210 
N102 X181.469 Y-29.686 Z0.098 A88.1252 
N103 X181.469 Y-29.741 Z1.310 A87.5549 
N104 X181.469 Y-29.876 Z2.432 A86.2511 
N105 X181.469 Y-30.122 Z3.473 A83.8823 
N106 X181.469 Y-30.498 Z4.462 A80.1764 
N107 X181.469 Y-31.034 Z5.454 A74.7311 
N108 X181.469 Y-31.733 Z6.533 A67.2064 
N109 X181.469 Y-32.488 Z7.774 A57.9328 
N110 X181.469 Y-33.163 Z9.222 A47.3355 
N111 X181.469 Y-33.588 Z10.827 A36.2372 
N112 X181.469 Y-33.632 Z12.447 A25.6468 
N113 X181.469 Y-33.264 Z13.903 A16.4685 
N114 X181.469 Y-32.538 Z15.080 A9.1017 
N115 X181.469 Y-31.524 Z15.877 A4.1071 
N116 X181.469 Y-30.288 Z16.322 A1.3293 
N117 X181.469 Y-28.855 Z16.541 A359.9694 
N118 X181.469 Y-27.221 Z16.637 A359.3774 
N119 X181.469 Y-25.379 Z16.673 A359.1746 
N120 X181.469 Y-23.325 Z16.683 A359.1474 
N121 X181.469 Y-21.066 Z16.688 A359.1757 
N122 X181.469 Y-18.617 Z16.698 A359.1881 
N123 X181.469 Y-16.000 Z16.712 
N124 X181.469 Y-13.249 Z16.727 
N125 X181.469 Y-10.405 Z16.743 
N126 X181.469 Y-7.514 Z16.759 A359.1863 
N127 X181.469 Y-4.625 Z16.776 A359.1802 
N128 X181.469 Y-1.786 Z16.793 A359.1683 
N129 X181.469 Y0.957 Z16.810 A359.1548 
N130 X181.469 Y3.564 Z16.825 A359.1462 
N131 X181.469 Y6.002 Z16.838 A359.1697 
N132 X181.469 Y8.246 Z16.852 A359.1881 
N133 X181.469 Y10.287 Z16.870 
N134 X181.469 Y12.130 Z16.896 A359.0920 
N135 X181.469 Y13.758 Z16.989 A358.3730 
N136 X181.469 Y15.196 Z17.172 A356.7582 
N137 X181.469 Y16.473 Z17.491 A353.7533 
N138 X181.469 Y17.653 Z18.002 A348.7631 
N139 X181.469 Y18.830 Z18.708 A341.4846 
N140 X181.469 Y20.083 Z19.475 A332.5853 
N141 X181.469 Y21.470 Z20.197 A322.4680 
N142 X181.469 Y22.974 Z20.731 A311.8764 
N143 X181.469 Y24.498 Z20.965 A301.6734 
N144 X181.469 Y25.916 Z20.864 A292.5635 
N145 X181.469 Y27.132 Z20.461 A284.9222 
N146 X181.469 Y28.077 Z19.814 A279.0418 
N147 X181.469 Y28.752 Z18.987 A274.8359 
N148 X181.469 Y29.205 Z18.022 A271.9663 
N149 X181.469 Y29.480 Z16.943 A270.1743 
N150 X181.469 Y29.619 Z15.760 A269.2262 
N151 X181.469 Y29.670 Z14.481 A268.8408 
N152 X181.469 Y29.677 Z13.116 A268.7559 
N153 X181.469 Y29.670 Z11.676 A268.7731 
N154 X181.469 Y29.664 Z10.179 A268.7967 
N155 X181.469 Y29.662 Z8.644 A268.8001 
N156 X181.469 Y29.662 Z7.095 A268.7969 
N157 X181.469 Y29.662 Z5.555 A268.8001 
N158 X181.469 Y29.664 Z4.048 
N159 X181.469 Y29.667 Z2.591 
N160 X181.469 Y29.669 Z1.196 
N161 X181.469 Y29.697 Z-0.112 A268.5721 
N162 X181.469 Y29.768 Z-1.327 A267.9436 
N163 X181.469 Y29.912 Z-2.447 A266.6197 
N164 X181.469 Y30.177 Z-3.486 A264.1503 
N165 X181.469 Y30.603 Z-4.478 A260.0809 
N166 X181.469 Y31.176 Z-5.477 A254.3178 
N167 X181.469 Y31.844 Z-6.546 A247.0015 
N168 X181.469 Y32.548 Z-7.752 A238.1940 
N169 X181.469 Y33.168 Z-9.126 A228.3230 
N170 X181.469 Y33.633 Z-10.718 A217.2046 
N171 X181.469 Y33.704 Z-12.295 A206.8883 
N172 X181.469 Y33.370 Z-13.692 A198.1914 
N173 X181.469 Y32.711 Z-14.895 A190.7379 
N174 X181.469 Y31.761 Z-15.771 A185.2836 
N175 X181.469 Y30.579 Z-16.316 A181.8640 
N176 X181.469 Y29.197 Z-16.614 A179.9355 
N177 X181.469 Y27.618 Z-16.744 A179.0402 
N178 X181.469 Y25.837 Z-16.780 A178.7364 
N179 X181.469 Y23.849 Z-16.777 A178.6854 
N180 X181.469 Y21.657 Z-16.764 A178.6963 
N181 X181.469 Y19.277 Z-16.752 
N182 X181.469 Y16.728 Z-16.740 
N183 X181.469 Y14.042 Z-16.727 A178.6955 
N184 X181.469 Y11.259 Z-16.713 A178.6922 
N185 X181.469 Y8.421 Z-16.699 A178.6905 
N186 X181.469 Y5.575 Z-16.684 A178.6899 
N187 X181.469 Y2.768 Z-16.669 A178.6909 
N188 X181.469 Y0.043 Z-16.654 A178.6963 
N189 X181.469 Y-2.558 Z-16.641 
N190 X181.469 Y-5.005 Z-16.630 A178.6850 
N191 X181.469 Y-7.271 Z-16.630 A178.5771 
N192 X181.469 Y-9.341 Z-16.651 A178.2700 
N193 X181.469 Y-11.210 Z-16.706 A177.6036 
N194 X181.469 Y-12.881 Z-16.814 A176.3583 
N195 X181.469 Y-14.373 Z-17.005 A174.2118 
N196 X181.469 Y-15.721 Z-17.316 A170.7528 
N197 X181.469 Y-16.979 Z-17.765 A165.6698 
N198 X181.469 Y-18.218 Z-18.331 A158.9066 
N199 X181.469 Y-19.504 Z-18.940 A150.7442 
N200 X181.469 Y-20.861 Z-19.481 A141.7679 
N201 X181.469 Y-22.278 Z-19.862 A132.4766 
N202 X181.469 Y-23.687 Z-20.004 A123.5125 
N203 X181.469 Y-25.009 Z-19.881 A115.3602 
N204 X181.469 Y-26.175 Z-19.507 A108.3234 
N205 X181.469 Y-27.143 Z-18.920 A102.5486 
N206 X181.469 Y-27.903 Z-18.162 A98.0290 
N207 X181.469 Y-28.446 Z-17.265 A94.8190 
N208 X181.469 Y-28.804 Z-16.257 A92.7405 
N209 X181.469 Y-29.037 Z-15.155 A91.4275 
N210 X181.469 Y-29.194 Z-13.969 A90.5507 
N211 X181.469 Y-29.307 Z-12.707 A89.8945 
N212 X181.469 Y-29.395 Z-11.382 A89.3404 
N213 X181.469 Y-29.466 Z-10.006 A88.8185 
N214 X181.469 Y-29.525 Z-8.597 A88.2848 
N215 X181.469 Y-29.576 Z-7.173 A87.7110 
N216 X181.469 Y-29.620 Z-5.754 A87.0787 
N217 X181.469 Y-29.659 Z-4.358 A86.3717 
N218 X181.469 Y-29.694 Z-3.002 A85.5695 
N219 X181.469 Y-29.728 Z-1.701 A84.6473 
N220 X181.469 Y-29.767 Z-0.465 A83.5647 
N221 X181.469 Y-29.820 Z0.701 A82.2282 
N222 X181.469 Y-29.913 Z1.801 A80.4352 
N223 X181.469 Y-30.081 Z2.850 A77.8420 
N224 X181.469 Y-30.363 Z3.879 A74.0256 
N225 X181.469 Y-30.771 Z4.938 A68.6797 
N226 X181.469 Y-31.280 Z6.089 A61.6694 
N227 X181.469 Y-31.815 Z7.392 A53.0736 
N228 X181.469 Y-32.226 Z8.840 A43.5850 
N229 X181.469 Y-32.386 Z10.368 A33.9210 
N230 X181.469 Y-32.213 Z11.857 A24.8476 
N231 X181.469 Y-31.677 Z13.126 A17.4725 
N232 X181.469 Y-30.844 Z14.130 A11.8396 
N233 X181.469 Y-29.772 Z14.900 A7.6047 
N234 X181.469 Y-28.489 Z15.478 A4.4415 
N235 X181.469 Y-27.008 Z15.886 A2.1936 
N236 X181.469 Y-25.332 Z16.148 A0.7434 
N237 X181.469 Y-23.467 Z16.300 A359.9045 
N238 X181.469 Y-21.419 Z16.381 A359.4746 
N239 X181.469 Y-19.199 Z16.420 A359.2918 
N240 X181.469 Y-16.826 Z16.438 A359.2444 
N241 X181.469 Y-14.327 Z16.449 A359.2552 
N242 X181.469 Y-11.734 Z16.462 A359.2744 
N243 X181.469 Y-9.084 Z16.479 A359.2760 
N244 X181.469 Y-6.420 Z16.498 A359.2726 
N245 X181.469 Y-3.782 Z16.519 A359.2677 
N246 X181.469 Y-1.211 Z16.539 A359.2760 
N247 X181.469 Y1.256 Z16.561 
N248 X181.469 Y3.591 Z16.583 
N249 X181.469 Y5.777 Z16.602 
N250 X181.469 Y7.789 Z16.650 A358.9974 
N251 X181.469 Y9.622 Z16.753 A358.1599 
N252 X181.469 Y11.280 Z16.941 A356.4004 
N253 X181.469 Y12.784 Z17.229 A353.4516 
N254 X181.469 Y14.170 Z17.608 A349.2425 
N255 X181.469 Y15.486 Z18.070 A343.7013 
N256 X181.469 Y16.792 Z18.595 A336.7975 
N257 X181.469 Y18.124 Z19.099 A328.9595 
N258 X181.469 Y19.475 Z19.483 A320.8315 
N259 X181.469 Y20.814 Z19.689 A312.8870 
N260 X181.469 Y22.090 Z19.682 A305.5562 
N261 X181.469 Y23.257 Z19.465 A299.0782 
N262 X181.469 Y24.294 Z19.060 A293.5097 
N263 X181.469 Y25.196 Z18.495 A288.7984 
N264 X181.469 Y25.966 Z17.793 A284.8745 
N265 X181.469 Y26.612 Z16.972 A281.6623 
N266 X181.469 Y27.150 Z16.049 A279.0411 
N267 X181.469 Y27.599 Z15.037 A276.8800 
N268 X181.469 Y27.973 Z13.947 A275.0674 
N269 X181.469 Y28.286 Z12.790 A273.5203 
N270 X181.469 Y28.545 Z11.578 A272.1795 
N271 X181.469 Y28.759 Z10.324 A270.9903 
N272 X181.469 Y28.936 Z9.042 A269.8952 
N273 X181.469 Y29.085 Z7.746 A268.8337 
N274 X181.469 Y29.213 Z6.450 A267.7421 
N275 X181.469 Y29.330 Z5.168 A266.5484 
N276 X181.469 Y29.445 Z3.911 A265.1679 
N277 X181.469 Y29.566 Z2.686 A263.5104 
N278 X181.469 Y29.700 Z1.499 A261.4952 
N279 X181.469 Y29.852 Z0.349 A259.0511 
N280 X181.469 Y30.027 Z-0.768 A256.0921 
N281 X181.469 Y30.227 Z-1.863 A252.5401 
N282 X181.469 Y30.446 Z-2.950 A248.3691 
N283 X181.469 Y30.668 Z-4.045 A243.5992 
N284 X181.469 Y30.867 Z-5.162 A238.3121 
N285 X181.469 Y31.014 Z-6.312 A232.5887 
N286 X181.469 Y31.080 Z-7.501 A226.4918 
N287 X181.469 Y31.031 Z-8.732 A220.0907 
N288 X181.469 Y30.826 Z-9.988 A213.5469 
N289 X181.469 Y30.425 Z-11.234 A207.0680 
N290 X181.469 Y29.805 Z-12.433 A200.8199 
N291 X181.469 Y28.950 Z-13.539 A194.9937 
N292 X181.469 Y27.861 Z-14.518 A189.6766 
N293 X181.469 Y26.545 Z-15.323 A185.0855 
N294 X181.469 Y25.017 Z-15.866 A181.8645 
N295 X181.469 Y23.307 Z-16.169 A179.9887 
N296 X181.469 Y21.433 Z-16.312 A179.0154 
N297 X181.469 Y19.404 Z-16.362 A178.5773 
N298 X181.469 Y17.234 Z-16.362 A178.4300 
N299 X181.469 Y14.940 Z-16.341 A178.4109 
N300 X181.469 Y12.548 Z-16.316 A178.4193 
N301 X181.469 Y10.088 Z-16.292 
N302 X181.469 Y7.592 Z-16.268 A178.4145 
N303 X181.469 Y5.098 Z-16.246 A178.3861 
N304 X181.469 Y2.641 Z-16.226 A178.3322 
N305 X181.469 Y0.254 Z-16.210 A178.2267 
N306 X181.469 Y-2.033 Z-16.203 A178.0247 
N307 X181.469 Y-4.196 Z-16.211 A177.6361 
N308 X181.469 Y-6.220 Z-16.249 A176.8964 
N309 X181.469 Y-8.097 Z-16.337 A175.5688 
N310 X181.469 Y-9.831 Z-16.493 A173.3803 
N311 X181.469 Y-11.439 Z-16.732 A170.0779 
N312 X181.469 Y-12.952 Z-17.050 A165.5272 
N313 X181.469 Y-14.399 Z-17.393 A160.0017 
N314 X181.469 Y-15.790 Z-17.691 A153.9881 
N315 X181.469 Y-17.140 Z-17.919 A147.6544 
N316 X181.469 Y-18.450 Z-18.050 A141.2357 
N317 X181.469 Y-19.707 Z-18.056 A134.9810 
N318 X181.469 Y-20.896 Z-17.928 A129.0733 
N319 X181.469 Y-22.005 Z-17.665 A123.6128 
N320 X181.469 Y-23.026 Z-17.275 A118.6387 
N321 X181.469 Y-23.955 Z-16.768 A114.1692 
N322 X181.469 Y-24.789 Z-16.154 A110.1946 
N323 X181.469 Y-25.532 Z-15.446 A106.6806 
N324 X181.469 Y-26.188 Z-14.654 A103.5732 
N325 X181.469 Y-26.766 Z-13.788 A100.8142 
N326 X181.469 Y-27.272 Z-12.859 A98.3412 
N327 X181.469 Y-27.715 Z-11.877 A96.0889 
N328 X181.469 Y-28.102 Z-10.849 A93.9940 
N329 X181.469 Y-28.441 Z-9.787 A91.9959 
N330 X181.469 Y-28.739 Z-8.697 A90.0373 
N331 X181.469 Y-29.001 Z-7.591 A88.0668 
N332 X181.469 Y-29.232 Z-6.475 A86.0404 
N333 X181.469 Y-29.434 Z-5.358 A83.9227 
N334 X181.469 Y-29.612 Z-4.247 A81.6856 
N335 X181.469 Y-29.766 Z-3.146 A79.3112 
N336 X181.469 Y-29.896 Z-2.061 A76.7874 
N337 X181.469 Y-30.005 Z-0.993 A74.0971 
N338 X181.469 Y-30.095 Z0.058 A71.2139 
N339 X181.469 Y-30.169 Z1.098 A68.0885 
N340 X181.469 Y-30.233 Z2.135 A64.6320 
N341 X181.469 Y-30.291 Z3.186 A60.7256 
N342 X181.469 Y-30.343 Z4.270 A56.2369 
N343 X181.469 Y-30.374 Z5.408 A51.0783 
N344 X181.469 Y-30.347 Z6.610 A45.2982 
N345 X181.469 Y-30.208 Z7.863 A39.1159 
N346 X181.469 Y-29.912 Z9.146 A32.7121 
N347 X181.469 Y-29.418 Z10.421 A26.2976 
N348 X181.469 Y-28.689 Z11.615 A20.3230 
N349 X181.469 Y-27.725 Z12.685 A14.9811 
N350 X181.469 Y-26.535 Z13.585 A10.4883 
N351 X181.469 Y-25.138 Z14.293 A6.9823 
N352 X181.469 Y-23.556 Z14.822 A4.3844 
N353 X181.469 Y-21.809 Z15.203 A2.5289 
N354 X181.469 Y-19.910 Z15.466 A1.2562 
N355 X181.469 Y-17.875 Z15.637 A0.4457 
N356 X181.469 Y-15.723 Z15.742 A359.9948 
N357 X181.469 Y-13.475 Z15.803 A359.7964 
N358 X181.469 Y-11.158 Z15.842 A359.7439 
N359 X181.469 Y-8.800 Z15.873 A359.7612 
N360 X181.469 Y-6.435 Z15.905 A359.7824 
N361 X181.469 Y-4.090 Z15.942 
N362 X181.469 Y-1.791 Z15.979 A359.7692 
N363 X181.469 Y0.426 Z16.040 A359.5255 
N364 X181.469 Y2.540 Z16.127 A358.9515 
N365 X181.469 Y4.536 Z16.254 A357.8544 
N366 X181.469 Y6.407 Z16.425 A356.0822 
N367 X181.469 Y8.156 Z16.641 A353.5067 
N368 X181.469 Y9.794 Z16.902 A350.0118 
N369 X181.469 Y11.344 Z17.197 A345.5692 
N370 X181.469 Y12.824 Z17.490 A340.3662 
N371 X181.469 Y14.245 Z17.732 A334.7550 
N372 X181.469 Y15.603 Z17.885 A329.0588 
N373 X181.469 Y16.897 Z17.937 A323.4409 
N374 X181.469 Y18.120 Z17.878 A318.0709 
N375 X181.469 Y19.266 Z17.708 A313.0460 
N376 X181.469 Y20.334 Z17.436 A308.3923 
N377 X181.469 Y21.327 Z17.070 A304.0899 
N378 X181.469 Y22.250 Z16.621 A300.0994 
N379 X181.469 Y23.108 Z16.095 A296.3766 
N380 X181.469 Y23.907 Z15.499 A292.8801 
N381 X181.469 Y24.650 Z14.839 A289.5729 
N382 X181.469 Y25.338 Z14.119 A286.4228 
N383 X181.469 Y25.975 Z13.344 A283.4015 
N384 X181.469 Y26.561 Z12.519 A280.4843 
N385 X181.469 Y27.096 Z11.649 A277.6481 
N386 X181.469 Y27.583 Z10.739 A274.8701 
N387 X181.469 Y28.021 Z9.796 A272.1286 
N388 X181.469 Y28.411 Z8.825 A269.4076 
N389 X181.469 Y28.754 Z7.831 A266.6977 
N390 X181.469 Y29.049 Z6.821 A263.9879 
N391 X181.469 Y29.297 Z5.798 A261.2662 
N392 X181.469 Y29.501 Z4.769 A258.5138 
N393 X181.469 Y29.664 Z3.735 A255.7014 
N394 X181.469 Y29.789 Z2.699 A252.7946 
N395 X181.469 Y29.880 Z1.660 A249.7580 
N396 X181.469 Y29.936 Z0.618 A246.5626 
N397 X181.469 Y29.957 Z-0.430 A243.1842 
N398 X181.469 Y29.940 Z-1.487 A239.6006 
N399 X181.469 Y29.878 Z-2.558 A235.7973 
N400 X181.469 Y29.764 Z-3.646 A231.7623 
N401 X181.469 Y29.585 Z-4.755 A227.4932 
N402 X181.469 Y29.327 Z-5.887 A222.9956 
N403 X181.469 Y28.968 Z-7.037 A218.2999 
N404 X181.469 Y28.490 Z-8.198 A213.4516 
N405 X181.469 Y27.869 Z-9.354 A208.5248 
N406 X181.469 Y27.086 Z-10.484 A203.6067 
N407 X181.469 Y26.126 Z-11.558 A198.8299 
N408 X181.469 Y24.980 Z-12.537 A194.3899 
N409 X181.469 Y23.650 Z-13.385 A190.4831 
N410 X181.469 Y22.148 Z-14.083 A187.2111 
N411 X181.469 Y20.494 Z-14.635 A184.5555 
N412 X181.469 Y18.706 Z-15.054 A182.4434 
N413 X181.469 Y16.800 Z-15.353 A180.8453 
N414 X181.469 Y14.796 Z-15.545 A179.7243 
N415 X181.469 Y12.715 Z-15.654 A178.9866 
N416 X181.469 Y10.577 Z-15.705 A178.5248 
N417 X181.469 Y8.405 Z-15.721 A178.2269 
N418 X181.469 Y6.223 Z-15.721 A177.9621 
N419 X181.469 Y4.055 Z-15.725 A177.5873 
N420 X181.469 Y1.922 Z-15.743 A176.9790 
N421 X181.469 Y-0.153 Z-15.780 A176.0284 
N422 X181.469 Y-2.157 Z-15.838 A174.6322 
N423 X181.469 Y-4.077 Z-15.916 A172.7146 
N424 X181.469 Y-5.908 Z-16.005 A170.2513 
N425 X181.469 Y-7.649 Z-16.097 A167.2379 
N426 X181.469 Y-9.304 Z-16.183 A163.6988 
N427 X181.469 Y-10.877 Z-16.248 A159.7094 
N428 X181.469 Y-12.374 Z-16.278 A155.3649 
N429 X181.469 Y-13.799 Z-16.259 A150.7925 
N430 X181.469 Y-15.154 Z-16.179 A146.1168 
N431 X181.469 Y-16.439 Z-16.028 A141.4559 
N432 X181.469 Y-17.651 Z-15.802 A136.9020 
N433 X181.469 Y-18.791 Z-15.501 A132.5139 
N434 X181.469 Y-19.862 Z-15.129 A128.3107 
N435 X181.469 Y-20.865 Z-14.689 A124.2946 
N436 X181.469 Y-21.803 Z-14.187 A120.4634 
N437 X181.469 Y-22.678 Z-13.627 A116.8093 
N438 X181.469 Y-23.492 Z-13.012 A113.3198 
N439 X181.469 Y-24.248 Z-12.349 A109.9791 
N440 X181.469 Y-24.948 Z-11.641 A106.7685 
N441 X181.469 Y-25.592 Z-10.894 A103.6673 
N442 X181.469 Y-26.185 Z-10.112 A100.6532 
N443 X181.469 Y-26.727 Z-9.301 A97.7038 
N444 X181.469 Y-27.221 Z-8.464 A94.7972 
N445 X181.469 Y-27.670 Z-7.607 A91.9112 
N446 X181.469 Y-28.075 Z-6.733 A89.0240 
N447 X181.469 Y-28.438 Z-5.846 A86.1139 
N448 X181.469 Y-28.762 Z-4.948 A83.1600 
N449 X181.469 Y-29.048 Z-4.041 A80.1422 
N450 X181.469 Y-29.297 Z-3.127 A77.0410 
N451 X181.469 Y-29.511 Z-2.204 A73.8378 
N452 X181.469 Y-29.690 Z-1.273 A70.5145 
N453 X181.469 Y-29.831 Z-0.332 A67.0536 
N454 X181.469 Y-29.934 Z0.623 A63.4378 
N455 X181.469 Y-29.994 Z1.596 A59.6499 
N456 X181.469 Y-30.005 Z2.591 A55.6731 
N457 X181.469 Y-29.958 Z3.612 A51.4929 
N458 X181.469 Y-29.841 Z4.663 A47.1020 
N459 X181.469 Y-29.638 Z5.744 A42.5094 
N460 X181.469 Y-29.328 Z6.851 A37.7490 
N461 X181.469 Y-28.889 Z7.973 A32.8790 
N462 X181.469 Y-28.300 Z9.092 A27.9823 
N463 X181.469 Y-27.541 Z10.183 A23.1703 
N464 X181.469 Y-26.598 Z11.216 A18.5670 
N465 X181.469 Y-25.468 Z12.161 A14.3091 
N466 X181.469 Y-24.153 Z12.990 A10.5054 
N467 X181.469 Y-22.664 Z13.684 A7.2564 
N468 X181.469 Y-21.017 Z14.235 A4.6092 
N469 X181.469 Y-19.231 Z14.646 A2.5807 
N470 X181.469 Y-17.325 Z14.927 A1.1711 
N471 X181.469 Y-15.321 Z15.102 A0.2995 
N472 X181.469 Y-13.240 Z15.203 A359.8173 
N473 X181.469 Y-11.104 Z15.261 A359.5726 
N474 X181.469 Y-8.939 Z15.297 A359.4404 
N475 X181.469 Y-6.768 Z15.329 A359.3064 
N476 X181.469 Y-4.619 Z15.370 A359.0594 
N477 X181.469 Y-2.514 Z15.426 A358.5872 
N478 X181.469 Y-0.475 Z15.508 A357.7609 
N479 X181.469 Y1.481 Z15.619 A356.4489 
N480 X181.469 Y3.345 Z15.757 A354.5594 
N481 X181.469 Y5.111 Z15.916 A352.0617 
N482 X181.469 Y6.781 Z16.083 A348.9612 
N483 X181.469 Y8.358 Z16.245 A345.3283 
N484 X181.469 Y9.848 Z16.384 A341.2904 
N485 X181.469 Y11.256 Z16.486 A336.9522 
N486 X181.469 Y12.590 Z16.543 A332.4174 
N487 X181.469 Y13.853 Z16.549 A327.7686 
N488 X181.469 Y15.051 Z16.496 A323.1009 
N489 X181.469 Y16.185 Z16.381 A318.4890 
N490 X181.469 Y17.258 Z16.202 A313.9806 
N491 X181.469 Y18.273 Z15.959 A309.6016 
N492 X181.469 Y19.232 Z15.654 A305.3640 
N493 X181.469 Y20.138 Z15.288 A301.2702 
N494 X181.469 Y20.992 Z14.864 A297.3151 
N495 X181.469 Y21.796 Z14.383 A293.4903 
N496 X181.469 Y22.550 Z13.847 A289.7869 
N497 X181.469 Y23.256 Z13.258 A286.1959 
N498 X181.469 Y23.911 Z12.619 A282.7080 
N499 X181.469 Y24.517 Z11.933 A279.3130 
N500 X181.469 Y25.071 Z11.201 A276.0010 
N501 X181.469 Y25.575 Z10.429 A272.7613 
N502 X181.469 Y26.026 Z9.618 A269.5832 
N503 X181.469 Y26.426 Z8.773 A266.4563 
N504 X181.469 Y26.772 Z7.898 A263.3729 
N505 X181.469 Y27.066 Z6.995 A260.3251 
N506 X181.469 Y27.306 Z6.069 A257.2969 
N507 X181.469 Y27.496 Z5.122 A254.2674 
N508 X181.469 Y27.636 Z4.156 A251.2118 
N509 X181.469 Y27.726 Z3.172 A248.1057 
N510 X181.469 Y27.768 Z2.171 A244.9271 
N511 X181.469 Y27.759 Z1.155 A241.6564 
N512 X181.469 Y27.697 Z0.121 A238.2779 
N513 X181.469 Y27.578 Z-0.928 A234.7785 
N514 X181.469 Y27.397 Z-1.994 A231.1494 
N515 X181.469 Y27.146 Z-3.075 A227.3893 
N516 X181.469 Y26.814 Z-4.168 A223.5137 
N517 X181.469 Y26.392 Z-5.269 A219.5414 
N518 X181.469 Y25.871 Z-6.371 A215.4766 
N519 X181.469 Y25.237 Z-7.467 A211.3541 
N520 X181.469 Y24.479 Z-8.538 A207.2509 
N521 X181.469 Y23.589 Z-9.568 A203.2472 
N522 X181.469 Y22.560 Z-10.534 A199.4431 
N523 X181.469 Y21.395 Z-11.418 A195.9254 
N524 X181.469 Y20.101 Z-12.210 A192.7380 
N525 X181.469 Y18.687 Z-12.905 A189.8769 
N526 X181.469 Y17.166 Z-13.505 A187.3127 
N527 X181.469 Y15.551 Z-14.011 A185.0374 
N528 X181.469 Y13.855 Z-14.425 A183.0461 
N529 X181.469 Y12.094 Z-14.754 A181.2937 
N530 X181.469 Y10.283 Z-15.010 A179.7154 
N531 X181.469 Y8.438 Z-15.205 A178.2351 
N532 X181.469 Y6.573 Z-15.350 A176.7702 
N533 X181.469 Y4.705 Z-15.455 A175.2433 
N534 X181.469 Y2.846 Z-15.527 A173.5857 
N535 X181.469 Y1.009 Z-15.570 A171.7382 
N536 X181.469 Y-0.794 Z-15.586 A169.6585 
N537 X181.469 Y-2.556 Z-15.574 A167.3220 
N538 X181.469 Y-4.268 Z-15.534 A164.7169 
N539 X181.469 Y-5.926 Z-15.463 A161.8490 
N540 X181.469 Y-7.526 Z-15.357 A158.7371 
N541 X181.469 Y-9.065 Z-15.213 A155.4123 
N542 X181.469 Y-10.541 Z-15.027 A151.9166 
N543 X181.469 Y-11.953 Z-14.796 A148.2976 
N544 X181.469 Y-13.299 Z-14.516 A144.6061 
N545 X181.469 Y-14.580 Z-14.188 A140.8906 
N546 X181.469 Y-15.793 Z-13.810 A137.1933 
N547 X181.469 Y-16.940 Z-13.384 A133.5435 
N548 X181.469 Y-18.021 Z-12.914 A129.9562 
N549 X181.469 Y-19.040 Z-12.404 A126.4345 
N550 X181.469 Y-19.997 Z-11.856 A122.9752 
N551 X181.469 Y-20.896 Z-11.276 A119.5757 
N552 X181.469 Y-21.738 Z-10.666 A116.2325 
N553 X181.469 Y-22.527 Z-10.029 A112.9392 
N554 X181.469 Y-23.263 Z-9.369 A109.6869 
N555 X181.469 Y-23.949 Z-8.690 A106.4639 
N556 X181.469 Y-24.589 Z-7.993 A103.2575 
N557 X181.469 Y-25.183 Z-7.281 A100.0547 
N558 X181.469 Y-25.735 Z-6.557 A96.8422 
N559 X181.469 Y-26.246 Z-5.822 A93.6070 
N560 X181.469 Y-26.719 Z-5.077 A90.3364 
N561 X181.469 Y-27.154 Z-4.323 A87.0184 
N562 X181.469 Y-27.553 Z-3.560 A83.6416 
N563 X181.469 Y-27.917 Z-2.786 A80.1940 
N564 X181.469 Y-28.246 Z-2.001 A76.6637 
N565 X181.469 Y-28.539 Z-1.203 A73.0397 
N566 X181.469 Y-28.796 Z-0.388 A69.3116 
N567 X181.469 Y-29.013 Z0.446 A65.4695 
N568 X181.469 Y-29.186 Z1.302 A61.5035 
N569 X181.469 Y-29.310 Z2.185 A57.4033 
N570 X181.469 Y-29.376 Z3.098 A53.1603 
N571 X181.469 Y-29.374 Z4.043 A48.7714 
N572 X181.469 Y-29.291 Z5.021 A44.2423 
N573 X181.469 Y-29.110 Z6.029 A39.5952 
N574 X181.469 Y-28.813 Z7.057 A34.8776 
N575 X181.469 Y-28.380 Z8.093 A30.1566 
N576 X181.469 Y-27.795 Z9.116 A25.5135 
N577 X181.469 Y-27.044 Z10.103 A21.0418 
N578 X181.469 Y-26.120 Z11.028 A16.8450 
N579 X181.469 Y-25.023 Z11.867 A13.0117 
N580 X181.469 Y-23.757 Z12.601 A9.6248 
N581 X181.469 Y-22.334 Z13.218 A6.7302 
N582 X181.469 Y-20.767 Z13.713 A4.3531 
N583 X181.469 Y-19.073 Z14.089 A2.4923 
N584 X181.469 Y-17.271 Z14.360 A1.1027 
N585 X181.469 Y-15.380 Z14.542 A0.1216 
N586 X181.469 Y-13.420 Z14.655 A359.4681 
N587 X181.469 Y-11.414 Z14.721 A359.0289 
N588 X181.469 Y-9.383 Z14.763 A358.6747 
N589 X181.469 Y-7.353 Z14.796 A358.2860 
N590 X181.469 Y-5.346 Z14.834 A357.7445 
N591 X181.469 Y-3.382 Z14.886 A356.9315 
N592 X181.469 Y-1.481 Z14.955 A355.7516 
N593 X181.469 Y0.344 Z15.041 A354.1444 
N594 X181.469 Y2.083 Z15.139 A352.0641 
N595 X181.469 Y3.732 Z15.247 A349.4913 
N596 X181.469 Y5.290 Z15.355 A346.4474 
N597 X181.469 Y6.761 Z15.457 A342.9720 
N598 X181.469 Y8.150 Z15.543 A339.1293 
N599 X181.469 Y9.464 Z15.604 A334.9975 
N600 X181.469 Y10.708 Z15.635 A330.6540 
N601 X181.469 Y11.888 Z15.626 A326.1749 
N602 X181.469 Y13.010 Z15.573 A321.6320 
N603 X181.469 Y14.077 Z15.471 A317.0908 
N604 X181.469 Y15.091 Z15.315 A312.6009 
N605 X181.469 Y16.053 Z15.105 A308.1955 
N606 X181.469 Y16.967 Z14.840 A303.8938 
N607 X181.469 Y17.833 Z14.519 A299.7052 
N608 X181.469 Y18.653 Z14.144 A295.6321 
N609 X181.469 Y19.426 Z13.716 A291.6722 
N610 X181.469 Y20.154 Z13.234 A287.8207 
N611 X181.469 Y20.834 Z12.702 A284.0728 
N612 X181.469 Y21.468 Z12.121 A280.4234 
N613 X181.469 Y22.052 Z11.492 A276.8665 
N614 X181.469 Y22.586 Z10.818 A273.3961 
N615 X181.469 Y23.069 Z10.102 A270.0049 
N616 X181.469 Y23.500 Z9.346 A266.6877 
N617 X181.469 Y23.876 Z8.554 A263.4397 
N618 X181.469 Y24.198 Z7.728 A260.2521 
N619 X181.469 Y24.464 Z6.872 A257.1105 
N620 X181.469 Y24.677 Z5.987 A253.9931 
N621 X181.469 Y24.837 Z5.076 A250.8713 
N622 X181.469 Y24.945 Z4.139 A247.7148 
N623 X181.469 Y25.002 Z3.177 A244.4955 
N624 X181.469 Y25.005 Z2.190 A241.1898 
N625 X181.469 Y24.951 Z1.179 A237.7800 
N626 X181.469 Y24.836 Z0.146 A234.2577 
N627 X181.469 Y24.653 Z-0.908 A230.6282 
N628 X181.469 Y24.392 Z-1.975 A226.9237 
N629 X181.469 Y24.044 Z-3.048 A223.1970 
N630 X181.469 Y23.601 Z-4.116 A219.4865 
N631 X181.469 Y23.057 Z-5.170 A215.8321 
N632 X181.469 Y22.408 Z-6.198 A212.2891 
N633 X181.469 Y21.652 Z-7.189 A208.8984 
N634 X181.469 Y20.792 Z-8.134 A205.6947 
N635 X181.469 Y19.831 Z-9.025 A202.6900 
N636 X181.469 Y18.776 Z-9.865 A199.8334 
N637 X181.469 Y17.637 Z-10.659 A197.0333 
N638 X181.469 Y16.420 Z-11.411 A194.2263 
N639 X181.469 Y15.126 Z-12.112 A191.4178 
N640 X181.469 Y13.760 Z-12.748 A188.6736 
N641 X181.469 Y12.330 Z-13.313 A186.0199 
N642 X181.469 Y10.845 Z-13.804 A183.4434 
N643 X181.469 Y9.314 Z-14.224 A180.9224 
N644 X181.469 Y7.747 Z-14.571 A178.4363 
N645 X181.469 Y6.155 Z-14.849 A175.9643 
N646 X181.469 Y4.545 Z-15.058 A173.4841 
N647 X181.469 Y2.929 Z-15.200 A170.9756 
N648 X181.469 Y1.313 Z-15.278 A168.4216 
N649 X181.469 Y-0.294 Z-15.294 A165.8094 
N650 X181.469 Y-1.883 Z-15.248 A163.1311 
N651 X181.469 Y-3.449 Z-15.144 A160.3832 
N652 X181.469 Y-4.983 Z-14.982 A157.5663 
N653 X181.469 Y-6.482 Z-14.764 A154.6846 
N654 X181.469 Y-7.938 Z-14.493 A151.7450 
N655 X181.469 Y-9.347 Z-14.171 A148.7563 
N656 X181.469 Y-10.706 Z-13.802 A145.7286 
N657 X181.469 Y-12.010 Z-13.388 A142.6724 
N658 X181.469 Y-13.258 Z-12.934 A139.5979 
N659 X181.469 Y-14.447 Z-12.443 A136.5143 
N660 X181.469 Y-15.576 Z-11.920 A133.4275 
N661 X181.469 Y-16.646 Z-11.369 A130.3390 
N662 X181.469 Y-17.657 Z-10.796 A127.2460 
N663 X181.469 Y-18.611 Z-10.204 A124.1431 
N664 X181.469 Y-19.509 Z-9.598 A121.0238 
N665 X181.469 Y-20.355 Z-8.980 A117.8828 
N666 X181.469 Y-21.150 Z-8.355 A114.7143 
N667 X181.469 Y-21.897 Z-7.724 A111.5118 
N668 X181.469 Y-22.599 Z-7.089 A108.2681 
N669 X181.469 Y-23.260 Z-6.450 A104.9761 
N670 X181.469 Y-23.881 Z-5.810 A101.6287 
N671 X181.469 Y-24.465 Z-5.166 A98.2188 
N672 X181.469 Y-25.014 Z-4.519 A94.7400 
N673 X181.469 Y-25.531 Z-3.866 A91.1870 
N674 X181.469 Y-26.017 Z-3.207 A87.5552 
N675 X181.469 Y-26.471 Z-2.539 A83.8406 
N676 X181.469 Y-26.894 Z-1.858 A80.0395 
N677 X181.469 Y-27.284 Z-1.162 A76.1485 
N678 X181.469 Y-27.641 Z-0.447 A72.1641 
N679 X181.469 Y-27.960 Z0.290 A68.0827 
N680 X181.469 Y-28.237 Z1.053 A63.9006 
N681 X181.469 Y-28.467 Z1.846 A59.6146 
N682 X181.469 Y-28.642 Z2.672 A55.2222 
N683 X181.469 Y-28.752 Z3.532 A50.7245 
N684 X181.469 Y-28.786 Z4.428 A46.1292 
N685 X181.469 Y-28.728 Z5.356 A41.4561 
N686 X181.469 Y-28.564 Z6.310 A36.7429 
N687 X181.469 Y-28.274 Z7.278 A32.0464 
N688 X181.469 Y-27.845 Z8.243 A27.4373 
N689 X181.469 Y-27.262 Z9.185 A22.9914 
N690 X181.469 Y-26.518 Z10.082 A18.7867 
N691 X181.469 Y-25.610 Z10.914 A14.8979 
N692 X181.469 Y-24.539 Z11.662 A11.3895 
N693 X181.469 Y-23.314 Z12.311 A8.3068 
N694 X181.469 Y-21.943 Z12.853 A5.6828 
N695 X181.469 Y-20.441 Z13.286 A3.5192 
N696 X181.469 Y-18.823 Z13.616 A1.8036 
N697 X181.469 Y-17.107 Z13.852 A0.5023 
N698 X181.469 Y-15.312 Z14.010 A359.5458 
N699 X181.469 Y-13.458 Z14.108 A358.8513 
N700 X181.469 Y-11.566 Z14.163 A358.3241 
N701 X181.469 Y-9.658 Z14.196 A357.8499 
N702 X181.469 Y-7.756 Z14.221 A357.3065 
N703 X181.469 Y-5.883 Z14.250 A356.5892 
N704 X181.469 Y-4.056 Z14.288 A355.6056 
N705 X181.469 Y-2.292 Z14.341 A354.2716 
N706 X181.469 Y-0.604 Z14.409 A352.5285 
N707 X181.469 Y1.001 Z14.488 A350.3485 
N708 X181.469 Y2.519 Z14.577 A347.7169 
N709 X181.469 Y3.952 Z14.669 A344.6459 
N710 X181.469 Y5.303 Z14.759 A341.1739 
N711 X181.469 Y6.579 Z14.840 A337.3468 
N712 X181.469 Y7.786 Z14.906 A333.2310 
N713 X181.469 Y8.933 Z14.949 A328.8930 
N714 X181.469 Y10.025 Z14.962 A324.4043 
N715 X181.469 Y11.067 Z14.937 A319.8314 
N716 X181.469 Y12.063 Z14.869 A315.2352 
N717 X181.469 Y13.016 Z14.753 A310.6636 
N718 X181.469 Y13.926 Z14.586 A306.1515 
N719 X181.469 Y14.795 Z14.366 A301.7208 
N720 X181.469 Y15.624 Z14.092 A297.3839 
N721 X181.469 Y16.412 Z13.762 A293.1468 
N722 X181.469 Y17.158 Z13.378 A289.0109 
N723 X181.469 Y17.863 Z12.938 A284.9756 
N724 X181.469 Y18.523 Z12.443 A281.0397 
N725 X181.469 Y19.137 Z11.895 A277.2023 
N726 X181.469 Y19.702 Z11.294 A273.4619 
N727 X181.469 Y20.215 Z10.642 A269.8162 
N728 X181.469 Y20.673 Z9.942 A266.2616 
N729 X181.469 Y21.075 Z9.195 A262.7958 
N730 X181.469 Y21.417 Z8.406 A259.4186 
N731 X181.469 Y21.696 Z7.578 A256.1265 
N732 X181.469 Y21.913 Z6.714 A252.9128 
N733 X181.469 Y22.064 Z5.818 A249.7652 
N734 X181.469 Y22.151 Z4.893 A246.6688 
N735 X181.469 Y22.174 Z3.943 A243.6070 
N736 X181.469 Y22.132 Z2.970 A240.5639 
N737 X181.469 Y22.025 Z1.979 A237.5281 
N738 X181.469 Y21.851 Z0.973 A234.4883 
N739 X181.469 Y21.613 Z-0.046 A231.4119 
N740 X181.469 Y21.312 Z-1.076 A228.2612 
N741 X181.469 Y20.943 Z-2.111 A225.0587 
N742 X181.469 Y20.500 Z-3.141 A221.8468 
N743 X181.469 Y19.982 Z-4.162 A218.6271 
N744 X181.469 Y19.389 Z-5.167 A215.3992 
N745 X181.469 Y18.721 Z-6.150 A212.1841 
N746 X181.469 Y17.977 Z-7.102 A208.9992 
N747 X181.469 Y17.158 Z-8.019 A205.8484 
N748 X181.469 Y16.269 Z-8.898 A202.7119 
N749 X181.469 Y15.312 Z-9.738 A199.5581 
N750 X181.469 Y14.289 Z-10.534 A196.3831 
N751 X181.469 Y13.202 Z-11.277 A193.2212 
N752 X181.469 Y12.053 Z-11.960 A190.0904 
N753 X181.469 Y10.846 Z-12.578 A186.9946 
N754 X181.469 Y9.587 Z-13.128 A183.9339 
N755 X181.469 Y8.281 Z-13.607 A180.9092 
N756 X181.469 Y6.934 Z-14.012 A177.9203 
N757 X181.469 Y5.552 Z-14.342 A174.9655 
N758 X181.469 Y4.141 Z-14.595 A172.0426 
N759 X181.469 Y2.710 Z-14.771 A169.1490 
N760 X181.469 Y1.263 Z-14.869 A166.2825 
N761 X181.469 Y-0.190 Z-14.891 A163.4406 
N762 X181.469 Y-1.642 Z-14.838 A160.6212 
N763 X181.469 Y-3.087 Z-14.712 A157.8218 
N764 X181.469 Y-4.517 Z-14.517 A155.0396 
N765 X181.469 Y-5.925 Z-14.256 A152.2719 
N766 X181.469 Y-7.303 Z-13.933 A149.5159 
N767 X181.469 Y-8.647 Z-13.554 A146.7684 
N768 X181.469 Y-9.950 Z-13.124 A144.0261 
N769 X181.469 Y-11.208 Z-12.649 A141.2851 
N770 X181.469 Y-12.417 Z-12.135 A138.5413 
N771 X181.469 Y-13.573 Z-11.589 A135.7898 
N772 X181.469 Y-14.675 Z-11.017 A133.0250 
N773 X181.469 Y-15.722 Z-10.425 A130.2393 
N774 X181.469 Y-16.713 Z-9.820 A127.4230 
N775 X181.469 Y-17.649 Z-9.206 A124.5653 
N776 X181.469 Y-18.533 Z-8.589 A121.6556 
N777 X181.469 Y-19.366 Z-7.972 A118.6834 
N778 X181.469 Y-20.152 Z-7.358 A115.6394 
N779 X181.469 Y-20.894 Z-6.750 A112.5149 
N780 X181.469 Y-21.595 Z-6.147 A109.3018 
N781 X181.469 Y-22.259 Z-5.551 A105.9934 
N782 X181.469 Y-22.888 Z-4.960 A102.5842 
N783 X181.469 Y-23.487 Z-4.372 A99.0705 
N784 X181.469 Y-24.057 Z-3.785 A95.4500 
N785 X181.469 Y-24.599 Z-3.195 A91.7226 
N786 X181.469 Y-25.116 Z-2.600 A87.8889 
N787 X181.469 Y-25.605 Z-1.994 A83.9511 
N788 X181.469 Y-26.067 Z-1.374 A79.9117 
N789 X181.469 Y-26.500 Z-0.735 A75.7735 
N790 X181.469 Y-26.900 Z-0.074 A71.5389 
N791 X181.469 Y-27.263 Z0.615 A67.2104 
N792 X181.469 Y-27.583 Z1.334 A62.7897 
N793 X181.469 Y-27.854 Z2.087 A58.2789 
N794 X181.469 Y-28.067 Z2.877 A53.6814 
N795 X181.469 Y-28.210 Z3.703 A49.0057 
N796 X181.469 Y-28.273 Z4.566 A44.2675 
N797 X181.469 Y-28.239 Z5.459 A39.4956 
N798 X181.469 Y-28.093 Z6.373 A34.7380 
N799 X181.469 Y-27.819 Z7.296 A30.0546 
N800 X181.469 Y-27.405 Z8.209 A25.5102 
N801 X181.469 Y-26.841 Z9.093 A21.1715 
N802 X181.469 Y-26.121 Z9.929 A17.1069 
N803 X181.469 Y-25.244 Z10.698 A13.3733 
N804 X181.469 Y-24.215 Z11.384 A10.0228 
N805 X181.469 Y-23.039 Z11.974 A7.0887 
N806 X181.469 Y-21.729 Z12.463 A4.5921 
N807 X181.469 Y-20.297 Z12.849 A2.5417 
N808 X181.469 Y-18.759 Z13.136 A0.9164 
N809 X181.469 Y-17.132 Z13.336 A359.6782 
N810 X181.469 Y-15.434 Z13.462 A358.7726 
N811 X181.469 Y-13.685 Z13.532 A358.1119 
N812 X181.469 Y-11.907 Z13.565 A357.5904 
N813 X181.469 Y-10.119 Z13.578 A357.1027 
N814 X181.469 Y-8.344 Z13.585 A356.5392 
N815 X181.469 Y-6.600 Z13.599 A355.7867 
N816 X181.469 Y-4.907 Z13.627 A354.7528 
N817 X181.469 Y-3.278 Z13.671 A353.3713 
N818 X181.469 Y-1.725 Z13.732 A351.5869 
N819 X181.469 Y-0.253 Z13.811 A349.3639 
N820 X181.469 Y1.135 Z13.903 A346.6951 
N821 X181.469 Y2.443 Z14.005 A343.5859 
N822 X181.469 Y3.676 Z14.114 A340.0617 
N823 X181.469 Y4.842 Z14.222 A336.1695 
N824 X181.469 Y5.949 Z14.322 A331.9646 
N825 X181.469 Y7.005 Z14.405 A327.5187 
N826 X181.469 Y8.017 Z14.464 A322.9038 
N827 X181.469 Y8.991 Z14.488 A318.1895 
N828 X181.469 Y9.928 Z14.471 A313.4369 
N829 X181.469 Y10.832 Z14.407 A308.6975 
N830 X181.469 Y11.701 Z14.291 A304.0107 
N831 X181.469 Y12.536 Z14.119 A299.4027 
N832 X181.469 Y13.336 Z13.890 A294.8889 
N833 X181.469 Y14.100 Z13.603 A290.4772 
N834 X181.469 Y14.825 Z13.256 A286.1720 
N835 X181.469 Y15.510 Z12.850 A281.9746 
N836 X181.469 Y16.151 Z12.384 A277.8871 
N837 X181.469 Y16.744 Z11.860 A273.9109 
N838 X181.469 Y17.286 Z11.278 A270.0490 
N839 X181.469 Y17.773 Z10.641 A266.3029 
N840 X181.469 Y18.200 Z9.951 A262.6748 
N841 X181.469 Y18.564 Z9.212 A259.1648 
N842 X181.469 Y18.862 Z8.427 A255.7689 
N843 X181.469 Y19.093 Z7.600 A252.4820 
N844 X181.469 Y19.253 Z6.735 A249.2956 
N845 X181.469 Y19.343 Z5.837 A246.2035 
N846 X181.469 Y19.361 Z4.910 A243.1984 
N847 X181.469 Y19.307 Z3.961 A240.2767 
N848 X181.469 Y19.180 Z2.995 A237.4367 
N849 X181.469 Y18.984 Z2.016 A234.6599 
N850 X181.469 Y18.722 Z1.028 A231.9036 
N851 X181.469 Y18.397 Z0.034 A229.1556 
N852 X181.469 Y18.009 Z-0.958 A226.4202 
N853 X181.469 Y17.562 Z-1.947 A223.6687 
N854 X181.469 Y17.060 Z-2.929 A220.8658 
N855 X181.469 Y16.504 Z-3.903 A217.9900 
N856 X181.469 Y15.898 Z-4.864 A215.0232 
N857 X181.469 Y15.239 Z-5.809 A211.9572 
N858 X181.469 Y14.530 Z-6.732 A208.7945 
N859 X181.469 Y13.767 Z-7.628 A205.5447 
N860 X181.469 Y12.952 Z-8.492 A202.2160 
N861 X181.469 Y12.082 Z-9.319 A198.8198 
N862 X181.469 Y11.160 Z-10.101 A195.3695 
N863 X181.469 Y10.183 Z-10.832 A191.8863 
N864 X181.469 Y9.154 Z-11.506 A188.3917 
N865 X181.469 Y8.074 Z-12.116 A184.9100 
N866 X181.469 Y6.946 Z-12.656 A181.4625 
N867 X181.469 Y5.774 Z-13.121 A178.0678 
N868 X181.469 Y4.563 Z-13.507 A174.7400 
N869 X181.469 Y3.317 Z-13.811 A171.4890 
N870 X181.469 Y2.043 Z-14.032 A168.3203 
N871 X181.469 Y0.747 Z-14.169 A165.2355 
N872 X181.469 Y-0.565 Z-14.222 A162.2328 
N873 X181.469 Y-1.885 Z-14.195 A159.3082 
N874 X181.469 Y-3.207 Z-14.089 A156.4559 
N875 X181.469 Y-4.523 Z-13.908 A153.6692 
N876 X181.469 Y-5.828 Z-13.656 A150.9401 
N877 X181.469 Y-7.114 Z-13.339 A148.2602 
N878 X181.469 Y-8.374 Z-12.962 A145.6202 
N879 X181.469 Y-9.603 Z-12.532 A143.0103 
N880 X181.469 Y-10.795 Z-12.055 A140.4198 
N881 X181.469 Y-11.946 Z-11.540 A137.8377 
N882 X181.469 Y-13.051 Z-10.992 A135.2521 
N883 X181.469 Y-14.109 Z-10.420 A132.6514 
N884 X181.469 Y-15.118 Z-9.830 A130.0234 
N885 X181.469 Y-16.075 Z-9.230 A127.3553 
N886 X181.469 Y-16.983 Z-8.624 A124.6342 
N887 X181.469 Y-17.842 Z-8.019 A121.8468 
N888 X181.469 Y-18.654 Z-7.418 A118.9804 
N889 X181.469 Y-19.422 Z-6.825 A116.0228 
N890 X181.469 Y-20.149 Z-6.241 A112.9632 
N891 X181.469 Y-20.839 Z-5.668 A109.7923 
N892 X181.469 Y-21.496 Z-5.105 A106.5026 
N893 X181.469 Y-22.123 Z-4.550 A103.0889 
N894 X181.469 Y-22.723 Z-4.002 A99.5480 
N895 X181.469 Y-23.298 Z-3.456 A95.8793 
N896 X181.469 Y-23.851 Z-2.909 A92.0843 
N897 X181.469 Y-24.380 Z-2.356 A88.1669 
N898 X181.469 Y-24.887 Z-1.793 A84.1320 
N899 X181.469 Y-25.370 Z-1.214 A79.9852 
N900 X181.469 Y-25.826 Z-0.615 A75.7318 
N901 X181.469 Y-26.252 Z0.008 A71.3766 
N902 X181.469 Y-26.643 Z0.661 A66.9241 
N903 X181.469 Y-26.993 Z1.347 A62.3794 
N904 X181.469 Y-27.294 Z2.069 A57.7480 
N905 X181.469 Y-27.538 Z2.829 A53.0371 
N906 X181.469 Y-27.713 Z3.628 A48.2564 
N907 X181.469 Y-27.807 Z4.463 A43.4225 
N908 X181.469 Y-27.805 Z5.329 A38.5656 
N909 X181.469 Y-27.692 Z6.217 A33.7328 
N910 X181.469 Y-27.453 Z7.111 A28.9873 
N911 X181.469 Y-27.076 Z7.995 A24.3943 
N912 X181.469 Y-26.552 Z8.848 A20.0224 
N913 X181.469 Y-25.877 Z9.651 A15.9371 
N914 X181.469 Y-25.052 Z10.384 A12.2032 
N915 X181.469 Y-24.079 Z11.033 A8.8661 
N916 X181.469 Y-22.969 Z11.583 A5.9689 
N917 X181.469 Y-21.731 Z12.032 A3.5278 
N918 X181.469 Y-20.381 Z12.377 A1.5426 
N919 X181.469 Y-18.932 Z12.625 A0.0001 
N920 X181.469 Y-17.403 Z12.788 A358.8505 
N921 X181.469 Y-15.811 Z12.881 A358.0238 
N922 X181.469 Y-14.174 Z12.922 A357.4380 
N923 X181.469 Y-12.514 Z12.929 A356.9909 
N924 X181.469 Y-10.849 Z12.921 A356.5615 
N925 X181.469 Y-9.200 Z12.913 A356.0381 
N926 X181.469 Y-7.587 Z12.915 A355.3223 
N927 X181.469 Y-6.025 Z12.935 A354.3213 
N928 X181.469 Y-4.528 Z12.977 A352.9561 
N929 X181.469 Y-3.106 Z13.042 A351.1794 
N930 X181.469 Y-1.762 Z13.130 A348.9581 
N931 X181.469 Y-0.497 Z13.240 A346.2695 
N932 X181.469 Y0.692 Z13.368 A343.1167 
N933 X181.469 Y1.815 Z13.511 A339.5196 
N934 X181.469 Y2.880 Z13.663 A335.5167 
N935 X181.469 Y3.897 Z13.814 A331.1691 
N936 X181.469 Y4.875 Z13.953 A326.5492 
N937 X181.469 Y5.821 Z14.070 A321.7448 
N938 X181.469 Y6.739 Z14.153 A316.8373 
N939 X181.469 Y7.629 Z14.194 A311.8938 
N940 X181.469 Y8.494 Z14.185 A306.9676 
N941 X181.469 Y9.332 Z14.121 A302.1006 
N942 X181.469 Y10.140 Z13.998 A297.3246 
N943 X181.469 Y10.916 Z13.815 A292.6576 
N944 X181.469 Y11.659 Z13.570 A288.1092 
N945 X181.469 Y12.364 Z13.262 A283.6836 
N946 X181.469 Y13.030 Z12.892 A279.3844 
N947 X181.469 Y13.650 Z12.461 A275.2133 
N948 X181.469 Y14.222 Z11.970 A271.1744 
N949 X181.469 Y14.741 Z11.421 A267.2695 
N950 X181.469 Y15.202 Z10.816 A263.5006 
N951 X181.469 Y15.603 Z10.159 A259.8677 
N952 X181.469 Y15.938 Z9.453 A256.3707 
N953 X181.469 Y16.206 Z8.703 A253.0105 
N954 X181.469 Y16.403 Z7.913 A249.7824 
N955 X181.469 Y16.529 Z7.089 A246.6811 
N956 X181.469 Y16.584 Z6.234 A243.6967 
N957 X181.469 Y16.566 Z5.354 A240.8198 
N958 X181.469 Y16.479 Z4.454 A238.0384 
N959 X181.469 Y16.325 Z3.538 A235.3163 
N960 X181.469 Y16.111 Z2.607 A232.6066 
N961 X181.469 Y15.834 Z1.668 A229.9127 
N962 X181.469 Y15.498 Z0.726 A227.2325 
N963 X181.469 Y15.106 Z-0.217 A224.5294 
N964 X181.469 Y14.661 Z-1.155 A221.7852 
N965 X181.469 Y14.165 Z-2.085 A218.9901 
N966 X181.469 Y13.620 Z-3.002 A216.1389 
N967 X181.469 Y13.028 Z-3.903 A213.2201 
N968 X181.469 Y12.392 Z-4.785 A210.2122 
N969 X181.469 Y11.713 Z-5.647 A207.0966 
N970 X181.469 Y10.990 Z-6.483 A203.8787 
N971 X181.469 Y10.223 Z-7.290 A200.5626 
N972 X181.469 Y9.413 Z-8.062 A197.1594 
N973 X181.469 Y8.557 Z-8.794 A193.6802 
N974 X181.469 Y7.657 Z-9.481 A190.1419 
N975 X181.469 Y6.711 Z-10.117 A186.5637 
N976 X181.469 Y5.722 Z-10.696 A182.9668 
N977 X181.469 Y4.690 Z-11.211 A179.3727 
N978 X181.469 Y3.617 Z-11.657 A175.8030 
N979 X181.469 Y2.509 Z-12.029 A172.2780 
N980 X181.469 Y1.368 Z-12.323 A168.8162 
N981 X181.469 Y0.200 Z-12.534 A165.4335 
N982 X181.469 Y-0.989 Z-12.662 A162.1427 
N983 X181.469 Y-2.191 Z-12.706 A158.9530 
N984 X181.469 Y-3.401 Z-12.666 A155.8699 
N985 X181.469 Y-4.611 Z-12.544 A152.8955 
N986 X181.469 Y-5.814 Z-12.345 A150.0285 
N987 X181.469 Y-7.003 Z-12.073 A147.2643 
N988 X181.469 Y-8.171 Z-11.734 A144.5957 
N989 X181.469 Y-9.312 Z-11.335 A142.0128 
N990 X181.469 Y-10.420 Z-10.884 A139.5033 
N991 X181.469 Y-11.492 Z-10.390 A137.0501 
N992 X181.469 Y-12.523 Z-9.862 A134.6315 
N993 X181.469 Y-13.512 Z-9.310 A132.2215 
N994 X181.469 Y-14.457 Z-8.741 A129.7916 
N995 X181.469 Y-15.358 Z-8.165 A127.3160 
N996 X181.469 Y-16.216 Z-7.587 A124.7766 
N997 X181.469 Y-17.030 Z-7.013 A122.1601 
N998 X181.469 Y-17.803 Z-6.448 A119.4511 
N999 X181.469 Y-18.538 Z-5.895 A116.6338 
N1000 X181.469 Y-19.236 Z-5.356 A113.6932 
N1001 X181.469 Y-19.904 Z-4.832 A110.6163 
N1002 X181.469 Y-20.544 Z-4.323 A107.3921 
N1003 X181.469 Y-21.160 Z-3.827 A104.0122 
N1004 X181.469 Y-21.756 Z-3.341 A100.4723 
N1005 X181.469 Y-22.335 Z-2.859 A96.7718 
N1006 X181.469 Y-22.898 Z-2.378 A92.9148 
N1007 X181.469 Y-23.445 Z-1.892 A88.9074 
N1008 X181.469 Y-23.976 Z-1.394 A84.7578 
N1009 X181.469 Y-24.490 Z-0.880 A80.4747 
N1010 X181.469 Y-24.981 Z-0.342 A76.0727 
N1011 X181.469 Y-25.446 Z0.223 A71.5673 
N1012 X181.469 Y-25.879 Z0.820 A66.9678 
N1013 X181.469 Y-26.274 Z1.453 A62.2710 
N1014 X181.469 Y-26.626 Z2.128 A57.4624 
N1015 X181.469 Y-26.928 Z2.850 A52.5280 
N1016 X181.469 Y-27.166 Z3.619 A47.4692 
N1017 X181.469 Y-27.326 Z4.435 A42.3109 
N1018 X181.469 Y-27.388 Z5.288 A37.1131 
N1019 X181.469 Y-27.334 Z6.164 A31.9659 
N1020 X181.469 Y-27.147 Z7.044 A26.9460 
N1021 X181.469 Y-26.817 Z7.908 A22.1274 
N1022 X181.469 Y-26.336 Z8.732 A17.5990 
N1023 X181.469 Y-25.702 Z9.492 A13.4466 
N1024 X181.469 Y-24.920 Z10.169 A9.7327 
N1025 X181.469 Y-23.996 Z10.748 A6.5109 
N1026 X181.469 Y-22.942 Z11.222 A3.8001 
N1027 X181.469 Y-21.770 Z11.587 A1.6134 
N1028 X181.469 Y-20.494 Z11.847 A359.9382 
N1029 X181.469 Y-19.130 Z12.014 A358.7251 
N1030 X181.469 Y-17.693 Z12.104 A357.9157 
N1031 X181.469 Y-16.202 Z12.133 A357.4293 
N1032 X181.469 Y-14.673 Z12.123 A357.1543 
N1033 X181.469 Y-13.127 Z12.096 A356.9652 
N1034 X181.469 Y-11.583 Z12.067 A356.7481 
N1035 X181.469 Y-10.061 Z12.051 A356.3870 
N1036 X181.469 Y-8.580 Z12.058 A355.7660 
N1037 X181.469 Y-7.154 Z12.096 A354.7915 
N1038 X181.469 Y-5.795 Z12.165 A353.4021 
N1039 X181.469 Y-4.511 Z12.267 A351.5450 
N1040 X181.469 Y-3.304 Z12.401 A349.1836 
N1041 X181.469 Y-2.171 Z12.564 A346.3116 
N1042 X181.469 Y-1.105 Z12.754 A342.9327 
N1043 X181.469 Y-0.095 Z12.965 A339.0649 
N1044 X181.469 Y0.871 Z13.189 A334.7614 
N1045 X181.469 Y1.803 Z13.415 A330.0928 
N1046 X181.469 Y2.710 Z13.628 A325.1540 
N1047 X181.469 Y3.598 Z13.814 A320.0445 
N1048 X181.469 Y4.467 Z13.960 A314.8674 
N1049 X181.469 Y5.316 Z14.054 A309.7172 
N1050 X181.469 Y6.141 Z14.090 A304.6498 
N1051 X181.469 Y6.942 Z14.067 A299.6753 
N1052 X181.469 Y7.719 Z13.982 A294.8076 
N1053 X181.469 Y8.467 Z13.833 A290.0692 
N1054 X181.469 Y9.182 Z13.621 A285.4698 
N1055 X181.469 Y9.861 Z13.346 A281.0145 
N1056 X181.469 Y10.498 Z13.008 A276.7065 
N1057 X181.469 Y11.090 Z12.610 A272.5507 
N1058 X181.469 Y11.632 Z12.153 A268.5489 
N1059 X181.469 Y12.120 Z11.643 A264.7034 
N1060 X181.469 Y12.551 Z11.081 A261.0137 
N1061 X181.469 Y12.921 Z10.472 A257.4779 
N1062 X181.469 Y13.227 Z9.820 A254.0943 
N1063 X181.469 Y13.469 Z9.130 A250.8577 
N1064 X181.469 Y13.646 Z8.407 A247.7607 
N1065 X181.469 Y13.758 Z7.654 A244.7841 
N1066 X181.469 Y13.809 Z6.876 A241.8886 
N1067 X181.469 Y13.801 Z6.074 A239.0455 
N1068 X181.469 Y13.720 Z5.264 A236.3905 
N1069 X181.469 Y13.566 Z4.454 A233.9477 
N1070 X181.469 Y13.384 Z3.618 A231.3072 
N1071 X181.469 Y13.174 Z2.755 A228.4276 
N1072 X181.469 Y12.909 Z1.891 A225.5447 
N1073 X181.469 Y12.590 Z1.031 A222.6688 
N1074 X181.469 Y12.220 Z0.179 A219.7785 
N1075 X181.469 Y11.803 Z-0.662 A216.8647 
N1076 X181.469 Y11.340 Z-1.491 A213.8961 
N1077 X181.469 Y10.837 Z-2.308 A210.8266 
N1078 X181.469 Y10.294 Z-3.115 A207.6300 
N1079 X181.469 Y9.709 Z-3.905 A204.3155 
N1080 X181.469 Y9.080 Z-4.675 A200.8868 
N1081 X181.469 Y8.405 Z-5.421 A197.3521 
N1082 X181.469 Y7.682 Z-6.137 A193.7203 
N1083 X181.469 Y6.909 Z-6.818 A190.0089 
N1084 X181.469 Y6.083 Z-7.456 A186.2407 
N1085 X181.469 Y5.205 Z-8.043 A182.4434 
N1086 X181.469 Y4.274 Z-8.570 A178.6480 
N1087 X181.469 Y3.293 Z-9.030 A174.8866 
N1088 X181.469 Y2.265 Z-9.415 A171.1907 
N1089 X181.469 Y1.195 Z-9.717 A167.5898 
N1090 X181.469 Y0.091 Z-9.932 A164.1097 
N1091 X181.469 Y-1.040 Z-10.056 A160.7723 
N1092 X181.469 Y-2.190 Z-10.088 A157.5952 
N1093 X181.469 Y-3.349 Z-10.030 A154.5927 
N1094 X181.469 Y-4.507 Z-9.883 A151.7737 
N1095 X181.469 Y-5.657 Z-9.654 A149.1423 
N1096 X181.469 Y-6.788 Z-9.351 A146.6918 
N1097 X181.469 Y-7.895 Z-8.983 A144.4033 
N1098 X181.469 Y-8.971 Z-8.561 A142.2462 
N1099 X181.469 Y-10.013 Z-8.100 A140.1783 
N1100 X181.469 Y-11.018 Z-7.610 A138.1519 
N1101 X181.469 Y-11.985 Z-7.106 A136.1184 
N1102 X181.469 Y-12.913 Z-6.596 A134.0328 
N1103 X181.469 Y-13.800 Z-6.090 A131.8591 
N1104 X181.469 Y-14.648 Z-5.595 A129.5739 
N1105 X181.469 Y-15.455 Z-5.115 A127.1582 
N1106 X181.469 Y-16.225 Z-4.655 A124.5938 
N1107 X181.469 Y-16.960 Z-4.218 A121.8645 
N1108 X181.469 Y-17.664 Z-3.805 A118.9553 
N1109 X181.469 Y-18.343 Z-3.415 A115.8548 
N1110 X181.469 Y-18.999 Z-3.046 A112.5558 
N1111 X181.469 Y-19.640 Z-2.694 A109.0555 
N1112 X181.469 Y-20.267 Z-2.355 A105.3585 
N1113 X181.469 Y-20.884 Z-2.022 A101.4743 
N1114 X181.469 Y-21.491 Z-1.688 A97.4195 
N1115 X181.469 Y-22.089 Z-1.348 A93.2135 
N1116 X181.469 Y-22.676 Z-0.993 A88.8802 
N1117 X181.469 Y-23.249 Z-0.618 A84.4439 
N1118 X181.469 Y-23.803 Z-0.219 A79.9303 
N1119 X181.469 Y-24.334 Z0.208 A75.3613 
N1120 X181.469 Y-24.838 Z0.667 A70.7474 
N1121 X181.469 Y-25.312 Z1.160 A66.0878 
N1122 X181.469 Y-25.752 Z1.690 A61.3777 
N1123 X181.469 Y-26.152 Z2.259 A56.6094 
N1124 X181.469 Y-26.507 Z2.870 A51.7728 
N1125 X181.469 Y-26.810 Z3.524 A46.8555 
N1126 X181.469 Y-27.051 Z4.222 A41.8496 
N1127 X181.469 Y-27.219 Z4.960 A36.7752 
N1128 X181.469 Y-27.297 Z5.730 A31.6818 
N1129 X181.469 Y-27.274 Z6.521 A26.6005 
N1130 X181.469 Y-27.138 Z7.319 A21.5683 
N1131 X181.469 Y-26.879 Z8.105 A16.6606 
N1132 X181.469 Y-26.487 Z8.853 A11.9939 
N1133 X181.469 Y-25.963 Z9.534 A7.6748 
N1134 X181.469 Y-25.311 Z10.125 A3.8110 
N1135 X181.469 Y-24.539 Z10.610 A0.4685 
N1136 X181.469 Y-23.660 Z10.975 A357.7130 
N1137 X181.469 Y-22.691 Z11.217 A355.5836 
N1138 X181.469 Y-21.648 Z11.342 A354.0887 
N1139 X181.469 Y-20.549 Z11.361 A353.2384 
N1140 X181.469 Y-19.410 Z11.299 A352.9729 
N1141 X181.469 Y-18.242 Z11.194 A353.1155 
N1142 X181.469 Y-17.052 Z11.087 A353.4760 
N1143 X181.469 Y-15.840 Z11.004 A353.9217 
N1144 X181.469 Y-14.632 Z11.018 A353.9323 
N1145 X181.469 Y-13.390 Z11.067 
N1146 X181.469 Y-12.117 Z11.138 
N1147 X181.469 Y-10.823 Z11.218 
N1148 X181.469 Y-9.518 Z11.291 
N1149 X181.469 Y-8.219 Z11.340 
N1150 X181.469 Y-6.939 Z11.352 
N1151 X181.469 Y-5.759 Z11.452 A352.9623 
N1152 X181.469 Y-4.664 Z11.593 A351.3145 
N1153 X181.469 Y-3.661 Z11.796 A348.8373 
N1154 X181.469 Y-2.739 Z12.059 A345.5698 
N1155 X181.469 Y-1.875 Z12.358 A341.7021 
N1156 X181.469 Y-1.051 Z12.677 A337.3634 
N1157 X181.469 Y-0.251 Z12.995 A332.7207 
N1158 X181.469 Y0.536 Z13.288 A327.9247 
N1159 X181.469 Y1.313 Z13.549 A323.0436 
N1160 X181.469 Y2.082 Z13.769 A318.1357 
N1161 X181.469 Y2.843 Z13.941 A313.2496 
N1162 X181.469 Y3.594 Z14.060 A308.4250 
N1163 X181.469 Y4.332 Z14.122 A303.6908 
N1164 X181.469 Y5.054 Z14.127 A299.0584 
N1165 X181.469 Y5.761 Z14.074 A294.5242 
N1166 X181.469 Y6.450 Z13.962 A290.0763 
N1167 X181.469 Y7.119 Z13.792 A285.7122 
N1168 X181.469 Y7.762 Z13.563 A281.4415 
N1169 X181.469 Y8.375 Z13.275 A277.2786 
N1170 X181.469 Y8.952 Z12.929 A273.2338 
N1171 X181.469 Y9.486 Z12.528 A269.3159 
N1172 X181.469 Y9.975 Z12.074 A265.5318 
N1173 X181.469 Y10.413 Z11.572 A261.8827 
N1174 X181.469 Y10.798 Z11.024 A258.3703 
N1175 X181.469 Y11.127 Z10.435 A254.9915 
N1176 X181.469 Y11.398 Z9.810 A251.7448 
N1177 X181.469 Y11.611 Z9.154 A248.6240 
N1178 X181.469 Y11.765 Z8.469 A245.6185 
N1179 X181.469 Y11.861 Z7.762 A242.7136 
N1180 X181.469 Y11.902 Z7.035 A239.8835 
N1181 X181.469 Y11.893 Z6.290 A237.0846 
N1182 X181.469 Y11.835 Z5.530 A234.2991 
N1183 X181.469 Y11.727 Z4.763 A231.5456 
N1184 X181.469 Y11.570 Z3.990 A228.8066 
N1185 X181.469 Y11.370 Z3.213 A226.0441 
N1186 X181.469 Y11.128 Z2.434 A223.2357 
N1187 X181.469 Y10.848 Z1.654 A220.3497 
N1188 X181.469 Y10.532 Z0.873 A217.3528 
N1189 X181.469 Y10.179 Z0.092 A214.2262 
N1190 X181.469 Y9.787 Z-0.685 A210.9770 
N1191 X181.469 Y9.355 Z-1.454 A207.6048 
N1192 X181.469 Y8.879 Z-2.214 A204.1086 
N1193 X181.469 Y8.357 Z-2.961 A200.4841 
N1194 X181.469 Y7.785 Z-3.691 A196.7412 
N1195 X181.469 Y7.159 Z-4.398 A192.8951 
N1196 X181.469 Y6.475 Z-5.074 A188.9709 
N1197 X181.469 Y5.730 Z-5.709 A185.0002 
N1198 X181.469 Y4.922 Z-6.294 A181.0156 
N1199 X181.469 Y4.052 Z-6.819 A177.0515 
N1200 X181.469 Y3.121 Z-7.274 A173.1393 
N1201 X181.469 Y2.134 Z-7.651 A169.3076 
N1202 X181.469 Y1.095 Z-7.941 A165.5850 
N1203 X181.469 Y0.014 Z-8.139 A162.0011 
N1204 X181.469 Y-1.101 Z-8.237 A158.5954 
N1205 X181.469 Y-2.236 Z-8.232 A155.4115 
N1206 X181.469 Y-3.379 Z-8.124 A152.4956 
N1207 X181.469 Y-4.516 Z-7.914 A149.8830 
N1208 X181.469 Y-5.636 Z-7.613 A147.5850 
N1209 X181.469 Y-6.728 Z-7.231 A145.5915 
N1210 X181.469 Y-7.785 Z-6.786 A143.8680 
N1211 X181.469 Y-8.804 Z-6.295 A142.3611 
N1212 X181.469 Y-9.782 Z-5.776 A140.9997 
N1213 X181.469 Y-10.720 Z-5.249 A139.6852 
N1214 X181.469 Y-11.620 Z-4.733 A138.2994 
N1215 X181.469 Y-12.487 Z-4.242 A136.7450 
N1216 X181.469 Y-13.320 Z-3.786 A134.9613 
N1217 X181.469 Y-14.120 Z-3.368 A132.9122 
N1218 X181.469 Y-14.890 Z-2.993 A130.5752 
N1219 X181.469 Y-15.630 Z-2.657 A127.9479 
N1220 X181.469 Y-16.345 Z-2.361 A125.0326 
N1221 X181.469 Y-17.039 Z-2.099 A121.8273 
N1222 X181.469 Y-17.719 Z-1.867 A118.3364 
N1223 X181.469 Y-18.390 Z-1.659 A114.5736 
N1224 X181.469 Y-19.054 Z-1.464 A110.5603 
N1225 X181.469 Y-19.715 Z-1.275 A106.3308 
N1226 X181.469 Y-20.373 Z-1.081 A101.9226 
N1227 X181.469 Y-21.023 Z-0.874 A97.3812 
N1228 X181.469 Y-21.664 Z-0.647 A92.7532 
N1229 X181.469 Y-22.288 Z-0.394 A88.0875 
N1230 X181.469 Y-22.890 Z-0.112 A83.4284 
N1231 X181.469 Y-23.465 Z0.201 A78.8000 
N1232 X181.469 Y-24.012 Z0.544 A74.2070 
N1233 X181.469 Y-24.528 Z0.919 A69.6483 
N1234 X181.469 Y-25.012 Z1.325 A65.1246 
N1235 X181.469 Y-25.460 Z1.761 A60.6324 
N1236 X181.469 Y-25.871 Z2.228 A56.1639 
N1237 X181.469 Y-26.243 Z2.725 A51.7050 
N1238 X181.469 Y-26.574 Z3.253 A47.2356 
N1239 X181.469 Y-26.862 Z3.814 A42.7273 
N1240 X181.469 Y-27.105 Z4.409 A38.1442 
N1241 X181.469 Y-27.297 Z5.040 A33.4559 
N1242 X181.469 Y-27.429 Z5.706 A28.6584 
N1243 X181.469 Y-27.493 Z6.402 A23.7638 
N1244 X181.469 Y-27.477 Z7.120 A18.7869 
N1245 X181.469 Y-27.371 Z7.849 A13.7628 
N1246 X181.469 Y-27.167 Z8.573 A8.7439 
N1247 X181.469 Y-26.859 Z9.264 A3.8562 
N1248 X181.469 Y-26.447 Z9.892 A359.2570 
N1249 X181.469 Y-25.939 Z10.425 A355.1038 
N1250 X181.469 Y-25.350 Z10.837 A351.5602 
N1251 X181.469 Y-24.696 Z11.116 A348.7102 
N1252 X181.469 Y-23.995 Z11.262 A346.5852 
N1253 X181.469 Y-23.262 Z11.283 A345.1933 
N1254 X181.469 Y-22.507 Z11.203 A344.4418 
N1255 X181.469 Y-21.735 Z11.059 A344.1404 
N1256 X181.469 Y-20.949 Z10.888 A344.1101 
N1257 X181.469 Y-20.152 Z10.715 A344.2334 
N1258 X181.469 Y-19.343 Z10.561 A344.4308 
N1259 X181.469 Y-18.527 Z10.439 A344.6652 
N1260 X181.469 Y-17.704 Z10.352 A344.9518 
N1261 X181.469 Y-16.874 Z10.304 A345.2859 
N1262 X181.469 Y-16.044 Z10.355 
N1263 X181.469 Y-15.188 Z10.455 
N1264 X181.469 Y-14.297 Z10.599 
N1265 X181.469 Y-13.374 Z10.779 
N1266 X181.469 Y-12.423 Z10.983 
N1267 X181.469 Y-11.454 Z11.197 
N1268 X181.469 Y-10.474 Z11.406 
N1269 X181.469 Y-9.492 Z11.596 
N1270 X181.469 Y-8.512 Z11.756 
N1271 X181.469 Y-7.538 Z11.875 
N1272 X181.469 Y-6.574 Z11.943 
N1273 X181.469 Y-5.625 Z11.955 
N1274 X181.469 Y-4.718 Z11.975 A344.8048 
N1275 X181.469 Y-3.881 Z12.064 A343.4170 
N1276 X181.469 Y-3.109 Z12.216 A341.1893 
N1277 X181.469 Y-2.402 Z12.459 A337.9659 
N1278 X181.469 Y-1.735 Z12.768 A333.9716 
N1279 X181.469 Y-1.086 Z13.111 A329.4640 
N1280 X181.469 Y-0.438 Z13.458 A324.6624 
N1281 X181.469 Y0.216 Z13.776 A319.7813 
N1282 X181.469 Y0.875 Z14.037 A315.0017 
N1283 X181.469 Y1.535 Z14.240 A310.3348 
N1284 X181.469 Y2.193 Z14.385 A305.7844 
N1285 X181.469 Y2.847 Z14.471 A301.3490 
N1286 X181.469 Y3.493 Z14.498 A297.0238 
N1287 X181.469 Y4.128 Z14.467 A292.8119 
N1288 X181.469 Y4.746 Z14.378 A288.7261 
N1289 X181.469 Y5.343 Z14.232 A284.7666 
N1290 X181.469 Y5.919 Z14.031 A280.9051 
N1291 X181.469 Y6.474 Z13.777 A277.1071 
N1292 X181.469 Y7.006 Z13.472 A273.3643 
N1293 X181.469 Y7.508 Z13.115 A269.6877 
N1294 X181.469 Y7.976 Z12.709 A266.0930 
N1295 X181.469 Y8.403 Z12.256 A262.5994 
N1296 X181.469 Y8.785 Z11.761 A259.2155 
N1297 X181.469 Y9.120 Z11.227 A255.9397 
N1298 X181.469 Y9.405 Z10.657 A252.7621 
N1299 X181.469 Y9.643 Z10.057 A249.6673 
N1300 X181.469 Y9.832 Z9.429 A246.6469 
N1301 X181.469 Y9.970 Z8.779 A243.7025 
N1302 X181.469 Y10.061 Z8.110 A240.8186 
N1303 X181.469 Y10.106 Z7.424 A237.9624 
N1304 X181.469 Y10.105 Z6.727 A235.1423 
N1305 X181.469 Y10.057 Z6.025 A232.3804 
N1306 X181.469 Y9.965 Z5.320 A229.6481 
N1307 X181.469 Y9.836 Z4.611 A226.8933 
N1308 X181.469 Y9.674 Z3.898 A224.0717 
N1309 X181.469 Y9.483 Z3.179 A221.1337 
N1310 X181.469 Y9.263 Z2.451 A218.0408 
N1311 X181.469 Y9.015 Z1.717 A214.7735 
N1312 X181.469 Y8.732 Z0.979 A211.3533 
N1313 X181.469 Y8.410 Z0.241 A207.7969 
N1314 X181.469 Y8.044 Z-0.493 A204.1021 
N1315 X181.469 Y7.632 Z-1.223 A200.2614 
N1316 X181.469 Y7.167 Z-1.944 A196.2805 
N1317 X181.469 Y6.643 Z-2.649 A192.1819 
N1318 X181.469 Y6.054 Z-3.329 A187.9928 
N1319 X181.469 Y5.396 Z-3.974 A183.7517 
N1320 X181.469 Y4.666 Z-4.570 A179.5012 
N1321 X181.469 Y3.863 Z-5.106 A175.2864 
N1322 X181.469 Y2.989 Z-5.567 A171.1529 
N1323 X181.469 Y2.050 Z-5.942 A167.1435 
N1324 X181.469 Y1.052 Z-6.221 A163.2972 
N1325 X181.469 Y0.007 Z-6.397 A159.6522 
N1326 X181.469 Y-1.075 Z-6.463 A156.2417 
N1327 X181.469 Y-2.179 Z-6.419 A153.1104 
N1328 X181.469 Y-3.290 Z-6.262 A150.3054 
N1329 X181.469 Y-4.393 Z-5.998 A147.8776 
N1330 X181.469 Y-5.470 Z-5.633 A145.8841 
N1331 X181.469 Y-6.510 Z-5.180 A144.3364 
N1332 X181.469 Y-7.508 Z-4.663 A143.1713 
N1333 X181.469 Y-8.463 Z-4.107 A142.2861 
N1334 X181.469 Y-9.377 Z-3.537 A141.5552 
N1335 X181.469 Y-10.254 Z-2.979 A140.8283 
N1336 X181.469 Y-11.097 Z-2.453 A139.9612 
N1337 X181.469 Y-11.906 Z-1.974 A138.8619 
N1338 X181.469 Y-12.679 Z-1.547 A137.4902 
N1339 X181.469 Y-13.415 Z-1.175 A135.8241 
N1340 X181.469 Y-14.116 Z-0.861 A133.8419 
N1341 X181.469 Y-14.784 Z-0.605 A131.5333 
N1342 X181.469 Y-15.425 Z-0.401 A128.9139 
N1343 X181.469 Y-16.037 Z-0.240 A126.0515 
N1344 X181.469 Y-16.617 Z-0.112 A123.0497 
N1345 X181.469 Y-17.170 Z-0.009 A119.9471 
N1346 X181.469 Y-17.720 Z0.063 A116.5971 
N1347 X181.469 Y-18.311 Z0.097 A112.6865 
N1348 X181.469 Y-19.011 Z0.094 A107.7524 
N1349 X181.469 Y-19.877 Z0.081 A101.4281 
N1350 X181.469 Y-20.853 Z0.128 A94.1945 
N1351 X181.469 Y-21.767 Z0.274 A87.3276 
N1352 X181.469 Y-22.533 Z0.490 A81.4266 
N1353 X181.469 Y-23.186 Z0.748 A76.2247 
N1354 X181.469 Y-23.761 Z1.037 A71.4646 
N1355 X181.469 Y-24.272 Z1.347 A67.0366 
N1356 X181.469 Y-24.731 Z1.677 A62.8513 
N1357 X181.469 Y-25.147 Z2.025 A58.8418 
N1358 X181.469 Y-25.526 Z2.390 A54.9500 
N1359 X181.469 Y-25.873 Z2.775 A51.1211 
N1360 X181.469 Y-26.192 Z3.181 A47.3037 
N1361 X181.469 Y-26.486 Z3.614 A43.4413 
N1362 X181.469 Y-26.757 Z4.079 A39.4721 
N1363 X181.469 Y-27.004 Z4.584 A35.3183 
N1364 X181.469 Y-27.226 Z5.141 A30.8939 
N1365 X181.469 Y-27.417 Z5.765 A26.0834 
N1366 X181.469 Y-27.571 Z6.483 A20.6630 
N1367 X181.469 Y-27.681 Z7.378 A13.9817 
N1368 X181.469 Y-27.703 Z8.664 A4.3864 
N1369 X181.469 Y-27.464 Z10.108 A353.4551 
N1370 X181.469 Y-27.050 Z11.025 A346.0972 
N1371 X181.469 Y-26.660 Z11.370 A342.8164 
N1372 X181.469 Y-26.292 Z11.440 A341.5029 
N1373 X181.469 Y-25.899 Z11.425 A340.6998 
N1374 X181.469 Y-25.455 Z11.383 A339.9219 
N1375 X181.469 Y-24.957 Z11.323 A339.1000 
N1376 X181.469 Y-24.407 Z11.236 A338.2728 
N1377 X181.469 Y-23.814 Z11.118 A337.5066 
N1378 X181.469 Y-23.190 Z10.961 A336.8997 
N1379 X181.469 Y-22.548 Z10.764 A336.5253 
N1380 X181.469 Y-21.897 Z10.541 A336.3780 
N1381 X181.469 Y-21.241 Z10.309 A336.3994 
N1382 X181.469 Y-20.580 Z10.086 A336.5287 
N1383 X181.469 Y-19.916 Z9.885 A336.7143 
N1384 X181.469 Y-19.246 Z9.724 A336.8842 
N1385 X181.469 Y-18.570 Z9.605 A337.0372 
N1386 X181.469 Y-17.895 Z9.527 A337.2230 
N1387 X181.469 Y-17.223 Z9.482 A337.5008 
N1388 X181.469 Y-16.553 Z9.515 A337.5900 
N1389 X181.469 Y-15.869 Z9.611 
N1390 X181.469 Y-15.154 Z9.759 
N1391 X181.469 Y-14.406 Z9.954 
N1392 X181.469 Y-13.627 Z10.188 
N1393 X181.469 Y-12.828 Z10.449 
N1394 X181.469 Y-12.023 Z10.725 
N1395 X181.469 Y-11.224 Z11.001 
N1396 X181.469 Y-10.436 Z11.268 
N1397 X181.469 Y-9.666 Z11.519 
N1398 X181.469 Y-8.914 Z11.746 
N1399 X181.469 Y-8.178 Z11.947 
N1400 X181.469 Y-7.457 Z12.116 
N1401 X181.469 Y-6.748 Z12.250 
N1402 X181.469 Y-6.044 Z12.346 
N1403 X181.469 Y-5.336 Z12.398 
N1404 X181.469 Y-4.614 Z12.399 
N1405 X181.469 Y-3.878 Z12.347 A337.5252 
N1406 X181.469 Y-3.172 Z12.439 A336.0602 
N1407 X181.469 Y-2.496 Z12.596 A333.6810 
N1408 X181.469 Y-1.867 Z12.834 A330.3736 
N1409 X181.469 Y-1.279 Z13.150 A326.2667 
N1410 X181.469 Y-0.705 Z13.504 A321.6762 
N1411 X181.469 Y-0.124 Z13.876 A316.7323 
N1412 X181.469 Y0.483 Z14.237 A311.5683 
N1413 X181.469 Y1.123 Z14.554 A306.3254 
N1414 X181.469 Y1.796 Z14.814 A301.0221 
N1415 X181.469 Y2.506 Z15.010 A295.6213 
N1416 X181.469 Y3.242 Z15.134 A290.1576 
N1417 X181.469 Y3.978 Z15.172 A284.7909 
N1418 X181.469 Y4.679 Z15.120 A279.7198 
N1419 X181.469 Y5.316 Z14.983 A275.1102 
N1420 X181.469 Y5.868 Z14.772 A271.0610 
N1421 X181.469 Y6.333 Z14.503 A267.5584 
N1422 X181.469 Y6.723 Z14.185 A264.4917 
N1423 X181.469 Y7.054 Z13.824 A261.7183 
N1424 X181.469 Y7.343 Z13.423 A259.1100 
N1425 X181.469 Y7.599 Z12.980 A256.5643 
N1426 X181.469 Y7.828 Z12.497 A254.0196 
N1427 X181.469 Y8.027 Z11.976 A251.4696 
N1428 X181.469 Y8.189 Z11.421 A248.9645 
N1429 X181.469 Y8.302 Z10.842 A246.5801 
N1430 X181.469 Y8.372 Z10.242 A244.2820 
N1431 X181.469 Y8.399 Z9.626 A242.0717 
N1432 X181.469 Y8.340 Z9.027 A240.3550 
N1433 X181.469 Y8.216 Z8.443 A239.0094 
N1434 X181.469 Y8.149 Z7.808 A236.9814 
N1435 X181.469 Y8.132 Z7.116 A234.2144 
N1436 X181.469 Y8.098 Z6.411 A231.2745 
N1437 X181.469 Y8.042 Z5.697 A228.1892 
N1438 X181.469 Y7.969 Z4.969 A224.8818 
N1439 X181.469 Y7.876 Z4.228 A221.3517 
N1440 X181.469 Y7.757 Z3.476 A217.6127 
N1441 X181.469 Y7.605 Z2.714 A213.6862 
N1442 X181.469 Y7.413 Z1.948 A209.5918 
N1443 X181.469 Y7.174 Z1.179 A205.3478 
N1444 X181.469 Y6.880 Z0.412 A200.9768 
N1445 X181.469 Y6.523 Z-0.345 A196.4996 
N1446 X181.469 Y6.095 Z-1.086 A191.9503 
N1447 X181.469 Y5.591 Z-1.798 A187.3664 
N1448 X181.469 Y5.006 Z-2.469 A182.7939 
N1449 X181.469 Y4.338 Z-3.083 A178.2876 
N1450 X181.469 Y3.587 Z-3.625 A173.9049 
N1451 X181.469 Y2.758 Z-4.081 A169.7023 
N1452 X181.469 Y1.860 Z-4.438 A165.7248 
N1453 X181.469 Y0.900 Z-4.688 A162.0030 
N1454 X181.469 Y-0.108 Z-4.826 A158.5654 
N1455 X181.469 Y-1.153 Z-4.848 A155.4521 
N1456 X181.469 Y-2.219 Z-4.755 A152.6925 
N1457 X181.469 Y-3.293 Z-4.554 A150.2881 
N1458 X181.469 Y-4.363 Z-4.257 A148.2169 
N1459 X181.469 Y-5.419 Z-3.880 A146.4528 
N1460 X181.469 Y-6.451 Z-3.437 A144.9709 
N1461 X181.469 Y-7.448 Z-2.945 A143.7425 
N1462 X181.469 Y-8.402 Z-2.422 A142.7367 
N1463 X181.469 Y-9.304 Z-1.883 A141.9262 
N1464 X181.469 Y-10.149 Z-1.344 A141.2827 
N1465 X181.469 Y-10.931 Z-0.819 A140.7783 
N1466 X181.469 Y-11.645 Z-0.319 A140.3865 
N1467 X181.469 Y-12.288 Z0.149 A140.1015 
N1468 X181.469 Y-12.858 Z0.581 A139.9279 
N1469 X181.469 Y-13.352 Z0.978 A139.9064 
N1470 X181.469 Y-13.776 Z1.329 A139.9476 
N1471 X181.469 Y-14.151 Z1.632 
N1472 X181.469 Y-14.528 Z1.825 A139.2788 
N1473 X181.469 Y-14.980 Z1.840 A137.1442 
N1474 X181.469 Y-15.611 Z1.624 A132.6706 
N1475 X181.469 Y-16.524 Z1.197 A125.3211 
N1476 X181.469 Y-17.763 Z0.706 A115.3938 
N1477 X181.469 Y-19.124 Z0.387 A104.9251 
N1478 X181.469 Y-20.241 Z0.322 A96.5544 
N1479 X181.469 Y-21.101 Z0.395 A90.1159 
N1480 X181.469 Y-21.834 Z0.537 A84.5514 
N1481 X181.469 Y-22.473 Z0.723 A79.5894 
N1482 X181.469 Y-23.039 Z0.940 A75.0672 
N1483 X181.469 Y-23.548 Z1.181 A70.8677 
N1484 X181.469 Y-24.012 Z1.444 A66.8968 
N1485 X181.469 Y-24.440 Z1.725 A63.0786 
N1486 X181.469 Y-24.838 Z2.027 A59.3596 
N1487 X181.469 Y-25.209 Z2.349 A55.6975 
N1488 X181.469 Y-25.557 Z2.691 A52.0587 
N1489 X181.469 Y-25.883 Z3.055 A48.4136 
N1490 X181.469 Y-26.189 Z3.444 A44.7331 
N1491 X181.469 Y-26.474 Z3.858 A40.9854 
N1492 X181.469 Y-26.738 Z4.303 A37.1308 
N1493 X181.469 Y-26.980 Z4.783 A33.1201 
N1494 X181.469 Y-27.199 Z5.305 A28.8950 
N1495 X181.469 Y-27.390 Z5.881 A24.3708 
N1496 X181.469 Y-27.546 Z6.522 A19.4541 
N1497 X181.469 Y-27.654 Z7.249 A13.9748 
N1498 X181.469 Y-27.698 Z8.108 A7.5493 
N1499 X181.469 Y-27.629 Z9.134 A359.8703 
N1500 X181.469 Y-27.379 Z10.300 A350.9522 
N1501 X181.469 Y-26.926 Z11.411 A342.0017 
N1502 X181.469 Y-26.408 Z12.160 A335.3276 
N1503 X181.469 Y-25.980 Z12.477 A331.7710 
N1504 X181.469 Y-25.652 Z12.501 A330.4547 
N1505 X181.469 Y-25.364 Z12.379 A330.2276 
N1506 X181.469 Y-25.062 Z12.207 A330.3035 
N1507 X181.469 Y-24.724 Z12.020 A330.3735 
N1508 X181.469 Y-24.344 Z11.827 A330.3749 
N1509 X181.469 Y-23.922 Z11.626 A330.3340 
N1510 X181.469 Y-23.460 Z11.418 A330.2739 
N1511 X181.469 Y-22.960 Z11.205 A330.2072 
N1512 X181.469 Y-22.425 Z10.993 A330.1293 
N1513 X181.469 Y-21.860 Z10.788 A330.0415 
N1514 X181.469 Y-21.272 Z10.596 A329.9501 
N1515 X181.469 Y-20.667 Z10.423 A329.8696 
N1516 X181.469 Y-20.055 Z10.270 A329.8318 
N1517 X181.469 Y-19.443 Z10.140 A329.8711 
N1518 X181.469 Y-18.837 Z10.032 A330.0204 
N1519 X181.469 Y-18.238 Z9.942 A330.3233 
N1520 X181.469 Y-17.640 Z9.856 A330.8767 
N1521 X181.469 Y-17.033 Z9.769 A331.7291 
N1522 X181.469 Y-16.401 Z9.689 A332.8429 
N1523 X181.469 Y-15.730 Z9.627 A334.1572 
N1524 X181.469 Y-15.016 Z9.596 A335.5972 
N1525 X181.469 Y-14.264 Z9.630 A336.9156 
N1526 X181.469 Y-13.488 Z9.743 A337.9580 
N1527 X181.469 Y-12.706 Z9.933 A338.6483 
N1528 X181.469 Y-11.934 Z10.195 A338.9270 
N1529 X181.469 Y-11.183 Z10.527 A338.7459 
N1530 X181.469 Y-10.457 Z10.914 A338.1395 
N1531 X181.469 Y-9.753 Z11.335 A337.1978 
N1532 X181.469 Y-9.067 Z11.768 A336.0432 
N1533 X181.469 Y-8.391 Z12.184 A334.8213 
N1534 X181.469 Y-7.720 Z12.553 A333.7013 
N1535 X181.469 Y-7.048 Z12.844 A332.8616 
N1536 X181.469 Y-6.369 Z13.049 A332.3284 
N1537 X181.469 Y-5.680 Z13.172 A332.0387 
N1538 X181.469 Y-4.977 Z13.225 A331.8771 
N1539 X181.469 Y-4.257 Z13.231 A331.6351 
N1540 X181.469 Y-3.530 Z13.231 A330.9675 
N1541 X181.469 Y-2.821 Z13.242 A329.7576 
N1542 X181.469 Y-2.156 Z13.272 A327.9918 
N1543 X181.469 Y-1.545 Z13.355 A325.5598 
N1544 X181.469 Y-0.973 Z13.533 A322.2656 
N1545 X181.469 Y-0.413 Z13.784 A318.2685 
N1546 X181.469 Y0.160 Z14.084 A313.7021 
N1547 X181.469 Y0.769 Z14.399 A308.6992 
N1548 X181.469 Y1.422 Z14.693 A303.4249 
N1549 X181.469 Y2.116 Z14.928 A298.0328 
N1550 X181.469 Y2.847 Z15.094 A292.5191 
N1551 X181.469 Y3.596 Z15.179 A287.0012 
N1552 X181.469 Y4.330 Z15.172 A281.6649 
N1553 X181.469 Y5.014 Z15.073 A276.7128 
N1554 X181.469 Y5.614 Z14.892 A272.3294 
N1555 X181.469 Y6.115 Z14.644 A268.5889 
N1556 X181.469 Y6.527 Z14.344 A265.3980 
N1557 X181.469 Y6.870 Z13.999 A262.5843 
N1558 X181.469 Y7.161 Z13.614 A260.0140 
N1559 X181.469 Y7.407 Z13.190 A257.6199 
N1560 X181.469 Y7.611 Z12.732 A255.3633 
N1561 X181.469 Y7.776 Z12.241 A253.2166 
N1562 X181.469 Y7.904 Z11.722 A251.1522 
N1563 X181.469 Y8.002 Z11.176 A249.1250 
N1564 X181.469 Y8.073 Z10.606 A247.0855 
N1565 X181.469 Y8.124 Z10.016 A244.9925 
N1566 X181.469 Y8.157 Z9.410 A242.8266 
N1567 X181.469 Y8.172 Z8.794 A240.5877 
N1568 X181.469 Y16.884 Z3.883 
N1569 G00 X181.469 Y60.439 Z-20.672 
N1570 ; DELTA A > 40.1
N1571 TRAFOOF
N1572 STOPRE
N1573 G0 G53 D0 Z265.000
N1574 G1 G53 A178.7282 F10000
N1575 TRAORI
N1576 G54 D1
N1577 TRANS 
N1578 G00 X189.533 Y46.428 Z-76.896 A178.7282 
N1579 X189.533 Y47.538 Z-26.909 
N1580 G01 X189.533 Y47.063 Z-23.816 F859 
N1581 X189.533 Y45.656 Z-21.022 
N1582 X189.533 Y43.454 Z-18.799 
N1583 X189.533 Y40.673 Z-17.366 
N1584 X189.533 Y37.585 Z-16.861 
N1585 X189.533 Y31.933 Z-16.840 A178.6825 
N1586 X189.533 Y26.369 Z-16.815 A178.6489 
N1587 X189.533 Y20.972 Z-16.790 A178.7089 
N1588 X189.533 Y15.809 Z-16.779 
N1589 X189.533 Y10.945 Z-16.769 
N1590 X189.533 Y6.433 Z-16.762 A178.6956 
N1591 X189.533 Y2.307 Z-16.755 A178.6835 
N1592 X189.533 Y-1.413 Z-16.748 A178.6778 
N1593 X189.533 Y-4.721 Z-16.739 A178.7053 
N1594 X189.533 Y-7.622 Z-16.737 A178.7089 
N1595 X189.533 Y-10.145 Z-16.736 
N1596 X189.533 Y-12.320 Z-16.751 A178.5616 
N1597 X189.533 Y-14.172 Z-16.840 A177.7293 
N1598 X189.533 Y-15.755 Z-17.070 A175.5531 
N1599 X189.533 Y-17.144 Z-17.529 A171.1168 
N1600 X189.533 Y-18.449 Z-18.203 A164.2259 
N1601 X189.533 Y-19.778 Z-18.980 A155.4101 
N1602 X189.533 Y-21.218 Z-19.750 A145.0851 
N1603 X189.533 Y-22.777 Z-20.351 A134.0995 
N1604 X189.533 Y-24.363 Z-20.648 A123.4320 
N1605 X189.533 Y-25.843 Z-20.595 A113.8923 
N1606 X189.533 Y-27.113 Z-20.224 A105.9070 
N1607 X189.533 Y-28.129 Z-19.604 A99.5430 
N1608 X189.533 Y-28.880 Z-18.795 A94.7722 
N1609 X189.533 Y-29.365 Z-17.843 A91.6307 
N1610 X189.533 Y-29.637 Z-16.777 A89.8048 
N1611 X189.533 Y-29.770 Z-15.611 A88.8376 
N1612 X189.533 Y-29.822 Z-14.351 A88.3730 
N1613 X189.533 Y-29.830 Z-13.005 A88.1839 
N1614 X189.533 Y-29.816 Z-11.584 A88.1374 
N1615 X189.533 Y-29.794 Z-10.105 A88.1486 
N1616 X189.533 Y-29.771 Z-8.588 A88.1665 
N1617 X189.533 Y-29.752 Z-7.055 A88.1723 
N1618 X189.533 Y-29.735 Z-5.529 A88.1669 
N1619 X189.533 Y-29.718 Z-4.033 A88.1751 
N1620 X189.533 Y-29.704 Z-2.589 
N1621 X189.533 Y-29.692 Z-1.210 
N1622 X189.533 Y-29.686 Z0.098 A88.1252 
N1623 X189.533 Y-29.741 Z1.310 A87.5549 
N1624 X189.533 Y-29.876 Z2.432 A86.2511 
N1625 X189.533 Y-30.122 Z3.473 A83.8823 
N1626 X189.533 Y-30.498 Z4.462 A80.1764 
N1627 X189.533 Y-31.034 Z5.454 A74.7311 
N1628 X189.533 Y-31.733 Z6.533 A67.2064 
N1629 X189.533 Y-32.488 Z7.774 A57.9328 
N1630 X189.533 Y-33.163 Z9.222 A47.3355 
N1631 X189.533 Y-33.588 Z10.827 A36.2372 
N1632 X189.533 Y-33.632 Z12.447 A25.6468 
N1633 X189.533 Y-33.264 Z13.903 A16.4685 
N1634 X189.533 Y-32.538 Z15.080 A9.1017 
N1635 X189.533 Y-31.524 Z15.877 A4.1071 
N1636 X189.533 Y-30.288 Z16.322 A1.3293 
N1637 X189.533 Y-28.855 Z16.541 A359.9694 
N1638 X189.533 Y-27.221 Z16.637 A359.3774 
N1639 X189.533 Y-25.379 Z16.673 A359.1746 
N1640 X189.533 Y-23.325 Z16.683 A359.1474 
N1641 X189.533 Y-21.066 Z16.688 A359.1757 
N1642 X189.533 Y-18.617 Z16.698 A359.1881 
N1643 X189.533 Y-16.000 Z16.712 
N1644 X189.533 Y-13.249 Z16.727 
N1645 X189.533 Y-10.405 Z16.743 
N1646 X189.533 Y-7.514 Z16.759 A359.1863 
N1647 X189.533 Y-4.625 Z16.776 A359.1802 
N1648 X189.533 Y-1.786 Z16.793 A359.1683 
N1649 X189.533 Y0.957 Z16.810 A359.1548 
N1650 X189.533 Y3.564 Z16.825 A359.1462 
N1651 X189.533 Y6.002 Z16.838 A359.1697 
N1652 X189.533 Y8.246 Z16.852 A359.1881 
N1653 X189.533 Y10.287 Z16.870 
N1654 X189.533 Y12.130 Z16.896 A359.0920 
N1655 X189.533 Y13.758 Z16.989 A358.3730 
N1656 X189.533 Y15.196 Z17.172 A356.7582 
N1657 X189.533 Y16.473 Z17.491 A353.7533 
N1658 X189.533 Y17.653 Z18.002 A348.7631 
N1659 X189.533 Y18.830 Z18.708 A341.4846 
N1660 X189.533 Y20.083 Z19.475 A332.5853 
N1661 X189.533 Y21.470 Z20.197 A322.4680 
N1662 X189.533 Y22.974 Z20.731 A311.8764 
N1663 X189.533 Y24.498 Z20.965 A301.6734 
N1664 X189.533 Y25.916 Z20.864 A292.5635 
N1665 X189.533 Y27.132 Z20.461 A284.9222 
N1666 X189.533 Y28.077 Z19.814 A279.0418 
N1667 X189.533 Y28.752 Z18.987 A274.8359 
N1668 X189.533 Y29.205 Z18.022 A271.9663 
N1669 X189.533 Y29.480 Z16.943 A270.1743 
N1670 X189.533 Y29.619 Z15.760 A269.2262 
N1671 X189.533 Y29.670 Z14.481 A268.8408 
N1672 X189.533 Y29.677 Z13.116 A268.7559 
N1673 X189.533 Y29.670 Z11.676 A268.7731 
N1674 X189.533 Y29.664 Z10.179 A268.7967 
N1675 X189.533 Y29.662 Z8.644 A268.8001 
N1676 X189.533 Y29.662 Z7.095 A268.7969 
N1677 X189.533 Y29.662 Z5.555 A268.8001 
N1678 X189.533 Y29.664 Z4.048 
N1679 X189.533 Y29.667 Z2.591 
N1680 X189.533 Y29.669 Z1.196 
N1681 X189.533 Y29.697 Z-0.112 A268.5721 
N1682 X189.533 Y29.768 Z-1.327 A267.9436 
N1683 X189.533 Y29.912 Z-2.447 A266.6197 
N1684 X189.533 Y30.177 Z-3.486 A264.1503 
N1685 X189.533 Y30.603 Z-4.478 A260.0809 
N1686 X189.533 Y31.176 Z-5.477 A254.3178 
N1687 X189.533 Y31.844 Z-6.546 A247.0015 
N1688 X189.533 Y32.548 Z-7.752 A238.1940 
N1689 X189.533 Y33.168 Z-9.126 A228.3230 
N1690 X189.533 Y33.633 Z-10.718 A217.2046 
N1691 X189.533 Y33.704 Z-12.295 A206.8883 
N1692 X189.533 Y33.370 Z-13.692 A198.1914 
N1693 X189.533 Y32.711 Z-14.895 A190.7379 
N1694 X189.533 Y31.761 Z-15.771 A185.2836 
N1695 X189.533 Y30.579 Z-16.316 A181.8640 
N1696 X189.533 Y29.197 Z-16.614 A179.9355 
N1697 X189.533 Y27.618 Z-16.744 A179.0402 
N1698 X189.533 Y25.837 Z-16.780 A178.7364 
N1699 X189.533 Y23.849 Z-16.777 A178.6854 
N1700 X189.533 Y21.657 Z-16.764 A178.6963 
N1701 X189.533 Y19.277 Z-16.752 
N1702 X189.533 Y16.728 Z-16.740 
N1703 X189.533 Y14.042 Z-16.727 A178.6955 
N1704 X189.533 Y11.259 Z-16.713 A178.6922 
N1705 X189.533 Y8.421 Z-16.699 A178.6905 
N1706 X189.533 Y5.575 Z-16.684 A178.6899 
N1707 X189.533 Y2.768 Z-16.669 A178.6909 
N1708 X189.533 Y0.043 Z-16.654 A178.6963 
N1709 X189.533 Y-2.558 Z-16.641 
N1710 X189.533 Y-5.005 Z-16.630 A178.6850 
N1711 X189.533 Y-7.271 Z-16.630 A178.5771 
N1712 X189.533 Y-9.341 Z-16.651 A178.2700 
N1713 X189.533 Y-11.210 Z-16.706 A177.6036 
N1714 X189.533 Y-12.881 Z-16.814 A176.3583 
N1715 X189.533 Y-14.373 Z-17.005 A174.2118 
N1716 X189.533 Y-15.721 Z-17.316 A170.7528 
N1717 X189.533 Y-16.979 Z-17.765 A165.6698 
N1718 X189.533 Y-18.218 Z-18.331 A158.9066 
N1719 X189.533 Y-19.504 Z-18.940 A150.7442 
N1720 X189.533 Y-20.861 Z-19.481 A141.7679 
N1721 X189.533 Y-22.278 Z-19.862 A132.4766 
N1722 X189.533 Y-23.687 Z-20.004 A123.5125 
N1723 X189.533 Y-25.009 Z-19.881 A115.3602 
N1724 X189.533 Y-26.175 Z-19.507 A108.3234 
N1725 X189.533 Y-27.143 Z-18.920 A102.5486 
N1726 X189.533 Y-27.903 Z-18.162 A98.0290 
N1727 X189.533 Y-28.446 Z-17.265 A94.8190 
N1728 X189.533 Y-28.804 Z-16.257 A92.7405 
N1729 X189.533 Y-29.037 Z-15.155 A91.4275 
N1730 X189.533 Y-29.194 Z-13.969 A90.5507 
N1731 X189.533 Y-29.307 Z-12.707 A89.8945 
N1732 X189.533 Y-29.395 Z-11.382 A89.3404 
N1733 X189.533 Y-29.466 Z-10.006 A88.8185 
N1734 X189.533 Y-29.525 Z-8.597 A88.2848 
N1735 X189.533 Y-29.576 Z-7.173 A87.7110 
N1736 X189.533 Y-29.620 Z-5.754 A87.0787 
N1737 X189.533 Y-29.659 Z-4.358 A86.3717 
N1738 X189.533 Y-29.694 Z-3.002 A85.5695 
N1739 X189.533 Y-29.728 Z-1.701 A84.6473 
N1740 X189.533 Y-29.767 Z-0.465 A83.5647 
N1741 X189.533 Y-29.820 Z0.701 A82.2282 
N1742 X189.533 Y-29.913 Z1.801 A80.4352 
N1743 X189.533 Y-30.081 Z2.850 A77.8420 
N1744 X189.533 Y-30.363 Z3.879 A74.0256 
N1745 X189.533 Y-30.771 Z4.938 A68.6798 
N1746 X189.533 Y-31.280 Z6.089 A61.6694 
N1747 X189.533 Y-31.815 Z7.392 A53.0736 
N1748 X189.533 Y-32.226 Z8.840 A43.5850 
N1749 X189.533 Y-32.386 Z10.368 A33.9210 
N1750 X189.533 Y-32.213 Z11.857 A24.8476 
N1751 X189.533 Y-31.677 Z13.126 A17.4725 
N1752 X189.533 Y-30.844 Z14.130 A11.8396 
N1753 X189.533 Y-29.772 Z14.900 A7.6047 
N1754 X189.533 Y-28.489 Z15.478 A4.4415 
N1755 X189.533 Y-27.008 Z15.886 A2.1936 
N1756 X189.533 Y-25.332 Z16.148 A0.7434 
N1757 X189.533 Y-23.467 Z16.300 A359.9045 
N1758 X189.533 Y-21.419 Z16.381 A359.4746 
N1759 X189.533 Y-19.199 Z16.420 A359.2918 
N1760 X189.533 Y-16.826 Z16.438 A359.2444 
N1761 X189.533 Y-14.327 Z16.449 A359.2552 
N1762 X189.533 Y-11.734 Z16.462 A359.2744 
N1763 X189.533 Y-9.084 Z16.479 A359.2760 
N1764 X189.533 Y-6.420 Z16.498 A359.2726 
N1765 X189.533 Y-3.782 Z16.519 A359.2677 
N1766 X189.533 Y-1.211 Z16.539 A359.2760 
N1767 X189.533 Y1.256 Z16.561 
N1768 X189.533 Y3.591 Z16.583 
N1769 X189.533 Y5.777 Z16.602 
N1770 X189.533 Y7.789 Z16.650 A358.9974 
N1771 X189.533 Y9.622 Z16.753 A358.1599 
N1772 X189.533 Y11.280 Z16.941 A356.4004 
N1773 X189.533 Y12.784 Z17.229 A353.4516 
N1774 X189.533 Y14.170 Z17.608 A349.2425 
N1775 X189.533 Y15.486 Z18.070 A343.7013 
N1776 X189.533 Y16.792 Z18.595 A336.7975 
N1777 X189.533 Y18.124 Z19.099 A328.9595 
N1778 X189.533 Y19.475 Z19.483 A320.8315 
N1779 X189.533 Y20.814 Z19.689 A312.8870 
N1780 X189.533 Y22.090 Z19.682 A305.5562 
N1781 X189.533 Y23.257 Z19.465 A299.0782 
N1782 X189.533 Y24.294 Z19.060 A293.5097 
N1783 X189.533 Y25.196 Z18.495 A288.7984 
N1784 X189.533 Y25.966 Z17.793 A284.8745 
N1785 X189.533 Y26.612 Z16.972 A281.6623 
N1786 X189.533 Y27.150 Z16.049 A279.0411 
N1787 X189.533 Y27.599 Z15.037 A276.8800 
N1788 X189.533 Y27.973 Z13.947 A275.0674 
N1789 X189.533 Y28.286 Z12.790 A273.5204 
N1790 X189.533 Y28.545 Z11.578 A272.1795 
N1791 X189.533 Y28.759 Z10.324 A270.9903 
N1792 X189.533 Y28.936 Z9.042 A269.8952 
N1793 X189.533 Y29.085 Z7.746 A268.8337 
N1794 X189.533 Y29.213 Z6.450 A267.7421 
N1795 X189.533 Y29.330 Z5.168 A266.5484 
N1796 X189.533 Y29.445 Z3.911 A265.1679 
N1797 X189.533 Y29.566 Z2.686 A263.5104 
N1798 X189.533 Y29.700 Z1.499 A261.4952 
N1799 X189.533 Y29.852 Z0.349 A259.0511 
N1800 X189.533 Y30.027 Z-0.768 A256.0921 
N1801 X189.533 Y30.227 Z-1.863 A252.5401 
N1802 X189.533 Y30.446 Z-2.950 A248.3691 
N1803 X189.533 Y30.668 Z-4.045 A243.5992 
N1804 X189.533 Y30.867 Z-5.162 A238.3121 
N1805 X189.533 Y31.014 Z-6.312 A232.5887 
N1806 X189.533 Y31.080 Z-7.501 A226.4918 
N1807 X189.533 Y31.031 Z-8.732 A220.0907 
N1808 X189.533 Y30.826 Z-9.988 A213.5469 
N1809 X189.533 Y30.425 Z-11.234 A207.0680 
N1810 X189.533 Y29.805 Z-12.433 A200.8200 
N1811 X189.533 Y28.950 Z-13.539 A194.9937 
N1812 X189.533 Y27.861 Z-14.518 A189.6766 
N1813 X189.533 Y26.545 Z-15.323 A185.0855 
N1814 X189.533 Y25.017 Z-15.866 A181.8645 
N1815 X189.533 Y23.307 Z-16.169 A179.9887 
N1816 X189.533 Y21.433 Z-16.312 A179.0154 
N1817 X189.533 Y19.404 Z-16.362 A178.5773 
N1818 X189.533 Y17.234 Z-16.362 A178.4300 
N1819 X189.533 Y14.940 Z-16.341 A178.4109 
N1820 X189.533 Y12.548 Z-16.316 A178.4193 
N1821 X189.533 Y10.088 Z-16.292 
N1822 X189.533 Y7.592 Z-16.268 A178.4145 
N1823 X189.533 Y5.098 Z-16.246 A178.3861 
N1824 X189.533 Y2.641 Z-16.226 A178.3322 
N1825 X189.533 Y0.254 Z-16.210 A178.2267 
N1826 X189.533 Y-2.033 Z-16.203 A178.0247 
N1827 X189.533 Y-4.196 Z-16.211 A177.6361 
N1828 X189.533 Y-6.220 Z-16.249 A176.8964 
N1829 X189.533 Y-8.097 Z-16.337 A175.5688 
N1830 X189.533 Y-9.831 Z-16.493 A173.3803 
N1831 X189.533 Y-11.439 Z-16.732 A170.0779 
N1832 X189.533 Y-12.952 Z-17.050 A165.5272 
N1833 X189.533 Y-14.399 Z-17.393 A160.0017 
N1834 X189.533 Y-15.790 Z-17.691 A153.9881 
N1835 X189.533 Y-17.140 Z-17.919 A147.6544 
N1836 X189.533 Y-18.450 Z-18.050 A141.2357 
N1837 X189.533 Y-19.707 Z-18.056 A134.9810 
N1838 X189.533 Y-20.896 Z-17.928 A129.0733 
N1839 X189.533 Y-22.005 Z-17.665 A123.6128 
N1840 X189.533 Y-23.026 Z-17.275 A118.6387 
N1841 X189.533 Y-23.955 Z-16.768 A114.1692 
N1842 X189.533 Y-24.789 Z-16.154 A110.1946 
N1843 X189.533 Y-25.532 Z-15.446 A106.6806 
N1844 X189.533 Y-26.188 Z-14.654 A103.5732 
N1845 X189.533 Y-26.766 Z-13.788 A100.8142 
N1846 X189.533 Y-27.272 Z-12.859 A98.3412 
N1847 X189.533 Y-27.715 Z-11.877 A96.0889 
N1848 X189.533 Y-28.102 Z-10.849 A93.9940 
N1849 X189.533 Y-28.441 Z-9.787 A91.9959 
N1850 X189.533 Y-28.739 Z-8.697 A90.0373 
N1851 X189.533 Y-29.001 Z-7.591 A88.0668 
N1852 X189.533 Y-29.232 Z-6.475 A86.0404 
N1853 X189.533 Y-29.434 Z-5.358 A83.9227 
N1854 X189.533 Y-29.612 Z-4.247 A81.6856 
N1855 X189.533 Y-29.766 Z-3.146 A79.3112 
N1856 X189.533 Y-29.896 Z-2.061 A76.7874 
N1857 X189.533 Y-30.005 Z-0.993 A74.0971 
N1858 X189.533 Y-30.095 Z0.058 A71.2139 
N1859 X189.533 Y-30.169 Z1.098 A68.0885 
N1860 X189.533 Y-30.233 Z2.135 A64.6320 
N1861 X189.533 Y-30.291 Z3.186 A60.7256 
N1862 X189.533 Y-30.343 Z4.270 A56.2369 
N1863 X189.533 Y-30.374 Z5.408 A51.0783 
N1864 X189.533 Y-30.347 Z6.610 A45.2982 
N1865 X189.533 Y-30.208 Z7.863 A39.1159 
N1866 X189.533 Y-29.912 Z9.146 A32.7121 
N1867 X189.533 Y-29.418 Z10.421 A26.2976 
N1868 X189.533 Y-28.689 Z11.615 A20.3230 
N1869 X189.533 Y-27.725 Z12.685 A14.9811 
N1870 X189.533 Y-26.535 Z13.585 A10.4884 
N1871 X189.533 Y-25.138 Z14.293 A6.9823 
N1872 X189.533 Y-23.556 Z14.822 A4.3845 
N1873 X189.533 Y-21.809 Z15.203 A2.5289 
N1874 X189.533 Y-19.910 Z15.466 A1.2562 
N1875 X189.533 Y-17.875 Z15.637 A0.4457 
N1876 X189.533 Y-15.723 Z15.742 A359.9948 
N1877 X189.533 Y-13.475 Z15.803 A359.7964 
N1878 X189.533 Y-11.158 Z15.842 A359.7439 
N1879 X189.533 Y-8.800 Z15.873 A359.7612 
N1880 X189.533 Y-6.435 Z15.905 A359.7824 
N1881 X189.533 Y-4.090 Z15.942 
N1882 X189.533 Y-1.791 Z15.979 A359.7692 
N1883 X189.533 Y0.426 Z16.040 A359.5255 
N1884 X189.533 Y2.540 Z16.127 A358.9515 
N1885 X189.533 Y4.536 Z16.254 A357.8544 
N1886 X189.533 Y6.407 Z16.425 A356.0822 
N1887 X189.533 Y8.156 Z16.641 A353.5067 
N1888 X189.533 Y9.794 Z16.902 A350.0118 
N1889 X189.533 Y11.344 Z17.197 A345.5692 
N1890 X189.533 Y12.824 Z17.490 A340.3662 
N1891 X189.533 Y14.245 Z17.732 A334.7550 
N1892 X189.533 Y15.603 Z17.885 A329.0588 
N1893 X189.533 Y16.897 Z17.937 A323.4409 
N1894 X189.533 Y18.120 Z17.878 A318.0709 
N1895 X189.533 Y19.266 Z17.708 A313.0460 
N1896 X189.533 Y20.334 Z17.436 A308.3923 
N1897 X189.533 Y21.327 Z17.070 A304.0899 
N1898 X189.533 Y22.250 Z16.621 A300.0994 
N1899 X189.533 Y23.108 Z16.095 A296.3766 
N1900 X189.533 Y23.907 Z15.499 A292.8801 
N1901 X189.533 Y24.650 Z14.839 A289.5729 
N1902 X189.533 Y25.338 Z14.119 A286.4228 
N1903 X189.533 Y25.975 Z13.344 A283.4015 
N1904 X189.533 Y26.561 Z12.519 A280.4843 
N1905 X189.533 Y27.096 Z11.649 A277.6481 
N1906 X189.533 Y27.583 Z10.739 A274.8701 
N1907 X189.533 Y28.021 Z9.796 A272.1286 
N1908 X189.533 Y28.411 Z8.825 A269.4076 
N1909 X189.533 Y28.754 Z7.831 A266.6977 
N1910 X189.533 Y29.049 Z6.821 A263.9879 
N1911 X189.533 Y29.297 Z5.798 A261.2662 
N1912 X189.533 Y29.501 Z4.769 A258.5138 
N1913 X189.533 Y29.664 Z3.735 A255.7014 
N1914 X189.533 Y29.789 Z2.699 A252.7946 
N1915 X189.533 Y29.880 Z1.660 A249.7580 
N1916 X189.533 Y29.936 Z0.618 A246.5626 
N1917 X189.533 Y29.957 Z-0.430 A243.1842 
N1918 X189.533 Y29.940 Z-1.487 A239.6006 
N1919 X189.533 Y29.878 Z-2.558 A235.7973 
N1920 X189.533 Y29.764 Z-3.646 A231.7623 
N1921 X189.533 Y29.585 Z-4.755 A227.4932 
N1922 X189.533 Y29.327 Z-5.887 A222.9957 
N1923 X189.533 Y28.968 Z-7.037 A218.2999 
N1924 X189.533 Y28.490 Z-8.198 A213.4516 
N1925 X189.533 Y27.869 Z-9.354 A208.5248 
N1926 X189.533 Y27.086 Z-10.484 A203.6067 
N1927 X189.533 Y26.126 Z-11.558 A198.8299 
N1928 X189.533 Y24.980 Z-12.537 A194.3899 
N1929 X189.533 Y23.650 Z-13.385 A190.4831 
N1930 X189.533 Y22.148 Z-14.083 A187.2111 
N1931 X189.533 Y20.494 Z-14.635 A184.5555 
N1932 X189.533 Y18.706 Z-15.054 A182.4434 
N1933 X189.533 Y16.800 Z-15.353 A180.8453 
N1934 X189.533 Y14.796 Z-15.544 A179.7243 
N1935 X189.533 Y12.715 Z-15.654 A178.9866 
N1936 X189.533 Y10.577 Z-15.705 A178.5248 
N1937 X189.533 Y8.405 Z-15.721 A178.2269 
N1938 X189.533 Y6.223 Z-15.721 A177.9621 
N1939 X189.533 Y4.055 Z-15.725 A177.5873 
N1940 X189.533 Y1.922 Z-15.743 A176.9790 
N1941 X189.533 Y-0.153 Z-15.780 A176.0284 
N1942 X189.533 Y-2.157 Z-15.838 A174.6322 
N1943 X189.533 Y-4.077 Z-15.916 A172.7146 
N1944 X189.533 Y-5.908 Z-16.005 A170.2513 
N1945 X189.533 Y-7.649 Z-16.097 A167.2379 
N1946 X189.533 Y-9.304 Z-16.183 A163.6988 
N1947 X189.533 Y-10.877 Z-16.248 A159.7094 
N1948 X189.533 Y-12.374 Z-16.278 A155.3649 
N1949 X189.533 Y-13.799 Z-16.259 A150.7925 
N1950 X189.533 Y-15.154 Z-16.179 A146.1168 
N1951 X189.533 Y-16.439 Z-16.028 A141.4559 
N1952 X189.533 Y-17.651 Z-15.802 A136.9020 
N1953 X189.533 Y-18.791 Z-15.501 A132.5139 
N1954 X189.533 Y-19.862 Z-15.129 A128.3107 
N1955 X189.533 Y-20.865 Z-14.689 A124.2946 
N1956 X189.533 Y-21.803 Z-14.187 A120.4634 
N1957 X189.533 Y-22.678 Z-13.627 A116.8093 
N1958 X189.533 Y-23.492 Z-13.012 A113.3198 
N1959 X189.533 Y-24.248 Z-12.349 A109.9791 
N1960 X189.533 Y-24.948 Z-11.641 A106.7685 
N1961 X189.533 Y-25.592 Z-10.894 A103.6673 
N1962 X189.533 Y-26.185 Z-10.112 A100.6532 
N1963 X189.533 Y-26.727 Z-9.301 A97.7038 
N1964 X189.533 Y-27.221 Z-8.464 A94.7972 
N1965 X189.533 Y-27.670 Z-7.607 A91.9112 
N1966 X189.533 Y-28.075 Z-6.733 A89.0240 
N1967 X189.533 Y-28.438 Z-5.846 A86.1139 
N1968 X189.533 Y-28.762 Z-4.948 A83.1600 
N1969 X189.533 Y-29.048 Z-4.041 A80.1422 
N1970 X189.533 Y-29.297 Z-3.127 A77.0410 
N1971 X189.533 Y-29.511 Z-2.204 A73.8378 
N1972 X189.533 Y-29.690 Z-1.273 A70.5145 
N1973 X189.533 Y-29.831 Z-0.332 A67.0536 
N1974 X189.533 Y-29.934 Z0.623 A63.4378 
N1975 X189.533 Y-29.994 Z1.596 A59.6499 
N1976 X189.533 Y-30.005 Z2.591 A55.6731 
N1977 X189.533 Y-29.958 Z3.612 A51.4929 
N1978 X189.533 Y-29.841 Z4.663 A47.1020 
N1979 X189.533 Y-29.638 Z5.744 A42.5094 
N1980 X189.533 Y-29.328 Z6.851 A37.7490 
N1981 X189.533 Y-28.889 Z7.973 A32.8790 
N1982 X189.533 Y-28.300 Z9.092 A27.9823 
N1983 X189.533 Y-27.541 Z10.183 A23.1703 
N1984 X189.533 Y-26.598 Z11.216 A18.5670 
N1985 X189.533 Y-25.468 Z12.161 A14.3091 
N1986 X189.533 Y-24.153 Z12.990 A10.5054 
N1987 X189.533 Y-22.664 Z13.684 A7.2564 
N1988 X189.533 Y-21.017 Z14.235 A4.6092 
N1989 X189.533 Y-19.231 Z14.646 A2.5807 
N1990 X189.533 Y-17.325 Z14.927 A1.1711 
N1991 X189.533 Y-15.321 Z15.102 A0.2995 
N1992 X189.533 Y-13.240 Z15.203 A359.8173 
N1993 X189.533 Y-11.104 Z15.261 A359.5726 
N1994 X189.533 Y-8.939 Z15.297 A359.4404 
N1995 X189.533 Y-6.768 Z15.329 A359.3064 
N1996 X189.533 Y-4.619 Z15.370 A359.0594 
N1997 X189.533 Y-2.514 Z15.426 A358.5872 
N1998 X189.533 Y-0.475 Z15.508 A357.7609 
N1999 X189.533 Y1.481 Z15.619 A356.4489 
N2000 X189.533 Y3.345 Z15.757 A354.5594 
N2001 X189.533 Y5.111 Z15.916 A352.0618 
N2002 X189.533 Y6.781 Z16.083 A348.9612 
N2003 X189.533 Y8.358 Z16.245 A345.3283 
N2004 X189.533 Y9.848 Z16.384 A341.2904 
N2005 X189.533 Y11.256 Z16.486 A336.9522 
N2006 X189.533 Y12.590 Z16.543 A332.4174 
N2007 X189.533 Y13.853 Z16.549 A327.7686 
N2008 X189.533 Y15.051 Z16.496 A323.1009 
N2009 X189.533 Y16.185 Z16.381 A318.4890 
N2010 X189.533 Y17.258 Z16.202 A313.9806 
N2011 X189.533 Y18.273 Z15.959 A309.6016 
N2012 X189.533 Y19.232 Z15.654 A305.3641 
N2013 X189.533 Y20.138 Z15.288 A301.2702 
N2014 X189.533 Y20.992 Z14.864 A297.3151 
N2015 X189.533 Y21.796 Z14.383 A293.4903 
N2016 X189.533 Y22.550 Z13.847 A289.7869 
N2017 X189.533 Y23.256 Z13.258 A286.1959 
N2018 X189.533 Y23.911 Z12.619 A282.7080 
N2019 X189.533 Y24.517 Z11.933 A279.3130 
N2020 X189.533 Y25.071 Z11.201 A276.0011 
N2021 X189.533 Y25.575 Z10.429 A272.7613 
N2022 X189.533 Y26.026 Z9.618 A269.5832 
N2023 X189.533 Y26.426 Z8.773 A266.4563 
N2024 X189.533 Y26.772 Z7.898 A263.3729 
N2025 X189.533 Y27.066 Z6.995 A260.3251 
N2026 X189.533 Y27.306 Z6.069 A257.2969 
N2027 X189.533 Y27.496 Z5.122 A254.2674 
N2028 X189.533 Y27.636 Z4.156 A251.2118 
N2029 X189.533 Y27.726 Z3.172 A248.1057 
N2030 X189.533 Y27.768 Z2.171 A244.9272 
N2031 X189.533 Y27.759 Z1.155 A241.6564 
N2032 X189.533 Y27.697 Z0.121 A238.2779 
N2033 X189.533 Y27.578 Z-0.928 A234.7785 
N2034 X189.533 Y27.397 Z-1.994 A231.1494 
N2035 X189.533 Y27.146 Z-3.075 A227.3893 
N2036 X189.533 Y26.814 Z-4.168 A223.5137 
N2037 X189.533 Y26.392 Z-5.269 A219.5414 
N2038 X189.533 Y25.871 Z-6.371 A215.4766 
N2039 X189.533 Y25.237 Z-7.467 A211.3541 
N2040 X189.533 Y24.479 Z-8.538 A207.2509 
N2041 X189.533 Y23.589 Z-9.568 A203.2472 
N2042 X189.533 Y22.560 Z-10.534 A199.4431 
N2043 X189.533 Y21.395 Z-11.418 A195.9254 
N2044 X189.533 Y20.101 Z-12.210 A192.7380 
N2045 X189.533 Y18.687 Z-12.905 A189.8769 
N2046 X189.533 Y17.166 Z-13.505 A187.3127 
N2047 X189.533 Y15.551 Z-14.011 A185.0374 
N2048 X189.533 Y13.855 Z-14.425 A183.0461 
N2049 X189.533 Y12.094 Z-14.754 A181.2937 
N2050 X189.533 Y10.283 Z-15.010 A179.7154 
N2051 X189.533 Y8.438 Z-15.205 A178.2351 
N2052 X189.533 Y6.573 Z-15.350 A176.7702 
N2053 X189.533 Y4.705 Z-15.455 A175.2433 
N2054 X189.533 Y2.846 Z-15.527 A173.5857 
N2055 X189.533 Y1.009 Z-15.570 A171.7382 
N2056 X189.533 Y-0.794 Z-15.586 A169.6585 
N2057 X189.533 Y-2.556 Z-15.574 A167.3220 
N2058 X189.533 Y-4.268 Z-15.534 A164.7169 
N2059 X189.533 Y-5.926 Z-15.463 A161.8490 
N2060 X189.533 Y-7.526 Z-15.357 A158.7371 
N2061 X189.533 Y-9.065 Z-15.213 A155.4123 
N2062 X189.533 Y-10.541 Z-15.027 A151.9166 
N2063 X189.533 Y-11.953 Z-14.796 A148.2976 
N2064 X189.533 Y-13.299 Z-14.516 A144.6061 
N2065 X189.533 Y-14.580 Z-14.188 A140.8906 
N2066 X189.533 Y-15.793 Z-13.810 A137.1933 
N2067 X189.533 Y-16.940 Z-13.384 A133.5435 
N2068 X189.533 Y-18.021 Z-12.914 A129.9562 
N2069 X189.533 Y-19.040 Z-12.404 A126.4345 
N2070 X189.533 Y-19.997 Z-11.856 A122.9752 
N2071 X189.533 Y-20.896 Z-11.276 A119.5757 
N2072 X189.533 Y-21.738 Z-10.666 A116.2325 
N2073 X189.533 Y-22.527 Z-10.029 A112.9392 
N2074 X189.533 Y-23.263 Z-9.369 A109.6869 
N2075 X189.533 Y-23.949 Z-8.690 A106.4639 
N2076 X189.533 Y-24.589 Z-7.993 A103.2575 
N2077 X189.533 Y-25.183 Z-7.281 A100.0547 
N2078 X189.533 Y-25.735 Z-6.557 A96.8422 
N2079 X189.533 Y-26.246 Z-5.822 A93.6070 
N2080 X189.533 Y-26.719 Z-5.077 A90.3364 
N2081 X189.533 Y-27.154 Z-4.323 A87.0184 
N2082 X189.533 Y-27.553 Z-3.560 A83.6416 
N2083 X189.533 Y-27.917 Z-2.786 A80.1940 
N2084 X189.533 Y-28.246 Z-2.001 A76.6637 
N2085 X189.533 Y-28.539 Z-1.203 A73.0397 
N2086 X189.533 Y-28.796 Z-0.388 A69.3116 
N2087 X189.533 Y-29.013 Z0.446 A65.4695 
N2088 X189.533 Y-29.186 Z1.302 A61.5035 
N2089 X189.533 Y-29.310 Z2.185 A57.4033 
N2090 X189.533 Y-29.376 Z3.098 A53.1603 
N2091 X189.533 Y-29.374 Z4.043 A48.7714 
N2092 X189.533 Y-29.291 Z5.021 A44.2423 
N2093 X189.533 Y-29.110 Z6.029 A39.5952 
N2094 X189.533 Y-28.813 Z7.057 A34.8777 
N2095 X189.533 Y-28.380 Z8.093 A30.1566 
N2096 X189.533 Y-27.795 Z9.116 A25.5135 
N2097 X189.533 Y-27.044 Z10.103 A21.0418 
N2098 X189.533 Y-26.120 Z11.028 A16.8450 
N2099 X189.533 Y-25.023 Z11.867 A13.0117 
N2100 X189.533 Y-23.757 Z12.601 A9.6248 
N2101 X189.533 Y-22.334 Z13.218 A6.7302 
N2102 X189.533 Y-20.767 Z13.713 A4.3531 
N2103 X189.533 Y-19.073 Z14.089 A2.4923 
N2104 X189.533 Y-17.271 Z14.360 A1.1027 
N2105 X189.533 Y-15.380 Z14.542 A0.1216 
N2106 X189.533 Y-13.420 Z14.655 A359.4681 
N2107 X189.533 Y-11.414 Z14.721 A359.0289 
N2108 X189.533 Y-9.383 Z14.763 A358.6747 
N2109 X189.533 Y-7.353 Z14.796 A358.2860 
N2110 X189.533 Y-5.346 Z14.834 A357.7445 
N2111 X189.533 Y-3.382 Z14.886 A356.9315 
N2112 X189.533 Y-1.481 Z14.955 A355.7516 
N2113 X189.533 Y0.344 Z15.041 A354.1444 
N2114 X189.533 Y2.083 Z15.139 A352.0641 
N2115 X189.533 Y3.732 Z15.247 A349.4913 
N2116 X189.533 Y5.290 Z15.355 A346.4474 
N2117 X189.533 Y6.761 Z15.457 A342.9720 
N2118 X189.533 Y8.150 Z15.543 A339.1293 
N2119 X189.533 Y9.464 Z15.604 A334.9975 
N2120 X189.533 Y10.708 Z15.635 A330.6540 
N2121 X189.533 Y11.888 Z15.626 A326.1750 
N2122 X189.533 Y13.010 Z15.573 A321.6320 
N2123 X189.533 Y14.077 Z15.471 A317.0908 
N2124 X189.533 Y15.091 Z15.315 A312.6009 
N2125 X189.533 Y16.053 Z15.105 A308.1955 
N2126 X189.533 Y16.967 Z14.840 A303.8938 
N2127 X189.533 Y17.833 Z14.519 A299.7052 
N2128 X189.533 Y18.653 Z14.144 A295.6322 
N2129 X189.533 Y19.426 Z13.716 A291.6722 
N2130 X189.533 Y20.154 Z13.234 A287.8207 
N2131 X189.533 Y20.834 Z12.702 A284.0728 
N2132 X189.533 Y21.468 Z12.121 A280.4234 
N2133 X189.533 Y22.052 Z11.492 A276.8665 
N2134 X189.533 Y22.586 Z10.818 A273.3961 
N2135 X189.533 Y23.069 Z10.102 A270.0049 
N2136 X189.533 Y23.500 Z9.346 A266.6877 
N2137 X189.533 Y23.876 Z8.554 A263.4397 
N2138 X189.533 Y24.198 Z7.728 A260.2521 
N2139 X189.533 Y24.464 Z6.872 A257.1105 
N2140 X189.533 Y24.677 Z5.987 A253.9931 
N2141 X189.533 Y24.837 Z5.076 A250.8713 
N2142 X189.533 Y24.945 Z4.139 A247.7148 
N2143 X189.533 Y25.002 Z3.177 A244.4955 
N2144 X189.533 Y25.005 Z2.190 A241.1898 
N2145 X189.533 Y24.951 Z1.179 A237.7800 
N2146 X189.533 Y24.836 Z0.146 A234.2577 
N2147 X189.533 Y24.653 Z-0.908 A230.6282 
N2148 X189.533 Y24.392 Z-1.975 A226.9238 
N2149 X189.533 Y24.044 Z-3.048 A223.1970 
N2150 X189.533 Y23.601 Z-4.116 A219.4865 
N2151 X189.533 Y23.057 Z-5.170 A215.8321 
N2152 X189.533 Y22.408 Z-6.198 A212.2891 
N2153 X189.533 Y21.652 Z-7.189 A208.8984 
N2154 X189.533 Y20.792 Z-8.134 A205.6947 
N2155 X189.533 Y19.831 Z-9.025 A202.6900 
N2156 X189.533 Y18.776 Z-9.865 A199.8334 
N2157 X189.533 Y17.637 Z-10.659 A197.0333 
N2158 X189.533 Y16.420 Z-11.411 A194.2263 
N2159 X189.533 Y15.126 Z-12.112 A191.4178 
N2160 X189.533 Y13.760 Z-12.748 A188.6736 
N2161 X189.533 Y12.330 Z-13.313 A186.0199 
N2162 X189.533 Y10.845 Z-13.804 A183.4434 
N2163 X189.533 Y9.314 Z-14.224 A180.9224 
N2164 X189.533 Y7.747 Z-14.571 A178.4363 
N2165 X189.533 Y6.155 Z-14.849 A175.9643 
N2166 X189.533 Y4.545 Z-15.058 A173.4841 
N2167 X189.533 Y2.929 Z-15.200 A170.9756 
N2168 X189.533 Y1.313 Z-15.278 A168.4216 
N2169 X189.533 Y-0.294 Z-15.294 A165.8094 
N2170 X189.533 Y-1.883 Z-15.248 A163.1311 
N2171 X189.533 Y-3.449 Z-15.144 A160.3832 
N2172 X189.533 Y-4.983 Z-14.982 A157.5664 
N2173 X189.533 Y-6.481 Z-14.764 A154.6847 
N2174 X189.533 Y-7.938 Z-14.493 A151.7450 
N2175 X189.533 Y-9.347 Z-14.171 A148.7563 
N2176 X189.533 Y-10.706 Z-13.802 A145.7286 
N2177 X189.533 Y-12.010 Z-13.388 A142.6724 
N2178 X189.533 Y-13.258 Z-12.934 A139.5979 
N2179 X189.533 Y-14.447 Z-12.443 A136.5143 
N2180 X189.533 Y-15.576 Z-11.920 A133.4275 
N2181 X189.533 Y-16.646 Z-11.369 A130.3390 
N2182 X189.533 Y-17.657 Z-10.796 A127.2460 
N2183 X189.533 Y-18.611 Z-10.204 A124.1431 
N2184 X189.533 Y-19.509 Z-9.598 A121.0238 
N2185 X189.533 Y-20.355 Z-8.980 A117.8828 
N2186 X189.533 Y-21.150 Z-8.355 A114.7143 
N2187 X189.533 Y-21.897 Z-7.724 A111.5118 
N2188 X189.533 Y-22.599 Z-7.089 A108.2681 
N2189 X189.533 Y-23.260 Z-6.450 A104.9761 
N2190 X189.533 Y-23.881 Z-5.810 A101.6287 
N2191 X189.533 Y-24.465 Z-5.166 A98.2188 
N2192 X189.533 Y-25.014 Z-4.519 A94.7400 
N2193 X189.533 Y-25.531 Z-3.866 A91.1870 
N2194 X189.533 Y-26.017 Z-3.207 A87.5552 
N2195 X189.533 Y-26.471 Z-2.539 A83.8406 
N2196 X189.533 Y-26.894 Z-1.858 A80.0395 
N2197 X189.533 Y-27.284 Z-1.162 A76.1485 
N2198 X189.533 Y-27.641 Z-0.447 A72.1641 
N2199 X189.533 Y-27.960 Z0.290 A68.0827 
N2200 X189.533 Y-28.237 Z1.053 A63.9006 
N2201 X189.533 Y-28.467 Z1.846 A59.6146 
N2202 X189.533 Y-28.642 Z2.672 A55.2222 
N2203 X189.533 Y-28.752 Z3.532 A50.7245 
N2204 X189.533 Y-28.786 Z4.428 A46.1292 
N2205 X189.533 Y-28.728 Z5.356 A41.4561 
N2206 X189.533 Y-28.564 Z6.310 A36.7429 
N2207 X189.533 Y-28.274 Z7.278 A32.0464 
N2208 X189.533 Y-27.845 Z8.243 A27.4373 
N2209 X189.533 Y-27.262 Z9.185 A22.9914 
N2210 X189.533 Y-26.518 Z10.082 A18.7867 
N2211 X189.533 Y-25.610 Z10.914 A14.8980 
N2212 X189.533 Y-24.539 Z11.662 A11.3895 
N2213 X189.533 Y-23.314 Z12.311 A8.3068 
N2214 X189.533 Y-21.943 Z12.853 A5.6828 
N2215 X189.533 Y-20.441 Z13.286 A3.5192 
N2216 X189.533 Y-18.823 Z13.616 A1.8036 
N2217 X189.533 Y-17.108 Z13.852 A0.5023 
N2218 X189.533 Y-15.312 Z14.010 A359.5458 
N2219 X189.533 Y-13.458 Z14.108 A358.8513 
N2220 X189.533 Y-11.566 Z14.163 A358.3241 
N2221 X189.533 Y-9.658 Z14.196 A357.8499 
N2222 X189.533 Y-7.756 Z14.221 A357.3065 
N2223 X189.533 Y-5.883 Z14.250 A356.5892 
N2224 X189.533 Y-4.056 Z14.288 A355.6056 
N2225 X189.533 Y-2.292 Z14.341 A354.2716 
N2226 X189.533 Y-0.604 Z14.409 A352.5285 
N2227 X189.533 Y1.001 Z14.488 A350.3485 
N2228 X189.533 Y2.519 Z14.577 A347.7169 
N2229 X189.533 Y3.952 Z14.669 A344.6459 
N2230 X189.533 Y5.303 Z14.759 A341.1739 
N2231 X189.533 Y6.579 Z14.840 A337.3468 
N2232 X189.533 Y7.786 Z14.906 A333.2310 
N2233 X189.533 Y8.933 Z14.949 A328.8930 
N2234 X189.533 Y10.025 Z14.962 A324.4043 
N2235 X189.533 Y11.067 Z14.937 A319.8315 
N2236 X189.533 Y12.063 Z14.869 A315.2352 
N2237 X189.533 Y13.016 Z14.753 A310.6636 
N2238 X189.533 Y13.926 Z14.586 A306.1515 
N2239 X189.533 Y14.795 Z14.366 A301.7208 
N2240 X189.533 Y15.624 Z14.092 A297.3839 
N2241 X189.533 Y16.412 Z13.762 A293.1468 
N2242 X189.533 Y17.158 Z13.378 A289.0109 
N2243 X189.533 Y17.863 Z12.938 A284.9756 
N2244 X189.533 Y18.523 Z12.443 A281.0397 
N2245 X189.533 Y19.137 Z11.895 A277.2023 
N2246 X189.533 Y19.702 Z11.294 A273.4619 
N2247 X189.533 Y20.215 Z10.642 A269.8162 
N2248 X189.533 Y20.673 Z9.942 A266.2616 
N2249 X189.533 Y21.075 Z9.195 A262.7958 
N2250 X189.533 Y21.417 Z8.406 A259.4186 
N2251 X189.533 Y21.696 Z7.578 A256.1265 
N2252 X189.533 Y21.913 Z6.714 A252.9128 
N2253 X189.533 Y22.064 Z5.818 A249.7652 
N2254 X189.533 Y22.151 Z4.893 A246.6688 
N2255 X189.533 Y22.174 Z3.943 A243.6070 
N2256 X189.533 Y22.132 Z2.970 A240.5639 
N2257 X189.533 Y22.025 Z1.979 A237.5281 
N2258 X189.533 Y21.851 Z0.973 A234.4883 
N2259 X189.533 Y21.613 Z-0.046 A231.4119 
N2260 X189.533 Y21.312 Z-1.076 A228.2612 
N2261 X189.533 Y20.943 Z-2.111 A225.0587 
N2262 X189.533 Y20.500 Z-3.141 A221.8468 
N2263 X189.533 Y19.982 Z-4.162 A218.6271 
N2264 X189.533 Y19.389 Z-5.167 A215.3992 
N2265 X189.533 Y18.721 Z-6.150 A212.1841 
N2266 X189.533 Y17.977 Z-7.102 A208.9992 
N2267 X189.533 Y17.158 Z-8.019 A205.8484 
N2268 X189.533 Y16.269 Z-8.898 A202.7119 
N2269 X189.533 Y15.312 Z-9.738 A199.5581 
N2270 X189.533 Y14.289 Z-10.534 A196.3831 
N2271 X189.533 Y13.202 Z-11.277 A193.2212 
N2272 X189.533 Y12.053 Z-11.960 A190.0904 
N2273 X189.533 Y10.846 Z-12.578 A186.9946 
N2274 X189.533 Y9.587 Z-13.128 A183.9339 
N2275 X189.533 Y8.281 Z-13.607 A180.9093 
N2276 X189.533 Y6.934 Z-14.012 A177.9204 
N2277 X189.533 Y5.552 Z-14.342 A174.9655 
N2278 X189.533 Y4.141 Z-14.595 A172.0426 
N2279 X189.533 Y2.710 Z-14.771 A169.1490 
N2280 X189.533 Y1.263 Z-14.869 A166.2825 
N2281 X189.533 Y-0.190 Z-14.891 A163.4407 
N2282 X189.533 Y-1.642 Z-14.838 A160.6213 
N2283 X189.533 Y-3.087 Z-14.712 A157.8218 
N2284 X189.533 Y-4.517 Z-14.517 A155.0396 
N2285 X189.533 Y-5.925 Z-14.256 A152.2719 
N2286 X189.533 Y-7.303 Z-13.933 A149.5159 
N2287 X189.533 Y-8.647 Z-13.554 A146.7684 
N2288 X189.533 Y-9.950 Z-13.124 A144.0261 
N2289 X189.533 Y-11.208 Z-12.649 A141.2851 
N2290 X189.533 Y-12.417 Z-12.135 A138.5413 
N2291 X189.533 Y-13.573 Z-11.589 A135.7898 
N2292 X189.533 Y-14.675 Z-11.017 A133.0250 
N2293 X189.533 Y-15.722 Z-10.425 A130.2394 
N2294 X189.533 Y-16.713 Z-9.820 A127.4230 
N2295 X189.533 Y-17.649 Z-9.206 A124.5653 
N2296 X189.533 Y-18.533 Z-8.589 A121.6556 
N2297 X189.533 Y-19.366 Z-7.972 A118.6834 
N2298 X189.533 Y-20.152 Z-7.358 A115.6394 
N2299 X189.533 Y-20.894 Z-6.750 A112.5149 
N2300 X189.533 Y-21.595 Z-6.147 A109.3018 
N2301 X189.533 Y-22.259 Z-5.551 A105.9934 
N2302 X189.533 Y-22.888 Z-4.960 A102.5842 
N2303 X189.533 Y-23.487 Z-4.372 A99.0705 
N2304 X189.533 Y-24.057 Z-3.785 A95.4500 
N2305 X189.533 Y-24.599 Z-3.195 A91.7226 
N2306 X189.533 Y-25.116 Z-2.600 A87.8889 
N2307 X189.533 Y-25.605 Z-1.994 A83.9511 
N2308 X189.533 Y-26.067 Z-1.374 A79.9117 
N2309 X189.533 Y-26.500 Z-0.735 A75.7735 
N2310 X189.533 Y-26.900 Z-0.074 A71.5389 
N2311 X189.533 Y-27.263 Z0.615 A67.2104 
N2312 X189.533 Y-27.583 Z1.334 A62.7897 
N2313 X189.533 Y-27.854 Z2.087 A58.2789 
N2314 X189.533 Y-28.067 Z2.877 A53.6814 
N2315 X189.533 Y-28.210 Z3.703 A49.0057 
N2316 X189.533 Y-28.273 Z4.566 A44.2675 
N2317 X189.533 Y-28.239 Z5.459 A39.4956 
N2318 X189.533 Y-28.093 Z6.373 A34.7380 
N2319 X189.533 Y-27.819 Z7.296 A30.0546 
N2320 X189.533 Y-27.405 Z8.209 A25.5102 
N2321 X189.533 Y-26.841 Z9.093 A21.1715 
N2322 X189.533 Y-26.121 Z9.929 A17.1069 
N2323 X189.533 Y-25.244 Z10.698 A13.3733 
N2324 X189.533 Y-24.215 Z11.384 A10.0228 
N2325 X189.533 Y-23.039 Z11.974 A7.0887 
N2326 X189.533 Y-21.729 Z12.463 A4.5921 
N2327 X189.533 Y-20.297 Z12.849 A2.5417 
N2328 X189.533 Y-18.759 Z13.136 A0.9164 
N2329 X189.533 Y-17.132 Z13.336 A359.6782 
N2330 X189.533 Y-15.434 Z13.462 A358.7726 
N2331 X189.533 Y-13.685 Z13.532 A358.1119 
N2332 X189.533 Y-11.907 Z13.565 A357.5904 
N2333 X189.533 Y-10.119 Z13.578 A357.1027 
N2334 X189.533 Y-8.344 Z13.585 A356.5392 
N2335 X189.533 Y-6.600 Z13.599 A355.7867 
N2336 X189.533 Y-4.907 Z13.627 A354.7528 
N2337 X189.533 Y-3.278 Z13.671 A353.3713 
N2338 X189.533 Y-1.725 Z13.732 A351.5869 
N2339 X189.533 Y-0.253 Z13.811 A349.3639 
N2340 X189.533 Y1.135 Z13.903 A346.6951 
N2341 X189.533 Y2.443 Z14.005 A343.5859 
N2342 X189.533 Y3.676 Z14.114 A340.0617 
N2343 X189.533 Y4.841 Z14.222 A336.1695 
N2344 X189.533 Y5.949 Z14.322 A331.9646 
N2345 X189.533 Y7.005 Z14.405 A327.5187 
N2346 X189.533 Y8.017 Z14.464 A322.9038 
N2347 X189.533 Y8.991 Z14.488 A318.1896 
N2348 X189.533 Y9.928 Z14.471 A313.4369 
N2349 X189.533 Y10.832 Z14.407 A308.6975 
N2350 X189.533 Y11.701 Z14.291 A304.0107 
N2351 X189.533 Y12.536 Z14.119 A299.4027 
N2352 X189.533 Y13.336 Z13.890 A294.8889 
N2353 X189.533 Y14.100 Z13.603 A290.4773 
N2354 X189.533 Y14.825 Z13.256 A286.1720 
N2355 X189.533 Y15.510 Z12.850 A281.9746 
N2356 X189.533 Y16.151 Z12.384 A277.8871 
N2357 X189.533 Y16.744 Z11.860 A273.9109 
N2358 X189.533 Y17.286 Z11.278 A270.0491 
N2359 X189.533 Y17.773 Z10.641 A266.3029 
N2360 X189.533 Y18.200 Z9.951 A262.6748 
N2361 X189.533 Y18.564 Z9.212 A259.1648 
N2362 X189.533 Y18.862 Z8.427 A255.7690 
N2363 X189.533 Y19.093 Z7.600 A252.4821 
N2364 X189.533 Y19.253 Z6.735 A249.2956 
N2365 X189.533 Y19.343 Z5.837 A246.2035 
N2366 X189.533 Y19.361 Z4.910 A243.1984 
N2367 X189.533 Y19.307 Z3.961 A240.2768 
N2368 X189.533 Y19.180 Z2.995 A237.4367 
N2369 X189.533 Y18.984 Z2.016 A234.6599 
N2370 X189.533 Y18.722 Z1.028 A231.9037 
N2371 X189.533 Y18.397 Z0.034 A229.1556 
N2372 X189.533 Y18.009 Z-0.958 A226.4202 
N2373 X189.533 Y17.562 Z-1.947 A223.6687 
N2374 X189.533 Y17.060 Z-2.929 A220.8658 
N2375 X189.533 Y16.504 Z-3.903 A217.9900 
N2376 X189.533 Y15.898 Z-4.864 A215.0232 
N2377 X189.533 Y15.239 Z-5.809 A211.9572 
N2378 X189.533 Y14.530 Z-6.732 A208.7945 
N2379 X189.533 Y13.767 Z-7.628 A205.5447 
N2380 X189.533 Y12.952 Z-8.492 A202.2160 
N2381 X189.533 Y12.082 Z-9.319 A198.8198 
N2382 X189.533 Y11.160 Z-10.101 A195.3695 
N2383 X189.533 Y10.183 Z-10.832 A191.8863 
N2384 X189.533 Y9.154 Z-11.506 A188.3917 
N2385 X189.533 Y8.074 Z-12.116 A184.9101 
N2386 X189.533 Y6.946 Z-12.656 A181.4625 
N2387 X189.533 Y5.774 Z-13.121 A178.0678 
N2388 X189.533 Y4.563 Z-13.507 A174.7400 
N2389 X189.533 Y3.317 Z-13.811 A171.4890 
N2390 X189.533 Y2.043 Z-14.032 A168.3203 
N2391 X189.533 Y0.747 Z-14.169 A165.2355 
N2392 X189.533 Y-0.565 Z-14.222 A162.2328 
N2393 X189.533 Y-1.885 Z-14.195 A159.3082 
N2394 X189.533 Y-3.207 Z-14.089 A156.4560 
N2395 X189.533 Y-4.523 Z-13.908 A153.6692 
N2396 X189.533 Y-5.828 Z-13.656 A150.9401 
N2397 X189.533 Y-7.114 Z-13.339 A148.2602 
N2398 X189.533 Y-8.374 Z-12.962 A145.6202 
N2399 X189.533 Y-9.603 Z-12.532 A143.0103 
N2400 X189.533 Y-10.795 Z-12.055 A140.4198 
N2401 X189.533 Y-11.946 Z-11.540 A137.8377 
N2402 X189.533 Y-13.051 Z-10.992 A135.2521 
N2403 X189.533 Y-14.109 Z-10.420 A132.6514 
N2404 X189.533 Y-15.118 Z-9.830 A130.0234 
N2405 X189.533 Y-16.075 Z-9.230 A127.3553 
N2406 X189.533 Y-16.983 Z-8.624 A124.6342 
N2407 X189.533 Y-17.842 Z-8.019 A121.8468 
N2408 X189.533 Y-18.654 Z-7.418 A118.9804 
N2409 X189.533 Y-19.422 Z-6.825 A116.0228 
N2410 X189.533 Y-20.149 Z-6.241 A112.9632 
N2411 X189.533 Y-20.839 Z-5.668 A109.7923 
N2412 X189.533 Y-21.496 Z-5.105 A106.5027 
N2413 X189.533 Y-22.123 Z-4.550 A103.0889 
N2414 X189.533 Y-22.723 Z-4.002 A99.5480 
N2415 X189.533 Y-23.298 Z-3.456 A95.8793 
N2416 X189.533 Y-23.851 Z-2.909 A92.0843 
N2417 X189.533 Y-24.380 Z-2.356 A88.1669 
N2418 X189.533 Y-24.887 Z-1.793 A84.1320 
N2419 X189.533 Y-25.370 Z-1.214 A79.9852 
N2420 X189.533 Y-25.826 Z-0.615 A75.7318 
N2421 X189.533 Y-26.252 Z0.008 A71.3766 
N2422 X189.533 Y-26.643 Z0.661 A66.9241 
N2423 X189.533 Y-26.993 Z1.347 A62.3794 
N2424 X189.533 Y-27.294 Z2.069 A57.7480 
N2425 X189.533 Y-27.538 Z2.829 A53.0371 
N2426 X189.533 Y-27.713 Z3.628 A48.2564 
N2427 X189.533 Y-27.807 Z4.463 A43.4225 
N2428 X189.533 Y-27.805 Z5.329 A38.5656 
N2429 X189.533 Y-27.692 Z6.217 A33.7329 
N2430 X189.533 Y-27.453 Z7.111 A28.9873 
N2431 X189.533 Y-27.076 Z7.995 A24.3943 
N2432 X189.533 Y-26.552 Z8.848 A20.0224 
N2433 X189.533 Y-25.877 Z9.651 A15.9371 
N2434 X189.533 Y-25.052 Z10.384 A12.2032 
N2435 X189.533 Y-24.079 Z11.033 A8.8662 
N2436 X189.533 Y-22.969 Z11.583 A5.9689 
N2437 X189.533 Y-21.731 Z12.032 A3.5278 
N2438 X189.533 Y-20.381 Z12.377 A1.5426 
N2439 X189.533 Y-18.932 Z12.625 A0.0001 
N2440 X189.533 Y-17.403 Z12.788 A358.8505 
N2441 X189.533 Y-15.811 Z12.881 A358.0238 
N2442 X189.533 Y-14.174 Z12.922 A357.4380 
N2443 X189.533 Y-12.514 Z12.929 A356.9909 
N2444 X189.533 Y-10.849 Z12.921 A356.5615 
N2445 X189.533 Y-9.200 Z12.913 A356.0381 
N2446 X189.533 Y-7.587 Z12.915 A355.3223 
N2447 X189.533 Y-6.025 Z12.935 A354.3213 
N2448 X189.533 Y-4.528 Z12.977 A352.9561 
