N10 ; PROGRAM NAME: 1373238
N11 ; ORDER       : 13732
N12 ; OPER. NAME  : Side Milling:141
N13 ; OPER. DESCR.: Side Milling/czolo nozki po luku zgr
N14 ; OPER. TYPE  : sideMill
N15 ; GEO. OPTION : 1
N16 ; MACHINE     : SH_HX151_24_SIM840D
N17 ;             : STARRAG_HECKERT_5axis_finish_milling_machine
N18 ; CONTROL     : SINUMERIK 840D
N19 ; created:   2021-11-10 08:26:46.097058
;-------DODATKOWE DANE-------------------
; PROGRAMISTA : Mariusz Orzechowski
; PARTID      : 132T008743P1005_-
;  ap         : 4.4
;  ae         : 1.0
;  lean_angle : 0.0
;  fin_offset : -6.5
;----------------------------------------
N20 ;----------------------------------------
RAPORT("T13732","Side Milling:141")
N21 TRAFOOF
N22 D0
N23 G90 G94
N24 STOPRE
N25 M9 ; chlodziwo wyl
N26 ; --- Side Milling:141 - Side Milling/czolo nozki po luku zgr ---
N28 ;ToolChange : concat=None ,current_tdmid=None, PP.tdmId=959064
N29 MSG(" TLID=959064 D=10.0 R=0.0 Ang=0.0 Len=129.0 ")
N30 TRAFOOF
N31 D0
N32 G0 G53 Z290 B0
N33 G0 X200
N34 G0 Y150
N35 T="7759064"
N36 G0 X500
RAPORT("T13732","ToolChangeStart 7759064")
N37 M6
RAPORT("T13732","ToolChangeEnd")
N38 ; (Preloading tool)
N39 T="7758050"
N40 G0 X200
N41 STOPRE
N42 S2546 M03
N43 STOPRE
N44 TOL(0.1,1,1)
N45 G0 X134.117 A311.0000
N46 TRAORI
N47 G54 D1
N48 ;tol5=0.15
N49 D1 
STOPRE
E_ZDARZ=500001
;ACS_ROUGH_ROOT_FRONT=7759064
STOPRE
;UWAGA : ZMIENIONA TOLERANCJA OSI A i B, ruchy osi A i B beda usuniete : TOL5=0.15
N50 ; DELTA A > 40.1
N51 TRAFOOF
N52 STOPRE
N53 G0 G53 D0 Z265.000
N54 G1 G53 A311.0000 F10000
N55 TRAORI
N56 G54 D1
N57 TRANS 
N58 G00 X134.117 Y30.015 Z53.442 A311.0000 B0.0000 
N59 M342 ; chlodziwo woda
N60 X134.117 Y-7.721 Z20.639 
N61 ;FSE_1
N62 G01 G41 X134.100 Y-7.065 Z19.884 F254
N63 G01 X134.100 Y-7.065 Z19.884 F254 
N64 X134.098 Y-7.009 Z19.820 
N65 X134.097 Y-6.952 Z19.755 
N66 X134.095 Y-6.896 Z19.690 
N67 X134.094 Y-6.840 Z19.626 
N68 X134.092 Y-6.784 Z19.561 
N69 X134.091 Y-6.727 Z19.496 
N70 X134.089 Y-6.671 Z19.432 
N71 X134.088 Y-6.615 Z19.367 
N72 X134.087 Y-6.559 Z19.302 
N73 X134.085 Y-6.503 Z19.238 
N74 X134.084 Y-6.446 Z19.173 
N75 X134.082 Y-6.390 Z19.108 
N76 X134.081 Y-6.334 Z19.044 
N77 X134.079 Y-6.278 Z18.979 
N78 X134.078 Y-6.221 Z18.914 
N79 X134.076 Y-6.165 Z18.850 
N80 X134.075 Y-6.109 Z18.785 
N81 X134.073 Y-6.053 Z18.720 
N82 X134.072 Y-5.996 Z18.656 
N83 X134.070 Y-5.940 Z18.591 
N84 X134.069 Y-5.884 Z18.526 
N85 X134.067 Y-5.828 Z18.461 
N86 X134.066 Y-5.772 Z18.397 
N87 X134.065 Y-5.715 Z18.332 
N88 X134.063 Y-5.659 Z18.267 
N89 X134.062 Y-5.603 Z18.203 
N90 X134.060 Y-5.547 Z18.138 
N91 X134.059 Y-5.490 Z18.073 
N92 X134.057 Y-5.434 Z18.009 
N93 X134.056 Y-5.378 Z17.944 
N94 X134.054 Y-5.322 Z17.879 
N95 X134.053 Y-5.266 Z17.815 
N96 X134.051 Y-5.209 Z17.750 
N97 X134.050 Y-5.153 Z17.685 
N98 X134.048 Y-5.097 Z17.621 
N99 X134.047 Y-5.041 Z17.557 
N100 X134.045 Y-4.986 Z17.493 
N101 X134.044 Y-4.930 Z17.429 
N102 X134.043 Y-4.875 Z17.365 
N103 X134.041 Y-4.819 Z17.301 
N104 X134.040 Y-4.763 Z17.237 
N105 X134.038 Y-4.708 Z17.173 
N106 X134.037 Y-4.652 Z17.109 
N107 X134.035 Y-4.597 Z17.045 
N108 X134.034 Y-4.541 Z16.981 
N109 X134.032 Y-4.485 Z16.917 
N110 X134.031 Y-4.430 Z16.853 
N111 X134.030 Y-4.374 Z16.789 
N112 X134.028 Y-4.319 Z16.725 
N113 X134.027 Y-4.263 Z16.661 
N114 X134.025 Y-4.207 Z16.597 
N115 X134.024 Y-4.152 Z16.534 
N116 X134.022 Y-4.096 Z16.470 
N117 X134.021 Y-4.041 Z16.406 
N118 X134.019 Y-3.985 Z16.342 
N119 X134.018 Y-3.930 Z16.278 
N120 X134.016 Y-3.874 Z16.214 
N121 X134.015 Y-3.818 Z16.150 
N122 X134.014 Y-3.763 Z16.086 
N123 X134.012 Y-3.707 Z16.022 
N124 X134.011 Y-3.652 Z15.958 
N125 X134.009 Y-3.596 Z15.894 
N126 X134.008 Y-3.540 Z15.830 
N127 X134.006 Y-3.485 Z15.766 
N128 X134.005 Y-3.429 Z15.702 
N129 X134.003 Y-3.374 Z15.638 
N130 X134.002 Y-3.318 Z15.574 
N131 X134.000 Y-3.262 Z15.510 
N132 X133.999 Y-3.207 Z15.446 
N133 X133.998 Y-3.151 Z15.382 
N134 X133.996 Y-3.096 Z15.318 
N135 X133.995 Y-3.040 Z15.255 
N136 X133.993 Y-2.984 Z15.191 
N137 X133.992 Y-2.929 Z15.127 
N138 X133.990 Y-2.873 Z15.063 
N139 X133.989 Y-2.818 Z14.999 
N140 X133.987 Y-2.762 Z14.935 
N141 X133.986 Y-2.707 Z14.871 
N142 X133.985 Y-2.651 Z14.807 
N143 X133.983 Y-2.595 Z14.743 
N144 X133.982 Y-2.540 Z14.679 
N145 X133.980 Y-2.484 Z14.615 
N146 X133.979 Y-2.429 Z14.551 
N147 X133.977 Y-2.373 Z14.487 
N148 X133.976 Y-2.317 Z14.423 
N149 X133.974 Y-2.262 Z14.359 
N150 X133.973 Y-2.206 Z14.295 
N151 X133.971 Y-2.151 Z14.231 
N152 X133.970 Y-2.095 Z14.167 
N153 X133.969 Y-2.039 Z14.103 
N154 X133.967 Y-1.984 Z14.040 
N155 X133.966 Y-1.928 Z13.976 
N156 X133.964 Y-1.873 Z13.912 
N157 X133.963 Y-1.817 Z13.848 
N158 X133.961 Y-1.762 Z13.784 
N159 X133.960 Y-1.706 Z13.720 
N160 X133.958 Y-1.651 Z13.656 
N161 X133.957 Y-1.595 Z13.592 
N162 X133.956 Y-1.540 Z13.529 
N163 X133.954 Y-1.484 Z13.465 
N164 X133.953 Y-1.429 Z13.401 
N165 X133.951 Y-1.373 Z13.337 
N166 X133.950 Y-1.318 Z13.273 
N167 X133.948 Y-1.262 Z13.209 
N168 X133.947 Y-1.207 Z13.146 
N169 X133.945 Y-1.151 Z13.082 
N170 X133.944 Y-1.096 Z13.018 
N171 X133.942 Y-1.040 Z12.954 
N172 X133.941 Y-0.985 Z12.890 
N173 X133.940 Y-0.929 Z12.826 
N174 X133.938 Y-0.874 Z12.763 
N175 X133.937 Y-0.818 Z12.699 
N176 X133.935 Y-0.763 Z12.635 
N177 X133.934 Y-0.707 Z12.571 
N178 X133.932 Y-0.652 Z12.507 
N179 X133.931 Y-0.596 Z12.444 
N180 X133.929 Y-0.541 Z12.380 
N181 X133.928 Y-0.486 Z12.316 
N182 X133.927 Y-0.430 Z12.252 
N183 X133.925 Y-0.375 Z12.188 
N184 X133.924 Y-0.319 Z12.124 
N185 X133.922 Y-0.264 Z12.061 
N186 X133.921 Y-0.208 Z11.997 
N187 X133.919 Y-0.153 Z11.933 
N188 X133.918 Y-0.097 Z11.869 
N189 X133.916 Y-0.042 Z11.805 
N190 X133.915 Y0.014 Z11.741 
N191 X133.914 Y0.069 Z11.678 
N192 X133.912 Y0.125 Z11.614 
N193 X133.911 Y0.180 Z11.550 
N194 X133.909 Y0.236 Z11.486 
N195 X133.908 Y0.291 Z11.422 
N196 X133.906 Y0.347 Z11.359 
N197 X133.905 Y0.402 Z11.295 
N198 X133.903 Y0.458 Z11.231 
N199 X133.902 Y0.513 Z11.167 
N200 X133.900 Y0.569 Z11.103 
N201 X133.899 Y0.624 Z11.039 
N202 X133.898 Y0.680 Z10.976 
N203 X133.896 Y0.735 Z10.912 
N204 X133.895 Y0.791 Z10.848 
N205 X133.893 Y0.846 Z10.784 
N206 X133.892 Y0.902 Z10.720 
N207 X133.890 Y0.957 Z10.656 
N208 X133.889 Y1.012 Z10.593 
N209 X133.887 Y1.068 Z10.529 
N210 X133.886 Y1.123 Z10.465 
N211 X133.885 Y1.179 Z10.401 
N212 X133.883 Y1.234 Z10.337 
N213 X133.882 Y1.290 Z10.273 
N214 X133.880 Y1.345 Z10.210 
N215 X133.879 Y1.401 Z10.146 
N216 X133.877 Y1.456 Z10.082 
N217 X133.876 Y1.512 Z10.018 
N218 X133.874 Y1.567 Z9.954 
N219 X133.873 Y1.623 Z9.891 
N220 X133.872 Y1.678 Z9.827 
N221 X133.870 Y1.734 Z9.763 
N222 X133.869 Y1.789 Z9.699 
N223 X133.867 Y1.845 Z9.635 
N224 X133.866 Y1.900 Z9.571 
N225 X133.866 Y1.956 Z9.508 
N226 X133.866 Y2.011 Z9.444 
N227 X133.866 Y2.067 Z9.380 
N228 X133.866 Y2.122 Z9.316 
N229 X133.866 Y2.178 Z9.252 
N230 X133.866 Y2.233 Z9.188 
N231 X133.866 Y2.289 Z9.125 
N232 X133.866 Y2.344 Z9.061 
N233 X133.866 Y2.400 Z8.997 
N234 X133.866 Y2.455 Z8.933 
N235 X133.866 Y2.511 Z8.869 
N236 X133.866 Y2.566 Z8.805 
N237 X133.866 Y2.622 Z8.742 
N238 X133.866 Y2.677 Z8.678 
N239 X133.866 Y2.733 Z8.614 
N240 X133.866 Y2.788 Z8.550 
N241 X133.866 Y2.844 Z8.486 
N242 X133.866 Y2.899 Z8.422 
N243 X133.866 Y2.955 Z8.359 
N244 X133.866 Y3.010 Z8.295 
N245 X133.865 Y3.065 Z8.231 
N246 X133.865 Y3.121 Z8.167 
N247 X133.865 Y3.176 Z8.103 
N248 X133.865 Y3.232 Z8.039 
N249 X133.865 Y3.287 Z7.976 
N250 X133.865 Y3.343 Z7.912 
N251 X133.865 Y3.398 Z7.848 
N252 X133.865 Y3.454 Z7.784 
N253 X133.865 Y3.509 Z7.720 
N254 X133.865 Y3.565 Z7.656 
N255 X133.865 Y3.620 Z7.593 
N256 X133.865 Y3.676 Z7.529 
N257 X133.865 Y3.731 Z7.465 
N258 X133.865 Y3.787 Z7.401 
N259 X133.865 Y3.842 Z7.337 
N260 X133.865 Y3.898 Z7.273 
N261 X133.865 Y3.953 Z7.210 
N262 X133.865 Y4.009 Z7.146 
N263 X133.865 Y4.064 Z7.082 
N264 X133.865 Y4.120 Z7.018 
N265 X133.865 Y4.175 Z6.954 
N266 X133.865 Y4.231 Z6.890 
N267 X133.864 Y4.286 Z6.827 
N268 X133.864 Y4.342 Z6.763 
N269 X133.864 Y4.397 Z6.699 
N270 X133.864 Y4.453 Z6.635 
N271 X133.864 Y4.508 Z6.571 
N272 X133.864 Y4.564 Z6.507 
N273 X133.864 Y4.619 Z6.444 
N274 X133.864 Y4.675 Z6.380 
N275 X133.864 Y4.730 Z6.316 
N276 X133.864 Y4.786 Z6.252 
N277 X133.864 Y4.841 Z6.188 
N278 X133.864 Y4.897 Z6.124 
N279 X133.864 Y4.952 Z6.061 
N280 X133.864 Y5.008 Z5.997 
N281 X133.864 Y5.063 Z5.933 
N282 X133.864 Y5.119 Z5.869 
N283 X133.864 Y5.174 Z5.805 
N284 X133.864 Y5.230 Z5.741 
N285 X133.864 Y5.285 Z5.678 
N286 X133.864 Y5.341 Z5.614 
N287 X133.864 Y5.396 Z5.550 
N288 X133.863 Y5.452 Z5.486 
N289 X133.863 Y5.507 Z5.422 
N290 X133.863 Y5.563 Z5.358 
N291 X133.863 Y5.618 Z5.295 
N292 X133.863 Y5.674 Z5.231 
N293 X133.863 Y5.729 Z5.167 
N294 X133.863 Y5.784 Z5.103 
N295 X133.863 Y5.840 Z5.039 
N296 X133.863 Y5.895 Z4.975 
N297 X133.863 Y5.951 Z4.912 
N298 X133.863 Y6.006 Z4.848 
N299 X133.863 Y6.062 Z4.784 
N300 X133.863 Y6.117 Z4.720 
N301 X133.863 Y6.173 Z4.656 
N302 X133.864 Y6.228 Z4.592 
N303 X133.866 Y6.284 Z4.529 
N304 X133.867 Y6.339 Z4.465 
N305 X133.868 Y6.395 Z4.401 
N306 X133.870 Y6.450 Z4.337 
N307 X133.871 Y6.506 Z4.273 
N308 X133.872 Y6.561 Z4.209 
N309 X133.874 Y6.617 Z4.146 
N310 X133.875 Y6.672 Z4.082 
N311 X133.876 Y6.728 Z4.018 
N312 X133.878 Y6.783 Z3.954 
N313 X133.879 Y6.839 Z3.890 
N314 X133.881 Y6.894 Z3.826 
N315 X133.882 Y6.950 Z3.763 
N316 X133.883 Y7.005 Z3.699 
N317 X133.885 Y7.061 Z3.635 
N318 X133.886 Y7.116 Z3.571 
N319 X133.887 Y7.172 Z3.507 
N320 X133.889 Y7.227 Z3.444 
N321 X133.890 Y7.283 Z3.380 
N322 X133.891 Y7.338 Z3.316 
N323 X133.893 Y7.394 Z3.252 
N324 X133.894 Y7.449 Z3.188 
N325 X133.896 Y7.505 Z3.124 
N326 X133.897 Y7.560 Z3.061 
N327 X133.898 Y7.615 Z2.997 
N328 X133.900 Y7.671 Z2.933 
N329 X133.901 Y7.726 Z2.869 
N330 X133.902 Y7.782 Z2.805 
N331 X133.904 Y7.837 Z2.741 
N332 X133.905 Y7.893 Z2.678 
N333 X133.906 Y7.948 Z2.614 
N334 X133.908 Y8.004 Z2.550 
N335 X133.909 Y8.059 Z2.486 
N336 X133.911 Y8.115 Z2.422 
N337 X133.912 Y8.170 Z2.358 
N338 X133.913 Y8.226 Z2.295 
N339 X133.915 Y8.281 Z2.231 
N340 X133.916 Y8.337 Z2.167 
N341 X133.917 Y8.392 Z2.103 
N342 X133.919 Y8.448 Z2.039 
N343 X133.920 Y8.503 Z1.976 
N344 X133.922 Y8.559 Z1.912 
N345 X133.923 Y8.614 Z1.848 
N346 X133.924 Y8.670 Z1.784 
N347 X133.926 Y8.725 Z1.720 
N348 X133.927 Y8.781 Z1.656 
N349 X133.928 Y8.836 Z1.593 
N350 X133.930 Y8.892 Z1.529 
N351 X133.931 Y8.947 Z1.465 
N352 X133.932 Y9.003 Z1.401 
N353 X133.934 Y9.058 Z1.337 
N354 X133.935 Y9.114 Z1.273 
N355 X133.937 Y9.169 Z1.210 
N356 X133.938 Y9.224 Z1.146 
N357 X133.939 Y9.280 Z1.082 
N358 X133.941 Y9.335 Z1.018 
N359 X133.942 Y9.391 Z0.954 
N360 X133.943 Y9.446 Z0.891 
N361 X133.945 Y9.502 Z0.827 
N362 X133.946 Y9.557 Z0.763 
N363 X133.947 Y9.613 Z0.699 
N364 X133.949 Y9.668 Z0.635 
N365 X133.950 Y9.724 Z0.571 
N366 X133.952 Y9.779 Z0.508 
N367 X133.953 Y9.835 Z0.444 
N368 X133.954 Y9.890 Z0.380 
N369 X133.956 Y9.946 Z0.316 
N370 X133.959 Y10.001 Z0.252 
N371 X133.961 Y10.057 Z0.188 
N372 X133.964 Y10.112 Z0.125 
N373 X133.966 Y10.168 Z0.061 
N374 X133.969 Y10.223 Z-0.003 
N375 X133.971 Y10.279 Z-0.067 
N376 X133.974 Y10.334 Z-0.131 
N377 X133.976 Y10.389 Z-0.194 
N378 X133.979 Y10.445 Z-0.258 
N379 X133.982 Y10.500 Z-0.322 
N380 X133.984 Y10.556 Z-0.386 
N381 X133.987 Y10.611 Z-0.450 
N382 X133.989 Y10.667 Z-0.513 
N383 X133.992 Y10.722 Z-0.577 
N384 X133.994 Y10.778 Z-0.641 
N385 X133.997 Y10.833 Z-0.705 
N386 X133.999 Y10.889 Z-0.769 
N387 X134.002 Y10.944 Z-0.832 
N388 X134.004 Y11.000 Z-0.896 
N389 X134.007 Y11.055 Z-0.960 
N390 X134.009 Y11.110 Z-1.024 
N391 X134.012 Y11.166 Z-1.088 
N392 X134.015 Y11.221 Z-1.151 
N393 X134.017 Y11.277 Z-1.215 
N394 X134.020 Y11.332 Z-1.279 
N395 X134.022 Y11.388 Z-1.343 
N396 X134.025 Y11.443 Z-1.407 
N397 X134.027 Y11.499 Z-1.470 
N398 X134.030 Y11.554 Z-1.534 
N399 X134.032 Y11.610 Z-1.598 
N400 X134.035 Y11.665 Z-1.662 
N401 X134.037 Y11.721 Z-1.726 
N402 X134.040 Y11.776 Z-1.789 
N403 X134.042 Y11.832 Z-1.853 
N404 X134.045 Y11.887 Z-1.917 
N405 X134.048 Y11.942 Z-1.981 
N406 X134.050 Y11.998 Z-2.045 
N407 X134.053 Y12.053 Z-2.108 
N408 X134.055 Y12.109 Z-2.172 
N409 X134.058 Y12.164 Z-2.236 
N410 X134.060 Y12.220 Z-2.300 
N411 X134.063 Y12.275 Z-2.364 
N412 X134.065 Y12.331 Z-2.428 
N413 X134.068 Y12.386 Z-2.491 
N414 X134.070 Y12.442 Z-2.555 
N415 X134.073 Y12.497 Z-2.619 
N416 X134.076 Y12.553 Z-2.683 
N417 X134.078 Y12.608 Z-2.747 
N418 X134.081 Y12.664 Z-2.810 
N419 X134.083 Y12.719 Z-2.874 
N420 X134.086 Y12.774 Z-2.938 
N421 X134.088 Y12.830 Z-3.002 
N422 X134.091 Y12.885 Z-3.066 
N423 X134.095 Y12.941 Z-3.129 
N424 X134.099 Y12.996 Z-3.193 
N425 X134.103 Y13.052 Z-3.257 
N426 X134.106 Y13.107 Z-3.321 
N427 X134.110 Y13.163 Z-3.384 
N428 X134.114 Y13.218 Z-3.448 
N429 X134.118 Y13.273 Z-3.512 
N430 X134.122 Y13.329 Z-3.576 
N431 X134.126 Y13.384 Z-3.639 
N432 X134.130 Y13.440 Z-3.703 
N433 X134.133 Y13.495 Z-3.767 
N434 X134.137 Y13.551 Z-3.831 
N435 X134.141 Y13.606 Z-3.895 
N436 X134.145 Y13.661 Z-3.958 
N437 X134.149 Y13.717 Z-4.022 
N438 X134.153 Y13.772 Z-4.086 
N439 X134.157 Y13.828 Z-4.150 
N440 X134.160 Y13.883 Z-4.213 
N441 X134.164 Y13.939 Z-4.277 
N442 X134.168 Y13.994 Z-4.341 
N443 X134.172 Y14.049 Z-4.405 
N444 X134.176 Y14.105 Z-4.468 
N445 X134.180 Y14.160 Z-4.532 
N446 X134.183 Y14.216 Z-4.596 
N447 X134.187 Y14.271 Z-4.660 
N448 X134.191 Y14.327 Z-4.724 
N449 X134.195 Y14.382 Z-4.787 
N450 X134.199 Y14.437 Z-4.851 
N451 X134.203 Y14.493 Z-4.915 
N452 X134.207 Y14.548 Z-4.979 
N453 X134.210 Y14.604 Z-5.042 
N454 X134.214 Y14.659 Z-5.106 
N455 X134.218 Y14.715 Z-5.170 
N456 X134.222 Y14.770 Z-5.234 
N457 X134.226 Y14.825 Z-5.297 
N458 X134.230 Y14.881 Z-5.361 
N459 X134.234 Y14.936 Z-5.425 
N460 X134.237 Y14.992 Z-5.489 
N461 X134.241 Y15.047 Z-5.552 
N462 X134.245 Y15.103 Z-5.616 
N463 X134.249 Y15.158 Z-5.680 
N464 X134.253 Y15.214 Z-5.744 
N465 X134.257 Y15.269 Z-5.808 
N466 X134.261 Y15.324 Z-5.871 
N467 X134.264 Y15.380 Z-5.935 
N468 X134.268 Y15.435 Z-5.999 
N469 X134.272 Y15.491 Z-6.063 
N470 X134.276 Y15.546 Z-6.126 
N471 X134.280 Y15.602 Z-6.190 
N472 X134.284 Y15.657 Z-6.254 
N473 X134.288 Y15.712 Z-6.318 
N474 X134.291 Y15.768 Z-6.381 
N475 X134.295 Y15.823 Z-6.445 
N476 X134.299 Y15.879 Z-6.509 
N477 X134.303 Y15.934 Z-6.573 
N478 X134.307 Y15.990 Z-6.637 
N479 X134.311 Y16.045 Z-6.700 
N480 X134.315 Y16.100 Z-6.764 
N481 X134.318 Y16.156 Z-6.828 
N482 X134.322 Y16.211 Z-6.892 
N483 X134.326 Y16.267 Z-6.955 
N484 X134.330 Y16.322 Z-7.019 
N485 X134.334 Y16.378 Z-7.083 
N486 X134.338 Y16.433 Z-7.147 
N487 X134.341 Y16.488 Z-7.210 
N488 X134.345 Y16.544 Z-7.274 
N489 X134.349 Y16.599 Z-7.338 
N490 X134.353 Y16.655 Z-7.402 
N491 X134.357 Y16.710 Z-7.466 
N492 X134.361 Y16.766 Z-7.529 
N493 X134.365 Y16.821 Z-7.593 
N494 X134.368 Y16.876 Z-7.657 
N495 X134.372 Y16.932 Z-7.721 
N496 X134.376 Y16.987 Z-7.784 
N497 X134.380 Y17.043 Z-7.848 
N498 X134.384 Y17.098 Z-7.912 
N499 X134.388 Y17.154 Z-7.976 
N500 X134.392 Y17.209 Z-8.039 
N501 X134.395 Y17.265 Z-8.103 
N502 X134.399 Y17.320 Z-8.167 
N503 X134.403 Y17.375 Z-8.231 
N504 X134.407 Y17.431 Z-8.294 
N505 X134.413 Y17.486 Z-8.358 
N506 X134.418 Y17.542 Z-8.422 
N507 X134.423 Y17.597 Z-8.486 
N508 X134.429 Y17.652 Z-8.549 
N509 X134.434 Y17.708 Z-8.613 
N510 X134.439 Y17.763 Z-8.677 
N511 X134.444 Y17.818 Z-8.740 
N512 X134.450 Y17.874 Z-8.804 
N513 X134.455 Y17.929 Z-8.868 
N514 X134.460 Y17.985 Z-8.932 
N515 X134.465 Y18.040 Z-8.995 
N516 X134.471 Y18.095 Z-9.059 
N517 X134.476 Y18.151 Z-9.123 
N518 X134.481 Y18.206 Z-9.186 
N519 X134.487 Y18.262 Z-9.250 
N520 X134.492 Y18.317 Z-9.314 
N521 X134.497 Y18.372 Z-9.378 
N522 X134.502 Y18.428 Z-9.441 
N523 X134.508 Y18.483 Z-9.505 
N524 X134.513 Y18.538 Z-9.569 
N525 X134.518 Y18.594 Z-9.632 
N526 X134.523 Y18.649 Z-9.696 
N527 X134.529 Y18.705 Z-9.760 
N528 X134.534 Y18.760 Z-9.824 
N529 X134.539 Y18.815 Z-9.887 
N530 X134.545 Y18.871 Z-9.951 
N531 X134.550 Y18.926 Z-10.015 
N532 X134.555 Y18.981 Z-10.078 
N533 X134.560 Y19.037 Z-10.142 
N534 X134.566 Y19.092 Z-10.206 
N535 X134.571 Y19.148 Z-10.269 
N536 X134.576 Y19.203 Z-10.333 
N537 X134.582 Y19.258 Z-10.397 
N538 X134.587 Y19.314 Z-10.461 
N539 X134.592 Y19.369 Z-10.524 
N540 X134.597 Y19.425 Z-10.588 
N541 X134.603 Y19.480 Z-10.652 
N542 X134.608 Y19.535 Z-10.715 
N543 X134.613 Y19.591 Z-10.779 
N544 X134.618 Y19.646 Z-10.843 
N545 X134.624 Y19.701 Z-10.907 
N546 X134.629 Y19.757 Z-10.970 
N547 X134.634 Y19.812 Z-11.034 
N548 X134.640 Y19.868 Z-11.098 
N549 X134.645 Y19.923 Z-11.161 
N550 X134.650 Y19.978 Z-11.225 
N551 X134.655 Y20.034 Z-11.289 
N552 X134.661 Y20.089 Z-11.353 
N553 X134.666 Y20.145 Z-11.416 
N554 X134.671 Y20.200 Z-11.480 
N555 X134.676 Y20.255 Z-11.544 
N556 X134.682 Y20.311 Z-11.607 
N557 X134.687 Y20.366 Z-11.671 
N558 X134.692 Y20.421 Z-11.735 
N559 X134.698 Y20.477 Z-11.799 
N560 X134.703 Y20.532 Z-11.862 
N561 X134.708 Y20.588 Z-11.926 
N562 X134.713 Y20.643 Z-11.990 
N563 X134.719 Y20.698 Z-12.053 
N564 X134.724 Y20.754 Z-12.117 
N565 X134.729 Y20.809 Z-12.181 
N566 X134.734 Y20.864 Z-12.244 
N567 X134.740 Y20.920 Z-12.308 
N568 X134.745 Y20.975 Z-12.372 
N569 X134.750 Y21.031 Z-12.436 
N570 X134.756 Y21.086 Z-12.500 
N571 X134.761 Y21.142 Z-12.563 
N572 X134.766 Y21.197 Z-12.627 
N573 X134.771 Y21.253 Z-12.691 
N574 X134.777 Y21.308 Z-12.755 
N575 X134.782 Y21.364 Z-12.819 
N576 X134.787 Y21.419 Z-12.883 
N577 X134.793 Y21.475 Z-12.946 
N578 X134.798 Y21.530 Z-13.010 
N579 X134.803 Y21.586 Z-13.074 
N580 X134.808 Y21.641 Z-13.138 
N581 X134.814 Y21.697 Z-13.202 
N582 X134.819 Y21.752 Z-13.266 
N583 X134.824 Y21.808 Z-13.329 
N584 X134.830 Y21.863 Z-13.393 
N585 X134.835 Y21.919 Z-13.457 
N586 X134.840 Y21.974 Z-13.521 
N587 X134.845 Y22.030 Z-13.585 
N588 X134.851 Y22.085 Z-13.649 
N589 X134.856 Y22.141 Z-13.712 
N590 X134.861 Y22.196 Z-13.776 
N591 X134.867 Y22.252 Z-13.840 
N592 X134.872 Y22.307 Z-13.904 
N593 X134.877 Y22.362 Z-13.968 
N594 X134.882 Y22.418 Z-14.032 
N595 X134.888 Y22.473 Z-14.095 
N596 X134.893 Y22.529 Z-14.159 
N597 X134.898 Y22.584 Z-14.223 
N598 X134.904 Y22.640 Z-14.287 
N599 X134.909 Y22.695 Z-14.351 
N600 X134.914 Y22.751 Z-14.415 
N601 X134.919 Y22.806 Z-14.478 
N602 X134.925 Y22.862 Z-14.542 
N603 X134.930 Y22.917 Z-14.606 
N604 X134.935 Y22.973 Z-14.670 
N605 X134.941 Y23.028 Z-14.734 
N606 X134.946 Y23.084 Z-14.798 
N607 X134.951 Y23.139 Z-14.861 
N608 X134.956 Y23.195 Z-14.925 
N609 X134.962 Y23.250 Z-14.989 
N610 X134.967 Y23.306 Z-15.053 
N611 X134.972 Y23.361 Z-15.117 
N612 X134.978 Y23.417 Z-15.181 
N613 X134.983 Y23.472 Z-15.244 
N614 X134.988 Y23.528 Z-15.308 
N615 X134.993 Y23.583 Z-15.372 
N616 X134.999 Y23.639 Z-15.436 
N617 X135.004 Y23.694 Z-15.500 
N618 X135.009 Y23.750 Z-15.564 
N619 X135.015 Y23.805 Z-15.627 
N620 X135.020 Y23.861 Z-15.691 
N621 X135.025 Y23.916 Z-15.755 
N622 X135.030 Y23.972 Z-15.819 
N623 X135.036 Y24.027 Z-15.883 
N624 X135.041 Y24.083 Z-15.947 
N625 X135.046 Y24.138 Z-16.010 
N626 X135.052 Y24.194 Z-16.074 
N627 X135.057 Y24.249 Z-16.138 
N628 G40 X135.119 Y24.904 Z-16.891 F254
N629 X135.119 Y24.904 Z-16.891 
N630 G00 X135.119 Y47.545 Z2.790 
N631 X134.117 Y12.468 Z38.189 
N632 X134.117 Y-10.174 Z18.507 
N633 ;FSE_1
N634 G01 G41 X134.100 Y-9.518 Z17.752 F254
N635 G01 X134.100 Y-9.518 Z17.752 F254 
N636 X134.098 Y-9.461 Z17.688 
N637 X134.097 Y-9.405 Z17.623 
N638 X134.095 Y-9.349 Z17.558 
N639 X134.094 Y-9.293 Z17.494 
N640 X134.092 Y-9.236 Z17.429 
N641 X134.091 Y-9.180 Z17.364 
N642 X134.089 Y-9.124 Z17.300 
N643 X134.088 Y-9.068 Z17.235 
N644 X134.087 Y-9.012 Z17.170 
N645 X134.085 Y-8.955 Z17.105 
N646 X134.084 Y-8.899 Z17.041 
N647 X134.082 Y-8.843 Z16.976 
N648 X134.081 Y-8.787 Z16.911 
N649 X134.079 Y-8.730 Z16.847 
N650 X134.078 Y-8.674 Z16.782 
N651 X134.076 Y-8.618 Z16.717 
N652 X134.075 Y-8.562 Z16.653 
N653 X134.073 Y-8.506 Z16.588 
N654 X134.072 Y-8.449 Z16.523 
N655 X134.070 Y-8.393 Z16.459 
N656 X134.069 Y-8.337 Z16.394 
N657 X134.067 Y-8.281 Z16.329 
N658 X134.066 Y-8.224 Z16.265 
N659 X134.065 Y-8.168 Z16.200 
N660 X134.063 Y-8.112 Z16.135 
N661 X134.062 Y-8.056 Z16.071 
N662 X134.060 Y-8.000 Z16.006 
N663 X134.059 Y-7.943 Z15.941 
N664 X134.057 Y-7.887 Z15.877 
N665 X134.056 Y-7.831 Z15.812 
N666 X134.054 Y-7.775 Z15.747 
N667 X134.053 Y-7.718 Z15.683 
N668 X134.051 Y-7.662 Z15.618 
N669 X134.050 Y-7.606 Z15.553 
N670 X134.048 Y-7.550 Z15.488 
N671 X134.047 Y-7.494 Z15.425 
N672 X134.045 Y-7.439 Z15.361 
N673 X134.044 Y-7.383 Z15.297 
N674 X134.043 Y-7.327 Z15.233 
N675 X134.041 Y-7.272 Z15.169 
N676 X134.040 Y-7.216 Z15.105 
N677 X134.038 Y-7.161 Z15.041 
N678 X134.037 Y-7.105 Z14.977 
N679 X134.035 Y-7.049 Z14.913 
N680 X134.034 Y-6.994 Z14.849 
N681 X134.032 Y-6.938 Z14.785 
N682 X134.031 Y-6.883 Z14.721 
N683 X134.030 Y-6.827 Z14.657 
N684 X134.028 Y-6.771 Z14.593 
N685 X134.027 Y-6.716 Z14.529 
N686 X134.025 Y-6.660 Z14.465 
N687 X134.024 Y-6.605 Z14.401 
N688 X134.022 Y-6.549 Z14.337 
N689 X134.021 Y-6.493 Z14.273 
N690 X134.019 Y-6.438 Z14.209 
N691 X134.018 Y-6.382 Z14.146 
N692 X134.016 Y-6.327 Z14.082 
N693 X134.015 Y-6.271 Z14.018 
N694 X134.014 Y-6.216 Z13.954 
N695 X134.012 Y-6.160 Z13.890 
N696 X134.011 Y-6.104 Z13.826 
N697 X134.009 Y-6.049 Z13.762 
N698 X134.008 Y-5.993 Z13.698 
N699 X134.006 Y-5.938 Z13.634 
N700 X134.005 Y-5.882 Z13.570 
N701 X134.003 Y-5.826 Z13.506 
N702 X134.002 Y-5.771 Z13.442 
N703 X134.000 Y-5.715 Z13.378 
N704 X133.999 Y-5.660 Z13.314 
N705 X133.998 Y-5.604 Z13.250 
N706 X133.996 Y-5.548 Z13.186 
N707 X133.995 Y-5.493 Z13.122 
N708 X133.993 Y-5.437 Z13.058 
N709 X133.992 Y-5.382 Z12.994 
N710 X133.990 Y-5.326 Z12.931 
N711 X133.989 Y-5.271 Z12.867 
N712 X133.987 Y-5.215 Z12.803 
N713 X133.986 Y-5.159 Z12.739 
N714 X133.985 Y-5.104 Z12.675 
N715 X133.983 Y-5.048 Z12.611 
N716 X133.982 Y-4.993 Z12.547 
N717 X133.980 Y-4.937 Z12.483 
N718 X133.979 Y-4.881 Z12.419 
N719 X133.977 Y-4.826 Z12.355 
N720 X133.976 Y-4.770 Z12.291 
N721 X133.974 Y-4.715 Z12.227 
N722 X133.973 Y-4.659 Z12.163 
N723 X133.971 Y-4.603 Z12.099 
N724 X133.970 Y-4.548 Z12.035 
N725 X133.969 Y-4.492 Z11.971 
N726 X133.967 Y-4.437 Z11.907 
N727 X133.966 Y-4.381 Z11.843 
N728 X133.964 Y-4.325 Z11.779 
N729 X133.963 Y-4.270 Z11.715 
N730 X133.961 Y-4.214 Z11.652 
N731 X133.960 Y-4.159 Z11.588 
N732 X133.958 Y-4.103 Z11.524 
N733 X133.957 Y-4.048 Z11.460 
N734 X133.956 Y-3.992 Z11.396 
N735 X133.954 Y-3.937 Z11.333 
N736 X133.953 Y-3.882 Z11.269 
N737 X133.951 Y-3.826 Z11.205 
N738 X133.950 Y-3.771 Z11.141 
N739 X133.948 Y-3.715 Z11.077 
N740 X133.947 Y-3.660 Z11.013 
N741 X133.945 Y-3.604 Z10.950 
N742 X133.944 Y-3.549 Z10.886 
N743 X133.942 Y-3.493 Z10.822 
N744 X133.941 Y-3.438 Z10.758 
N745 X133.940 Y-3.382 Z10.694 
N746 X133.938 Y-3.327 Z10.630 
N747 X133.937 Y-3.271 Z10.567 
N748 X133.935 Y-3.216 Z10.503 
N749 X133.934 Y-3.160 Z10.439 
N750 X133.932 Y-3.105 Z10.375 
N751 X133.931 Y-3.049 Z10.311 
N752 X133.929 Y-2.994 Z10.248 
N753 X133.928 Y-2.938 Z10.184 
N754 X133.927 Y-2.883 Z10.120 
N755 X133.925 Y-2.827 Z10.056 
N756 X133.924 Y-2.772 Z9.992 
N757 X133.922 Y-2.716 Z9.928 
N758 X133.921 Y-2.661 Z9.865 
N759 X133.919 Y-2.605 Z9.801 
N760 X133.918 Y-2.550 Z9.737 
N761 X133.916 Y-2.494 Z9.673 
N762 X133.915 Y-2.439 Z9.609 
N763 X133.914 Y-2.384 Z9.545 
N764 X133.912 Y-2.328 Z9.482 
N765 X133.911 Y-2.273 Z9.418 
N766 X133.909 Y-2.217 Z9.354 
N767 X133.908 Y-2.162 Z9.290 
N768 X133.906 Y-2.106 Z9.226 
N769 X133.905 Y-2.051 Z9.162 
N770 X133.903 Y-1.995 Z9.099 
N771 X133.902 Y-1.940 Z9.035 
N772 X133.900 Y-1.884 Z8.971 
N773 X133.899 Y-1.829 Z8.907 
N774 X133.898 Y-1.773 Z8.843 
N775 X133.896 Y-1.718 Z8.780 
N776 X133.895 Y-1.662 Z8.716 
N777 X133.893 Y-1.607 Z8.652 
N778 X133.892 Y-1.551 Z8.588 
N779 X133.890 Y-1.496 Z8.524 
N780 X133.889 Y-1.440 Z8.460 
N781 X133.887 Y-1.385 Z8.397 
N782 X133.886 Y-1.329 Z8.333 
N783 X133.885 Y-1.274 Z8.269 
N784 X133.883 Y-1.218 Z8.205 
N785 X133.882 Y-1.163 Z8.141 
N786 X133.880 Y-1.107 Z8.077 
N787 X133.879 Y-1.052 Z8.014 
N788 X133.877 Y-0.996 Z7.950 
N789 X133.876 Y-0.941 Z7.886 
N790 X133.874 Y-0.885 Z7.822 
N791 X133.873 Y-0.830 Z7.758 
N792 X133.872 Y-0.775 Z7.695 
N793 X133.870 Y-0.719 Z7.631 
N794 X133.869 Y-0.664 Z7.567 
N795 X133.867 Y-0.608 Z7.503 
N796 X133.866 Y-0.553 Z7.439 
N797 X133.866 Y-0.497 Z7.375 
N798 X133.866 Y-0.442 Z7.312 
N799 X133.866 Y-0.386 Z7.248 
N800 X133.866 Y-0.331 Z7.184 
N801 X133.866 Y-0.275 Z7.120 
N802 X133.866 Y-0.220 Z7.056 
N803 X133.866 Y-0.164 Z6.992 
N804 X133.866 Y-0.109 Z6.929 
N805 X133.866 Y-0.053 Z6.865 
N806 X133.866 Y0.002 Z6.801 
N807 X133.866 Y0.058 Z6.737 
N808 X133.866 Y0.113 Z6.673 
N809 X133.866 Y0.169 Z6.609 
N810 X133.866 Y0.224 Z6.546 
N811 X133.866 Y0.280 Z6.482 
N812 X133.866 Y0.335 Z6.418 
N813 X133.866 Y0.391 Z6.354 
N814 X133.866 Y0.446 Z6.290 
N815 X133.866 Y0.502 Z6.226 
N816 X133.866 Y0.557 Z6.163 
N817 X133.865 Y0.613 Z6.099 
N818 X133.865 Y0.668 Z6.035 
N819 X133.865 Y0.724 Z5.971 
N820 X133.865 Y0.779 Z5.907 
N821 X133.865 Y0.835 Z5.843 
N822 X133.865 Y0.890 Z5.780 
N823 X133.865 Y0.946 Z5.716 
N824 X133.865 Y1.001 Z5.652 
N825 X133.865 Y1.057 Z5.588 
N826 X133.865 Y1.112 Z5.524 
N827 X133.865 Y1.168 Z5.460 
N828 X133.865 Y1.223 Z5.397 
N829 X133.865 Y1.279 Z5.333 
N830 X133.865 Y1.334 Z5.269 
N831 X133.865 Y1.390 Z5.205 
N832 X133.865 Y1.445 Z5.141 
N833 X133.865 Y1.501 Z5.077 
N834 X133.865 Y1.556 Z5.014 
N835 X133.865 Y1.612 Z4.950 
N836 X133.865 Y1.667 Z4.886 
N837 X133.865 Y1.722 Z4.822 
N838 X133.865 Y1.778 Z4.758 
N839 X133.864 Y1.833 Z4.694 
N840 X133.864 Y1.889 Z4.631 
N841 X133.864 Y1.944 Z4.567 
N842 X133.864 Y2.000 Z4.503 
N843 X133.864 Y2.055 Z4.439 
N844 X133.864 Y2.111 Z4.375 
N845 X133.864 Y2.166 Z4.311 
N846 X133.864 Y2.222 Z4.248 
N847 X133.864 Y2.277 Z4.184 
N848 X133.864 Y2.333 Z4.120 
N849 X133.864 Y2.388 Z4.056 
N850 X133.864 Y2.444 Z3.992 
N851 X133.864 Y2.499 Z3.928 
N852 X133.864 Y2.555 Z3.865 
N853 X133.864 Y2.610 Z3.801 
N854 X133.864 Y2.666 Z3.737 
N855 X133.864 Y2.721 Z3.673 
N856 X133.864 Y2.777 Z3.609 
N857 X133.864 Y2.832 Z3.545 
N858 X133.864 Y2.888 Z3.482 
N859 X133.864 Y2.943 Z3.418 
N860 X133.863 Y2.999 Z3.354 
N861 X133.863 Y3.054 Z3.290 
N862 X133.863 Y3.110 Z3.226 
N863 X133.863 Y3.165 Z3.162 
N864 X133.863 Y3.221 Z3.099 
N865 X133.863 Y3.276 Z3.035 
N866 X133.863 Y3.332 Z2.971 
N867 X133.863 Y3.387 Z2.907 
N868 X133.863 Y3.443 Z2.843 
N869 X133.863 Y3.498 Z2.779 
N870 X133.863 Y3.554 Z2.716 
N871 X133.863 Y3.609 Z2.652 
N872 X133.863 Y3.665 Z2.588 
N873 X133.863 Y3.720 Z2.524 
N874 X133.864 Y3.776 Z2.460 
N875 X133.866 Y3.831 Z2.396 
N876 X133.867 Y3.887 Z2.333 
N877 X133.868 Y3.942 Z2.269 
N878 X133.870 Y3.998 Z2.205 
N879 X133.871 Y4.053 Z2.141 
N880 X133.872 Y4.108 Z2.077 
N881 X133.874 Y4.164 Z2.013 
N882 X133.875 Y4.219 Z1.950 
N883 X133.876 Y4.275 Z1.886 
N884 X133.878 Y4.330 Z1.822 
N885 X133.879 Y4.386 Z1.758 
N886 X133.881 Y4.441 Z1.694 
N887 X133.882 Y4.497 Z1.630 
N888 X133.883 Y4.552 Z1.567 
N889 X133.885 Y4.608 Z1.503 
N890 X133.886 Y4.663 Z1.439 
N891 X133.887 Y4.719 Z1.375 
N892 X133.889 Y4.774 Z1.311 
N893 X133.890 Y4.830 Z1.248 
N894 X133.891 Y4.885 Z1.184 
N895 X133.893 Y4.941 Z1.120 
N896 X133.894 Y4.996 Z1.056 
N897 X133.896 Y5.052 Z0.992 
N898 X133.897 Y5.107 Z0.928 
N899 X133.898 Y5.163 Z0.865 
N900 X133.900 Y5.218 Z0.801 
N901 X133.901 Y5.274 Z0.737 
N902 X133.902 Y5.329 Z0.673 
N903 X133.904 Y5.385 Z0.609 
N904 X133.905 Y5.440 Z0.545 
N905 X133.906 Y5.496 Z0.482 
N906 X133.908 Y5.551 Z0.418 
N907 X133.909 Y5.607 Z0.354 
N908 X133.911 Y5.662 Z0.290 
N909 X133.912 Y5.717 Z0.226 
N910 X133.913 Y5.773 Z0.162 
N911 X133.915 Y5.828 Z0.099 
N912 X133.916 Y5.884 Z0.035 
N913 X133.917 Y5.939 Z-0.029 
N914 X133.919 Y5.995 Z-0.093 
N915 X133.920 Y6.050 Z-0.157 
N916 X133.922 Y6.106 Z-0.220 
N917 X133.923 Y6.161 Z-0.284 
N918 X133.924 Y6.217 Z-0.348 
N919 X133.926 Y6.272 Z-0.412 
N920 X133.927 Y6.328 Z-0.476 
N921 X133.928 Y6.383 Z-0.540 
N922 X133.930 Y6.439 Z-0.603 
N923 X133.931 Y6.494 Z-0.667 
N924 X133.932 Y6.550 Z-0.731 
N925 X133.934 Y6.605 Z-0.795 
N926 X133.935 Y6.661 Z-0.859 
N927 X133.937 Y6.716 Z-0.923 
N928 X133.938 Y6.772 Z-0.986 
N929 X133.939 Y6.827 Z-1.050 
N930 X133.941 Y6.883 Z-1.114 
N931 X133.942 Y6.938 Z-1.178 
N932 X133.943 Y6.994 Z-1.242 
N933 X133.945 Y7.049 Z-1.306 
N934 X133.946 Y7.105 Z-1.369 
N935 X133.947 Y7.160 Z-1.433 
N936 X133.949 Y7.216 Z-1.497 
N937 X133.950 Y7.271 Z-1.561 
N938 X133.952 Y7.326 Z-1.625 
N939 X133.953 Y7.382 Z-1.688 
N940 X133.954 Y7.437 Z-1.752 
N941 X133.956 Y7.493 Z-1.816 
N942 X133.959 Y7.548 Z-1.880 
N943 X133.961 Y7.604 Z-1.944 
N944 X133.964 Y7.659 Z-2.008 
N945 X133.966 Y7.715 Z-2.071 
N946 X133.969 Y7.770 Z-2.135 
N947 X133.971 Y7.826 Z-2.199 
N948 X133.974 Y7.881 Z-2.263 
N949 X133.976 Y7.937 Z-2.327 
N950 X133.979 Y7.992 Z-2.390 
N951 X133.982 Y8.048 Z-2.454 
N952 X133.984 Y8.103 Z-2.518 
N953 X133.987 Y8.159 Z-2.582 
N954 X133.989 Y8.214 Z-2.646 
N955 X133.992 Y8.269 Z-2.709 
N956 X133.994 Y8.325 Z-2.773 
N957 X133.997 Y8.380 Z-2.837 
N958 X133.999 Y8.436 Z-2.901 
N959 X134.002 Y8.491 Z-2.965 
N960 X134.004 Y8.547 Z-3.028 
N961 X134.007 Y8.602 Z-3.092 
N962 X134.009 Y8.658 Z-3.156 
N963 X134.012 Y8.713 Z-3.220 
N964 X134.015 Y8.769 Z-3.284 
N965 X134.017 Y8.824 Z-3.347 
N966 X134.020 Y8.880 Z-3.411 
N967 X134.022 Y8.935 Z-3.475 
N968 X134.025 Y8.990 Z-3.539 
N969 X134.027 Y9.046 Z-3.603 
N970 X134.030 Y9.101 Z-3.666 
N971 X134.032 Y9.157 Z-3.730 
N972 X134.035 Y9.212 Z-3.794 
N973 X134.037 Y9.268 Z-3.858 
N974 X134.040 Y9.323 Z-3.922 
N975 X134.042 Y9.379 Z-3.985 
N976 X134.045 Y9.434 Z-4.049 
N977 X134.048 Y9.490 Z-4.113 
N978 X134.050 Y9.545 Z-4.177 
N979 X134.053 Y9.601 Z-4.241 
N980 X134.055 Y9.656 Z-4.304 
N981 X134.058 Y9.712 Z-4.368 
N982 X134.060 Y9.767 Z-4.432 
N983 X134.063 Y9.822 Z-4.496 
N984 X134.065 Y9.878 Z-4.560 
N985 X134.068 Y9.933 Z-4.624 
N986 X134.070 Y9.989 Z-4.687 
N987 X134.073 Y10.044 Z-4.751 
N988 X134.076 Y10.100 Z-4.815 
N989 X134.078 Y10.155 Z-4.879 
N990 X134.081 Y10.211 Z-4.943 
N991 X134.083 Y10.266 Z-5.006 
N992 X134.086 Y10.322 Z-5.070 
N993 X134.088 Y10.377 Z-5.134 
N994 X134.091 Y10.433 Z-5.198 
N995 X134.095 Y10.488 Z-5.262 
N996 X134.099 Y10.543 Z-5.325 
N997 X134.103 Y10.599 Z-5.389 
N998 X134.106 Y10.654 Z-5.453 
N999 X134.110 Y10.710 Z-5.517 
N1000 X134.114 Y10.765 Z-5.580 
N1001 X134.118 Y10.821 Z-5.644 
N1002 X134.122 Y10.876 Z-5.708 
N1003 X134.126 Y10.931 Z-5.772 
N1004 X134.130 Y10.987 Z-5.835 
N1005 X134.133 Y11.042 Z-5.899 
N1006 X134.137 Y11.098 Z-5.963 
N1007 X134.141 Y11.153 Z-6.027 
N1008 X134.145 Y11.209 Z-6.091 
N1009 X134.149 Y11.264 Z-6.154 
N1010 X134.153 Y11.319 Z-6.218 
N1011 X134.157 Y11.375 Z-6.282 
N1012 X134.160 Y11.430 Z-6.346 
N1013 X134.164 Y11.486 Z-6.409 
N1014 X134.168 Y11.541 Z-6.473 
N1015 X134.172 Y11.597 Z-6.537 
N1016 X134.176 Y11.652 Z-6.601 
N1017 X134.180 Y11.708 Z-6.664 
N1018 X134.183 Y11.763 Z-6.728 
N1019 X134.187 Y11.818 Z-6.792 
N1020 X134.191 Y11.874 Z-6.856 
N1021 X134.195 Y11.929 Z-6.919 
N1022 X134.199 Y11.985 Z-6.983 
N1023 X134.203 Y12.040 Z-7.047 
N1024 X134.207 Y12.096 Z-7.111 
N1025 X134.210 Y12.151 Z-7.175 
N1026 X134.214 Y12.206 Z-7.238 
N1027 X134.218 Y12.262 Z-7.302 
N1028 X134.222 Y12.317 Z-7.366 
N1029 X134.226 Y12.373 Z-7.430 
N1030 X134.230 Y12.428 Z-7.493 
N1031 X134.234 Y12.484 Z-7.557 
N1032 X134.237 Y12.539 Z-7.621 
N1033 X134.241 Y12.594 Z-7.685 
N1034 X134.245 Y12.650 Z-7.748 
N1035 X134.249 Y12.705 Z-7.812 
N1036 X134.253 Y12.761 Z-7.876 
N1037 X134.257 Y12.816 Z-7.940 
N1038 X134.261 Y12.872 Z-8.004 
N1039 X134.264 Y12.927 Z-8.067 
N1040 X134.268 Y12.982 Z-8.131 
N1041 X134.272 Y13.038 Z-8.195 
N1042 X134.276 Y13.093 Z-8.259 
N1043 X134.280 Y13.149 Z-8.322 
N1044 X134.284 Y13.204 Z-8.386 
N1045 X134.288 Y13.260 Z-8.450 
N1046 X134.291 Y13.315 Z-8.514 
N1047 X134.295 Y13.370 Z-8.577 
N1048 X134.299 Y13.426 Z-8.641 
N1049 X134.303 Y13.481 Z-8.705 
N1050 X134.307 Y13.537 Z-8.769 
N1051 X134.311 Y13.592 Z-8.833 
N1052 X134.315 Y13.648 Z-8.896 
N1053 X134.318 Y13.703 Z-8.960 
N1054 X134.322 Y13.758 Z-9.024 
N1055 X134.326 Y13.814 Z-9.088 
N1056 X134.330 Y13.869 Z-9.151 
N1057 X134.334 Y13.925 Z-9.215 
N1058 X134.338 Y13.980 Z-9.279 
N1059 X134.341 Y14.036 Z-9.343 
N1060 X134.345 Y14.091 Z-9.406 
N1061 X134.349 Y14.147 Z-9.470 
N1062 X134.353 Y14.202 Z-9.534 
N1063 X134.357 Y14.257 Z-9.598 
N1064 X134.361 Y14.313 Z-9.661 
N1065 X134.365 Y14.368 Z-9.725 
N1066 X134.368 Y14.424 Z-9.789 
N1067 X134.372 Y14.479 Z-9.853 
N1068 X134.376 Y14.535 Z-9.917 
N1069 X134.380 Y14.590 Z-9.980 
N1070 X134.384 Y14.645 Z-10.044 
N1071 X134.388 Y14.701 Z-10.108 
N1072 X134.392 Y14.756 Z-10.172 
N1073 X134.395 Y14.812 Z-10.235 
N1074 X134.399 Y14.867 Z-10.299 
N1075 X134.403 Y14.923 Z-10.363 
N1076 X134.407 Y14.978 Z-10.427 
N1077 X134.413 Y15.033 Z-10.490 
N1078 X134.418 Y15.089 Z-10.554 
N1079 X134.423 Y15.144 Z-10.618 
N1080 X134.429 Y15.200 Z-10.682 
N1081 X134.434 Y15.255 Z-10.745 
N1082 X134.439 Y15.310 Z-10.809 
N1083 X134.444 Y15.366 Z-10.873 
N1084 X134.450 Y15.421 Z-10.936 
N1085 X134.455 Y15.476 Z-11.000 
N1086 X134.460 Y15.532 Z-11.064 
N1087 X134.465 Y15.587 Z-11.127 
N1088 X134.471 Y15.643 Z-11.191 
N1089 X134.476 Y15.698 Z-11.255 
N1090 X134.481 Y15.753 Z-11.319 
N1091 X134.487 Y15.809 Z-11.382 
N1092 X134.492 Y15.864 Z-11.446 
N1093 X134.497 Y15.919 Z-11.510 
N1094 X134.502 Y15.975 Z-11.573 
N1095 X134.508 Y16.030 Z-11.637 
N1096 X134.513 Y16.086 Z-11.701 
N1097 X134.518 Y16.141 Z-11.765 
N1098 X134.523 Y16.196 Z-11.828 
N1099 X134.529 Y16.252 Z-11.892 
N1100 X134.534 Y16.307 Z-11.956 
N1101 X134.539 Y16.363 Z-12.019 
N1102 X134.545 Y16.418 Z-12.083 
N1103 X134.550 Y16.473 Z-12.147 
N1104 X134.555 Y16.529 Z-12.211 
N1105 X134.560 Y16.584 Z-12.274 
N1106 X134.566 Y16.639 Z-12.338 
N1107 X134.571 Y16.695 Z-12.402 
N1108 X134.576 Y16.750 Z-12.465 
N1109 X134.582 Y16.806 Z-12.529 
N1110 X134.587 Y16.861 Z-12.593 
N1111 X134.592 Y16.916 Z-12.657 
N1112 X134.597 Y16.972 Z-12.720 
N1113 X134.603 Y17.027 Z-12.784 
N1114 X134.608 Y17.082 Z-12.848 
N1115 X134.613 Y17.138 Z-12.911 
N1116 X134.618 Y17.193 Z-12.975 
N1117 X134.624 Y17.249 Z-13.039 
N1118 X134.629 Y17.304 Z-13.102 
N1119 X134.634 Y17.359 Z-13.166 
N1120 X134.640 Y17.415 Z-13.230 
N1121 X134.645 Y17.470 Z-13.294 
N1122 X134.650 Y17.526 Z-13.357 
N1123 X134.655 Y17.581 Z-13.421 
N1124 X134.661 Y17.636 Z-13.485 
N1125 X134.666 Y17.692 Z-13.548 
N1126 X134.671 Y17.747 Z-13.612 
N1127 X134.676 Y17.802 Z-13.676 
N1128 X134.682 Y17.858 Z-13.740 
N1129 X134.687 Y17.913 Z-13.803 
N1130 X134.692 Y17.969 Z-13.867 
N1131 X134.698 Y18.024 Z-13.931 
N1132 X134.703 Y18.079 Z-13.994 
N1133 X134.708 Y18.135 Z-14.058 
N1134 X134.713 Y18.190 Z-14.122 
N1135 X134.719 Y18.246 Z-14.186 
N1136 X134.724 Y18.301 Z-14.249 
N1137 X134.729 Y18.356 Z-14.313 
N1138 X134.734 Y18.412 Z-14.377 
N1139 X134.740 Y18.467 Z-14.440 
N1140 X134.745 Y18.522 Z-14.504 
N1141 X134.750 Y18.578 Z-14.568 
N1142 X134.756 Y18.633 Z-14.632 
N1143 X134.761 Y18.689 Z-14.696 
N1144 X134.766 Y18.744 Z-14.759 
N1145 X134.771 Y18.800 Z-14.823 
N1146 X134.777 Y18.855 Z-14.887 
N1147 X134.782 Y18.911 Z-14.951 
N1148 X134.787 Y18.966 Z-15.015 
N1149 X134.793 Y19.022 Z-15.079 
N1150 X134.798 Y19.077 Z-15.142 
N1151 X134.803 Y19.133 Z-15.206 
N1152 X134.808 Y19.188 Z-15.270 
N1153 X134.814 Y19.244 Z-15.334 
N1154 X134.819 Y19.299 Z-15.398 
N1155 X134.824 Y19.355 Z-15.462 
N1156 X134.830 Y19.410 Z-15.525 
N1157 X134.835 Y19.466 Z-15.589 
N1158 X134.840 Y19.521 Z-15.653 
N1159 X134.845 Y19.577 Z-15.717 
N1160 X134.851 Y19.632 Z-15.781 
N1161 X134.856 Y19.688 Z-15.845 
N1162 X134.861 Y19.743 Z-15.908 
N1163 X134.867 Y19.799 Z-15.972 
N1164 X134.872 Y19.854 Z-16.036 
N1165 X134.877 Y19.910 Z-16.100 
N1166 X134.882 Y19.965 Z-16.164 
N1167 X134.888 Y20.021 Z-16.228 
N1168 X134.893 Y20.076 Z-16.291 
N1169 X134.898 Y20.132 Z-16.355 
N1170 X134.904 Y20.187 Z-16.419 
N1171 X134.909 Y20.243 Z-16.483 
N1172 X134.914 Y20.298 Z-16.547 
N1173 X134.919 Y20.354 Z-16.611 
N1174 X134.925 Y20.409 Z-16.674 
N1175 X134.930 Y20.465 Z-16.738 
N1176 X134.935 Y20.520 Z-16.802 
N1177 X134.941 Y20.576 Z-16.866 
N1178 X134.946 Y20.631 Z-16.930 
N1179 X134.951 Y20.687 Z-16.994 
N1180 X134.956 Y20.742 Z-17.057 
N1181 X134.962 Y20.798 Z-17.121 
N1182 X134.967 Y20.853 Z-17.185 
N1183 X134.972 Y20.908 Z-17.249 
N1184 X134.978 Y20.964 Z-17.313 
N1185 X134.983 Y21.019 Z-17.377 
N1186 X134.988 Y21.075 Z-17.440 
N1187 X134.993 Y21.130 Z-17.504 
N1188 X134.999 Y21.186 Z-17.568 
N1189 X135.004 Y21.241 Z-17.632 
N1190 X135.009 Y21.297 Z-17.696 
N1191 X135.015 Y21.352 Z-17.760 
N1192 X135.020 Y21.408 Z-17.823 
N1193 X135.025 Y21.463 Z-17.887 
N1194 X135.030 Y21.519 Z-17.951 
N1195 X135.036 Y21.574 Z-18.015 
N1196 X135.041 Y21.630 Z-18.079 
N1197 X135.046 Y21.685 Z-18.143 
N1198 X135.052 Y21.741 Z-18.206 
N1199 X135.057 Y21.796 Z-18.270 
N1200 G40 X135.119 Y22.451 Z-19.024 F254
N1201 X135.119 Y22.451 Z-19.024 
N1202 G00 X135.119 Y60.187 Z13.779 
RAPORT("T13732","Side Milling:141 End")
N1204 ;trailer : concat=None
; points cnt = 1132
N1205 MSG (" --- GROUPED OF SUBPROGRAM --- ")
N1206 FGROUP()
N1207 TRAFOOF
N10 ; PROGRAM NAME: 1373238
N11 ; ORDER       : 13732
N12 ; OPER. NAME  : Side Milling:142
N13 ; OPER. DESCR.: rough face root outlet FSA
N14 ; OPER. TYPE  : sideMill
N15 ; GEO. OPTION : 1
N16 ; MACHINE     : SH_HX151_24_SIM840D
N17 ;             : STARRAG_HECKERT_5axis_finish_milling_machine
N18 ; CONTROL     : SINUMERIK 840D
N19 ; created:   2021-11-10 08:26:52.914813
;-------DODATKOWE DANE-------------------
; PROGRAMISTA : Mariusz Orzechowski
; PARTID      : 132T008743P1005_-
;  ap         : 4.4
;  ae         : 1.0
;  lean_angle : 0.0
;  fin_offset : -6.5
;----------------------------------------
N20 ;----------------------------------------
RAPORT("T13732","Side Milling:142")
N21 TRAFOOF
N22 D0
N23 G0 G90 G94 Z260.0
N24 STOPRE
N25 M9 ; chlodziwo wyl
N26 ; --- Side Milling:142 - rough face root outlet FSA ---
N28 ;ToolChange : concat=None ,current_tdmid=None, PP.tdmId=959064
N29 TRAFOOF
N30 D0
N31 G0 G54 Z270.0
N32 S2546 M03
N33 STOPRE
N34 TOL(0.1,1,1)
N35 G0  A131.0000
N36 TRAORI
N37 G54 D2
N38 ;tol5=0.15
N39 D2 
STOPRE
E_ZDARZ=500001
;ACS_ROUGH_ROOT_FRONT=7759064
STOPRE
;UWAGA : ZMIENIONA TOLERANCJA OSI A i B, ruchy osi A i B beda usuniete : TOL5=0.15
N40 ; DELTA A > 40.1
N41 TRAFOOF
N42 STOPRE
N43 G0 G53 D0 Z265.000
N44 G1 G53 A131.0000 F10000
N45 TRAORI
N46 G54 D2
N47 TRANS 
N48 G00 X134.432 Y-29.963 Z-53.493 A131.0000 B0.0000 
N49 M342 ; chlodziwo woda
N50 X134.432 Y7.773 Z-20.690 
N51 ;FSA_1
N52 G01 G41 X134.398 Y7.117 Z-19.935 F254
N53 G01 X134.398 Y7.117 Z-19.935 F254 
N54 X134.395 Y7.061 Z-19.871 
N55 X134.392 Y7.005 Z-19.806 
N56 X134.389 Y6.949 Z-19.741 
N57 X134.386 Y6.892 Z-19.677 
N58 X134.383 Y6.836 Z-19.612 
N59 X134.380 Y6.780 Z-19.547 
N60 X134.377 Y6.724 Z-19.483 
N61 X134.375 Y6.668 Z-19.418 
N62 X134.372 Y6.611 Z-19.353 
N63 X134.369 Y6.555 Z-19.289 
N64 X134.366 Y6.499 Z-19.224 
N65 X134.363 Y6.443 Z-19.160 
N66 X134.360 Y6.387 Z-19.095 
N67 X134.357 Y6.330 Z-19.030 
N68 X134.354 Y6.274 Z-18.966 
N69 X134.351 Y6.218 Z-18.901 
N70 X134.348 Y6.162 Z-18.836 
N71 X134.346 Y6.106 Z-18.772 
N72 X134.343 Y6.049 Z-18.707 
N73 X134.340 Y5.993 Z-18.642 
N74 X134.337 Y5.937 Z-18.578 
N75 X134.334 Y5.881 Z-18.513 
N76 X134.331 Y5.825 Z-18.448 
N77 X134.328 Y5.768 Z-18.384 
N78 X134.325 Y5.712 Z-18.319 
N79 X134.322 Y5.656 Z-18.254 
N80 X134.319 Y5.600 Z-18.190 
N81 X134.316 Y5.544 Z-18.125 
N82 X134.314 Y5.487 Z-18.060 
N83 X134.311 Y5.431 Z-17.996 
N84 X134.308 Y5.375 Z-17.931 
N85 X134.305 Y5.319 Z-17.866 
N86 X134.302 Y5.263 Z-17.802 
N87 X134.299 Y5.206 Z-17.737 
N88 X134.296 Y5.150 Z-17.673 
N89 X134.293 Y5.095 Z-17.609 
N90 X134.290 Y5.039 Z-17.545 
N91 X134.287 Y4.984 Z-17.481 
N92 X134.285 Y4.928 Z-17.417 
N93 X134.282 Y4.872 Z-17.353 
N94 X134.279 Y4.817 Z-17.289 
N95 X134.276 Y4.761 Z-17.225 
N96 X134.273 Y4.706 Z-17.161 
N97 X134.270 Y4.650 Z-17.097 
N98 X134.267 Y4.595 Z-17.033 
N99 X134.265 Y4.539 Z-16.969 
N100 X134.262 Y4.483 Z-16.905 
N101 X134.259 Y4.428 Z-16.842 
N102 X134.256 Y4.372 Z-16.778 
N103 X134.253 Y4.317 Z-16.714 
N104 X134.250 Y4.261 Z-16.650 
N105 X134.247 Y4.206 Z-16.586 
N106 X134.244 Y4.150 Z-16.522 
N107 X134.242 Y4.094 Z-16.458 
N108 X134.239 Y4.039 Z-16.394 
N109 X134.236 Y3.983 Z-16.330 
N110 X134.233 Y3.928 Z-16.266 
N111 X134.230 Y3.872 Z-16.202 
N112 X134.227 Y3.817 Z-16.138 
N113 X134.224 Y3.761 Z-16.074 
N114 X134.221 Y3.705 Z-16.011 
N115 X134.219 Y3.650 Z-15.947 
N116 X134.216 Y3.594 Z-15.883 
N117 X134.213 Y3.539 Z-15.819 
N118 X134.210 Y3.483 Z-15.755 
N119 X134.207 Y3.428 Z-15.691 
N120 X134.204 Y3.372 Z-15.627 
N121 X134.201 Y3.317 Z-15.563 
N122 X134.198 Y3.261 Z-15.499 
N123 X134.196 Y3.205 Z-15.435 
N124 X134.193 Y3.150 Z-15.371 
N125 X134.190 Y3.094 Z-15.307 
N126 X134.187 Y3.039 Z-15.243 
N127 X134.184 Y2.983 Z-15.180 
N128 X134.181 Y2.928 Z-15.116 
N129 X134.178 Y2.872 Z-15.052 
N130 X134.175 Y2.816 Z-14.988 
N131 X134.173 Y2.761 Z-14.924 
N132 X134.170 Y2.705 Z-14.860 
N133 X134.167 Y2.650 Z-14.796 
N134 X134.164 Y2.594 Z-14.732 
N135 X134.161 Y2.539 Z-14.668 
N136 X134.158 Y2.483 Z-14.604 
N137 X134.155 Y2.427 Z-14.540 
N138 X134.152 Y2.372 Z-14.476 
N139 X134.150 Y2.316 Z-14.412 
N140 X134.147 Y2.261 Z-14.349 
N141 X134.144 Y2.205 Z-14.285 
N142 X134.141 Y2.150 Z-14.221 
N143 X134.138 Y2.094 Z-14.157 
N144 X134.135 Y2.039 Z-14.093 
N145 X134.132 Y1.983 Z-14.029 
N146 X134.129 Y1.927 Z-13.965 
N147 X134.127 Y1.872 Z-13.901 
N148 X134.124 Y1.816 Z-13.837 
N149 X134.121 Y1.761 Z-13.774 
N150 X134.118 Y1.705 Z-13.710 
N151 X134.115 Y1.650 Z-13.646 
N152 X134.112 Y1.595 Z-13.582 
N153 X134.109 Y1.539 Z-13.518 
N154 X134.107 Y1.484 Z-13.455 
N155 X134.104 Y1.428 Z-13.391 
N156 X134.101 Y1.373 Z-13.327 
N157 X134.098 Y1.317 Z-13.263 
N158 X134.095 Y1.262 Z-13.199 
N159 X134.092 Y1.206 Z-13.136 
N160 X134.089 Y1.151 Z-13.072 
N161 X134.086 Y1.095 Z-13.008 
N162 X134.084 Y1.040 Z-12.944 
N163 X134.081 Y0.984 Z-12.880 
N164 X134.078 Y0.929 Z-12.817 
N165 X134.075 Y0.874 Z-12.753 
N166 X134.072 Y0.818 Z-12.689 
N167 X134.069 Y0.763 Z-12.625 
N168 X134.066 Y0.707 Z-12.561 
N169 X134.063 Y0.652 Z-12.498 
N170 X134.061 Y0.596 Z-12.434 
N171 X134.058 Y0.541 Z-12.370 
N172 X134.055 Y0.485 Z-12.306 
N173 X134.052 Y0.430 Z-12.242 
N174 X134.049 Y0.374 Z-12.179 
N175 X134.046 Y0.319 Z-12.115 
N176 X134.043 Y0.264 Z-12.051 
N177 X134.041 Y0.208 Z-11.987 
N178 X134.038 Y0.153 Z-11.923 
N179 X134.035 Y0.097 Z-11.860 
N180 X134.032 Y0.042 Z-11.796 
N181 X134.029 Y-0.014 Z-11.732 
N182 X134.026 Y-0.069 Z-11.668 
N183 X134.023 Y-0.125 Z-11.604 
N184 X134.020 Y-0.180 Z-11.541 
N185 X134.018 Y-0.236 Z-11.477 
N186 X134.015 Y-0.291 Z-11.413 
N187 X134.012 Y-0.347 Z-11.349 
N188 X134.009 Y-0.402 Z-11.285 
N189 X134.006 Y-0.457 Z-11.222 
N190 X134.004 Y-0.513 Z-11.158 
N191 X134.002 Y-0.568 Z-11.094 
N192 X134.000 Y-0.624 Z-11.030 
N193 X133.998 Y-0.679 Z-10.966 
N194 X133.996 Y-0.735 Z-10.903 
N195 X133.994 Y-0.790 Z-10.839 
N196 X133.992 Y-0.846 Z-10.775 
N197 X133.990 Y-0.901 Z-10.711 
N198 X133.989 Y-0.957 Z-10.647 
N199 X133.987 Y-1.012 Z-10.583 
N200 X133.985 Y-1.068 Z-10.520 
N201 X133.983 Y-1.123 Z-10.456 
N202 X133.981 Y-1.179 Z-10.392 
N203 X133.979 Y-1.234 Z-10.328 
N204 X133.977 Y-1.290 Z-10.264 
N205 X133.975 Y-1.345 Z-10.201 
N206 X133.973 Y-1.401 Z-10.137 
N207 X133.971 Y-1.456 Z-10.073 
N208 X133.969 Y-1.511 Z-10.009 
N209 X133.968 Y-1.567 Z-9.945 
N210 X133.966 Y-1.622 Z-9.881 
N211 X133.964 Y-1.678 Z-9.818 
N212 X133.962 Y-1.733 Z-9.754 
N213 X133.960 Y-1.789 Z-9.690 
N214 X133.958 Y-1.844 Z-9.626 
N215 X133.956 Y-1.900 Z-9.562 
N216 X133.954 Y-1.955 Z-9.499 
N217 X133.952 Y-2.011 Z-9.435 
N218 X133.950 Y-2.066 Z-9.371 
N219 X133.948 Y-2.122 Z-9.307 
N220 X133.947 Y-2.177 Z-9.243 
N221 X133.945 Y-2.233 Z-9.179 
N222 X133.943 Y-2.288 Z-9.116 
N223 X133.941 Y-2.344 Z-9.052 
N224 X133.939 Y-2.399 Z-8.988 
N225 X133.937 Y-2.455 Z-8.924 
N226 X133.935 Y-2.510 Z-8.860 
N227 X133.933 Y-2.566 Z-8.797 
N228 X133.931 Y-2.621 Z-8.733 
N229 X133.929 Y-2.676 Z-8.669 
N230 X133.927 Y-2.732 Z-8.605 
N231 X133.926 Y-2.787 Z-8.541 
N232 X133.924 Y-2.843 Z-8.477 
N233 X133.922 Y-2.898 Z-8.414 
N234 X133.920 Y-2.954 Z-8.350 
N235 X133.918 Y-3.009 Z-8.286 
N236 X133.916 Y-3.065 Z-8.222 
N237 X133.914 Y-3.120 Z-8.158 
N238 X133.912 Y-3.176 Z-8.095 
N239 X133.910 Y-3.231 Z-8.031 
N240 X133.908 Y-3.287 Z-7.967 
N241 X133.906 Y-3.342 Z-7.903 
N242 X133.905 Y-3.398 Z-7.839 
N243 X133.903 Y-3.453 Z-7.775 
N244 X133.901 Y-3.509 Z-7.712 
N245 X133.899 Y-3.564 Z-7.648 
N246 X133.897 Y-3.620 Z-7.584 
N247 X133.897 Y-3.675 Z-7.520 
N248 X133.896 Y-3.731 Z-7.456 
N249 X133.896 Y-3.786 Z-7.392 
N250 X133.895 Y-3.842 Z-7.329 
N251 X133.895 Y-3.897 Z-7.265 
N252 X133.894 Y-3.953 Z-7.201 
N253 X133.894 Y-4.008 Z-7.137 
N254 X133.893 Y-4.064 Z-7.073 
N255 X133.892 Y-4.119 Z-7.009 
N256 X133.892 Y-4.174 Z-6.946 
N257 X133.891 Y-4.230 Z-6.882 
N258 X133.891 Y-4.285 Z-6.818 
N259 X133.890 Y-4.341 Z-6.754 
N260 X133.890 Y-4.396 Z-6.690 
N261 X133.889 Y-4.452 Z-6.626 
N262 X133.889 Y-4.507 Z-6.563 
N263 X133.888 Y-4.563 Z-6.499 
N264 X133.887 Y-4.618 Z-6.435 
N265 X133.887 Y-4.674 Z-6.371 
N266 X133.886 Y-4.729 Z-6.307 
N267 X133.886 Y-4.785 Z-6.243 
N268 X133.885 Y-4.840 Z-6.180 
N269 X133.885 Y-4.896 Z-6.116 
N270 X133.884 Y-4.951 Z-6.052 
N271 X133.884 Y-5.007 Z-5.988 
N272 X133.883 Y-5.062 Z-5.924 
N273 X133.882 Y-5.118 Z-5.860 
N274 X133.882 Y-5.173 Z-5.797 
N275 X133.881 Y-5.229 Z-5.733 
N276 X133.881 Y-5.284 Z-5.669 
N277 X133.880 Y-5.340 Z-5.605 
N278 X133.880 Y-5.395 Z-5.541 
N279 X133.879 Y-5.451 Z-5.477 
N280 X133.879 Y-5.506 Z-5.414 
N281 X133.878 Y-5.562 Z-5.350 
N282 X133.877 Y-5.617 Z-5.286 
N283 X133.877 Y-5.673 Z-5.222 
N284 X133.876 Y-5.728 Z-5.158 
N285 X133.876 Y-5.784 Z-5.094 
N286 X133.875 Y-5.839 Z-5.031 
N287 X133.875 Y-5.895 Z-4.967 
N288 X133.874 Y-5.950 Z-4.903 
N289 X133.874 Y-6.006 Z-4.839 
N290 X133.873 Y-6.061 Z-4.775 
N291 X133.872 Y-6.117 Z-4.711 
N292 X133.872 Y-6.172 Z-4.648 
N293 X133.871 Y-6.228 Z-4.584 
N294 X133.871 Y-6.283 Z-4.520 
N295 X133.870 Y-6.339 Z-4.456 
N296 X133.870 Y-6.394 Z-4.392 
N297 X133.869 Y-6.450 Z-4.328 
N298 X133.869 Y-6.505 Z-4.265 
N299 X133.868 Y-6.561 Z-4.201 
N300 X133.867 Y-6.616 Z-4.137 
N301 X133.867 Y-6.672 Z-4.073 
N302 X133.866 Y-6.727 Z-4.009 
N303 X133.866 Y-6.782 Z-3.945 
N304 X133.865 Y-6.838 Z-3.882 
N305 X133.865 Y-6.893 Z-3.818 
N306 X133.864 Y-6.949 Z-3.754 
N307 X133.864 Y-7.004 Z-3.690 
N308 X133.863 Y-7.060 Z-3.626 
N309 X133.862 Y-7.115 Z-3.562 
N310 X133.862 Y-7.171 Z-3.499 
N311 X133.861 Y-7.226 Z-3.435 
N312 X133.861 Y-7.282 Z-3.371 
N313 X133.860 Y-7.337 Z-3.307 
N314 X133.860 Y-7.393 Z-3.243 
N315 X133.859 Y-7.448 Z-3.179 
N316 X133.859 Y-7.504 Z-3.116 
N317 X133.858 Y-7.559 Z-3.052 
N318 X133.857 Y-7.615 Z-2.988 
N319 X133.857 Y-7.670 Z-2.924 
N320 X133.856 Y-7.726 Z-2.860 
N321 X133.856 Y-7.781 Z-2.796 
N322 X133.855 Y-7.837 Z-2.733 
N323 X133.855 Y-7.892 Z-2.669 
N324 X133.854 Y-7.948 Z-2.605 
N325 X133.854 Y-8.003 Z-2.541 
N326 X133.853 Y-8.059 Z-2.477 
N327 X133.852 Y-8.114 Z-2.413 
N328 X133.852 Y-8.170 Z-2.350 
N329 X133.852 Y-8.225 Z-2.286 
N330 X133.853 Y-8.281 Z-2.222 
N331 X133.854 Y-8.336 Z-2.158 
N332 X133.855 Y-8.392 Z-2.094 
N333 X133.856 Y-8.447 Z-2.031 
N334 X133.857 Y-8.503 Z-1.967 
N335 X133.858 Y-8.558 Z-1.903 
N336 X133.859 Y-8.614 Z-1.839 
N337 X133.860 Y-8.669 Z-1.775 
N338 X133.861 Y-8.725 Z-1.711 
N339 X133.862 Y-8.780 Z-1.648 
N340 X133.863 Y-8.836 Z-1.584 
N341 X133.864 Y-8.891 Z-1.520 
N342 X133.865 Y-8.947 Z-1.456 
N343 X133.866 Y-9.002 Z-1.392 
N344 X133.867 Y-9.058 Z-1.328 
N345 X133.868 Y-9.113 Z-1.265 
N346 X133.869 Y-9.168 Z-1.201 
N347 X133.870 Y-9.224 Z-1.137 
N348 X133.871 Y-9.279 Z-1.073 
N349 X133.872 Y-9.335 Z-1.009 
N350 X133.873 Y-9.390 Z-0.945 
N351 X133.874 Y-9.446 Z-0.882 
N352 X133.875 Y-9.501 Z-0.818 
N353 X133.876 Y-9.557 Z-0.754 
N354 X133.877 Y-9.612 Z-0.690 
N355 X133.878 Y-9.668 Z-0.626 
N356 X133.879 Y-9.723 Z-0.562 
N357 X133.880 Y-9.779 Z-0.499 
N358 X133.881 Y-9.834 Z-0.435 
N359 X133.882 Y-9.890 Z-0.371 
N360 X133.882 Y-9.945 Z-0.307 
N361 X133.883 Y-10.001 Z-0.243 
N362 X133.884 Y-10.056 Z-0.179 
N363 X133.885 Y-10.112 Z-0.116 
N364 X133.886 Y-10.167 Z-0.052 
N365 X133.887 Y-10.223 Z0.012 
N366 X133.888 Y-10.278 Z0.076 
N367 X133.889 Y-10.334 Z0.140 
N368 X133.890 Y-10.389 Z0.204 
N369 X133.891 Y-10.445 Z0.267 
N370 X133.892 Y-10.500 Z0.331 
N371 X133.893 Y-10.556 Z0.395 
N372 X133.894 Y-10.611 Z0.459 
N373 X133.895 Y-10.667 Z0.523 
N374 X133.896 Y-10.722 Z0.587 
N375 X133.897 Y-10.778 Z0.650 
N376 X133.898 Y-10.833 Z0.714 
N377 X133.899 Y-10.889 Z0.778 
N378 X133.900 Y-10.944 Z0.842 
N379 X133.901 Y-11.000 Z0.906 
N380 X133.902 Y-11.055 Z0.970 
N381 X133.903 Y-11.111 Z1.033 
N382 X133.904 Y-11.166 Z1.097 
N383 X133.905 Y-11.221 Z1.161 
N384 X133.906 Y-11.277 Z1.225 
N385 X133.907 Y-11.332 Z1.289 
N386 X133.908 Y-11.388 Z1.352 
N387 X133.909 Y-11.443 Z1.416 
N388 X133.910 Y-11.499 Z1.480 
N389 X133.911 Y-11.554 Z1.544 
N390 X133.912 Y-11.610 Z1.608 
N391 X133.913 Y-11.665 Z1.672 
N392 X133.914 Y-11.721 Z1.735 
N393 X133.915 Y-11.776 Z1.799 
N394 X133.916 Y-11.832 Z1.863 
N395 X133.917 Y-11.887 Z1.927 
N396 X133.918 Y-11.943 Z1.991 
N397 X133.919 Y-11.998 Z2.055 
N398 X133.920 Y-12.054 Z2.118 
N399 X133.921 Y-12.109 Z2.182 
N400 X133.922 Y-12.165 Z2.246 
N401 X133.923 Y-12.220 Z2.310 
N402 X133.924 Y-12.276 Z2.374 
N403 X133.925 Y-12.331 Z2.438 
N404 X133.926 Y-12.387 Z2.501 
N405 X133.929 Y-12.442 Z2.565 
N406 X133.932 Y-12.498 Z2.629 
N407 X133.934 Y-12.553 Z2.693 
N408 X133.937 Y-12.609 Z2.757 
N409 X133.939 Y-12.664 Z2.820 
N410 X133.942 Y-12.719 Z2.884 
N411 X133.945 Y-12.775 Z2.948 
N412 X133.947 Y-12.830 Z3.012 
N413 X133.950 Y-12.886 Z3.076 
N414 X133.952 Y-12.941 Z3.139 
N415 X133.955 Y-12.997 Z3.203 
N416 X133.958 Y-13.052 Z3.267 
N417 X133.960 Y-13.108 Z3.331 
N418 X133.963 Y-13.163 Z3.395 
N419 X133.965 Y-13.219 Z3.458 
N420 X133.968 Y-13.274 Z3.522 
N421 X133.971 Y-13.330 Z3.586 
N422 X133.973 Y-13.385 Z3.650 
N423 X133.976 Y-13.441 Z3.714 
N424 X133.978 Y-13.496 Z3.778 
N425 X133.981 Y-13.551 Z3.841 
N426 X133.984 Y-13.607 Z3.905 
N427 X133.986 Y-13.662 Z3.969 
N428 X133.989 Y-13.718 Z4.033 
N429 X133.991 Y-13.773 Z4.097 
N430 X133.994 Y-13.829 Z4.160 
N431 X133.997 Y-13.884 Z4.224 
N432 X133.999 Y-13.940 Z4.288 
N433 X134.002 Y-13.995 Z4.352 
N434 X134.004 Y-14.051 Z4.416 
N435 X134.007 Y-14.106 Z4.479 
N436 X134.010 Y-14.162 Z4.543 
N437 X134.012 Y-14.217 Z4.607 
N438 X134.015 Y-14.272 Z4.671 
N439 X134.017 Y-14.328 Z4.735 
N440 X134.020 Y-14.383 Z4.798 
N441 X134.023 Y-14.439 Z4.862 
N442 X134.025 Y-14.494 Z4.926 
N443 X134.028 Y-14.550 Z4.990 
N444 X134.030 Y-14.605 Z5.054 
N445 X134.033 Y-14.661 Z5.117 
N446 X134.036 Y-14.716 Z5.181 
N447 X134.038 Y-14.772 Z5.245 
N448 X134.041 Y-14.827 Z5.309 
N449 X134.043 Y-14.883 Z5.373 
N450 X134.046 Y-14.938 Z5.436 
N451 X134.049 Y-14.994 Z5.500 
N452 X134.051 Y-15.049 Z5.564 
N453 X134.054 Y-15.104 Z5.628 
N454 X134.056 Y-15.160 Z5.692 
N455 X134.059 Y-15.215 Z5.755 
N456 X134.062 Y-15.271 Z5.819 
N457 X134.064 Y-15.326 Z5.883 
N458 X134.067 Y-15.382 Z5.947 
N459 X134.069 Y-15.437 Z6.011 
N460 X134.072 Y-15.493 Z6.074 
N461 X134.075 Y-15.548 Z6.138 
N462 X134.077 Y-15.604 Z6.202 
N463 X134.080 Y-15.659 Z6.266 
N464 X134.082 Y-15.715 Z6.330 
N465 X134.085 Y-15.770 Z6.393 
N466 X134.088 Y-15.825 Z6.457 
N467 X134.090 Y-15.881 Z6.521 
N468 X134.093 Y-15.936 Z6.585 
N469 X134.095 Y-15.992 Z6.649 
N470 X134.098 Y-16.047 Z6.713 
N471 X134.101 Y-16.103 Z6.776 
N472 X134.103 Y-16.158 Z6.840 
N473 X134.106 Y-16.214 Z6.904 
N474 X134.108 Y-16.269 Z6.968 
N475 X134.111 Y-16.325 Z7.032 
N476 X134.114 Y-16.380 Z7.095 
N477 X134.116 Y-16.436 Z7.159 
N478 X134.119 Y-16.491 Z7.223 
N479 X134.121 Y-16.547 Z7.287 
N480 X134.124 Y-16.602 Z7.351 
N481 X134.126 Y-16.657 Z7.414 
N482 X134.129 Y-16.713 Z7.478 
N483 X134.132 Y-16.768 Z7.542 
N484 X134.134 Y-16.824 Z7.606 
N485 X134.137 Y-16.879 Z7.670 
N486 X134.139 Y-16.935 Z7.733 
N487 X134.142 Y-16.990 Z7.797 
N488 X134.145 Y-17.046 Z7.861 
N489 X134.147 Y-17.101 Z7.925 
N490 X134.150 Y-17.157 Z7.989 
N491 X134.152 Y-17.212 Z8.052 
N492 X134.155 Y-17.268 Z8.116 
N493 X134.158 Y-17.323 Z8.180 
N494 X134.160 Y-17.378 Z8.244 
N495 X134.163 Y-17.434 Z8.308 
N496 X134.167 Y-17.489 Z8.371 
N497 X134.171 Y-17.545 Z8.435 
N498 X134.176 Y-17.600 Z8.499 
N499 X134.180 Y-17.656 Z8.563 
N500 X134.184 Y-17.711 Z8.626 
N501 X134.188 Y-17.766 Z8.690 
N502 X134.192 Y-17.822 Z8.754 
N503 X134.196 Y-17.877 Z8.818 
N504 X134.200 Y-17.933 Z8.881 
N505 X134.204 Y-17.988 Z8.945 
N506 X134.208 Y-18.044 Z9.009 
N507 X134.212 Y-18.099 Z9.073 
N508 X134.217 Y-18.154 Z9.136 
N509 X134.221 Y-18.210 Z9.200 
N510 X134.225 Y-18.265 Z9.264 
N511 X134.229 Y-18.321 Z9.328 
N512 X134.233 Y-18.376 Z9.392 
N513 X134.237 Y-18.432 Z9.455 
N514 X134.241 Y-18.487 Z9.519 
N515 X134.245 Y-18.542 Z9.583 
N516 X134.249 Y-18.598 Z9.647 
N517 X134.253 Y-18.653 Z9.710 
N518 X134.258 Y-18.709 Z9.774 
N519 X134.262 Y-18.764 Z9.838 
N520 X134.266 Y-18.820 Z9.902 
N521 X134.270 Y-18.875 Z9.965 
N522 X134.274 Y-18.930 Z10.029 
N523 X134.278 Y-18.986 Z10.093 
N524 X134.282 Y-19.041 Z10.157 
N525 X134.286 Y-19.097 Z10.220 
N526 X134.290 Y-19.152 Z10.284 
N527 X134.294 Y-19.208 Z10.348 
N528 X134.299 Y-19.263 Z10.412 
N529 X134.303 Y-19.318 Z10.475 
N530 X134.307 Y-19.374 Z10.539 
N531 X134.311 Y-19.429 Z10.603 
N532 X134.315 Y-19.485 Z10.667 
N533 X134.319 Y-19.540 Z10.730 
N534 X134.323 Y-19.596 Z10.794 
N535 X134.327 Y-19.651 Z10.858 
N536 X134.331 Y-19.706 Z10.922 
N537 X134.335 Y-19.762 Z10.986 
N538 X134.340 Y-19.817 Z11.049 
N539 X134.344 Y-19.873 Z11.113 
N540 X134.348 Y-19.928 Z11.177 
N541 X134.352 Y-19.984 Z11.241 
N542 X134.356 Y-20.039 Z11.304 
N543 X134.360 Y-20.094 Z11.368 
N544 X134.364 Y-20.150 Z11.432 
N545 X134.368 Y-20.205 Z11.496 
N546 X134.372 Y-20.261 Z11.559 
N547 X134.376 Y-20.316 Z11.623 
N548 X134.381 Y-20.371 Z11.687 
N549 X134.385 Y-20.427 Z11.751 
N550 X134.389 Y-20.482 Z11.814 
N551 X134.393 Y-20.538 Z11.878 
N552 X134.397 Y-20.593 Z11.942 
N553 X134.401 Y-20.649 Z12.006 
N554 X134.405 Y-20.704 Z12.069 
N555 X134.409 Y-20.759 Z12.133 
N556 X134.413 Y-20.815 Z12.197 
N557 X134.417 Y-20.870 Z12.261 
N558 X134.422 Y-20.926 Z12.324 
N559 X134.426 Y-20.981 Z12.388 
N560 X134.430 Y-21.037 Z12.452 
N561 X134.434 Y-21.092 Z12.516 
N562 X134.438 Y-21.148 Z12.580 
N563 X134.442 Y-21.203 Z12.644 
N564 X134.446 Y-21.259 Z12.708 
N565 X134.450 Y-21.314 Z12.772 
N566 X134.454 Y-21.370 Z12.836 
N567 X134.459 Y-21.426 Z12.899 
N568 X134.463 Y-21.481 Z12.963 
N569 X134.467 Y-21.537 Z13.027 
N570 X134.471 Y-21.592 Z13.091 
N571 X134.475 Y-21.648 Z13.155 
N572 X134.479 Y-21.703 Z13.219 
N573 X134.483 Y-21.759 Z13.283 
N574 X134.487 Y-21.814 Z13.347 
N575 X134.491 Y-21.870 Z13.410 
N576 X134.496 Y-21.925 Z13.474 
N577 X134.500 Y-21.981 Z13.538 
N578 X134.504 Y-22.036 Z13.602 
N579 X134.508 Y-22.092 Z13.666 
N580 X134.512 Y-22.147 Z13.730 
N581 X134.516 Y-22.203 Z13.794 
N582 X134.520 Y-22.259 Z13.858 
N583 X134.524 Y-22.314 Z13.922 
N584 X134.528 Y-22.370 Z13.985 
N585 X134.533 Y-22.425 Z14.049 
N586 X134.537 Y-22.481 Z14.113 
N587 X134.541 Y-22.536 Z14.177 
N588 X134.545 Y-22.592 Z14.241 
N589 X134.549 Y-22.647 Z14.305 
N590 X134.553 Y-22.703 Z14.369 
N591 X134.557 Y-22.758 Z14.433 
N592 X134.561 Y-22.814 Z14.496 
N593 X134.565 Y-22.869 Z14.560 
N594 X134.569 Y-22.925 Z14.624 
N595 X134.574 Y-22.980 Z14.688 
N596 X134.578 Y-23.036 Z14.752 
N597 X134.582 Y-23.092 Z14.816 
N598 X134.586 Y-23.147 Z14.880 
N599 X134.590 Y-23.203 Z14.944 
N600 X134.594 Y-23.258 Z15.008 
N601 X134.598 Y-23.314 Z15.071 
N602 X134.602 Y-23.369 Z15.135 
N603 X134.606 Y-23.425 Z15.199 
N604 X134.611 Y-23.480 Z15.263 
N605 X134.615 Y-23.536 Z15.327 
N606 X134.619 Y-23.591 Z15.391 
N607 X134.623 Y-23.647 Z15.455 
N608 X134.627 Y-23.702 Z15.519 
N609 X134.631 Y-23.758 Z15.583 
N610 X134.635 Y-23.813 Z15.646 
N611 X134.639 Y-23.869 Z15.710 
N612 X134.643 Y-23.925 Z15.774 
N613 X134.648 Y-23.980 Z15.838 
N614 X134.652 Y-24.036 Z15.902 
N615 X134.656 Y-24.091 Z15.966 
N616 X134.660 Y-24.147 Z16.030 
N617 X134.664 Y-24.202 Z16.094 
N618 G40 X134.712 Y-24.857 Z16.847 F254
N619 X134.712 Y-24.857 Z16.847 
N620 G00 X134.712 Y-47.499 Z-2.834 
N621 X134.432 Y-12.416 Z-38.239 
N622 X134.432 Y10.226 Z-18.557 
N623 ;FSA_1
N624 G01 G41 X134.398 Y9.570 Z-17.803 F254
N625 G01 X134.398 Y9.570 Z-17.803 F254 
N626 X134.395 Y9.514 Z-17.738 
N627 X134.392 Y9.458 Z-17.674 
N628 X134.389 Y9.401 Z-17.609 
N629 X134.386 Y9.345 Z-17.545 
N630 X134.383 Y9.289 Z-17.480 
N631 X134.380 Y9.233 Z-17.415 
N632 X134.377 Y9.177 Z-17.351 
N633 X134.375 Y9.120 Z-17.286 
N634 X134.372 Y9.064 Z-17.221 
N635 X134.369 Y9.008 Z-17.157 
N636 X134.366 Y8.952 Z-17.092 
N637 X134.363 Y8.896 Z-17.027 
N638 X134.360 Y8.839 Z-16.963 
N639 X134.357 Y8.783 Z-16.898 
N640 X134.354 Y8.727 Z-16.833 
N641 X134.351 Y8.671 Z-16.769 
N642 X134.348 Y8.615 Z-16.704 
N643 X134.346 Y8.558 Z-16.639 
N644 X134.343 Y8.502 Z-16.575 
N645 X134.340 Y8.446 Z-16.510 
N646 X134.337 Y8.390 Z-16.445 
N647 X134.334 Y8.334 Z-16.381 
N648 X134.331 Y8.277 Z-16.316 
N649 X134.328 Y8.221 Z-16.251 
N650 X134.325 Y8.165 Z-16.187 
N651 X134.322 Y8.109 Z-16.122 
N652 X134.319 Y8.053 Z-16.058 
N653 X134.316 Y7.996 Z-15.993 
N654 X134.314 Y7.940 Z-15.928 
N655 X134.311 Y7.884 Z-15.864 
N656 X134.308 Y7.828 Z-15.799 
N657 X134.305 Y7.772 Z-15.734 
N658 X134.302 Y7.715 Z-15.670 
N659 X134.299 Y7.659 Z-15.605 
N660 X134.296 Y7.603 Z-15.540 
N661 X134.293 Y7.547 Z-15.476 
N662 X134.290 Y7.492 Z-15.412 
N663 X134.287 Y7.436 Z-15.349 
N664 X134.285 Y7.381 Z-15.285 
N665 X134.282 Y7.325 Z-15.221 
N666 X134.279 Y7.270 Z-15.157 
N667 X134.276 Y7.214 Z-15.093 
N668 X134.273 Y7.158 Z-15.029 
N669 X134.270 Y7.103 Z-14.965 
N670 X134.267 Y7.047 Z-14.901 
N671 X134.265 Y6.992 Z-14.837 
N672 X134.262 Y6.936 Z-14.773 
N673 X134.259 Y6.881 Z-14.709 
N674 X134.256 Y6.825 Z-14.645 
N675 X134.253 Y6.770 Z-14.581 
N676 X134.250 Y6.714 Z-14.518 
N677 X134.247 Y6.658 Z-14.454 
N678 X134.244 Y6.603 Z-14.390 
N679 X134.242 Y6.547 Z-14.326 
N680 X134.239 Y6.492 Z-14.262 
N681 X134.236 Y6.436 Z-14.198 
N682 X134.233 Y6.381 Z-14.134 
N683 X134.230 Y6.325 Z-14.070 
N684 X134.227 Y6.269 Z-14.006 
N685 X134.224 Y6.214 Z-13.942 
N686 X134.221 Y6.158 Z-13.878 
N687 X134.219 Y6.103 Z-13.814 
N688 X134.216 Y6.047 Z-13.751 
N689 X134.213 Y5.992 Z-13.687 
N690 X134.210 Y5.936 Z-13.623 
N691 X134.207 Y5.880 Z-13.559 
N692 X134.204 Y5.825 Z-13.495 
N693 X134.201 Y5.769 Z-13.431 
N694 X134.198 Y5.714 Z-13.367 
N695 X134.196 Y5.658 Z-13.303 
N696 X134.193 Y5.603 Z-13.239 
N697 X134.190 Y5.547 Z-13.175 
N698 X134.187 Y5.492 Z-13.111 
N699 X134.184 Y5.436 Z-13.047 
N700 X134.181 Y5.380 Z-12.983 
N701 X134.178 Y5.325 Z-12.920 
N702 X134.175 Y5.269 Z-12.856 
N703 X134.173 Y5.214 Z-12.792 
N704 X134.170 Y5.158 Z-12.728 
N705 X134.167 Y5.103 Z-12.664 
N706 X134.164 Y5.047 Z-12.600 
N707 X134.161 Y4.991 Z-12.536 
N708 X134.158 Y4.936 Z-12.472 
N709 X134.155 Y4.880 Z-12.408 
N710 X134.152 Y4.825 Z-12.344 
N711 X134.150 Y4.769 Z-12.280 
N712 X134.147 Y4.714 Z-12.216 
N713 X134.144 Y4.658 Z-12.152 
N714 X134.141 Y4.602 Z-12.089 
N715 X134.138 Y4.547 Z-12.025 
N716 X134.135 Y4.491 Z-11.961 
N717 X134.132 Y4.436 Z-11.897 
N718 X134.129 Y4.380 Z-11.833 
N719 X134.127 Y4.325 Z-11.769 
N720 X134.124 Y4.269 Z-11.705 
N721 X134.121 Y4.214 Z-11.641 
N722 X134.118 Y4.158 Z-11.578 
N723 X134.115 Y4.103 Z-11.514 
N724 X134.112 Y4.047 Z-11.450 
N725 X134.109 Y3.992 Z-11.386 
N726 X134.107 Y3.936 Z-11.322 
N727 X134.104 Y3.881 Z-11.259 
N728 X134.101 Y3.825 Z-11.195 
N729 X134.098 Y3.770 Z-11.131 
N730 X134.095 Y3.715 Z-11.067 
N731 X134.092 Y3.659 Z-11.003 
N732 X134.089 Y3.604 Z-10.940 
N733 X134.086 Y3.548 Z-10.876 
N734 X134.084 Y3.493 Z-10.812 
N735 X134.081 Y3.437 Z-10.748 
N736 X134.078 Y3.382 Z-10.684 
N737 X134.075 Y3.326 Z-10.621 
N738 X134.072 Y3.271 Z-10.557 
N739 X134.069 Y3.215 Z-10.493 
N740 X134.066 Y3.160 Z-10.429 
N741 X134.063 Y3.105 Z-10.365 
N742 X134.061 Y3.049 Z-10.302 
N743 X134.058 Y2.994 Z-10.238 
N744 X134.055 Y2.938 Z-10.174 
N745 X134.052 Y2.883 Z-10.110 
N746 X134.049 Y2.827 Z-10.046 
N747 X134.046 Y2.772 Z-9.983 
N748 X134.043 Y2.716 Z-9.919 
N749 X134.041 Y2.661 Z-9.855 
N750 X134.038 Y2.605 Z-9.791 
N751 X134.035 Y2.550 Z-9.727 
N752 X134.032 Y2.494 Z-9.664 
N753 X134.029 Y2.439 Z-9.600 
N754 X134.026 Y2.384 Z-9.536 
N755 X134.023 Y2.328 Z-9.472 
N756 X134.020 Y2.273 Z-9.408 
N757 X134.018 Y2.217 Z-9.345 
N758 X134.015 Y2.162 Z-9.281 
N759 X134.012 Y2.106 Z-9.217 
N760 X134.009 Y2.051 Z-9.153 
N761 X134.006 Y1.995 Z-9.089 
N762 X134.004 Y1.940 Z-9.026 
N763 X134.002 Y1.884 Z-8.962 
N764 X134.000 Y1.829 Z-8.898 
N765 X133.998 Y1.773 Z-8.834 
N766 X133.996 Y1.718 Z-8.770 
N767 X133.994 Y1.663 Z-8.707 
N768 X133.992 Y1.607 Z-8.643 
N769 X133.990 Y1.552 Z-8.579 
N770 X133.989 Y1.496 Z-8.515 
N771 X133.987 Y1.441 Z-8.451 
N772 X133.985 Y1.385 Z-8.387 
N773 X133.983 Y1.330 Z-8.324 
N774 X133.981 Y1.274 Z-8.260 
N775 X133.979 Y1.219 Z-8.196 
N776 X133.977 Y1.163 Z-8.132 
N777 X133.975 Y1.108 Z-8.068 
N778 X133.973 Y1.052 Z-8.005 
N779 X133.971 Y0.997 Z-7.941 
N780 X133.969 Y0.941 Z-7.877 
N781 X133.968 Y0.886 Z-7.813 
N782 X133.966 Y0.830 Z-7.749 
N783 X133.964 Y0.775 Z-7.685 
N784 X133.962 Y0.719 Z-7.622 
N785 X133.960 Y0.664 Z-7.558 
N786 X133.958 Y0.608 Z-7.494 
N787 X133.956 Y0.553 Z-7.430 
N788 X133.954 Y0.498 Z-7.366 
N789 X133.952 Y0.442 Z-7.303 
N790 X133.950 Y0.387 Z-7.239 
N791 X133.948 Y0.331 Z-7.175 
N792 X133.947 Y0.276 Z-7.111 
N793 X133.945 Y0.220 Z-7.047 
N794 X133.943 Y0.165 Z-6.983 
N795 X133.941 Y0.109 Z-6.920 
N796 X133.939 Y0.054 Z-6.856 
N797 X133.937 Y-0.002 Z-6.792 
N798 X133.935 Y-0.057 Z-6.728 
N799 X133.933 Y-0.113 Z-6.664 
N800 X133.931 Y-0.168 Z-6.601 
N801 X133.929 Y-0.224 Z-6.537 
N802 X133.927 Y-0.279 Z-6.473 
N803 X133.926 Y-0.335 Z-6.409 
N804 X133.924 Y-0.390 Z-6.345 
N805 X133.922 Y-0.446 Z-6.281 
N806 X133.920 Y-0.501 Z-6.218 
N807 X133.918 Y-0.557 Z-6.154 
N808 X133.916 Y-0.612 Z-6.090 
N809 X133.914 Y-0.668 Z-6.026 
N810 X133.912 Y-0.723 Z-5.962 
N811 X133.910 Y-0.778 Z-5.899 
N812 X133.908 Y-0.834 Z-5.835 
N813 X133.906 Y-0.889 Z-5.771 
N814 X133.905 Y-0.945 Z-5.707 
N815 X133.903 Y-1.000 Z-5.643 
N816 X133.901 Y-1.056 Z-5.579 
N817 X133.899 Y-1.111 Z-5.516 
N818 X133.897 Y-1.167 Z-5.452 
N819 X133.897 Y-1.222 Z-5.388 
N820 X133.896 Y-1.278 Z-5.324 
N821 X133.896 Y-1.333 Z-5.260 
N822 X133.895 Y-1.389 Z-5.196 
N823 X133.895 Y-1.444 Z-5.133 
N824 X133.894 Y-1.500 Z-5.069 
N825 X133.894 Y-1.555 Z-5.005 
N826 X133.893 Y-1.611 Z-4.941 
N827 X133.892 Y-1.666 Z-4.877 
N828 X133.892 Y-1.722 Z-4.813 
N829 X133.891 Y-1.777 Z-4.750 
N830 X133.891 Y-1.833 Z-4.686 
N831 X133.890 Y-1.888 Z-4.622 
N832 X133.890 Y-1.944 Z-4.558 
N833 X133.889 Y-1.999 Z-4.494 
N834 X133.889 Y-2.055 Z-4.430 
N835 X133.888 Y-2.110 Z-4.367 
N836 X133.887 Y-2.166 Z-4.303 
N837 X133.887 Y-2.221 Z-4.239 
N838 X133.886 Y-2.277 Z-4.175 
N839 X133.886 Y-2.332 Z-4.111 
N840 X133.885 Y-2.388 Z-4.047 
N841 X133.885 Y-2.443 Z-3.984 
N842 X133.884 Y-2.499 Z-3.920 
N843 X133.884 Y-2.554 Z-3.856 
N844 X133.883 Y-2.610 Z-3.792 
N845 X133.882 Y-2.665 Z-3.728 
N846 X133.882 Y-2.720 Z-3.664 
N847 X133.881 Y-2.776 Z-3.601 
N848 X133.881 Y-2.831 Z-3.537 
N849 X133.880 Y-2.887 Z-3.473 
N850 X133.880 Y-2.942 Z-3.409 
N851 X133.879 Y-2.998 Z-3.345 
N852 X133.879 Y-3.053 Z-3.281 
N853 X133.878 Y-3.109 Z-3.218 
N854 X133.877 Y-3.164 Z-3.154 
N855 X133.877 Y-3.220 Z-3.090 
N856 X133.876 Y-3.275 Z-3.026 
N857 X133.876 Y-3.331 Z-2.962 
N858 X133.875 Y-3.386 Z-2.898 
N859 X133.875 Y-3.442 Z-2.835 
N860 X133.874 Y-3.497 Z-2.771 
N861 X133.874 Y-3.553 Z-2.707 
N862 X133.873 Y-3.608 Z-2.643 
N863 X133.872 Y-3.664 Z-2.579 
N864 X133.872 Y-3.719 Z-2.515 
N865 X133.871 Y-3.775 Z-2.452 
N866 X133.871 Y-3.830 Z-2.388 
N867 X133.870 Y-3.886 Z-2.324 
N868 X133.870 Y-3.941 Z-2.260 
N869 X133.869 Y-3.997 Z-2.196 
N870 X133.869 Y-4.052 Z-2.132 
N871 X133.868 Y-4.108 Z-2.069 
N872 X133.867 Y-4.163 Z-2.005 
N873 X133.867 Y-4.219 Z-1.941 
N874 X133.866 Y-4.274 Z-1.877 
N875 X133.866 Y-4.330 Z-1.813 
N876 X133.865 Y-4.385 Z-1.749 
N877 X133.865 Y-4.441 Z-1.686 
N878 X133.864 Y-4.496 Z-1.622 
N879 X133.864 Y-4.552 Z-1.558 
N880 X133.863 Y-4.607 Z-1.494 
N881 X133.862 Y-4.663 Z-1.430 
N882 X133.862 Y-4.718 Z-1.366 
N883 X133.861 Y-4.774 Z-1.303 
N884 X133.861 Y-4.829 Z-1.239 
N885 X133.860 Y-4.885 Z-1.175 
N886 X133.860 Y-4.940 Z-1.111 
N887 X133.859 Y-4.996 Z-1.047 
N888 X133.859 Y-5.051 Z-0.983 
N889 X133.858 Y-5.107 Z-0.920 
N890 X133.857 Y-5.162 Z-0.856 
N891 X133.857 Y-5.218 Z-0.792 
N892 X133.856 Y-5.273 Z-0.728 
N893 X133.856 Y-5.328 Z-0.664 
N894 X133.855 Y-5.384 Z-0.600 
N895 X133.855 Y-5.439 Z-0.537 
N896 X133.854 Y-5.495 Z-0.473 
N897 X133.854 Y-5.550 Z-0.409 
N898 X133.853 Y-5.606 Z-0.345 
N899 X133.852 Y-5.661 Z-0.281 
N900 X133.852 Y-5.717 Z-0.217 
N901 X133.852 Y-5.772 Z-0.154 
N902 X133.853 Y-5.828 Z-0.090 
N903 X133.854 Y-5.883 Z-0.026 
N904 X133.855 Y-5.939 Z0.038 
N905 X133.856 Y-5.994 Z0.102 
N906 X133.857 Y-6.050 Z0.166 
N907 X133.858 Y-6.105 Z0.229 
N908 X133.859 Y-6.161 Z0.293 
N909 X133.860 Y-6.216 Z0.357 
N910 X133.861 Y-6.272 Z0.421 
N911 X133.862 Y-6.327 Z0.485 
N912 X133.863 Y-6.383 Z0.548 
N913 X133.864 Y-6.438 Z0.612 
N914 X133.865 Y-6.494 Z0.676 
N915 X133.866 Y-6.549 Z0.740 
N916 X133.867 Y-6.605 Z0.804 
N917 X133.868 Y-6.660 Z0.868 
N918 X133.869 Y-6.716 Z0.931 
N919 X133.870 Y-6.771 Z0.995 
N920 X133.871 Y-6.827 Z1.059 
N921 X133.872 Y-6.882 Z1.123 
N922 X133.873 Y-6.938 Z1.187 
N923 X133.874 Y-6.993 Z1.251 
N924 X133.875 Y-7.049 Z1.314 
N925 X133.876 Y-7.104 Z1.378 
N926 X133.877 Y-7.160 Z1.442 
N927 X133.878 Y-7.215 Z1.506 
N928 X133.879 Y-7.271 Z1.570 
N929 X133.880 Y-7.326 Z1.634 
N930 X133.881 Y-7.382 Z1.697 
N931 X133.882 Y-7.437 Z1.761 
N932 X133.882 Y-7.492 Z1.825 
N933 X133.883 Y-7.548 Z1.889 
N934 X133.884 Y-7.603 Z1.953 
N935 X133.885 Y-7.659 Z2.017 
N936 X133.886 Y-7.714 Z2.080 
N937 X133.887 Y-7.770 Z2.144 
N938 X133.888 Y-7.825 Z2.208 
N939 X133.889 Y-7.881 Z2.272 
N940 X133.890 Y-7.936 Z2.336 
N941 X133.891 Y-7.992 Z2.400 
N942 X133.892 Y-8.047 Z2.463 
N943 X133.893 Y-8.103 Z2.527 
N944 X133.894 Y-8.158 Z2.591 
N945 X133.895 Y-8.214 Z2.655 
N946 X133.896 Y-8.269 Z2.719 
N947 X133.897 Y-8.325 Z2.783 
N948 X133.898 Y-8.380 Z2.846 
N949 X133.899 Y-8.436 Z2.910 
N950 X133.900 Y-8.491 Z2.974 
N951 X133.901 Y-8.547 Z3.038 
N952 X133.902 Y-8.602 Z3.102 
N953 X133.903 Y-8.658 Z3.166 
N954 X133.904 Y-8.713 Z3.229 
N955 X133.905 Y-8.769 Z3.293 
N956 X133.906 Y-8.824 Z3.357 
N957 X133.907 Y-8.880 Z3.421 
N958 X133.908 Y-8.935 Z3.485 
N959 X133.909 Y-8.991 Z3.549 
N960 X133.910 Y-9.046 Z3.612 
N961 X133.911 Y-9.102 Z3.676 
N962 X133.912 Y-9.157 Z3.740 
N963 X133.913 Y-9.213 Z3.804 
N964 X133.914 Y-9.268 Z3.868 
N965 X133.915 Y-9.324 Z3.931 
N966 X133.916 Y-9.379 Z3.995 
N967 X133.917 Y-9.435 Z4.059 
N968 X133.918 Y-9.490 Z4.123 
N969 X133.919 Y-9.546 Z4.187 
N970 X133.920 Y-9.601 Z4.251 
N971 X133.921 Y-9.656 Z4.314 
N972 X133.922 Y-9.712 Z4.378 
N973 X133.923 Y-9.767 Z4.442 
N974 X133.924 Y-9.823 Z4.506 
N975 X133.925 Y-9.878 Z4.570 
N976 X133.926 Y-9.934 Z4.634 
N977 X133.929 Y-9.989 Z4.697 
N978 X133.932 Y-10.045 Z4.761 
N979 X133.934 Y-10.100 Z4.825 
N980 X133.937 Y-10.156 Z4.889 
N981 X133.939 Y-10.211 Z4.953 
N982 X133.942 Y-10.267 Z5.016 
N983 X133.945 Y-10.322 Z5.080 
N984 X133.947 Y-10.378 Z5.144 
N985 X133.950 Y-10.433 Z5.208 
N986 X133.952 Y-10.489 Z5.272 
N987 X133.955 Y-10.544 Z5.335 
N988 X133.958 Y-10.599 Z5.399 
N989 X133.960 Y-10.655 Z5.463 
N990 X133.963 Y-10.710 Z5.527 
N991 X133.965 Y-10.766 Z5.591 
N992 X133.968 Y-10.821 Z5.654 
N993 X133.971 Y-10.877 Z5.718 
N994 X133.973 Y-10.932 Z5.782 
N995 X133.976 Y-10.988 Z5.846 
N996 X133.978 Y-11.043 Z5.910 
N997 X133.981 Y-11.099 Z5.974 
N998 X133.984 Y-11.154 Z6.037 
N999 X133.986 Y-11.210 Z6.101 
N1000 X133.989 Y-11.265 Z6.165 
N1001 X133.991 Y-11.321 Z6.229 
N1002 X133.994 Y-11.376 Z6.293 
N1003 X133.997 Y-11.431 Z6.356 
N1004 X133.999 Y-11.487 Z6.420 
N1005 X134.002 Y-11.542 Z6.484 
N1006 X134.004 Y-11.598 Z6.548 
N1007 X134.007 Y-11.653 Z6.612 
N1008 X134.010 Y-11.709 Z6.675 
N1009 X134.012 Y-11.764 Z6.739 
N1010 X134.015 Y-11.820 Z6.803 
N1011 X134.017 Y-11.875 Z6.867 
N1012 X134.020 Y-11.931 Z6.931 
N1013 X134.023 Y-11.986 Z6.994 
N1014 X134.025 Y-12.042 Z7.058 
N1015 X134.028 Y-12.097 Z7.122 
N1016 X134.030 Y-12.152 Z7.186 
N1017 X134.033 Y-12.208 Z7.250 
N1018 X134.036 Y-12.263 Z7.313 
N1019 X134.038 Y-12.319 Z7.377 
N1020 X134.041 Y-12.374 Z7.441 
N1021 X134.043 Y-12.430 Z7.505 
N1022 X134.046 Y-12.485 Z7.569 
N1023 X134.049 Y-12.541 Z7.632 
N1024 X134.051 Y-12.596 Z7.696 
N1025 X134.054 Y-12.652 Z7.760 
N1026 X134.056 Y-12.707 Z7.824 
N1027 X134.059 Y-12.763 Z7.888 
N1028 X134.062 Y-12.818 Z7.951 
N1029 X134.064 Y-12.874 Z8.015 
N1030 X134.067 Y-12.929 Z8.079 
N1031 X134.069 Y-12.984 Z8.143 
N1032 X134.072 Y-13.040 Z8.207 
N1033 X134.075 Y-13.095 Z8.270 
N1034 X134.077 Y-13.151 Z8.334 
N1035 X134.080 Y-13.206 Z8.398 
N1036 X134.082 Y-13.262 Z8.462 
N1037 X134.085 Y-13.317 Z8.526 
N1038 X134.088 Y-13.373 Z8.589 
N1039 X134.090 Y-13.428 Z8.653 
N1040 X134.093 Y-13.484 Z8.717 
N1041 X134.095 Y-13.539 Z8.781 
N1042 X134.098 Y-13.595 Z8.845 
N1043 X134.101 Y-13.650 Z8.909 
N1044 X134.103 Y-13.705 Z8.972 
N1045 X134.106 Y-13.761 Z9.036 
N1046 X134.108 Y-13.816 Z9.100 
N1047 X134.111 Y-13.872 Z9.164 
N1048 X134.114 Y-13.927 Z9.228 
N1049 X134.116 Y-13.983 Z9.291 
N1050 X134.119 Y-14.038 Z9.355 
N1051 X134.121 Y-14.094 Z9.419 
N1052 X134.124 Y-14.149 Z9.483 
N1053 X134.126 Y-14.205 Z9.547 
N1054 X134.129 Y-14.260 Z9.610 
N1055 X134.132 Y-14.316 Z9.674 
N1056 X134.134 Y-14.371 Z9.738 
N1057 X134.137 Y-14.427 Z9.802 
N1058 X134.139 Y-14.482 Z9.866 
N1059 X134.142 Y-14.537 Z9.929 
N1060 X134.145 Y-14.593 Z9.993 
N1061 X134.147 Y-14.648 Z10.057 
N1062 X134.150 Y-14.704 Z10.121 
N1063 X134.152 Y-14.759 Z10.185 
N1064 X134.155 Y-14.815 Z10.248 
N1065 X134.158 Y-14.870 Z10.312 
N1066 X134.160 Y-14.926 Z10.376 
N1067 X134.163 Y-14.981 Z10.440 
N1068 X134.167 Y-15.037 Z10.504 
N1069 X134.171 Y-15.092 Z10.567 
N1070 X134.176 Y-15.147 Z10.631 
N1071 X134.180 Y-15.203 Z10.695 
N1072 X134.184 Y-15.258 Z10.759 
N1073 X134.188 Y-15.314 Z10.822 
N1074 X134.192 Y-15.369 Z10.886 
N1075 X134.196 Y-15.425 Z10.950 
N1076 X134.200 Y-15.480 Z11.014 
N1077 X134.204 Y-15.535 Z11.077 
N1078 X134.208 Y-15.591 Z11.141 
N1079 X134.212 Y-15.646 Z11.205 
N1080 X134.217 Y-15.702 Z11.269 
N1081 X134.221 Y-15.757 Z11.332 
N1082 X134.225 Y-15.813 Z11.396 
N1083 X134.229 Y-15.868 Z11.460 
N1084 X134.233 Y-15.923 Z11.524 
N1085 X134.237 Y-15.979 Z11.587 
N1086 X134.241 Y-16.034 Z11.651 
N1087 X134.245 Y-16.090 Z11.715 
N1088 X134.249 Y-16.145 Z11.779 
N1089 X134.253 Y-16.200 Z11.843 
N1090 X134.258 Y-16.256 Z11.906 
N1091 X134.262 Y-16.311 Z11.970 
N1092 X134.266 Y-16.367 Z12.034 
N1093 X134.270 Y-16.422 Z12.098 
N1094 X134.274 Y-16.478 Z12.161 
N1095 X134.278 Y-16.533 Z12.225 
N1096 X134.282 Y-16.588 Z12.289 
N1097 X134.286 Y-16.644 Z12.353 
N1098 X134.290 Y-16.699 Z12.416 
N1099 X134.294 Y-16.755 Z12.480 
N1100 X134.299 Y-16.810 Z12.544 
N1101 X134.303 Y-16.866 Z12.608 
N1102 X134.307 Y-16.921 Z12.671 
N1103 X134.311 Y-16.976 Z12.735 
N1104 X134.315 Y-17.032 Z12.799 
N1105 X134.319 Y-17.087 Z12.863 
N1106 X134.323 Y-17.143 Z12.926 
N1107 X134.327 Y-17.198 Z12.990 
N1108 X134.331 Y-17.254 Z13.054 
N1109 X134.335 Y-17.309 Z13.118 
N1110 X134.340 Y-17.364 Z13.181 
N1111 X134.344 Y-17.420 Z13.245 
N1112 X134.348 Y-17.475 Z13.309 
N1113 X134.352 Y-17.531 Z13.373 
N1114 X134.356 Y-17.586 Z13.436 
N1115 X134.360 Y-17.642 Z13.500 
N1116 X134.364 Y-17.697 Z13.564 
N1117 X134.368 Y-17.752 Z13.628 
N1118 X134.372 Y-17.808 Z13.692 
N1119 X134.376 Y-17.863 Z13.755 
N1120 X134.381 Y-17.919 Z13.819 
N1121 X134.385 Y-17.974 Z13.883 
N1122 X134.389 Y-18.030 Z13.947 
N1123 X134.393 Y-18.085 Z14.010 
N1124 X134.397 Y-18.140 Z14.074 
N1125 X134.401 Y-18.196 Z14.138 
N1126 X134.405 Y-18.251 Z14.202 
N1127 X134.409 Y-18.307 Z14.265 
N1128 X134.413 Y-18.362 Z14.329 
N1129 X134.417 Y-18.418 Z14.393 
N1130 X134.422 Y-18.473 Z14.457 
N1131 X134.426 Y-18.528 Z14.521 
N1132 X134.430 Y-18.584 Z14.584 
N1133 X134.434 Y-18.640 Z14.648 
N1134 X134.438 Y-18.695 Z14.712 
N1135 X134.442 Y-18.751 Z14.776 
N1136 X134.446 Y-18.806 Z14.840 
N1137 X134.450 Y-18.862 Z14.904 
N1138 X134.454 Y-18.917 Z14.968 
N1139 X134.459 Y-18.973 Z15.032 
N1140 X134.463 Y-19.028 Z15.095 
N1141 X134.467 Y-19.084 Z15.159 
N1142 X134.471 Y-19.139 Z15.223 
N1143 X134.475 Y-19.195 Z15.287 
N1144 X134.479 Y-19.250 Z15.351 
N1145 X134.483 Y-19.306 Z15.415 
N1146 X134.487 Y-19.361 Z15.479 
N1147 X134.491 Y-19.417 Z15.543 
N1148 X134.496 Y-19.473 Z15.607 
N1149 X134.500 Y-19.528 Z15.670 
N1150 X134.504 Y-19.584 Z15.734 
N1151 X134.508 Y-19.639 Z15.798 
N1152 X134.512 Y-19.695 Z15.862 
N1153 X134.516 Y-19.750 Z15.926 
N1154 X134.520 Y-19.806 Z15.990 
N1155 X134.524 Y-19.861 Z16.054 
N1156 X134.528 Y-19.917 Z16.118 
N1157 X134.533 Y-19.972 Z16.181 
N1158 X134.537 Y-20.028 Z16.245 
N1159 X134.541 Y-20.083 Z16.309 
N1160 X134.545 Y-20.139 Z16.373 
N1161 X134.549 Y-20.194 Z16.437 
N1162 X134.553 Y-20.250 Z16.501 
N1163 X134.557 Y-20.306 Z16.565 
N1164 X134.561 Y-20.361 Z16.629 
N1165 X134.565 Y-20.417 Z16.693 
N1166 X134.569 Y-20.472 Z16.756 
N1167 X134.574 Y-20.528 Z16.820 
N1168 X134.578 Y-20.583 Z16.884 
N1169 X134.582 Y-20.639 Z16.948 
N1170 X134.586 Y-20.694 Z17.012 
N1171 X134.590 Y-20.750 Z17.076 
N1172 X134.594 Y-20.805 Z17.140 
N1173 X134.598 Y-20.861 Z17.204 
N1174 X134.602 Y-20.916 Z17.268 
N1175 X134.606 Y-20.972 Z17.331 
N1176 X134.611 Y-21.027 Z17.395 
N1177 X134.615 Y-21.083 Z17.459 
N1178 X134.619 Y-21.139 Z17.523 
N1179 X134.623 Y-21.194 Z17.587 
N1180 X134.627 Y-21.250 Z17.651 
N1181 X134.631 Y-21.305 Z17.715 
N1182 X134.635 Y-21.361 Z17.779 
N1183 X134.639 Y-21.416 Z17.842 
N1184 X134.643 Y-21.472 Z17.906 
N1185 X134.648 Y-21.527 Z17.970 
N1186 X134.652 Y-21.583 Z18.034 
N1187 X134.656 Y-21.638 Z18.098 
N1188 X134.660 Y-21.694 Z18.162 
N1189 X134.664 Y-21.749 Z18.226 
N1190 G40 X134.712 Y-22.405 Z18.980 F254
N1191 X134.712 Y-22.405 Z18.980 
N1192 G00 X134.712 Y-60.140 Z-13.823 
RAPORT("T13732","Side Milling:142 End")
N1194 ;trailer : concat=None
; points cnt = 1132
N1195 M9 ; chlodziwo wyl.
N1196 M9 ; chlodziwo wyl.
N1197 MSG (" --- KONIEC PROGRAMU --- ")
N1198 TRANS
N1199 G54
N1200 FGROUP()
N1201 TRAFOOF
N1202 STOPRE
N1203 G0 G53 D0 Z290.0 M9 M5
N1204 G0 G53 Y150 A0 B0
N1205 M17
