N10 ; PROGRAM NAME: 1373232
N11 ; ORDER       : 13732
N12 ; OPER. NAME  : Spiral Finish Transition:112
N13 ; OPER. DESCR.: Spiral transition - Semi finish transition root/promienie przejsc pwk
N14 ; OPER. TYPE  : finTransRoot
N15 ; GEO. OPTION : 7
N16 ; MACHINE     : SH_HX151_24_SIM840D
N17 ;             : STARRAG_HECKERT_5axis_finish_milling_machine
N18 ; CONTROL     : SINUMERIK 840D
N19 ; created:   2021-11-09 15:26:41.306555
;-------DODATKOWE DANE-------------------
; PROGRAMISTA : Mariusz Orzechowski
; PARTID      : 132T008743P1005_-
;  ae         : 1.5
;  lean_angle : 5.0
;  tilt_angle : 17.5
;  airf_offset: 0.05
;  plat_offset: 0.3
;----------------------------------------
N20 ;----------------------------------------
RAPORT("T13732","Spiral Finish Transition:112")
N21 TRAFOOF
N22 D0
N23 G90 G94
N24 STOPRE
N25 M9 ; chlodziwo wyl
N26 ; --- Spiral Finish Transition:112 - Spiral transition - Semi finish transition root/promienie przejsc pwk ---
N28 ;ToolChange : concat=None ,current_tdmid=None, PP.tdmId=958044
N29 MSG(" TLID=958044 D=8.391 R=5.0 Ang=10.0 Len=155.0 ")
N30 TRAFOOF
N31 D0
N32 G0 G53 Z290 B0
N33 G0 X200
N34 G0 Y150
N35 T="7758044"
N36 G0 X500
RAPORT("T13732","ToolChangeStart 7758044")
N37 M6
RAPORT("T13732","ToolChangeEnd")
; (nastepne narzedzie)
N35 T="7758068"
G0 X200
N38 ; (Preloading tool)
; usunieto N39 T="7758068"
N40 G0 X200
N41 STOPRE
N42 S2579 M03
N43 STOPRE
N44 TOL(0.001,1,1)
N45 G0 X188.999 A145.3463
N46 TRAORI
N47 G54 D1
N48 D1 
N49 TRANS  X=R3 A=R25
STOPRE
E_ZDARZ=400004
;ACS_PREFINISH_UBG_B_CONST_BBK_ROOT=7758044
STOPRE
N50 ; DELTA A > 40.1
N51 TRAFOOF
N52 STOPRE
N53 G0 G53 D0 Z265.000
N54 G1 G53 A145.3463 F10000
N55 TRAORI
N56 G54 D1
N57 TRANS  X=R3 A=R25
N58 G00 X188.999 Y-63.973 Z-31.612 A145.3463 B23.1129 
N59 M342 ; chlodziwo woda
N60 X173.964 Y-35.256 Z6.457 
N61 G01 X173.964 Y-32.823 Z8.425 F515 
N62 X173.964 Y-29.902 Z9.544 
N63 X173.964 Y-26.777 Z9.707 
N64 X173.964 Y-23.756 Z8.895 
N65 X173.964 Y-21.132 Z7.190 
N66 X173.963 Y-21.072 Z7.130 A146.9834 
N67 X173.962 Y-21.012 Z7.080 A147.5608 
N68 X173.962 Y-20.939 Z7.024 A147.7222 
N69 X173.962 Y-20.846 Z6.952 A147.8028 
N70 X173.962 Y-20.727 Z6.858 A147.8687 
N71 X173.963 Y-20.576 Z6.739 A147.9298 
N72 X173.964 Y-20.389 Z6.589 A147.9946 
N73 X173.966 Y-20.159 Z6.404 A148.0700 
N74 X173.969 Y-19.882 Z6.182 A148.1626 
N75 X173.972 Y-19.553 Z5.917 A148.2803 
N76 X173.976 Y-19.170 Z5.609 A148.4323 
N77 X173.981 Y-18.730 Z5.256 A148.6298 
N78 X173.987 Y-18.235 Z4.859 A148.8847 
N79 X173.994 Y-17.684 Z4.421 A149.2083 
N80 X174.001 Y-17.082 Z3.947 A149.6117 
N81 X174.010 Y-16.434 Z3.443 A150.1063 
N82 X174.019 Y-15.746 Z2.917 A150.7044 
N83 X174.028 Y-15.026 Z2.377 A151.4200 
N84 X174.039 Y-14.283 Z1.834 A152.2661 
N85 X174.049 Y-13.525 Z1.296 A153.2514 
N86 X174.061 Y-12.760 Z0.774 A154.3799 
N87 X174.072 Y-11.999 Z0.276 A155.6534 
N88 X174.084 Y-11.249 Z-0.192 A157.0707 
N89 X174.096 Y-10.516 Z-0.623 A158.6284 
N90 X174.108 Y-9.807 Z-1.014 A160.3210 
N91 X174.120 Y-9.126 Z-1.364 A162.1406 
N92 X174.132 Y-8.477 Z-1.671 A164.0747 
N93 X174.143 Y-7.861 Z-1.937 A166.1035 
N94 X174.154 Y-7.280 Z-2.163 A168.2039 
N95 X174.165 Y-6.733 Z-2.353 A170.3554 
N96 X174.175 Y-6.220 Z-2.510 A172.5418 
N97 X174.185 Y-5.739 Z-2.638 A174.7505 
N98 X174.194 Y-5.287 Z-2.740 A176.9713 
N99 X174.203 Y-4.862 Z-2.819 A179.1959 
N100 X174.212 Y-4.461 Z-2.878 A181.4183 
N101 X174.220 Y-4.082 Z-2.920 A183.6340 
N102 X174.228 Y-3.721 Z-2.945 A185.8403 
N103 X174.236 Y-3.378 Z-2.957 A188.0357 
N104 X174.243 Y-3.048 Z-2.956 A190.2199 
N105 X174.250 Y-2.732 Z-2.943 A192.3932 
N106 X174.258 Y-2.426 Z-2.920 A194.5561 
N107 X174.265 Y-2.130 Z-2.886 A196.7095 
N108 X174.272 Y-1.842 Z-2.842 A198.8543 
N109 X174.278 Y-1.561 Z-2.788 A200.9915 
N110 X174.285 Y-1.286 Z-2.726 A203.1220 
N111 X174.292 Y-1.017 Z-2.653 A205.2468 
N112 X174.299 Y-0.752 Z-2.572 A207.3664 
N113 X174.306 Y-0.491 Z-2.481 A209.4810 
N114 X174.313 Y-0.233 Z-2.380 A211.5905 
N115 X174.320 Y0.022 Z-2.270 A213.6944 
N116 X174.327 Y0.274 Z-2.149 A215.7921 
N117 X174.335 Y0.525 Z-2.017 A217.8827 
N118 X174.342 Y0.774 Z-1.874 A219.9647 
N119 X174.350 Y1.021 Z-1.720 A222.0365 
N120 X174.358 Y1.267 Z-1.554 A224.0956 
N121 X174.366 Y1.511 Z-1.375 A226.1393 
N122 X174.374 Y1.754 Z-1.183 A228.1644 
N123 X174.383 Y1.995 Z-0.978 A230.1674 
N124 X174.392 Y2.234 Z-0.760 A232.1445 
N125 X174.401 Y2.471 Z-0.527 A234.0921 
N126 X174.410 Y2.705 Z-0.281 A236.0064 
N127 X174.419 Y2.935 Z-0.021 A237.8835 
N128 X174.429 Y3.161 Z0.252 A239.7204 
N129 X174.438 Y3.381 Z0.537 A241.5147 
N130 X174.448 Y3.596 Z0.834 A243.2659 
N131 X174.458 Y3.805 Z1.142 A244.9753 
N132 X174.468 Y4.006 Z1.459 A246.6457 
N133 X174.477 Y4.198 Z1.783 A248.2810 
N134 X174.487 Y4.381 Z2.112 A249.8832 
N135 X174.496 Y4.554 Z2.445 A251.4514 
N136 X174.505 Y4.716 Z2.778 A252.9835 
N137 X174.514 Y4.866 Z3.110 A254.4790 
N138 X174.522 Y5.005 Z3.438 A255.9422 
N139 X174.530 Y5.131 Z3.760 A257.3832 
N140 X174.537 Y5.246 Z4.072 A258.8144 
N141 X174.544 Y5.348 Z4.375 A260.2472 
N142 X174.550 Y5.439 Z4.665 A261.6890 
N143 X174.556 Y5.519 Z4.941 A263.1448 
N144 X174.561 Y5.588 Z5.202 A264.6191 
N145 X174.565 Y5.646 Z5.448 A266.1174 
N146 X174.569 Y5.695 Z5.677 A267.6425 
N147 X174.573 Y5.734 Z5.890 A269.1915 
N148 X174.575 Y5.766 Z6.086 A270.7631 
N149 X174.577 Y5.791 Z6.267 A272.3671 
N150 X174.579 Y5.811 Z6.432 A274.0198 
N151 X174.580 Y5.825 Z6.584 A275.7357 
N152 X174.581 Y5.835 Z6.723 A277.5265 
N153 X174.582 Y5.841 Z6.850 A279.4031 
N154 X174.582 Y5.844 Z6.968 A281.3744 
N155 X174.582 Y5.844 Z7.076 A283.4454 
N156 X174.582 Y5.842 Z7.178 A285.6156 
N157 X174.582 Y5.837 Z7.272 A287.8781 
N158 X174.581 Y5.830 Z7.361 A290.2207 
N159 X174.580 Y5.821 Z7.445 A292.6250 
N160 X174.580 Y5.810 Z7.524 A295.0692 
N161 X174.579 Y5.797 Z7.598 A297.5312 
N162 X174.578 Y5.782 Z7.669 A299.9916 
N163 X174.576 Y5.765 Z7.736 A302.4351 
N164 X174.575 Y5.747 Z7.799 A304.8510 
N165 X174.574 Y5.726 Z7.860 A307.2326 
N166 X174.573 Y5.705 Z7.917 A309.5768 
N167 X174.572 Y5.681 Z7.972 A311.8831 
N168 X174.570 Y5.657 Z8.025 A314.1536 
N169 X174.569 Y5.631 Z8.075 A316.3916 
N170 X174.568 Y5.603 Z8.123 A318.6021 
N171 X174.566 Y5.574 Z8.170 A320.7905 
N172 X174.565 Y5.544 Z8.215 A322.9630 
N173 X174.563 Y5.512 Z8.259 A325.1260 
N174 X174.562 Y5.478 Z8.302 A327.2861 
N175 X174.560 Y5.443 Z8.343 A329.4502 
N176 X174.559 Y5.406 Z8.384 A331.6254 
N177 X174.557 Y5.367 Z8.424 A333.8188 
N178 X174.556 Y5.325 Z8.462 A336.0379 
N179 X174.554 Y5.281 Z8.501 A338.2897 
N180 X174.552 Y5.234 Z8.538 A340.5808 
N181 X174.550 Y5.183 Z8.575 A342.9165 
N182 X174.549 Y5.129 Z8.611 A345.3002 
N183 X174.547 Y5.070 Z8.646 A347.7328 
N184 X174.545 Y5.007 Z8.680 A350.2110 
N185 X174.542 Y4.937 Z8.713 A352.7270 
N186 X174.540 Y4.861 Z8.744 A355.2675 
N187 X174.537 Y4.776 Z8.773 A357.8143 
N188 X174.534 Y4.683 Z8.799 A0.3471 
N189 X174.531 Y4.578 Z8.822 A2.8469 
N190 X174.527 Y4.461 Z8.841 A5.2985 
N191 X174.523 Y4.329 Z8.854 A7.6911 
N192 X174.518 Y4.178 Z8.861 A10.0161 
N193 X174.512 Y4.007 Z8.859 A12.2653 
N194 X174.506 Y3.811 Z8.848 A14.4286 
N195 X174.498 Y3.588 Z8.824 A16.4996 
N196 X174.489 Y3.334 Z8.786 A18.4780 
N197 X174.479 Y3.047 Z8.731 A20.3511 
N198 X174.468 Y2.724 Z8.656 A22.0877 
N199 X174.454 Y2.365 Z8.558 A23.6631 
N200 X174.440 Y1.968 Z8.436 A25.0634 
N201 X174.423 Y1.533 Z8.290 A26.2799 
N202 X174.405 Y1.061 Z8.120 A27.3166 
N203 X174.385 Y0.556 Z7.928 A28.0486 
N204 X174.364 Y0.020 Z7.716 A28.5116 
N205 X174.342 Y-0.544 Z7.487 A28.7206 
N206 X174.319 Y-1.132 Z7.246 A28.6677 
N207 X174.295 Y-1.738 Z6.997 A28.3305 
N208 X174.270 Y-2.357 Z6.746 A27.6823 
N209 X174.245 Y-2.984 Z6.500 A26.7019 
N210 X174.220 Y-3.615 Z6.263 A25.3831 
N211 X174.195 Y-4.246 Z6.044 A23.7365 
N212 X174.171 Y-4.874 Z5.845 A21.7774 
N213 X174.147 Y-5.497 Z5.671 A19.6634 
N214 X174.124 Y-6.114 Z5.523 A17.4164 
N215 X174.102 Y-6.723 Z5.404 A15.0701 
N216 X174.081 Y-7.325 Z5.313 A12.6627 
N217 X174.060 Y-7.919 Z5.250 A10.2292 
N218 X174.040 Y-8.508 Z5.214 A7.8002 
N219 X174.021 Y-9.092 Z5.204 A5.4015 
N220 X174.002 Y-9.674 Z5.219 A3.0555 
N221 X173.984 Y-10.254 Z5.258 A0.7810 
N222 X173.967 Y-10.834 Z5.322 A358.5942 
N223 X173.950 Y-11.414 Z5.410 A356.5091 
N224 X173.933 Y-11.994 Z5.519 A354.5377 
N225 X173.917 Y-12.572 Z5.650 A352.6893 
N226 X173.902 Y-13.146 Z5.800 A350.9698 
N227 X173.887 Y-13.712 Z5.966 A349.3820 
N228 X173.873 Y-14.268 Z6.146 A347.9259 
N229 X173.859 Y-14.807 Z6.336 A346.5996 
N230 X173.846 Y-15.327 Z6.532 A345.4000 
N231 X173.834 Y-15.822 Z6.730 A344.3234 
N232 X173.823 Y-16.288 Z6.927 A343.3680 
N233 X173.812 Y-16.722 Z7.118 A342.5337 
N234 X173.803 Y-17.120 Z7.300 A341.8179 
N235 X173.794 Y-17.482 Z7.470 A341.2123 
N236 X173.786 Y-17.806 Z7.626 A340.7031 
N237 X173.779 Y-18.091 Z7.765 A340.2757 
N238 X173.773 Y-18.339 Z7.887 A339.9172 
N239 X173.768 Y-18.551 Z7.992 A339.6182 
N240 X173.763 Y-18.730 Z8.081 A339.3732 
N241 X173.759 Y-18.879 Z8.155 A339.1800 
N242 X173.755 Y-19.000 Z8.216 A339.0409 
N243 X173.752 Y-19.099 Z8.264 A338.9640 
N244 X173.749 Y-19.177 Z8.304 A339.0370 
N245 X173.747 Y-19.240 Z8.336 A339.3109 
N246 X173.745 Y-19.292 Z8.365 A340.0710 
N247 X173.743 Y-19.339 Z8.399 A341.9524 
N248 X173.741 Y-19.387 Z8.442 A345.3287 
N249 X173.739 Y-19.440 Z8.494 A350.3075 
N250 X173.738 Y-19.497 Z8.544 A355.9218 
N251 X173.736 Y-19.554 Z8.588 A1.5324 
N252 X173.735 Y-19.610 Z8.625 A6.9764 
N253 X173.733 Y-19.659 Z8.651 A11.5982 
N254 X173.732 Y-19.701 Z8.670 A15.4671 
N255 X173.730 Y-19.737 Z8.682 A18.6596 
N256 X173.729 Y-19.768 Z8.691 A21.5187 
N257 X173.727 Y-19.797 Z8.698 A24.0874 
N258 X173.726 Y-19.823 Z8.702 A26.4077 
N259 X173.725 Y-19.848 Z8.705 A28.6245 
N260 X173.723 Y-19.871 Z8.707 A30.7546 
N261 X173.722 Y-19.894 Z8.708 A32.8172 
N262 X173.721 Y-19.916 Z8.709 A34.8285 
N263 X173.719 Y-19.938 Z8.708 A36.8016 
N264 X173.718 Y-19.959 Z8.707 A38.7464 
N265 X173.716 Y-19.980 Z8.705 A40.6707 
N266 X173.715 Y-20.001 Z8.702 A42.5805 
N267 X173.714 Y-20.021 Z8.699 A44.4795 
N268 X173.712 Y-20.042 Z8.695 A46.3717 
N269 X173.711 Y-20.061 Z8.690 A48.2586 
N270 X173.709 Y-20.081 Z8.685 A50.1419 
N271 X173.708 Y-20.100 Z8.680 A52.0232 
N272 X173.707 Y-20.119 Z8.674 A53.9027 
N273 X173.705 Y-20.138 Z8.667 A55.7811 
N274 X173.704 Y-20.156 Z8.660 A57.6587 
N275 X173.703 Y-20.175 Z8.652 A59.5354 
N276 X173.701 Y-20.192 Z8.644 A61.4116 
N277 X173.700 Y-20.210 Z8.635 A63.2872 
N278 X173.698 Y-20.227 Z8.626 A65.1623 
N279 X173.697 Y-20.244 Z8.617 A67.0369 
N280 X173.696 Y-20.260 Z8.607 A68.9111 
N281 X173.694 Y-20.276 Z8.597 A70.7852 
N282 X173.693 Y-20.291 Z8.586 A72.6595 
N283 X173.692 Y-20.306 Z8.575 A74.5347 
N284 X173.690 Y-20.321 Z8.563 A76.4119 
N285 X173.689 Y-20.336 Z8.552 A78.2917 
N286 X173.687 Y-20.349 Z8.539 A80.1766 
N287 X173.686 Y-20.363 Z8.527 A82.0691 
N288 X173.685 Y-20.376 Z8.514 A83.9725 
N289 X173.683 Y-20.389 Z8.501 A85.8923 
N290 X173.682 Y-20.402 Z8.488 A87.8350 
N291 X173.681 Y-20.414 Z8.474 A89.8099 
N292 X173.679 Y-20.427 Z8.459 A91.8290 
N293 X173.678 Y-20.439 Z8.444 A93.9076 
N294 X173.677 Y-20.451 Z8.428 A96.0628 
N295 X173.675 Y-20.463 Z8.412 A98.3123 
N296 X173.674 Y-20.476 Z8.393 A100.7779 
N297 X173.673 Y-20.490 Z8.372 A103.4917 
N298 X173.671 Y-20.507 Z8.346 A106.7522 
N299 X173.670 Y-20.525 Z8.313 A110.6899 
N300 X173.669 Y-20.545 Z8.272 A115.4238 
N301 X173.667 Y-20.567 Z8.217 A121.5575 
N302 X173.666 Y-20.584 Z8.150 A128.3786 
N303 X173.665 Y-20.591 Z8.076 A135.5841 
N304 X173.664 Y-20.582 Z8.005 A141.7259 
N305 X173.663 Y-20.558 Z7.951 A145.3463 
N306 X173.663 Y-20.522 Z7.904 A146.9834 
N307 X173.664 Y-20.472 Z7.857 A147.5608 
N308 X173.665 Y-20.404 Z7.799 A147.7222 
N309 X173.666 Y-20.314 Z7.724 A147.8028 
N310 X173.668 Y-20.198 Z7.628 A147.8687 
N311 X173.670 Y-20.050 Z7.505 A147.9298 
N312 X173.673 Y-19.866 Z7.353 A147.9946 
N313 X173.676 Y-19.639 Z7.166 A148.0700 
N314 X173.680 Y-19.365 Z6.941 A148.1626 
N315 X173.684 Y-19.041 Z6.674 A148.2803 
N316 X173.690 Y-18.662 Z6.363 A148.4323 
N317 X173.696 Y-18.227 Z6.009 A148.6298 
N318 X173.703 Y-17.737 Z5.611 A148.8847 
N319 X173.711 Y-17.193 Z5.173 A149.2083 
N320 X173.719 Y-16.598 Z4.699 A149.6117 
N321 X173.729 Y-15.959 Z4.196 A150.1063 
N322 X173.739 Y-15.281 Z3.671 A150.7044 
N323 X173.750 Y-14.572 Z3.134 A151.4200 
N324 X173.762 Y-13.842 Z2.593 A152.2661 
N325 X173.774 Y-13.099 Z2.060 A153.2514 
N326 X173.786 Y-12.352 Z1.542 A154.3799 
N327 X173.799 Y-11.610 Z1.049 A155.6534 
N328 X173.812 Y-10.880 Z0.588 A157.0707 
N329 X173.826 Y-10.170 Z0.163 A158.6284 
N330 X173.839 Y-9.486 Z-0.222 A160.3210 
N331 X173.852 Y-8.832 Z-0.566 A162.1406 
N332 X173.865 Y-8.211 Z-0.867 A164.0747 
N333 X173.877 Y-7.625 Z-1.128 A166.1035 
N334 X173.890 Y-7.074 Z-1.350 A168.2039 
N335 X173.902 Y-6.559 Z-1.537 A170.3554 
N336 X173.913 Y-6.078 Z-1.692 A172.5418 
N337 X173.924 Y-5.629 Z-1.819 A174.7505 
N338 X173.935 Y-5.209 Z-1.921 A176.9713 
N339 X173.945 Y-4.816 Z-2.002 A179.1959 
N340 X173.955 Y-4.447 Z-2.064 A181.4183 
N341 X173.964 Y-4.099 Z-2.109 A183.6340 
N342 X173.974 Y-3.770 Z-2.140 A185.8403 
N343 X173.983 Y-3.457 Z-2.158 A188.0357 
N344 X173.991 Y-3.157 Z-2.165 A190.2199 
N345 X174.000 Y-2.870 Z-2.161 A192.3932 
N346 X174.008 Y-2.593 Z-2.147 A194.5561 
N347 X174.017 Y-2.325 Z-2.123 A196.7095 
N348 X174.025 Y-2.064 Z-2.091 A198.8543 
N349 X174.033 Y-1.810 Z-2.050 A200.9915 
N350 X174.041 Y-1.561 Z-2.001 A203.1220 
N351 X174.049 Y-1.317 Z-1.943 A205.2468 
N352 X174.057 Y-1.076 Z-1.877 A207.3664 
N353 X174.066 Y-0.839 Z-1.802 A209.4810 
N354 X174.074 Y-0.604 Z-1.718 A211.5905 
N355 X174.082 Y-0.371 Z-1.625 A213.6944 
N356 X174.091 Y-0.139 Z-1.522 A215.7921 
N357 X174.099 Y0.091 Z-1.409 A217.8827 
N358 X174.108 Y0.320 Z-1.286 A219.9647 
N359 X174.117 Y0.549 Z-1.151 A222.0365 
N360 X174.126 Y0.778 Z-1.005 A224.0956 
N361 X174.136 Y1.005 Z-0.847 A226.1393 
N362 X174.145 Y1.233 Z-0.676 A228.1644 
N363 X174.155 Y1.459 Z-0.493 A230.1674 
N364 X174.165 Y1.685 Z-0.295 A232.1445 
N365 X174.175 Y1.909 Z-0.084 A234.0921 
N366 X174.186 Y2.132 Z0.141 A236.0064 
N367 X174.196 Y2.352 Z0.379 A237.8835 
N368 X174.207 Y2.568 Z0.631 A239.7204 
N369 X174.218 Y2.781 Z0.896 A241.5147 
N370 X174.229 Y2.989 Z1.173 A243.2659 
N371 X174.240 Y3.191 Z1.460 A244.9753 
N372 X174.251 Y3.386 Z1.757 A246.6457 
N373 X174.262 Y3.574 Z2.062 A248.2810 
N374 X174.273 Y3.753 Z2.372 A249.8832 
N375 X174.283 Y3.923 Z2.686 A251.4514 
N376 X174.293 Y4.082 Z3.001 A252.9835 
N377 X174.303 Y4.231 Z3.315 A254.4790 
N378 X174.313 Y4.368 Z3.626 A255.9422 
N379 X174.322 Y4.494 Z3.930 A257.3832 
N380 X174.331 Y4.608 Z4.226 A258.8144 
N381 X174.339 Y4.711 Z4.512 A260.2472 
N382 X174.346 Y4.803 Z4.785 A261.6890 
N383 X174.353 Y4.884 Z5.044 A263.1448 
N384 X174.359 Y4.954 Z5.289 A264.6191 
N385 X174.365 Y5.014 Z5.517 A266.1174 
N386 X174.370 Y5.065 Z5.729 A267.6425 
N387 X174.375 Y5.107 Z5.925 A269.1915 
N388 X174.379 Y5.143 Z6.104 A270.7631 
N389 X174.382 Y5.171 Z6.267 A272.3671 
N390 X174.385 Y5.195 Z6.415 A274.0198 
N391 X174.388 Y5.214 Z6.548 A275.7357 
N392 X174.390 Y5.229 Z6.668 A277.5265 
N393 X174.392 Y5.241 Z6.776 A279.4031 
N394 X174.393 Y5.251 Z6.874 A281.3744 
N395 X174.394 Y5.259 Z6.962 A283.4454 
N396 X174.395 Y5.265 Z7.042 A285.6156 
N397 X174.396 Y5.271 Z7.115 A287.8781 
N398 X174.397 Y5.274 Z7.182 A290.2207 
N399 X174.397 Y5.277 Z7.244 A292.6250 
N400 X174.398 Y5.279 Z7.301 A295.0692 
N401 X174.398 Y5.279 Z7.355 A297.5312 
N402 X174.398 Y5.279 Z7.405 A299.9916 
N403 X174.399 Y5.277 Z7.453 A302.4351 
N404 X174.399 Y5.274 Z7.498 A304.8510 
N405 X174.399 Y5.270 Z7.542 A307.2326 
N406 X174.399 Y5.265 Z7.583 A309.5768 
N407 X174.399 Y5.258 Z7.623 A311.8831 
N408 X174.399 Y5.251 Z7.662 A314.1536 
N409 X174.399 Y5.242 Z7.699 A316.3916 
N410 X174.399 Y5.232 Z7.736 A318.6021 
N411 X174.398 Y5.221 Z7.772 A320.7905 
N412 X174.398 Y5.208 Z7.807 A322.9630 
N413 X174.398 Y5.194 Z7.842 A325.1260 
N414 X174.398 Y5.179 Z7.876 A327.2861 
N415 X174.398 Y5.162 Z7.910 A329.4502 
N416 X174.397 Y5.144 Z7.943 A331.6254 
N417 X174.397 Y5.123 Z7.977 A333.8188 
N418 X174.397 Y5.101 Z8.010 A336.0379 
N419 X174.396 Y5.077 Z8.043 A338.2897 
N420 X174.396 Y5.049 Z8.077 A340.5808 
N421 X174.395 Y5.019 Z8.110 A342.9165 
N422 X174.394 Y4.986 Z8.144 A345.3002 
N423 X174.394 Y4.948 Z8.177 A347.7328 
N424 X174.393 Y4.905 Z8.210 A350.2110 
N425 X174.392 Y4.857 Z8.243 A352.7270 
N426 X174.391 Y4.802 Z8.275 A355.2675 
N427 X174.389 Y4.739 Z8.306 A357.8143 
N428 X174.388 Y4.666 Z8.335 A0.3471 
N429 X174.386 Y4.582 Z8.361 A2.8469 
N430 X174.383 Y4.484 Z8.384 A5.2985 
N431 X174.380 Y4.371 Z8.403 A7.6911 
N432 X174.377 Y4.238 Z8.416 A10.0161 
N433 X174.372 Y4.083 Z8.421 A12.2653 
N434 X174.367 Y3.903 Z8.416 A14.4286 
N435 X174.360 Y3.694 Z8.401 A16.4996 
N436 X174.353 Y3.454 Z8.370 A18.4780 
N437 X174.344 Y3.179 Z8.323 A20.3511 
N438 X174.334 Y2.867 Z8.255 A22.0877 
N439 X174.322 Y2.517 Z8.165 A23.6631 
N440 X174.308 Y2.129 Z8.051 A25.0634 
N441 X174.293 Y1.700 Z7.912 A26.2799 
N442 X174.276 Y1.234 Z7.749 A27.3166 
N443 X174.258 Y0.732 Z7.563 A28.0486 
N444 X174.238 Y0.197 Z7.356 A28.5116 
N445 X174.217 Y-0.368 Z7.131 A28.7206 
N446 X174.195 Y-0.957 Z6.894 A28.6677 
N447 X174.172 Y-1.567 Z6.647 A28.3305 
N448 X174.148 Y-2.192 Z6.398 A27.6823 
N449 X174.125 Y-2.827 Z6.152 A26.7019 
N450 X174.101 Y-3.467 Z5.916 A25.3831 
N451 X174.078 Y-4.110 Z5.696 A23.7365 
N452 X174.055 Y-4.751 Z5.496 A21.7774 
N453 X174.032 Y-5.388 Z5.321 A19.6634 
N454 X174.010 Y-6.020 Z5.174 A17.4164 
N455 X173.989 Y-6.645 Z5.055 A15.0701 
N456 X173.969 Y-7.262 Z4.965 A12.6627 
N457 X173.950 Y-7.872 Z4.904 A10.2292 
N458 X173.931 Y-8.475 Z4.870 A7.8002 
N459 X173.913 Y-9.074 Z4.862 A5.4015 
N460 X173.896 Y-9.670 Z4.881 A3.0555 
N461 X173.879 Y-10.263 Z4.925 A0.7810 
N462 X173.863 Y-10.856 Z4.993 A358.5942 
N463 X173.847 Y-11.448 Z5.085 A356.5091 
N464 X173.832 Y-12.038 Z5.200 A354.5377 
N465 X173.817 Y-12.626 Z5.337 A352.6893 
N466 X173.803 Y-13.208 Z5.492 A350.9698 
N467 X173.789 Y-13.782 Z5.664 A349.3820 
N468 X173.776 Y-14.344 Z5.850 A347.9259 
N469 X173.764 Y-14.889 Z6.045 A346.5996 
N470 X173.752 Y-15.414 Z6.247 A345.4000 
N471 X173.741 Y-15.913 Z6.451 A344.3234 
N472 X173.731 Y-16.382 Z6.653 A343.3680 
N473 X173.722 Y-16.819 Z6.849 A342.5337 
N474 X173.714 Y-17.220 Z7.036 A341.8179 
N475 X173.706 Y-17.583 Z7.211 A341.2123 
N476 X173.700 Y-17.907 Z7.371 A340.7031 
N477 X173.694 Y-18.193 Z7.514 A340.2757 
N478 X173.689 Y-18.441 Z7.641 A339.9172 
N479 X173.685 Y-18.653 Z7.750 A339.6182 
N480 X173.682 Y-18.831 Z7.843 A339.3732 
N481 X173.679 Y-18.979 Z7.922 A339.1800 
N482 X173.676 Y-19.100 Z7.986 A339.0409 
N483 X173.675 Y-19.197 Z8.038 A338.9640 
N484 X173.673 Y-19.273 Z8.081 A339.0370 
N485 X173.672 Y-19.334 Z8.116 A339.3109 
N486 X173.671 Y-19.381 Z8.148 A340.0710 
N487 X173.670 Y-19.420 Z8.183 A341.9524 
N488 X173.670 Y-19.453 Z8.225 A345.3287 
N489 X173.669 Y-19.487 Z8.276 A350.3075 
N490 X173.669 Y-19.522 Z8.327 A355.9218 
N491 X173.668 Y-19.557 Z8.374 A1.5324 
N492 X173.668 Y-19.593 Z8.415 A6.9764 
N493 X173.668 Y-19.626 Z8.447 A11.5982 
N494 X173.668 Y-19.656 Z8.472 A15.4671 
N495 X173.668 Y-19.681 Z8.491 A18.6596 
N496 X173.667 Y-19.705 Z8.507 A21.5187 
N497 X173.667 Y-19.727 Z8.520 A24.0874 
N498 X173.667 Y-19.747 Z8.532 A26.4077 
N499 X173.667 Y-19.767 Z8.541 A28.6245 
N500 X173.667 Y-19.786 Z8.550 A30.7546 
N501 X173.667 Y-19.806 Z8.558 A32.8172 
N502 X173.667 Y-19.825 Z8.564 A34.8285 
N503 X173.667 Y-19.844 Z8.570 A36.8016 
N504 X173.666 Y-19.863 Z8.576 A38.7464 
N505 X173.666 Y-19.882 Z8.580 A40.6707 
N506 X173.666 Y-19.901 Z8.584 A42.5805 
N507 X173.666 Y-19.920 Z8.587 A44.4795 
N508 X173.666 Y-19.939 Z8.589 A46.3717 
N509 X173.666 Y-19.959 Z8.591 A48.2586 
N510 X173.666 Y-19.978 Z8.592 A50.1419 
N511 X173.665 Y-19.997 Z8.592 A52.0232 
N512 X173.665 Y-20.017 Z8.592 A53.9027 
N513 X173.665 Y-20.036 Z8.591 A55.7811 
N514 X173.665 Y-20.055 Z8.590 A57.6587 
N515 X173.665 Y-20.074 Z8.588 A59.5354 
N516 X173.665 Y-20.093 Z8.585 A61.4116 
N517 X173.665 Y-20.112 Z8.581 A63.2872 
N518 X173.665 Y-20.131 Z8.577 A65.1623 
N519 X173.664 Y-20.150 Z8.573 A67.0369 
N520 X173.664 Y-20.169 Z8.567 A68.9111 
N521 X173.664 Y-20.187 Z8.561 A70.7852 
N522 X173.664 Y-20.205 Z8.555 A72.6595 
N523 X173.664 Y-20.223 Z8.548 A74.5347 
N524 X173.664 Y-20.241 Z8.540 A76.4119 
N525 X173.664 Y-20.258 Z8.532 A78.2917 
N526 X173.664 Y-20.276 Z8.524 A80.1766 
N527 X173.664 Y-20.293 Z8.514 A82.0691 
N528 X173.663 Y-20.309 Z8.504 A83.9725 
N529 X173.663 Y-20.326 Z8.494 A85.8923 
N530 X173.663 Y-20.342 Z8.483 A87.8350 
N531 X173.663 Y-20.359 Z8.471 A89.8099 
N532 X173.663 Y-20.375 Z8.459 A91.8290 
N533 X173.663 Y-20.391 Z8.446 A93.9076 
N534 X173.663 Y-20.407 Z8.431 A96.0628 
N535 X173.663 Y-20.424 Z8.416 A98.3123 
N536 X173.663 Y-20.441 Z8.398 A100.7779 
N537 X173.663 Y-20.459 Z8.378 A103.4917 
N538 X173.663 Y-20.480 Z8.352 A106.7522 
N539 X173.663 Y-20.502 Z8.321 A110.6899 
N540 X173.662 Y-20.527 Z8.280 A115.4238 
N541 X173.662 Y-20.553 Z8.224 A121.5575 
N542 X173.662 Y-20.574 Z8.157 A128.3786 
N543 X173.662 Y-20.585 Z8.081 A135.5841 
N544 X173.663 Y-20.580 Z8.008 A141.7259 
N545 X173.663 Y-20.558 Z7.951 A145.3463 
N546 X173.663 Y-20.522 Z7.905 A146.9808 
N547 X173.664 Y-20.472 Z7.857 A147.5590 
N548 X173.665 Y-20.404 Z7.799 A147.7210 
N549 X173.666 Y-20.315 Z7.725 A147.8017 
N550 X173.668 Y-20.200 Z7.629 A147.8676 
N551 X173.670 Y-20.053 Z7.508 A147.9284 
N552 X173.672 Y-19.870 Z7.356 A147.9927 
N553 X173.675 Y-19.645 Z7.171 A148.0673 
N554 X173.679 Y-19.373 Z6.947 A148.1589 
N555 X173.684 Y-19.051 Z6.682 A148.2749 
N556 X173.689 Y-18.675 Z6.374 A148.4248 
N557 X173.694 Y-18.244 Z6.022 A148.6193 
N558 X173.700 Y-17.757 Z5.628 A148.8702 
N559 X173.706 Y-17.218 Z5.193 A149.1887 
N560 X173.711 Y-16.628 Z4.723 A149.5857 
N561 X173.715 Y-15.994 Z4.223 A150.0724 
N562 X173.716 Y-15.321 Z3.702 A150.6607 
N563 X173.713 Y-14.618 Z3.168 A151.3643 
N564 X173.705 Y-13.893 Z2.630 A152.1963 
N565 X173.690 Y-13.154 Z2.099 A153.1653 
N566 X173.669 Y-12.412 Z1.583 A154.2755 
N567 X173.646 Y-11.673 Z1.091 A155.5286 
N568 X173.623 Y-10.947 Z0.629 A156.9238 
N569 X173.602 Y-10.240 Z0.204 A158.4579 
N570 X173.585 Y-9.558 Z-0.183 A160.1258 
N571 X173.572 Y-8.905 Z-0.529 A161.9201 
N572 X173.562 Y-8.285 Z-0.833 A163.8294 
N573 X173.555 Y-7.698 Z-1.097 A165.8351 
N574 X173.550 Y-7.147 Z-1.322 A167.9147 
N575 X173.546 Y-6.630 Z-1.512 A170.0477 
N576 X173.545 Y-6.147 Z-1.671 A172.2179 
N577 X173.544 Y-5.696 Z-1.801 A174.4126 
N578 X173.544 Y-5.274 Z-1.906 A176.6216 
N579 X173.544 Y-4.879 Z-1.990 A178.8366 
N580 X173.545 Y-4.508 Z-2.055 A181.0515 
N581 X173.546 Y-4.157 Z-2.103 A183.2615 
N582 X173.548 Y-3.826 Z-2.136 A185.4637 
N583 X173.550 Y-3.511 Z-2.156 A187.6562 
N584 X173.552 Y-3.209 Z-2.165 A189.8386 
N585 X173.554 Y-2.920 Z-2.162 A192.0108 
N586 X173.557 Y-2.642 Z-2.150 A194.1733 
N587 X173.559 Y-2.372 Z-2.128 A196.3267 
N588 X173.562 Y-2.110 Z-2.098 A198.4719 
N589 X173.565 Y-1.855 Z-2.058 A200.6096 
N590 X173.568 Y-1.605 Z-2.010 A202.7408 
N591 X173.571 Y-1.360 Z-1.954 A204.8663 
N592 X173.574 Y-1.119 Z-1.889 A206.9868 
N593 X173.577 Y-0.881 Z-1.816 A209.1023 
N594 X173.580 Y-0.646 Z-1.734 A211.2128 
N595 X173.583 Y-0.412 Z-1.642 A213.3180 
N596 X173.586 Y-0.181 Z-1.541 A215.4171 
N597 X173.589 Y0.050 Z-1.430 A217.5093 
N598 X173.593 Y0.280 Z-1.308 A219.5932 
N599 X173.596 Y0.508 Z-1.176 A221.6673 
N600 X173.600 Y0.737 Z-1.032 A223.7292 
N601 X173.603 Y0.965 Z-0.876 A225.7762 
N602 X173.607 Y1.192 Z-0.708 A227.8051 
N603 X173.611 Y1.419 Z-0.526 A229.8126 
N604 X173.614 Y1.645 Z-0.331 A231.7949 
N605 X173.618 Y1.870 Z-0.123 A233.7484 
N606 X173.622 Y2.093 Z0.100 A235.6691 
N607 X173.626 Y2.313 Z0.336 A237.5533 
N608 X173.629 Y2.530 Z0.586 A239.3977 
N609 X173.633 Y2.744 Z0.848 A241.2000 
N610 X173.637 Y2.952 Z1.123 A242.9590 
N611 X173.640 Y3.156 Z1.409 A244.6758 
N612 X173.644 Y3.352 Z1.704 A246.3531 
N613 X173.647 Y3.542 Z2.007 A247.9945 
N614 X173.650 Y3.722 Z2.317 A249.6027 
N615 X173.653 Y3.894 Z2.630 A251.1773 
N616 X173.656 Y4.055 Z2.946 A252.7160 
N617 X173.659 Y4.205 Z3.260 A254.2180 
N618 X173.661 Y4.345 Z3.572 A255.6864 
N619 X173.663 Y4.473 Z3.877 A257.1306 
N620 X173.665 Y4.589 Z4.175 A258.5628 
N621 X173.667 Y4.694 Z4.462 A259.9949 
N622 X173.668 Y4.788 Z4.738 A261.4349 
N623 X173.670 Y4.870 Z5.000 A262.8881 
N624 X173.671 Y4.942 Z5.247 A264.3589 
N625 X173.671 Y5.004 Z5.478 A265.8529 
N626 X173.672 Y5.057 Z5.693 A267.3737 
N627 X173.672 Y5.101 Z5.892 A268.9191 
N628 X173.672 Y5.137 Z6.074 A270.4868 
N629 X173.672 Y5.167 Z6.240 A272.0844 
N630 X173.672 Y5.191 Z6.390 A273.7280 
N631 X173.672 Y5.211 Z6.526 A275.4326 
N632 X173.672 Y5.227 Z6.648 A277.2102 
N633 X173.672 Y5.239 Z6.758 A279.0720 
N634 X173.671 Y5.250 Z6.858 A281.0274 
N635 X173.671 Y5.258 Z6.947 A283.0822 
N636 X173.671 Y5.265 Z7.029 A285.2369 
N637 X173.670 Y5.270 Z7.103 A287.4859 
N638 X173.670 Y5.274 Z7.171 A289.8177 
N639 X173.669 Y5.277 Z7.234 A292.2149 
N640 X173.669 Y5.278 Z7.292 A294.6560 
N641 X173.668 Y5.279 Z7.346 A297.1187 
N642 X173.668 Y5.279 Z7.397 A299.5830 
N643 X173.667 Y5.277 Z7.445 A302.0327 
N644 X173.667 Y5.274 Z7.491 A304.4564 
N645 X173.666 Y5.271 Z7.535 A306.8467 
N646 X173.666 Y5.266 Z7.577 A309.1998 
N647 X173.665 Y5.259 Z7.617 A311.5151 
N648 X173.665 Y5.252 Z7.656 A313.7940 
N649 X173.664 Y5.243 Z7.694 A316.0398 
N650 X173.663 Y5.234 Z7.730 A318.2571 
N651 X173.663 Y5.223 Z7.766 A320.4516 
N652 X173.662 Y5.210 Z7.802 A322.6291 
N653 X173.661 Y5.197 Z7.836 A324.7961 
N654 X173.661 Y5.182 Z7.871 A326.9593 
N655 X173.660 Y5.165 Z7.905 A329.1254 
N656 X173.659 Y5.147 Z7.938 A331.3016 
N657 X173.658 Y5.127 Z7.972 A333.4950 
N658 X173.657 Y5.105 Z8.005 A335.7129 
N659 X173.656 Y5.080 Z8.039 A337.9624 
N660 X173.655 Y5.053 Z8.072 A340.2500 
N661 X173.654 Y5.024 Z8.105 A342.5813 
N662 X173.653 Y4.991 Z8.139 A344.9597 
N663 X173.651 Y4.953 Z8.172 A347.3863 
N664 X173.650 Y4.912 Z8.205 A349.8583 
N665 X173.648 Y4.864 Z8.238 A352.3684 
N666 X173.646 Y4.810 Z8.270 A354.9040 
N667 X173.643 Y4.749 Z8.301 A357.4475 
N668 X173.640 Y4.677 Z8.331 A359.9787 
N669 X173.637 Y4.595 Z8.358 A2.4786 
N670 X173.633 Y4.500 Z8.381 A4.9317 
N671 X173.628 Y4.389 Z8.400 A7.3268 
N672 X173.621 Y4.260 Z8.414 A9.6558 
N673 X173.614 Y4.110 Z8.421 A11.9107 
N674 X173.606 Y3.935 Z8.418 A14.0821 
N675 X173.595 Y3.732 Z8.404 A16.1627 
N676 X173.583 Y3.498 Z8.377 A18.1521 
N677 X173.569 Y3.229 Z8.333 A20.0416 
N678 X173.552 Y2.925 Z8.269 A21.8020 
N679 X173.533 Y2.583 Z8.183 A23.4066 
N680 X173.511 Y2.201 Z8.074 A24.8408 
N681 X173.487 Y1.780 Z7.939 A26.0957 
N682 X173.460 Y1.321 Z7.781 A27.1735 
N683 X173.430 Y0.825 Z7.598 A27.9474 
N684 X173.398 Y0.295 Z7.394 A28.4517 
N685 X173.364 Y-0.265 Z7.172 A28.7028 
N686 X173.329 Y-0.852 Z6.936 A28.6950 
N687 X173.292 Y-1.460 Z6.690 A28.4065 
N688 X173.254 Y-2.084 Z6.440 A27.8092 
N689 X173.215 Y-2.720 Z6.192 A26.8792 
N690 X173.176 Y-3.363 Z5.953 A25.6059 
N691 X173.137 Y-4.009 Z5.729 A23.9955 
N692 X173.099 Y-4.653 Z5.525 A22.0604 
N693 X173.062 Y-5.296 Z5.345 A19.9631 
N694 X173.025 Y-5.932 Z5.193 A17.7243 
N695 X172.990 Y-6.562 Z5.069 A15.3783 
N696 X172.956 Y-7.184 Z4.975 A12.9644 
N697 X172.922 Y-7.799 Z4.910 A10.5195 
N698 X172.890 Y-8.408 Z4.872 A8.0757 
N699 X172.858 Y-9.010 Z4.862 A5.6602 
N700 X172.828 Y-9.610 Z4.878 A3.2964 
N701 X172.797 Y-10.206 Z4.920 A1.0038 
N702 X172.768 Y-10.801 Z4.986 A358.7991 
N703 X172.739 Y-11.395 Z5.076 A356.6967 
N704 X172.710 Y-11.987 Z5.190 A354.7087 
N705 X172.682 Y-12.577 Z5.324 A352.8444 
N706 X172.654 Y-13.161 Z5.479 A351.1100 
N707 X172.627 Y-13.736 Z5.650 A349.5082 
N708 X172.601 Y-14.300 Z5.835 A348.0391 
N709 X172.576 Y-14.847 Z6.030 A346.7008 
N710 X172.552 Y-15.374 Z6.231 A345.4899 
N711 X172.529 Y-15.876 Z6.435 A344.4028 
N712 X172.508 Y-16.348 Z6.638 A343.4373 
N713 X172.488 Y-16.787 Z6.835 A342.5931 
N714 X172.470 Y-17.191 Z7.023 A341.8681 
N715 X172.453 Y-17.557 Z7.198 A341.2542 
N716 X172.439 Y-17.884 Z7.359 A340.7379 
N717 X172.426 Y-18.173 Z7.504 A340.3045 
N718 X172.415 Y-18.424 Z7.632 A339.9407 
N719 X172.405 Y-18.638 Z7.743 A339.6369 
N720 X172.397 Y-18.819 Z7.837 A339.3870 
N721 X172.391 Y-18.969 Z7.916 A339.1883 
N722 X172.385 Y-19.092 Z7.982 A339.0425 
N723 X172.381 Y-19.190 Z8.035 A338.9567 
N724 X172.377 Y-19.268 Z8.078 A339.0140 
N725 X172.375 Y-19.330 Z8.114 A339.2628 
N726 X172.373 Y-19.378 Z8.146 A339.9771 
N727 X172.371 Y-19.417 Z8.180 A341.7771 
N728 X172.370 Y-19.451 Z8.222 A345.0550 
N729 X172.369 Y-19.485 Z8.273 A349.9721 
N730 X172.368 Y-19.520 Z8.324 A355.5860 
N731 X172.367 Y-19.555 Z8.371 A1.2184 
N732 X172.367 Y-19.591 Z8.413 A6.6944 
N733 X172.366 Y-19.625 Z8.446 A11.3748 
N734 X172.366 Y-19.654 Z8.471 A15.2876 
N735 X172.366 Y-19.680 Z8.490 A18.5139 
N736 X172.366 Y-19.704 Z8.507 A21.3987 
N737 X172.365 Y-19.726 Z8.520 A23.9834 
N738 X172.365 Y-19.746 Z8.531 A26.3178 
N739 X172.365 Y-19.766 Z8.541 A28.5463 
N740 X172.365 Y-19.786 Z8.550 A30.6853 
N741 X172.365 Y-19.805 Z8.557 A32.7553 
N742 X172.364 Y-19.824 Z8.564 A34.7726 
N743 X172.364 Y-19.843 Z8.570 A36.7508 
N744 X172.364 Y-19.862 Z8.575 A38.7000 
N745 X172.364 Y-19.882 Z8.580 A40.6283 
N746 X172.363 Y-19.901 Z8.584 A42.5417 
N747 X172.363 Y-19.920 Z8.587 A44.4440 
N748 X172.363 Y-19.939 Z8.589 A46.3393 
N749 X172.363 Y-19.958 Z8.591 A48.2293 
N750 X172.363 Y-19.978 Z8.592 A50.1156 
N751 X172.362 Y-19.997 Z8.592 A51.9998 
N752 X172.362 Y-20.016 Z8.592 A53.8821 
N753 X172.362 Y-20.036 Z8.591 A55.7633 
N754 X172.362 Y-20.055 Z8.590 A57.6437 
N755 X172.362 Y-20.074 Z8.588 A59.5232 
N756 X172.361 Y-20.093 Z8.585 A61.4022 
N757 X172.361 Y-20.112 Z8.581 A63.2805 
N758 X172.361 Y-20.131 Z8.577 A65.1583 
N759 X172.361 Y-20.150 Z8.573 A67.0355 
N760 X172.360 Y-20.169 Z8.567 A68.9124 
N761 X172.360 Y-20.187 Z8.561 A70.7892 
N762 X172.360 Y-20.205 Z8.555 A72.6661 
N763 X172.360 Y-20.223 Z8.548 A74.5439 
N764 X172.360 Y-20.241 Z8.540 A76.4237 
N765 X172.359 Y-20.259 Z8.532 A78.3062 
N766 X172.359 Y-20.276 Z8.523 A80.1937 
N767 X172.359 Y-20.293 Z8.514 A82.0889 
N768 X172.359 Y-20.310 Z8.504 A83.9950 
N769 X172.359 Y-20.326 Z8.494 A85.9176 
N770 X172.359 Y-20.343 Z8.483 A87.8633 
N771 X172.358 Y-20.359 Z8.471 A89.8413 
N772 X172.358 Y-20.375 Z8.459 A91.8638 
N773 X172.358 Y-20.391 Z8.445 A93.9461 
N774 X172.358 Y-20.408 Z8.431 A96.1053 
N775 X172.358 Y-20.424 Z8.415 A98.3591 
N776 X172.358 Y-20.441 Z8.398 A100.8307 
N777 X172.357 Y-20.459 Z8.377 A103.5520 
N778 X172.357 Y-20.480 Z8.352 A106.8196 
N779 X172.357 Y-20.503 Z8.320 A110.7625 
N780 X172.357 Y-20.527 Z8.279 A115.4966 
N781 X172.357 Y-20.553 Z8.224 A121.6257 
N782 X172.356 Y-20.574 Z8.157 A128.4361 
N783 X172.356 Y-20.585 Z8.081 A135.6213 
N784 X172.355 Y-20.580 Z8.008 A141.7387 
N785 X172.355 Y-20.558 Z7.951 A145.3464 
N786 X172.354 Y-20.523 Z7.905 A146.9770 
N787 X172.354 Y-20.472 Z7.857 A147.5564 
N788 X172.353 Y-20.405 Z7.799 A147.7192 
N789 X172.351 Y-20.316 Z7.725 A147.8007 
N790 X172.350 Y-20.200 Z7.629 A147.8673 
N791 X172.348 Y-20.053 Z7.508 A147.9289 
N792 X172.345 Y-19.869 Z7.356 A147.9941 
N793 X172.342 Y-19.644 Z7.170 A148.0697 
N794 X172.339 Y-19.371 Z6.945 A148.1626 
N795 X172.334 Y-19.046 Z6.679 A148.2804 
N796 X172.329 Y-18.668 Z6.369 A148.4325 
N797 X172.323 Y-18.234 Z6.015 A148.6300 
N798 X172.317 Y-17.745 Z5.617 A148.8849 
N799 X172.310 Y-17.201 Z5.179 A149.2085 
N800 X172.303 Y-16.607 Z4.706 A149.6119 
N801 X172.295 Y-15.967 Z4.202 A150.1067 
N802 X172.287 Y-15.288 Z3.677 A150.7052 
N803 X172.279 Y-14.579 Z3.139 A151.4212 
N804 X172.271 Y-13.848 Z2.598 A152.2683 
N805 X172.264 Y-13.104 Z2.063 A153.2548 
N806 X172.257 Y-12.356 Z1.545 A154.3853 
N807 X172.251 Y-11.612 Z1.050 A155.6613 
N808 X172.246 Y-10.880 Z0.588 A157.0821 
N809 X172.241 Y-10.168 Z0.162 A158.6443 
N810 X172.238 Y-9.482 Z-0.224 A160.3423 
N811 X172.236 Y-8.826 Z-0.569 A162.1685 
N812 X172.234 Y-8.203 Z-0.871 A164.1103 
N813 X172.233 Y-7.615 Z-1.132 A166.1477 
N814 X172.233 Y-7.063 Z-1.354 A168.2576 
N815 X172.234 Y-6.546 Z-1.541 A170.4195 
N816 X172.235 Y-6.063 Z-1.696 A172.6172 
N817 X172.236 Y-5.613 Z-1.823 A174.8379 
N818 X172.238 Y-5.192 Z-1.925 A177.0710 
N819 X172.240 Y-4.797 Z-2.005 A179.3084 
N820 X172.242 Y-4.427 Z-2.067 A181.5439 
N821 X172.244 Y-4.078 Z-2.112 A183.7727 
N822 X172.247 Y-3.748 Z-2.142 A185.9922 
N823 X172.249 Y-3.434 Z-2.159 A188.2008 
N824 X172.252 Y-3.133 Z-2.165 A190.3981 
N825 X172.254 Y-2.845 Z-2.160 A192.5843 
N826 X172.257 Y-2.567 Z-2.145 A194.7600 
N827 X172.260 Y-2.298 Z-2.121 A196.9261 
N828 X172.263 Y-2.036 Z-2.087 A199.0834 
N829 X172.266 Y-1.781 Z-2.045 A201.2331 
N830 X172.269 Y-1.531 Z-1.995 A203.3760 
N831 X172.272 Y-1.286 Z-1.935 A205.5129 
N832 X172.275 Y-1.045 Z-1.867 A207.6445 
N833 X172.278 Y-0.806 Z-1.791 A209.7710 
N834 X172.281 Y-0.570 Z-1.705 A211.8920 
N835 X172.285 Y-0.336 Z-1.610 A214.0071 
N836 X172.288 Y-0.103 Z-1.505 A216.1157 
N837 X172.291 Y0.128 Z-1.390 A218.2167 
N838 X172.295 Y0.359 Z-1.264 A220.3086 
N839 X172.298 Y0.589 Z-1.127 A222.3895 
N840 X172.302 Y0.818 Z-0.978 A224.4570 
N841 X172.306 Y1.047 Z-0.817 A226.5081 
N842 X172.310 Y1.275 Z-0.643 A228.5395 
N843 X172.313 Y1.503 Z-0.455 A230.5476 
N844 X172.317 Y1.730 Z-0.255 A232.5287 
N845 X172.321 Y1.955 Z-0.040 A234.4789 
N846 X172.325 Y2.178 Z0.189 A236.3944 
N847 X172.329 Y2.398 Z0.431 A238.2715 
N848 X172.333 Y2.615 Z0.687 A240.1073 
N849 X172.337 Y2.827 Z0.956 A241.8997 
N850 X172.341 Y3.035 Z1.236 A243.6486 
N851 X172.344 Y3.236 Z1.527 A245.3556 
N852 X172.348 Y3.431 Z1.827 A247.0241 
N853 X172.351 Y3.617 Z2.134 A248.6577 
N854 X172.355 Y3.795 Z2.447 A250.2579 
N855 X172.358 Y3.963 Z2.762 A251.8232 
N856 X172.360 Y4.120 Z3.079 A253.3517 
N857 X172.363 Y4.266 Z3.393 A254.8438 
N858 X172.365 Y4.401 Z3.703 A256.3057 
N859 X172.368 Y4.524 Z4.007 A257.7483 
N860 X172.369 Y4.636 Z4.301 A259.1842 
N861 X172.371 Y4.736 Z4.584 A260.6238 
N862 X172.372 Y4.825 Z4.855 A262.0740 
N863 X172.373 Y4.903 Z5.111 A263.5393 
N864 X172.374 Y4.971 Z5.352 A265.0246 
N865 X172.375 Y5.029 Z5.577 A266.5356 
N866 X172.375 Y5.078 Z5.785 A268.0733 
N867 X172.376 Y5.118 Z5.977 A269.6343 
N868 X172.376 Y5.151 Z6.152 A271.2201 
N869 X172.376 Y5.179 Z6.311 A272.8433 
N870 X172.376 Y5.201 Z6.455 A274.5207 
N871 X172.375 Y5.219 Z6.585 A276.2657 
N872 X172.375 Y5.233 Z6.702 A278.0899 
N873 X172.374 Y5.245 Z6.807 A280.0040 
N874 X172.374 Y5.254 Z6.902 A282.0162 
N875 X172.373 Y5.261 Z6.988 A284.1299 
N876 X172.373 Y5.267 Z7.066 A286.3426 
N877 X172.372 Y5.272 Z7.138 A288.6459 
N878 X172.372 Y5.275 Z7.203 A291.0253 
N879 X172.371 Y5.278 Z7.264 A293.4607 
N880 X172.370 Y5.279 Z7.320 A295.9294 
N881 X172.370 Y5.279 Z7.373 A298.4098 
N882 X172.369 Y5.278 Z7.423 A300.8833 
N883 X172.368 Y5.276 Z7.470 A303.3359 
N884 X172.368 Y5.272 Z7.515 A305.7581 
N885 X172.367 Y5.268 Z7.558 A308.1443 
N886 X172.367 Y5.262 Z7.599 A310.4924 
N887 X172.366 Y5.255 Z7.639 A312.8027 
N888 X172.366 Y5.247 Z7.677 A315.0779 
N889 X172.365 Y5.238 Z7.715 A317.3220 
N890 X172.364 Y5.227 Z7.752 A319.5404 
N891 X172.364 Y5.216 Z7.787 A321.7390 
N892 X172.363 Y5.202 Z7.823 A323.9242 
N893 X172.362 Y5.188 Z7.857 A326.1028 
N894 X172.361 Y5.172 Z7.892 A328.2816 
N895 X172.361 Y5.154 Z7.926 A330.4679 
N896 X172.360 Y5.134 Z7.959 A332.6690 
N897 X172.359 Y5.113 Z7.993 A334.8923 
N898 X172.358 Y5.089 Z8.027 A337.1452 
N899 X172.357 Y5.063 Z8.060 A339.4348 
N900 X172.356 Y5.034 Z8.094 A341.7668 
N901 X172.354 Y5.002 Z8.127 A344.1458 
N902 X172.353 Y4.966 Z8.161 A346.5736 
N903 X172.351 Y4.926 Z8.195 A349.0487 
N904 X172.350 Y4.880 Z8.228 A351.5650 
N905 X172.348 Y4.828 Z8.261 A354.1113 
N906 X172.345 Y4.768 Z8.292 A356.6710 
N907 X172.342 Y4.700 Z8.322 A359.2240 
N908 X172.339 Y4.620 Z8.350 A1.7499 
N909 X172.335 Y4.529 Z8.375 A4.2319 
N910 X172.330 Y4.422 Z8.395 A6.6573 
N911 X172.324 Y4.297 Z8.411 A9.0171 
N912 X172.317 Y4.152 Z8.420 A11.3036 
N913 X172.309 Y3.983 Z8.420 A13.5077 
N914 X172.299 Y3.787 Z8.409 A15.6209 
N915 X172.287 Y3.561 Z8.385 A17.6416 
N916 X172.273 Y3.301 Z8.345 A19.5656 
N917 X172.256 Y3.005 Z8.287 A21.3686 
N918 X172.238 Y2.671 Z8.206 A23.0212 
N919 X172.217 Y2.298 Z8.103 A24.5080 
N920 X172.193 Y1.886 Z7.974 A25.8197 
N921 X172.166 Y1.435 Z7.821 A26.9571 
N922 X172.137 Y0.946 Z7.644 A27.7905 
N923 X172.106 Y0.423 Z7.444 A28.3520 
N924 X172.073 Y-0.132 Z7.226 A28.6602 
N925 X172.038 Y-0.714 Z6.992 A28.7131 
N926 X172.001 Y-1.319 Z6.747 A28.4912 
N927 X171.963 Y-1.941 Z6.497 A27.9675 
N928 X171.925 Y-2.576 Z6.248 A27.1172 
N929 X171.886 Y-3.220 Z6.005 A25.9285 
N930 X171.848 Y-3.867 Z5.777 A24.4095 
N931 X171.810 Y-4.515 Z5.567 A22.5827 
N932 X171.772 Y-5.160 Z5.381 A20.4731 
N933 X171.735 Y-5.800 Z5.222 A18.2301 
N934 X171.700 Y-6.434 Z5.092 A15.8802 
N935 X171.665 Y-7.061 Z4.992 A13.4592 
N936 X171.632 Y-7.680 Z4.920 A11.0029 
N937 X171.600 Y-8.293 Z4.877 A8.5434 
N938 X171.568 Y-8.900 Z4.862 A6.1087 
N939 X171.537 Y-9.503 Z4.873 A3.7227 
N940 X171.507 Y-10.103 Z4.911 A1.4058 
N941 X171.477 Y-10.701 Z4.973 A359.1753 
N942 X171.448 Y-11.298 Z5.060 A357.0461 
N943 X171.420 Y-11.893 Z5.170 A355.0308 
N944 X171.391 Y-12.485 Z5.302 A353.1393 
N945 X171.364 Y-13.072 Z5.454 A351.3783 
N946 X171.337 Y-13.651 Z5.623 A349.7509 
N947 X171.311 Y-14.219 Z5.807 A348.2575 
N948 X171.286 Y-14.770 Z6.001 A346.8963 
N949 X171.261 Y-15.301 Z6.203 A345.6641 
N950 X171.239 Y-15.807 Z6.407 A344.5569 
N951 X171.217 Y-16.285 Z6.610 A343.5721 
N952 X171.197 Y-16.730 Z6.808 A342.7094 
N953 X171.179 Y-17.139 Z6.998 A341.9668 
N954 X171.163 Y-17.510 Z7.176 A341.3371 
N955 X171.148 Y-17.843 Z7.339 A340.8075 
N956 X171.135 Y-18.137 Z7.486 A340.3629 
N957 X171.124 Y-18.393 Z7.616 A339.9900 
N958 X171.114 Y-18.612 Z7.729 A339.6785 
N959 X171.106 Y-18.798 Z7.826 A339.4221 
N960 X171.099 Y-18.951 Z7.907 A339.2178 
N961 X171.094 Y-19.077 Z7.974 A339.0668 
N962 X171.089 Y-19.179 Z8.029 A338.9757 
N963 X171.086 Y-19.259 Z8.073 A339.0281 
N964 X171.083 Y-19.323 Z8.110 A339.2771 
N965 X171.081 Y-19.373 Z8.143 A340.0350 
N966 X171.079 Y-19.412 Z8.176 A341.4968 
N967 X171.077 Y-19.446 Z8.215 A344.4458 
N968 X171.075 Y-19.479 Z8.263 A348.9376 
N969 X171.074 Y-19.513 Z8.315 A354.5041 
N970 X171.073 Y-19.548 Z8.362 A0.1130 
N971 X171.072 Y-19.584 Z8.405 A5.5798 
N972 X171.072 Y-19.617 Z8.439 A10.3270 
N973 X171.071 Y-19.647 Z8.465 A14.2916 
N974 X171.070 Y-19.672 Z8.485 A17.5389 
N975 X171.070 Y-19.695 Z8.501 A20.4248 
N976 X171.069 Y-19.717 Z8.515 A23.0113 
N977 X171.069 Y-19.738 Z8.527 A25.3522 
N978 X171.068 Y-19.757 Z8.537 A27.5792 
N979 X171.068 Y-19.777 Z8.546 A29.7156 
N980 X171.067 Y-19.796 Z8.554 A31.7812 
N981 X171.067 Y-19.815 Z8.561 A33.7928 
N982 X171.066 Y-19.834 Z8.567 A35.7645 
N983 X171.066 Y-19.853 Z8.573 A37.7072 
N984 X171.065 Y-19.872 Z8.578 A39.6290 
N985 X171.065 Y-19.891 Z8.582 A41.5357 
N986 X171.064 Y-19.910 Z8.585 A43.4328 
N987 X171.064 Y-19.929 Z8.588 A45.3225 
N988 X171.063 Y-19.948 Z8.590 A47.2074 
N989 X171.063 Y-19.967 Z8.591 A49.0892 
N990 X171.062 Y-19.986 Z8.592 A50.9685 
N991 X171.062 Y-20.006 Z8.592 A52.8466 
N992 X171.062 Y-20.025 Z8.592 A54.7236 
N993 X171.061 Y-20.044 Z8.591 A56.5998 
N994 X171.061 Y-20.064 Z8.589 A58.4757 
N995 X171.061 Y-20.083 Z8.586 A60.3513 
N996 X171.060 Y-20.102 Z8.583 A62.2265 
N997 X171.060 Y-20.121 Z8.580 A64.1016 
N998 X171.060 Y-20.140 Z8.575 A65.9766 
N999 X171.060 Y-20.158 Z8.570 A67.8514 
N1000 X171.059 Y-20.177 Z8.565 A69.7262 
N1001 X171.059 Y-20.195 Z8.559 A71.6012 
N1002 X171.059 Y-20.213 Z8.552 A73.4769 
N1003 X171.059 Y-20.231 Z8.545 A75.3534 
N1004 X171.059 Y-20.249 Z8.537 A77.2320 
N1005 X171.058 Y-20.266 Z8.528 A79.1137 
N1006 X171.058 Y-20.283 Z8.520 A81.0003 
N1007 X171.058 Y-20.300 Z8.510 A82.8950 
N1008 X171.058 Y-20.317 Z8.500 A84.8006 
N1009 X171.057 Y-20.333 Z8.489 A86.7226 
N1010 X171.057 Y-20.349 Z8.478 A88.6680 
N1011 X171.057 Y-20.365 Z8.466 A90.6451 
N1012 X171.056 Y-20.381 Z8.454 A92.6661 
N1013 X171.056 Y-20.397 Z8.440 A94.7450 
N1014 X171.056 Y-20.413 Z8.425 A96.8991 
N1015 X171.055 Y-20.430 Z8.410 A99.1432 
N1016 X171.055 Y-20.447 Z8.392 A101.6023 
N1017 X171.054 Y-20.464 Z8.371 A104.3021 
N1018 X171.054 Y-20.484 Z8.346 A107.5210 
N1019 X171.053 Y-20.506 Z8.315 A111.4072 
N1020 X171.052 Y-20.530 Z8.274 A116.0744 
N1021 X171.050 Y-20.555 Z8.220 A122.0506 
N1022 X171.049 Y-20.575 Z8.154 A128.7054 
N1023 X171.048 Y-20.585 Z8.079 A135.7460 
N1024 X171.047 Y-20.580 Z8.008 A141.7706 
N1025 X171.047 Y-20.558 Z7.951 A145.3448 
N1026 X171.046 Y-20.517 Z7.898 A147.1082 
N1027 X171.045 Y-20.458 Z7.844 A147.6590 
N1028 X171.044 Y-20.377 Z7.776 A147.7978 
N1029 X171.043 Y-20.270 Z7.687 A147.8556 
N1030 X171.041 Y-20.132 Z7.573 A147.9021 
N1031 X171.039 Y-19.955 Z7.426 A147.9497 
N1032 X171.036 Y-19.732 Z7.243 A148.0069 
N1033 X171.032 Y-19.458 Z7.018 A148.0804 
N1034 X171.028 Y-19.127 Z6.745 A148.1783 
N1035 X171.023 Y-18.732 Z6.422 A148.3120 
N1036 X171.017 Y-18.271 Z6.046 A148.4970 
N1037 X171.010 Y-17.741 Z5.616 A148.7512 
N1038 X171.003 Y-17.142 Z5.134 A149.0928 
N1039 X170.995 Y-16.476 Z4.604 A149.5405 
N1040 X170.986 Y-15.746 Z4.032 A150.1164 
N1041 X170.977 Y-14.958 Z3.426 A150.8489 
N1042 X170.969 Y-14.120 Z2.799 A151.7745 
N1043 X170.960 Y-13.241 Z2.161 A152.9297 
N1044 X170.952 Y-12.329 Z1.528 A154.3456 
N1045 X170.945 Y-11.396 Z0.912 A156.0552 
N1046 X170.940 Y-10.450 Z0.326 A158.0946 
N1047 X170.935 Y-9.502 Z-0.216 A160.5028 
N1048 X170.932 Y-8.560 Z-0.704 A163.3212 
N1049 X170.931 Y-7.631 Z-1.129 A166.5754 
N1050 X170.932 Y-6.723 Z-1.484 A170.2590 
N1051 X170.934 Y-5.841 Z-1.766 A174.3603 
N1052 X170.937 Y-4.991 Z-1.973 A178.8641 
N1053 X170.942 Y-4.175 Z-2.105 A183.7346 
N1054 X170.949 Y-3.396 Z-2.164 A188.9075 
N1055 X170.956 Y-2.655 Z-2.152 A194.2936 
N1056 X170.964 Y-1.955 Z-2.075 A199.7851 
N1057 X170.972 Y-1.294 Z-1.936 A205.2691 
N1058 X170.980 Y-0.672 Z-1.741 A210.6404 
N1059 X170.989 Y-0.089 Z-1.494 A215.8094 
N1060 X170.997 Y0.457 Z-1.202 A220.7101 
N1061 X171.006 Y0.968 Z-0.869 A225.3005 
N1062 X171.014 Y1.445 Z-0.500 A229.5595 
N1063 X171.021 Y1.889 Z-0.100 A233.4842 
N1064 X171.029 Y2.301 Z0.327 A237.0855 
N1065 X171.036 Y2.683 Z0.775 A240.3840 
N1066 X171.043 Y3.034 Z1.239 A243.4096 
N1067 X171.049 Y3.356 Z1.713 A246.2022 
N1068 X171.054 Y3.649 Z2.191 A248.8063 
N1069 X171.059 Y3.913 Z2.668 A251.2543 
N1070 X171.064 Y4.148 Z3.138 A253.5616 
N1071 X171.067 Y4.354 Z3.595 A255.7476 
N1072 X171.071 Y4.535 Z4.034 A257.8538 
N1073 X171.073 Y4.690 Z4.451 A259.9326 
N1074 X171.075 Y4.822 Z4.843 A262.0252 
N1075 X171.077 Y4.931 Z5.208 A264.1602 
N1076 X171.078 Y5.021 Z5.543 A266.3693 
N1077 X171.078 Y5.092 Z5.848 A268.6816 
N1078 X171.079 Y5.147 Z6.124 A271.1103 
N1079 X171.078 Y5.190 Z6.371 A273.7076 
N1080 X171.078 Y5.221 Z6.593 A276.5506 
N1081 X171.077 Y5.245 Z6.794 A279.9509 
N1082 X171.076 Y5.262 Z6.978 A284.0438 
N1083 X171.074 Y5.275 Z7.153 A289.5335 
N1084 X171.072 Y5.283 Z7.326 A296.6799 
N1085 X171.069 Y5.277 Z7.502 A305.4626 
N1086 X171.067 Y5.249 Z7.680 A315.4535 
N1087 X171.063 Y5.190 Z7.850 A325.6168 
N1088 X171.059 Y5.098 Z8.009 A335.7097 
N1089 X171.054 Y4.972 Z8.151 A345.5374 
N1090 X171.048 Y4.813 Z8.264 A354.1183 
N1091 X171.040 Y4.625 Z8.345 A1.0912 
N1092 X171.030 Y4.411 Z8.394 A6.4029 
N1093 X171.018 Y4.163 Z8.417 A10.8275 
N1094 X171.003 Y3.879 Z8.414 A14.5018 
N1095 X170.986 Y3.553 Z8.383 A17.5382 
N1096 X170.966 Y3.180 Z8.322 A20.2562 
N1097 X170.942 Y2.757 Z8.228 A22.6127 
N1098 X170.915 Y2.282 Z8.098 A24.5837 
N1099 X170.885 Y1.754 Z7.930 A26.1590 
N1100 X170.850 Y1.171 Z7.726 A27.3277 
N1101 X170.813 Y0.535 Z7.486 A28.1009 
N1102 X170.771 Y-0.154 Z7.215 A28.4948 
N1103 X170.727 Y-0.894 Z6.918 A28.5004 
N1104 X170.680 Y-1.680 Z6.600 A28.0856 
N1105 X170.630 Y-2.510 Z6.273 A27.2303 
N1106 X170.578 Y-3.379 Z5.948 A25.6021 
N1107 X170.525 Y-4.282 Z5.640 A23.2375 
N1108 X170.491 Y-5.216 Z5.366 A20.1602 
N1109 X170.503 Y-6.176 Z5.141 A16.7140 
N1110 X170.507 Y-7.152 Z4.979 A12.9964 
N1111 X170.507 Y-8.133 Z4.886 A9.1541 
N1112 X170.502 Y-9.108 Z4.863 A5.3365 
N1113 X170.495 Y-10.064 Z4.908 A1.6772 
N1114 X170.482 Y-10.991 Z5.013 A358.2794 
N1115 X170.464 Y-11.881 Z5.169 A355.2098 
N1116 X170.438 Y-12.726 Z5.363 A352.4990 
N1117 X170.402 Y-13.522 Z5.584 A350.1449 
N1118 X170.356 Y-14.265 Z5.823 A348.1229 
N1119 X170.299 Y-14.952 Z6.068 A346.3979 
N1120 X170.233 Y-15.581 Z6.313 A344.9327 
N1121 X170.160 Y-16.152 Z6.551 A343.6943 
N1122 X170.080 Y-16.664 Z6.777 A342.6613 
N1123 X169.996 Y-17.119 Z6.988 A341.8170 
N1124 X169.910 Y-17.519 Z7.179 A341.1379 
N1125 X169.854 Y-17.871 Z7.351 A340.5918 
N1126 X169.840 Y-18.177 Z7.505 A340.1479 
N1127 X169.829 Y-18.439 Z7.639 A339.7831 
N1128 X169.819 Y-18.660 Z7.753 A339.4821 
N1129 X169.811 Y-18.843 Z7.849 A339.2373 
N1130 X169.804 Y-18.994 Z7.929 A339.0474 
N1131 X169.799 Y-19.117 Z7.994 A338.9222 
N1132 X169.795 Y-19.215 Z8.048 A338.8895 
N1133 X169.791 Y-19.293 Z8.091 A338.9987 
N1134 X169.789 Y-19.354 Z8.129 A339.5025 
N1135 X169.786 Y-19.404 Z8.169 A341.1112 
N1136 X169.784 Y-19.447 Z8.216 A344.5180 
N1137 X169.780 Y-19.493 Z8.286 A351.3387 
N1138 X169.777 Y-19.551 Z8.367 A0.7325 
N1139 X169.776 Y-19.615 Z8.437 A10.1210 
N1140 X169.774 Y-19.676 Z8.487 A17.9806 
N1141 X169.773 Y-19.725 Z8.520 A23.9273 
N1142 X169.771 Y-19.765 Z8.540 A28.3307 
N1143 X169.770 Y-19.793 Z8.552 A31.3853 
N1144 X169.768 Y-19.815 Z8.561 A33.7351 
N1145 X169.767 Y-19.832 Z8.566 A35.5175 
N1146 X169.767 Y-19.846 Z8.571 A37.0189 
N1147 X169.766 Y-19.859 Z8.574 A38.2899 
N1148 X169.766 Y-19.869 Z8.577 A39.3299 
N1149 X169.766 Y-19.878 Z8.579 A40.2380 
N1150 X169.767 Y-19.886 Z8.581 A41.0484 
N1151 X169.767 Y-19.893 Z8.582 A41.7472 
N1152 X169.767 Y-19.899 Z8.583 A42.3537 
N1153 X169.767 Y-19.904 Z8.584 A42.9080 
N1154 X169.766 Y-19.910 Z8.585 A43.4248 
N1155 X169.766 Y-19.914 Z8.586 A43.9057 
N1156 X169.766 Y-19.919 Z8.587 A44.3460 
N1157 X169.765 Y-19.923 Z8.587 A44.7371 
N1158 X169.764 Y-19.926 Z8.588 A45.0873 
N1159 X169.764 Y-19.930 Z8.588 A45.4065 
N1160 X169.763 Y-19.933 Z8.588 A45.7012 
N1161 X169.762 Y-19.935 Z8.589 A45.9765 
N1162 X169.762 Y-19.938 Z8.589 A46.2351 
N1163 X169.761 Y-19.940 Z8.589 A46.4757 
N1164 X169.760 Y-19.943 Z8.590 A46.6902 
N1165 X169.760 Y-19.945 Z8.590 A46.8917 
N1166 X169.759 Y-19.947 Z8.590 A47.0882 
N1167 X169.759 Y-19.949 Z8.590 A47.2844 
N1168 X169.758 Y-19.951 Z8.590 A47.4834 
N1169 X169.758 Y-19.953 Z8.590 A47.6873 
N1170 X169.757 Y-19.955 Z8.591 A47.8978 
N1171 X169.757 Y-19.957 Z8.591 A48.1155 
N1172 X169.756 Y-19.959 Z8.591 A48.3388 
N1173 X169.756 Y-19.962 Z8.591 A48.5608 
N1174 X169.756 Y-19.964 Z8.591 A48.7845 
N1175 X169.755 Y-19.966 Z8.591 A49.0146 
N1176 X169.755 Y-19.969 Z8.592 A49.2487 
N1177 X169.755 Y-19.971 Z8.592 A49.4793 
N1178 X169.756 Y-19.973 Z8.592 A49.6972 
N1179 X169.756 Y-19.975 Z8.592 A49.8961 
N1180 X169.756 Y-19.977 Z8.592 A50.0756 
N1181 X169.757 Y-19.979 Z8.592 A50.2392 
N1182 X169.757 Y-19.980 Z8.592 A50.3934 
N1183 X169.758 Y-19.982 Z8.592 A50.5490 
N1184 X169.758 Y-19.984 Z8.592 A50.7249 
N1185 X169.760 Y-19.986 Z8.592 A50.9560 
N1186 X169.761 Y-19.989 Z8.592 A51.2122 
N1187 X169.763 Y-19.992 Z8.592 A51.4775 
N1188 X169.766 Y-19.995 Z8.592 A51.7659 
N1189 X169.769 Y-19.998 Z8.592 A52.0760 
N1190 X169.773 Y-20.001 Z8.592 A52.4095 
N1191 X169.778 Y-20.005 Z8.592 A52.7646 
N1192 X169.784 Y-20.009 Z8.592 A53.1438 
N1193 X169.791 Y-20.013 Z8.592 A53.5480 
N1194 X169.799 Y-20.017 Z8.592 A53.9769 
N1195 X169.807 Y-20.022 Z8.592 A54.4311 
N1196 X169.817 Y-20.027 Z8.592 A54.9144 
N1197 X169.827 Y-20.032 Z8.592 A55.4298 
N1198 X169.838 Y-20.038 Z8.591 A55.9837 
N1199 X169.849 Y-20.044 Z8.591 A56.5845 
N1200 X169.861 Y-20.051 Z8.590 A57.2434 
N1201 X169.872 Y-20.058 Z8.590 A57.9710 
N1202 X169.884 Y-20.066 Z8.589 A58.7719 
N1203 X169.895 Y-20.075 Z8.588 A59.6433 
N1204 X169.905 Y-20.085 Z8.586 A60.5741 
N1205 X169.914 Y-20.095 Z8.585 A61.5438 
N1206 X169.923 Y-20.105 Z8.583 A62.5242 
N1207 X169.931 Y-20.115 Z8.581 A63.4878 
N1208 X169.938 Y-20.124 Z8.579 A64.4160 
N1209 X169.944 Y-20.133 Z8.577 A65.2976 
N1210 X169.949 Y-20.141 Z8.575 A66.1275 
N1211 X169.953 Y-20.149 Z8.573 A66.8997 
N1212 X169.957 Y-20.156 Z8.571 A67.6185 
N1213 X169.960 Y-20.163 Z8.569 A68.2929 
N1214 X169.962 Y-20.169 Z8.567 A68.9006 
N1215 X169.964 Y-20.174 Z8.565 A69.4755 
N1216 X169.965 Y-20.180 Z8.564 A70.0185 
N1217 X169.966 Y-20.184 Z8.562 A70.4735 
N1218 X169.966 Y-20.188 Z8.561 A70.9003 
N1219 X169.967 Y-20.192 Z8.560 A71.3284 
N1220 X169.967 Y-20.197 Z8.558 A71.7708 
N1221 X169.968 Y-20.201 Z8.557 A72.2301 
N1222 X169.967 Y-20.206 Z8.555 A72.7040 
N1223 X169.967 Y-20.210 Z8.553 A73.1918 
N1224 X169.967 Y-20.215 Z8.551 A73.6729 
N1225 X169.966 Y-20.219 Z8.549 A74.1379 
N1226 X169.965 Y-20.224 Z8.548 A74.5930 
N1227 X169.964 Y-20.228 Z8.546 A75.0617 
N1228 X169.963 Y-20.233 Z8.544 A75.5935 
N1229 X169.961 Y-20.239 Z8.541 A76.1827 
N1230 X169.959 Y-20.245 Z8.539 A76.8102 
N1231 X169.956 Y-20.251 Z8.536 A77.5117 
N1232 X169.952 Y-20.258 Z8.533 A78.2621 
N1233 X169.948 Y-20.266 Z8.529 A79.0679 
N1234 X169.942 Y-20.273 Z8.525 A79.9252 
N1235 X169.936 Y-20.282 Z8.520 A80.8220 
N1236 X169.929 Y-20.290 Z8.516 A81.7434 
N1237 X169.920 Y-20.298 Z8.511 A82.6708 
N1238 X169.911 Y-20.306 Z8.506 A83.5841 
N1239 X169.901 Y-20.314 Z8.501 A84.4699 
N1240 X169.891 Y-20.321 Z8.497 A85.3165 
N1241 X169.880 Y-20.328 Z8.492 A86.1189 
N1242 X169.868 Y-20.334 Z8.488 A86.8786 
N1243 X169.856 Y-20.341 Z8.484 A87.6035 
N1244 X169.845 Y-20.346 Z8.480 A88.3021 
N1245 X169.833 Y-20.352 Z8.476 A88.9820 
N1246 X169.822 Y-20.357 Z8.472 A89.6500 
N1247 X169.812 Y-20.363 Z8.468 A90.3121 
N1248 X169.803 Y-20.368 Z8.464 A90.9753 
N1249 X169.794 Y-20.373 Z8.460 A91.6467 
N1250 X169.786 Y-20.379 Z8.455 A92.3367 
N1251 X169.779 Y-20.384 Z8.451 A93.0540 
N1252 X169.773 Y-20.390 Z8.446 A93.8078 
N1253 X169.768 Y-20.396 Z8.441 A94.6112 
N1254 X169.763 Y-20.403 Z8.435 A95.4865 
N1255 X169.759 Y-20.410 Z8.428 A96.4701 
N1256 X169.756 Y-20.419 Z8.420 A97.6299 
N1257 X169.753 Y-20.429 Z8.411 A99.0418 
N1258 X169.751 Y-20.441 Z8.398 A100.7958 
N1259 X169.750 Y-20.457 Z8.380 A103.2045 
N1260 X169.750 Y-20.477 Z8.356 A106.2971 
N1261 X169.749 Y-20.502 Z8.321 A110.6636 
N1262 X169.746 Y-20.532 Z8.270 A116.5696 
N1263 X169.743 Y-20.562 Z8.199 A124.1151 
N1264 X169.740 Y-20.583 Z8.109 A133.0564 
N1265 X169.740 Y-20.582 Z8.019 A140.9279 
N1266 X169.739 Y-20.558 Z7.951 A145.3457 
N1267 X169.739 Y-20.534 Z7.918 A146.6511 
N1268 X169.738 Y-20.501 Z7.883 A147.3158 
N1269 X169.737 Y-20.455 Z7.842 A147.5638 
N1270 X169.737 Y-20.393 Z7.790 A147.6885 
N1271 X169.736 Y-20.310 Z7.721 A147.7811 
N1272 X169.734 Y-20.203 Z7.632 A147.8531 
N1273 X169.732 Y-20.066 Z7.518 A147.9165 
N1274 X169.730 Y-19.893 Z7.375 A147.9811 
N1275 X169.728 Y-19.678 Z7.198 A148.0547 
N1276 X169.724 Y-19.417 Z6.983 A148.1445 
N1277 X169.720 Y-19.104 Z6.726 A148.2585 
N1278 X169.716 Y-18.736 Z6.424 A148.4066 
N1279 X169.710 Y-18.309 Z6.076 A148.6009 
N1280 X169.704 Y-17.823 Z5.681 A148.8547 
N1281 X169.698 Y-17.278 Z5.241 A149.1819 
N1282 X169.691 Y-16.675 Z4.760 A149.5963 
N1283 X169.683 Y-16.019 Z4.242 A150.1130 
N1284 X169.676 Y-15.313 Z3.695 A150.7489 
N1285 X169.668 Y-14.564 Z3.127 A151.5234 
N1286 X169.660 Y-13.780 Z2.547 A152.4557 
N1287 X169.657 Y-12.967 Z1.966 A153.5591 
N1288 X169.752 Y-12.137 Z1.397 A154.8396 
N1289 X169.837 Y-11.295 Z0.847 A156.2957 
N1290 X169.913 Y-10.446 Z0.324 A158.0717 
N1291 X169.972 Y-9.599 Z-0.162 A160.1657 
N1292 X170.006 Y-8.759 Z-0.605 A162.5924 
N1293 X170.024 Y-7.931 Z-0.997 A165.3651 
N1294 X170.046 Y-7.122 Z-1.335 A168.4798 
N1295 X170.072 Y-6.334 Z-1.616 A171.9289 
N1296 X170.102 Y-5.570 Z-1.839 A175.7157 
N1297 X170.136 Y-4.834 Z-2.004 A179.8505 
N1298 X170.173 Y-4.126 Z-2.111 A184.1696 
N1299 X170.212 Y-3.448 Z-2.163 A188.6552 
N1300 X170.253 Y-2.800 Z-2.161 A193.2684 
N1301 X170.294 Y-2.183 Z-2.108 A197.9561 
N1302 X170.336 Y-1.597 Z-2.007 A202.6577 
N1303 X170.376 Y-1.040 Z-1.863 A207.3134 
N1304 X170.415 Y-0.514 Z-1.679 A211.8689 
N1305 X170.452 Y-0.016 Z-1.458 A216.2809 
N1306 X170.486 Y0.453 Z-1.204 A220.5222 
N1307 X170.517 Y0.894 Z-0.921 A224.5849 
N1308 X170.547 Y1.308 Z-0.612 A228.3215 
N1309 X170.573 Y1.694 Z-0.282 A231.7455 
N1310 X170.598 Y2.054 Z0.065 A234.8594 
N1311 X170.620 Y2.387 Z0.426 A237.6506 
N1312 X170.639 Y2.696 Z0.795 A240.2605 
N1313 X170.636 Y2.981 Z1.169 A242.6858 
N1314 X170.614 Y3.242 Z1.543 A244.9339 
N1315 X170.575 Y3.480 Z1.912 A247.0187 
N1316 X170.522 Y3.694 Z2.273 A248.9555 
N1317 X170.459 Y3.886 Z2.622 A250.7555 
N1318 X170.388 Y4.057 Z2.956 A252.4268 
N1319 X170.312 Y4.209 Z3.273 A253.9784 
N1320 X170.234 Y4.343 Z3.572 A255.4232 
N1321 X170.155 Y4.460 Z3.852 A256.7790 
N1322 X170.075 Y4.564 Z4.113 A258.0652 
N1323 X169.997 Y4.655 Z4.357 A259.3006 
N1324 X169.919 Y4.735 Z4.584 A260.5019 
N1325 X169.844 Y4.806 Z4.796 A261.6853 
N1326 X169.776 Y4.869 Z4.996 A262.8677 
N1327 X169.780 Y4.928 Z5.196 A264.0690 
N1328 X169.780 Y4.980 Z5.386 A265.2989 
N1329 X169.780 Y5.027 Z5.569 A266.5693 
N1330 X169.781 Y5.069 Z5.744 A267.8906 
N1331 X169.781 Y5.106 Z5.913 A269.2703 
N1332 X169.781 Y5.139 Z6.075 A270.7182 
N1333 X169.781 Y5.167 Z6.232 A272.2519 
N1334 X169.781 Y5.192 Z6.382 A273.8949 
N1335 X169.780 Y5.213 Z6.526 A275.6663 
N1336 X169.780 Y5.230 Z6.664 A277.7076 
N1337 X169.779 Y5.245 Z6.797 A280.0535 
N1338 X169.778 Y5.258 Z6.924 A282.7403 
N1339 X169.777 Y5.268 Z7.048 A286.1015 
N1340 X169.775 Y5.277 Z7.170 A290.2226 
N1341 X169.774 Y5.282 Z7.292 A295.1850 
N1342 X169.772 Y5.282 Z7.415 A300.9831 
N1343 X169.770 Y5.274 Z7.539 A307.5166 
N1344 X169.768 Y5.253 Z7.661 A314.3543 
N1345 X169.766 Y5.218 Z7.779 A321.2730 
N1346 X169.763 Y5.169 Z7.892 A328.1868 
N1347 X169.760 Y5.105 Z7.999 A335.0221 
N1348 X169.756 Y5.025 Z8.098 A341.7246 
N1349 X169.753 Y4.929 Z8.186 A348.1065 
N1350 X169.748 Y4.819 Z8.260 A353.8180 
N1351 X169.743 Y4.696 Z8.320 A358.7861 
N1352 X169.737 Y4.560 Z8.364 A3.0030 
N1353 X169.730 Y4.413 Z8.395 A6.5422 
N1354 X169.723 Y4.252 Z8.412 A9.4773 
N1355 X169.714 Y4.077 Z8.419 A12.0955 
N1356 X169.704 Y3.887 Z8.414 A14.4075 
N1357 X169.693 Y3.681 Z8.398 A16.4296 
N1358 X169.681 Y3.458 Z8.370 A18.3082 
N1359 X169.668 Y3.217 Z8.330 A20.0440 
N1360 X169.653 Y2.958 Z8.276 A21.6264 
N1361 X169.637 Y2.678 Z8.209 A23.0489 
N1362 X169.620 Y2.376 Z8.126 A24.3122 
N1363 X169.601 Y2.051 Z8.028 A25.4155 
N1364 X169.578 Y1.700 Z7.913 A26.3552 
N1365 X169.654 Y1.328 Z7.783 A27.1270 
N1366 X169.784 Y0.934 Z7.638 A27.7337 
N1367 X169.905 Y0.502 Z7.474 A28.1808 
N1368 X170.019 Y0.029 Z7.288 A28.4691 
N1369 X170.122 Y-0.487 Z7.082 A28.5940 
N1370 X170.210 Y-1.048 Z6.856 A28.5485 
N1371 X170.288 Y-1.653 Z6.612 A28.1634 
N1372 X170.354 Y-2.302 Z6.354 A27.4070 
N1373 X170.407 Y-2.996 Z6.087 A26.2435 
N1374 X170.447 Y-3.734 Z5.822 A24.6645 
N1375 X170.476 Y-4.514 Z5.566 A22.3526 
N1376 X170.493 Y-5.334 Z5.334 A19.6346 
N1377 X170.503 Y-6.191 Z5.137 A16.5356 
N1378 X170.507 Y-7.078 Z4.988 A13.1360 
N1379 X170.507 Y-7.986 Z4.894 A9.6400 
N1380 X170.504 Y-8.905 Z4.862 A6.1235 
N1381 X170.497 Y-9.824 Z4.891 A2.6666 
N1382 X170.486 Y-10.730 Z4.979 A359.3376 
N1383 X170.470 Y-11.614 Z5.117 A356.1788 
N1384 X170.447 Y-12.466 Z5.299 A353.3730 
N1385 X170.414 Y-13.278 Z5.513 A350.9225 
N1386 X170.371 Y-14.044 Z5.749 A348.8169 
N1387 X170.317 Y-14.759 Z5.998 A347.0422 
N1388 X170.252 Y-15.418 Z6.250 A345.5944 
N1389 X170.178 Y-16.019 Z6.497 A344.3223 
N1390 X170.097 Y-16.561 Z6.734 A343.2280 
N1391 X170.011 Y-17.043 Z6.955 A342.3081 
N1392 X169.922 Y-17.468 Z7.156 A341.5501 
N1393 X169.834 Y-17.837 Z7.337 A340.9329 
N1394 X169.749 Y-18.154 Z7.496 A340.4328 
N1395 X169.671 Y-18.425 Z7.633 A340.0296 
N1396 X169.600 Y-18.652 Z7.751 A339.7100 
N1397 X169.537 Y-18.842 Z7.850 A339.4680 
N1398 X169.483 Y-19.000 Z7.934 A339.3057 
N1399 X169.436 Y-19.130 Z8.004 A339.2364 
N1400 X169.396 Y-19.237 Z8.063 A339.2888 
N1401 X169.354 Y-19.324 Z8.114 A339.6692 
N1402 X169.298 Y-19.387 Z8.155 A340.5016 
N1403 X169.231 Y-19.420 Z8.182 A341.7629 
N1404 X169.168 Y-19.439 Z8.202 A343.1537 
N1405 X169.112 Y-19.452 Z8.219 A344.5947 
N1406 X169.061 Y-19.463 Z8.235 A346.0406 
N1407 X169.016 Y-19.472 Z8.249 A347.4685 
N1408 X168.974 Y-19.481 Z8.263 A348.8676 
N1409 X168.936 Y-19.489 Z8.276 A350.2321 
N1410 X168.902 Y-19.497 Z8.288 A351.5586 
N1411 X168.871 Y-19.504 Z8.300 A352.8435 
N1412 X168.843 Y-19.512 Z8.311 A354.0839 
N1413 X168.818 Y-19.519 Z8.322 A355.2774 
N1414 X168.796 Y-19.525 Z8.331 A356.4204 
N1415 X168.778 Y-19.532 Z8.341 A357.5093 
N1416 X168.762 Y-19.538 Z8.349 A358.5391 
N1417 X168.748 Y-19.544 Z8.357 A359.5039 
N1418 X168.737 Y-19.549 Z8.364 A0.4002 
N1419 X168.729 Y-19.555 Z8.371 A1.2263 
N1420 X168.722 Y-19.559 Z8.377 A1.9833 
N1421 X168.716 Y-19.564 Z8.382 A2.6733 
N1422 X168.712 Y-19.568 Z8.387 A3.2980 
N1423 X168.710 Y-19.571 Z8.392 A3.8499 
N1424 X168.707 Y-19.575 Z8.395 A4.3506 
N1425 X168.706 Y-19.577 Z8.399 A4.7892 
N1426 X168.705 Y-19.580 Z8.402 A5.1886 
N1427 X168.704 Y-19.582 Z8.405 A5.5828 
N1428 X168.703 Y-19.585 Z8.408 A5.9961 
N1429 X168.703 Y-19.588 Z8.411 A6.4442 
N1430 X168.702 Y-19.591 Z8.415 A6.9322 
N1431 X168.703 Y-19.595 Z8.418 A7.4506 
N1432 X168.704 Y-19.599 Z8.422 A7.9931 
N1433 X168.705 Y-19.603 Z8.426 A8.5283 
N1434 X168.706 Y-19.606 Z8.430 A9.0623 
N1435 X168.707 Y-19.610 Z8.434 A9.6224 
N1436 X168.710 Y-19.615 Z8.438 A10.2563 
N1437 X168.714 Y-19.620 Z8.443 A10.9664 
N1438 X168.719 Y-19.626 Z8.449 A11.7702 
N1439 X168.726 Y-19.632 Z8.455 A12.6638 
N1440 X168.736 Y-19.640 Z8.461 A13.6521 
N1441 X168.749 Y-19.648 Z8.468 A14.7307 
N1442 X168.765 Y-19.657 Z8.475 A15.9021 
N1443 X168.786 Y-19.667 Z8.483 A17.1698 
N1444 X168.811 Y-19.678 Z8.491 A18.5353 
N1445 X168.841 Y-19.690 Z8.499 A19.9997 
N1446 X168.877 Y-19.703 Z8.508 A21.5623 
N1447 X168.920 Y-19.718 Z8.516 A23.2163 
N1448 X168.967 Y-19.733 Z8.525 A24.9512 
N1449 X169.021 Y-19.749 Z8.534 A26.7555 
N1450 X169.080 Y-19.766 Z8.542 A28.6181 
N1451 X169.143 Y-19.783 Z8.549 A30.5279 
N1452 X169.210 Y-19.802 Z8.557 A32.4760 
N1453 X169.280 Y-19.821 Z8.563 A34.4573 
N1454 X169.350 Y-19.840 Z8.570 A36.4717 
N1455 X169.420 Y-19.860 Z8.575 A38.5230 
N1456 X169.488 Y-19.881 Z8.580 A40.6145 
N1457 X169.554 Y-19.902 Z8.584 A42.7453 
N1458 X169.615 Y-19.924 Z8.588 A44.9077 
N1459 X169.672 Y-19.947 Z8.590 A47.0869 
N1460 X169.723 Y-19.969 Z8.591 A49.2596 
N1461 X169.769 Y-19.991 Z8.592 A51.3984 
N1462 X169.808 Y-20.013 Z8.592 A53.4784 
N1463 X169.842 Y-20.033 Z8.591 A55.4815 
N1464 X169.870 Y-20.053 Z8.589 A57.3938 
N1465 X169.893 Y-20.072 Z8.587 A59.2042 
N1466 X169.912 Y-20.089 Z8.585 A60.9016 
N1467 X169.927 Y-20.105 Z8.582 A62.4780 
N1468 X169.938 Y-20.120 Z8.579 A63.9324 
N1469 X169.947 Y-20.133 Z8.576 A65.2655 
N1470 X169.954 Y-20.145 Z8.573 A66.4709 
N1471 X169.958 Y-20.156 Z8.570 A67.5547 
N1472 X169.961 Y-20.165 Z8.568 A68.5223 
N1473 X169.964 Y-20.174 Z8.565 A69.4031 
N1474 X169.965 Y-20.181 Z8.563 A70.1866 
N1475 X169.966 Y-20.189 Z8.561 A70.9303 
N1476 X169.967 Y-20.196 Z8.558 A71.6643 
N1477 X169.967 Y-20.203 Z8.556 A72.3961 
N1478 X169.967 Y-20.210 Z8.553 A73.1195 
N1479 X169.967 Y-20.217 Z8.551 A73.8367 
N1480 X169.966 Y-20.223 Z8.548 A74.5608 
N1481 X169.965 Y-20.230 Z8.546 A75.3242 
N1482 X169.962 Y-20.239 Z8.542 A76.1851 
N1483 X169.959 Y-20.247 Z8.538 A77.1261 
N1484 X169.955 Y-20.257 Z8.534 A78.1847 
N1485 X169.949 Y-20.268 Z8.528 A79.3583 
N1486 X169.941 Y-20.280 Z8.522 A80.6559 
N1487 X169.930 Y-20.293 Z8.515 A82.0890 
N1488 X169.915 Y-20.306 Z8.507 A83.6578 
N1489 X169.897 Y-20.321 Z8.498 A85.3623 
N1490 X169.874 Y-20.337 Z8.487 A87.1979 
N1491 X169.845 Y-20.353 Z8.476 A89.1556 
N1492 X169.811 Y-20.370 Z8.463 A91.2231 
N1493 X169.770 Y-20.387 Z8.449 A93.3829 
N1494 X169.723 Y-20.404 Z8.434 A95.6119 
N1495 X169.670 Y-20.421 Z8.418 A97.8836 
N1496 X169.610 Y-20.437 Z8.401 A100.1710 
N1497 X169.544 Y-20.452 Z8.384 A102.4531 
N1498 X169.473 Y-20.467 Z8.367 A104.7155 
N1499 X169.398 Y-20.481 Z8.349 A106.9477 
N1500 X169.321 Y-20.493 Z8.332 A109.1400 
N1501 X169.242 Y-20.505 Z8.314 A111.2834 
N1502 X169.164 Y-20.516 Z8.296 A113.3722 
N1503 X169.087 Y-20.526 Z8.279 A115.4051 
N1504 X169.013 Y-20.535 Z8.261 A117.3849 
N1505 X168.944 Y-20.544 Z8.244 A119.3144 
N1506 X168.880 Y-20.551 Z8.226 A121.1950 
N1507 X168.822 Y-20.558 Z8.209 A123.0270 
N1508 X168.771 Y-20.564 Z8.192 A124.8098 
N1509 X168.726 Y-20.569 Z8.175 A126.5422 
N1510 X168.687 Y-20.573 Z8.158 A128.2256 
N1511 X168.654 Y-20.577 Z8.142 A129.8676 
N1512 X168.626 Y-20.580 Z8.125 A131.4859 
N1513 X168.603 Y-20.583 Z8.109 A133.1110 
N1514 X168.584 Y-20.585 Z8.091 A134.7837 
N1515 X168.567 Y-20.587 Z8.072 A136.5511 
N1516 X168.551 Y-20.586 Z8.050 A138.4492 
N1517 X168.543 Y-20.581 Z8.016 A141.1374 
N1518 X168.553 Y-20.572 Z7.981 A143.6079 
N1519 X168.566 Y-20.558 Z7.951 A145.3457 
N1520 X168.577 Y-20.539 Z7.924 A146.4594 
N1521 X168.589 Y-20.511 Z7.893 A147.1557 
N1522 X168.601 Y-20.471 Z7.856 A147.4488 
N1523 X168.614 Y-20.414 Z7.808 A147.6061 
N1524 X168.628 Y-20.337 Z7.744 A147.7254 
N1525 X168.646 Y-20.236 Z7.659 A147.8180 
N1526 X168.670 Y-20.103 Z7.549 A147.8974 
N1527 X168.699 Y-19.934 Z7.409 A147.9754 
N1528 X168.736 Y-19.721 Z7.233 A148.0614 
N1529 X168.779 Y-19.458 Z7.017 A148.1640 
N1530 X168.830 Y-19.139 Z6.754 A148.2927 
N1531 X168.890 Y-18.759 Z6.442 A148.4586 
N1532 X168.957 Y-18.313 Z6.078 A148.6748 
N1533 X169.032 Y-17.799 Z5.661 A148.9562 
N1534 X169.114 Y-17.217 Z5.191 A149.3171 
N1535 X169.204 Y-16.568 Z4.674 A149.7717 
N1536 X169.299 Y-15.855 Z4.114 A150.3335 
N1537 X169.399 Y-15.084 Z3.520 A151.0151 
N1538 X169.503 Y-14.262 Z2.902 A151.8262 
N1539 X169.608 Y-13.397 Z2.271 A152.8953 
N1540 X169.712 Y-12.498 Z1.641 A154.2322 
N1541 X169.811 Y-11.574 Z1.025 A155.8536 
N1542 X169.898 Y-10.636 Z0.437 A157.7787 
N1543 X169.967 Y-9.692 Z-0.111 A160.0222 
N1544 X170.007 Y-8.751 Z-0.608 A162.5843 
N1545 X170.026 Y-7.821 Z-1.046 A165.7003 
N1546 X170.052 Y-6.910 Z-1.416 A169.3341 
N1547 X170.083 Y-6.023 Z-1.714 A173.5017 
N1548 X170.120 Y-5.166 Z-1.936 A177.9903 
N1549 X170.161 Y-4.344 Z-2.084 A182.8062 
N1550 X170.205 Y-3.560 Z-2.158 A187.9175 
N1551 X170.252 Y-2.817 Z-2.161 A193.1482 
N1552 X170.299 Y-2.115 Z-2.098 A198.4426 
N1553 X170.346 Y-1.456 Z-1.975 A203.7330 
N1554 X170.391 Y-0.839 Z-1.798 A208.9552 
N1555 X170.433 Y-0.262 Z-1.573 A214.0603 
N1556 X170.473 Y0.276 Z-1.305 A218.8854 
N1557 X170.509 Y0.777 Z-1.000 A223.3998 
N1558 X170.542 Y1.242 Z-0.662 A227.5882 
N1559 X170.572 Y1.676 Z-0.297 A231.4491 
N1560 X170.600 Y2.078 Z0.091 A234.9913 
N1561 X170.625 Y2.452 Z0.499 A238.2287 
N1562 X170.640 Y2.797 Z0.923 A241.1753 
N1563 X170.627 Y3.116 Z1.358 A243.8403 
N1564 X170.589 Y3.409 Z1.799 A246.3620 
N1565 X170.527 Y3.676 Z2.241 A248.7498 
N1566 X170.447 Y3.917 Z2.680 A251.0144 
N1567 X170.352 Y4.133 Z3.111 A253.1646 
N1568 X170.245 Y4.325 Z3.530 A255.2135 
N1569 X170.131 Y4.493 Z3.933 A257.1836 
N1570 X170.010 Y4.640 Z4.316 A259.1020 
N1571 X169.886 Y4.767 Z4.676 A260.9922 
N1572 X169.761 Y4.873 Z5.012 A262.8693 
N1573 X169.636 Y4.962 Z5.321 A264.7437 
N1574 X169.513 Y5.034 Z5.602 A266.6232 
N1575 X169.394 Y5.092 Z5.854 A268.5078 
N1576 X169.282 Y5.137 Z6.079 A270.3896 
N1577 X169.177 Y5.172 Z6.277 A272.2670 
N1578 X169.079 Y5.198 Z6.449 A274.1438 
N1579 X168.987 Y5.217 Z6.595 A276.0156 
N1580 X168.903 Y5.231 Z6.719 A277.8711 
N1581 X168.827 Y5.242 Z6.822 A279.6946 
N1582 X168.758 Y5.250 Z6.907 A281.4688 
N1583 X168.698 Y5.256 Z6.978 A283.1779 
N1584 X168.645 Y5.260 Z7.036 A284.8129 
N1585 X168.601 Y5.265 Z7.085 A286.3745 
N1586 X168.560 Y5.269 Z7.125 A287.8735 
N1587 X168.526 Y5.273 Z7.160 A289.3507 
N1588 X168.499 Y5.276 Z7.195 A290.8667 
N1589 X168.481 Y5.279 Z7.234 A292.4721 
N1590 X168.474 Y5.280 Z7.274 A294.1889 
N1591 X168.473 Y5.282 Z7.314 A296.0209 
N1592 X168.474 Y5.282 Z7.355 A297.9742 
N1593 X168.473 Y5.282 Z7.397 A300.0597 
N1594 X168.472 Y5.281 Z7.441 A302.2864 
N1595 X168.471 Y5.279 Z7.488 A304.7917 
N1596 X168.470 Y5.274 Z7.539 A307.5856 
N1597 X168.469 Y5.267 Z7.594 A310.6791 
N1598 X168.468 Y5.257 Z7.653 A314.0774 
N1599 X168.467 Y5.241 Z7.716 A317.7772 
N1600 X168.466 Y5.221 Z7.782 A321.7685 
N1601 X168.465 Y5.194 Z7.850 A325.9005 
N1602 X168.463 Y5.159 Z7.919 A330.1463 
N1603 X168.461 Y5.117 Z7.987 A334.4624 
N1604 X168.458 Y5.067 Z8.053 A338.7951 
N1605 X168.456 Y5.009 Z8.116 A343.0853 
N1606 X168.453 Y4.943 Z8.175 A347.2786 
N1607 X168.451 Y4.872 Z8.227 A351.2040 
N1608 X168.448 Y4.795 Z8.273 A354.8008 
N1609 X168.444 Y4.714 Z8.311 A358.0341 
N1610 X168.441 Y4.630 Z8.343 A0.9007 
N1611 X168.437 Y4.542 Z8.368 A3.4238 
N1612 X168.432 Y4.452 Z8.388 A5.6385 
N1613 X168.428 Y4.359 Z8.402 A7.5763 
N1614 X168.423 Y4.262 Z8.412 A9.3822 
N1615 X168.418 Y4.159 Z8.418 A11.0705 
N1616 X168.412 Y4.048 Z8.420 A12.6567 
N1617 X168.406 Y3.928 Z8.418 A14.1539 
N1618 X168.436 Y3.802 Z8.411 A15.5713 
N1619 X168.515 Y3.675 Z8.400 A16.9273 
N1620 X168.603 Y3.529 Z8.384 A18.2569 
N1621 X168.704 Y3.361 Z8.359 A19.5770 
N1622 X168.818 Y3.165 Z8.324 A20.8873 
N1623 X168.945 Y2.937 Z8.275 A22.1736 
N1624 X169.085 Y2.671 Z8.209 A23.4167 
N1625 X169.236 Y2.361 Z8.124 A24.5964 
N1626 X169.396 Y2.005 Z8.014 A25.6893 
N1627 X169.560 Y1.596 Z7.878 A26.6724 
N1628 X169.722 Y1.133 Z7.713 A27.5316 
N1629 X169.876 Y0.613 Z7.517 A28.1507 
N1630 X170.018 Y0.036 Z7.292 A28.5310 
N1631 X170.140 Y-0.597 Z7.039 A28.6641 
N1632 X170.242 Y-1.284 Z6.761 A28.5366 
N1633 X170.328 Y-2.021 Z6.465 A27.9029 
N1634 X170.394 Y-2.806 Z6.160 A26.7122 
N1635 X170.443 Y-3.635 Z5.856 A24.9145 
N1636 X170.475 Y-4.506 Z5.569 A22.5017 
N1637 X170.495 Y-5.416 Z5.314 A19.5084 
N1638 X170.504 Y-6.356 Z5.106 A16.0107 
N1639 X170.507 Y-7.321 Z4.957 A12.3157 
N1640 X170.507 Y-8.299 Z4.877 A8.5792 
N1641 X170.501 Y-9.278 Z4.868 A4.8768 
N1642 X170.493 Y-10.243 Z4.926 A1.2818 
N1643 X170.479 Y-11.184 Z5.045 A357.8465 
N1644 X170.458 Y-12.090 Z5.215 A354.7665 
N1645 X170.429 Y-12.953 Z5.424 A352.0585 
N1646 X170.388 Y-13.765 Z5.661 A349.7159 
N1647 X170.337 Y-14.521 Z5.913 A347.7162 
N1648 X170.273 Y-15.218 Z6.172 A346.0322 
N1649 X170.199 Y-15.853 Z6.427 A344.6407 
N1650 X170.119 Y-16.425 Z6.674 A343.5360 
N1651 X170.032 Y-16.934 Z6.904 A342.5866 
N1652 X169.941 Y-17.381 Z7.115 A341.7911 
N1653 X169.850 Y-17.770 Z7.305 A341.1359 
N1654 X169.763 Y-18.105 Z7.471 A340.6015 
N1655 X169.682 Y-18.389 Z7.616 A340.1692 
N1656 X169.608 Y-18.629 Z7.739 A339.8258 
N1657 X169.542 Y-18.829 Z7.844 A339.5645 
N1658 X169.485 Y-18.995 Z7.932 A339.3859 
N1659 X169.435 Y-19.133 Z8.006 A339.3001 
N1660 X169.392 Y-19.246 Z8.069 A339.3300 
N1661 X169.346 Y-19.337 Z8.121 A339.6528 
N1662 X169.280 Y-19.398 Z8.162 A340.6531 
N1663 X169.207 Y-19.428 Z8.189 A342.1744 
N1664 X169.140 Y-19.446 Z8.210 A343.7556 
N1665 X169.082 Y-19.459 Z8.228 A345.3399 
N1666 X169.030 Y-19.469 Z8.244 A346.8953 
N1667 X168.984 Y-19.479 Z8.259 A348.4063 
N1668 X168.943 Y-19.487 Z8.273 A349.8656 
N1669 X168.906 Y-19.496 Z8.286 A351.2698 
N1670 X168.874 Y-19.503 Z8.298 A352.6172 
N1671 X168.845 Y-19.511 Z8.310 A353.9067 
N1672 X168.819 Y-19.518 Z8.320 A355.1382 
N1673 X168.797 Y-19.525 Z8.331 A356.3108 
N1674 X168.778 Y-19.531 Z8.340 A357.4222 
N1675 X168.762 Y-19.538 Z8.349 A358.4694 
N1676 X168.748 Y-19.544 Z8.357 A359.4494 
N1677 X168.737 Y-19.549 Z8.364 A0.3605 
N1678 X168.729 Y-19.555 Z8.371 A1.2021 
N1679 X168.722 Y-19.559 Z8.377 A1.9767 
N1680 X168.716 Y-19.564 Z8.383 A2.6884 
N1681 X168.712 Y-19.568 Z8.388 A3.3418 
N1682 X168.709 Y-19.572 Z8.392 A3.9391 
N1683 X168.707 Y-19.576 Z8.397 A4.4993 
N1684 X168.705 Y-19.579 Z8.400 A5.0151 
N1685 X168.704 Y-19.582 Z8.404 A5.5274 
N1686 X168.703 Y-19.585 Z8.408 A6.0652 
N1687 X168.703 Y-19.589 Z8.413 A6.6457 
N1688 X168.703 Y-19.594 Z8.417 A7.2654 
N1689 X168.703 Y-19.599 Z8.422 A7.9019 
N1690 X168.705 Y-19.603 Z8.426 A8.5252 
N1691 X168.706 Y-19.607 Z8.431 A9.1441 
N1692 X168.708 Y-19.611 Z8.435 A9.7897 
N1693 X168.711 Y-19.616 Z8.440 A10.5057 
N1694 X168.716 Y-19.622 Z8.445 A11.2887 
N1695 X168.722 Y-19.628 Z8.451 A12.1529 
N1696 X168.730 Y-19.636 Z8.457 A13.1039 
N1697 X168.741 Y-19.643 Z8.464 A14.1409 
N1698 X168.755 Y-19.652 Z8.471 A15.2683 
N1699 X168.773 Y-19.662 Z8.479 A16.4880 
N1700 X168.796 Y-19.672 Z8.487 A17.8021 
N1701 X168.823 Y-19.684 Z8.495 A19.2123 
N1702 X168.856 Y-19.696 Z8.503 A20.7194 
N1703 X168.895 Y-19.710 Z8.512 A22.3205 
N1704 X168.939 Y-19.724 Z8.520 A24.0073 
N1705 X168.990 Y-19.740 Z8.529 A25.7697 
N1706 X169.046 Y-19.756 Z8.537 A27.5967 
N1707 X169.107 Y-19.774 Z8.545 A29.4778 
N1708 X169.172 Y-19.792 Z8.553 A31.4031 
N1709 X169.240 Y-19.810 Z8.560 A33.3654 
N1710 X169.310 Y-19.829 Z8.566 A35.3615 
N1711 X169.381 Y-19.849 Z8.572 A37.3927 
N1712 X169.450 Y-19.869 Z8.578 A39.4619 
N1713 X169.518 Y-19.891 Z8.582 A41.5701 
N1714 X169.582 Y-19.912 Z8.586 A43.7129 
N1715 X169.641 Y-19.934 Z8.589 A45.8796 
N1716 X169.696 Y-19.957 Z8.591 A48.0525 
N1717 X169.744 Y-19.979 Z8.592 A50.2070 
N1718 X169.787 Y-20.001 Z8.592 A52.3176 
N1719 X169.824 Y-20.022 Z8.591 A54.3635 
N1720 X169.856 Y-20.042 Z8.590 A56.3293 
N1721 X169.882 Y-20.061 Z8.588 A58.2030 
N1722 X169.903 Y-20.080 Z8.586 A59.9743 
N1723 X169.920 Y-20.096 Z8.583 A61.6349 
N1724 X169.933 Y-20.112 Z8.581 A63.1800 
N1725 X169.943 Y-20.126 Z8.578 A64.6093 
N1726 X169.951 Y-20.140 Z8.575 A65.9234 
N1727 X169.956 Y-20.152 Z8.572 A67.1337 
N1728 X169.961 Y-20.163 Z8.569 A68.2539 
N1729 X169.963 Y-20.173 Z8.566 A69.2943 
N1730 X169.965 Y-20.182 Z8.563 A70.2878 
N1731 X169.967 Y-20.192 Z8.560 A71.2405 
N1732 X169.967 Y-20.201 Z8.557 A72.1899 
N1733 X169.967 Y-20.210 Z8.553 A73.1485 
N1734 X169.966 Y-20.219 Z8.550 A74.1203 
N1735 X169.965 Y-20.228 Z8.546 A75.0971 
N1736 X169.962 Y-20.238 Z8.542 A76.1052 
N1737 X169.959 Y-20.248 Z8.538 A77.1832 
N1738 X169.954 Y-20.259 Z8.533 A78.3431 
N1739 X169.947 Y-20.270 Z8.527 A79.6010 
N1740 X169.939 Y-20.283 Z8.521 A80.9706 
N1741 X169.927 Y-20.296 Z8.513 A82.4645 
N1742 X169.912 Y-20.310 Z8.505 A84.0862 
N1743 X169.892 Y-20.325 Z8.495 A85.8357 
N1744 X169.868 Y-20.341 Z8.485 A87.7086 
N1745 X169.838 Y-20.358 Z8.473 A89.6964 
N1746 X169.802 Y-20.374 Z8.459 A91.7861 
N1747 X169.760 Y-20.391 Z8.445 A93.9596 
N1748 X169.711 Y-20.408 Z8.430 A96.1941 
N1749 X169.655 Y-20.425 Z8.414 A98.4639 
N1750 X169.594 Y-20.441 Z8.397 A100.7443 
N1751 X169.526 Y-20.456 Z8.380 A103.0165 
N1752 X169.454 Y-20.470 Z8.363 A105.2674 
N1753 X169.378 Y-20.484 Z8.345 A107.4867 
N1754 X169.300 Y-20.496 Z8.327 A109.6647 
N1755 X169.221 Y-20.508 Z8.310 A111.7932 
N1756 X169.143 Y-20.519 Z8.292 A113.8671 
N1757 X169.067 Y-20.528 Z8.274 A115.8860 
N1758 X168.994 Y-20.537 Z8.257 A117.8518 
N1759 X168.926 Y-20.545 Z8.239 A119.7658 
N1760 X168.864 Y-20.553 Z8.222 A121.6276 
N1761 X168.808 Y-20.559 Z8.205 A123.4357 
N1762 X168.758 Y-20.565 Z8.188 A125.1866 
N1763 X168.715 Y-20.570 Z8.171 A126.8758 
N1764 X168.678 Y-20.574 Z8.155 A128.4999 
N1765 X168.647 Y-20.577 Z8.140 A130.0598 
N1766 X168.621 Y-20.580 Z8.124 A131.5627 
N1767 X168.600 Y-20.582 Z8.109 A133.0236 
N1768 X168.583 Y-20.584 Z8.094 A134.4644 
N1769 X168.570 Y-20.586 Z8.078 A135.9148 
N1770 X168.558 Y-20.586 Z8.062 A137.4107 
N1771 X168.549 Y-20.586 Z8.044 A138.9912 
N1772 X168.543 Y-20.583 Z8.022 A140.6682 
N1773 X168.547 Y-20.577 Z7.998 A142.4501 
N1774 X168.555 Y-20.570 Z7.975 A143.9914 
N1775 X168.566 Y-20.558 Z7.951 A145.3459 
N1776 X168.576 Y-20.540 Z7.925 A146.4193 
N1777 X168.588 Y-20.513 Z7.896 A147.1134 
N1778 X168.600 Y-20.474 Z7.860 A147.4125 
N1779 X168.612 Y-20.420 Z7.813 A147.5772 
N1780 X168.626 Y-20.346 Z7.751 A147.7038 
N1781 X168.644 Y-20.247 Z7.669 A147.8027 
N1782 X168.667 Y-20.119 Z7.562 A147.8872 
N1783 X168.696 Y-19.955 Z7.426 A147.9690 
N1784 X168.731 Y-19.748 Z7.255 A148.0576 
N1785 X168.774 Y-19.492 Z7.044 A148.1617 
N1786 X168.824 Y-19.181 Z6.788 A148.2905 
N1787 X168.882 Y-18.810 Z6.484 A148.4547 
N1788 X168.948 Y-18.374 Z6.128 A148.6670 
N1789 X169.022 Y-17.872 Z5.719 A148.9411 
N1790 X169.102 Y-17.302 Z5.259 A149.2912 
N1791 X169.190 Y-16.666 Z4.751 A149.7305 
N1792 X169.284 Y-15.966 Z4.200 A150.2717 
N1793 X169.383 Y-15.209 Z3.615 A150.9260 
N1794 X169.486 Y-14.401 Z3.005 A151.7026 
N1795 X169.590 Y-13.549 Z2.380 A152.7241 
N1796 X169.693 Y-12.664 Z1.755 A154.0002 
N1797 X169.792 Y-11.755 Z1.143 A155.5452 
N1798 X169.881 Y-10.830 Z0.555 A157.3747 
N1799 X169.954 Y-9.900 Z0.006 A159.4995 
N1800 X170.001 Y-8.973 Z-0.496 A161.9166 
N1801 X170.021 Y-8.057 Z-0.940 A164.8439 
N1802 X170.044 Y-7.159 Z-1.320 A168.2409 
N1803 X170.073 Y-6.287 Z-1.631 A172.0867 
N1804 X170.107 Y-5.444 Z-1.871 A176.4041 
N1805 X170.146 Y-4.636 Z-2.039 A180.9957 
N1806 X170.187 Y-3.865 Z-2.137 A185.8564 
N1807 X170.231 Y-3.134 Z-2.168 A190.8353 
N1808 X170.277 Y-2.443 Z-2.136 A195.8899 
N1809 X170.322 Y-1.792 Z-2.046 A200.9635 
N1810 X170.366 Y-1.181 Z-1.904 A205.9970 
N1811 X170.408 Y-0.607 Z-1.714 A210.9396 
N1812 X170.448 Y-0.070 Z-1.483 A215.7561 
N1813 X170.484 Y0.433 Z-1.215 A220.2970 
N1814 X170.518 Y0.903 Z-0.913 A224.5466 
N1815 X170.549 Y1.343 Z-0.582 A228.4985 
N1816 X170.578 Y1.755 Z-0.225 A232.1553 
N1817 X170.604 Y2.139 Z0.154 A235.5261 
N1818 X170.628 Y2.497 Z0.552 A238.6233 
N1819 X170.640 Y2.830 Z0.965 A241.4592 
N1820 X170.625 Y3.138 Z1.389 A244.0424 
N1821 X170.586 Y3.422 Z1.821 A246.4981 
N1822 X170.525 Y3.683 Z2.254 A248.8353 
N1823 X170.446 Y3.919 Z2.685 A251.0639 
N1824 X170.352 Y4.132 Z3.109 A253.1933 
N1825 X170.247 Y4.322 Z3.524 A255.2371 
N1826 X170.133 Y4.491 Z3.925 A257.2187 
N1827 X170.013 Y4.638 Z4.308 A259.1668 
N1828 X169.888 Y4.766 Z4.672 A261.1084 
N1829 X169.761 Y4.875 Z5.013 A263.0647 
N1830 X169.632 Y4.966 Z5.331 A265.0538 
N1831 X169.504 Y5.042 Z5.624 A267.0943 
N1832 X169.377 Y5.102 Z5.891 A269.1987 
N1833 X169.255 Y5.150 Z6.133 A271.3758 
N1834 X169.138 Y5.188 Z6.350 A273.6456 
N1835 X169.023 Y5.216 Z6.542 A276.0327 
N1836 X168.912 Y5.236 Z6.710 A278.5518 
N1837 X168.805 Y5.251 Z6.855 A281.2077 
N1838 X168.703 Y5.261 Z6.978 A283.9922 
N1839 X168.607 Y5.269 Z7.083 A286.8846 
N1840 X168.518 Y5.274 Z7.172 A289.8565 
N1841 X168.439 Y5.277 Z7.250 A292.8821 
N1842 X168.369 Y5.279 Z7.320 A295.9411 
N1843 X168.308 Y5.279 Z7.384 A299.0186 
N1844 X168.255 Y5.278 Z7.445 A302.1067 
N1845 X168.209 Y5.275 Z7.502 A305.2107 
N1846 X168.171 Y5.270 Z7.558 A308.3459 
N1847 X168.143 Y5.260 Z7.616 A311.5217 
N1848 X168.125 Y5.247 Z7.674 A314.6940 
N1849 X168.109 Y5.231 Z7.728 A317.7780 
N1850 X168.089 Y5.216 Z7.777 A320.7174 
N1851 X168.068 Y5.200 Z7.819 A323.3464 
N1852 X168.046 Y5.184 Z7.858 A325.8204 
N1853 X168.024 Y5.167 Z7.894 A328.1591 
N1854 X168.003 Y5.150 Z7.928 A330.3893 
N1855 X167.982 Y5.132 Z7.960 A332.5387 
N1856 X167.961 Y5.113 Z7.991 A334.6334 
N1857 X167.942 Y5.092 Z8.021 A336.6975 
N1858 X167.923 Y5.070 Z8.051 A338.7542 
N1859 X167.906 Y5.046 Z8.080 A340.8260 
N1860 X167.889 Y5.020 Z8.110 A342.9354 
N1861 X167.875 Y4.991 Z8.140 A345.1037 
N1862 X167.863 Y4.957 Z8.171 A347.3459 
N1863 X167.855 Y4.918 Z8.202 A349.6661 
N1864 X167.852 Y4.873 Z8.234 A352.0560 
N1865 X167.857 Y4.821 Z8.265 A354.4956 
N1866 X167.872 Y4.762 Z8.296 A356.9573 
N1867 X167.898 Y4.695 Z8.324 A359.4169 
N1868 X167.934 Y4.618 Z8.351 A1.8583 
N1869 X167.982 Y4.528 Z8.375 A4.2694 
N1870 X168.044 Y4.425 Z8.395 A6.6413 
N1871 X168.120 Y4.302 Z8.411 A8.9691 
N1872 X168.212 Y4.158 Z8.420 A11.2464 
N1873 X168.321 Y3.989 Z8.420 A13.4636 
N1874 X168.447 Y3.789 Z8.409 A15.6121 
N1875 X168.589 Y3.554 Z8.384 A17.6873 
N1876 X168.751 Y3.284 Z8.342 A19.6838 
N1877 X168.929 Y2.971 Z8.280 A21.5826 
N1878 X169.116 Y2.612 Z8.192 A23.3653 
N1879 X169.309 Y2.204 Z8.075 A24.9119 
N1880 X169.503 Y1.745 Z7.928 A26.2056 
N1881 X169.689 Y1.233 Z7.748 A27.2277 
N1882 X169.862 Y0.667 Z7.537 A27.9751 
N1883 X170.015 Y0.049 Z7.296 A28.4585 
N1884 X170.144 Y-0.621 Z7.029 A28.6917 
N1885 X170.249 Y-1.337 Z6.740 A28.4687 
N1886 X170.335 Y-2.097 Z6.435 A27.7528 
N1887 X170.400 Y-2.898 Z6.124 A26.4804 
N1888 X170.448 Y-3.737 Z5.820 A24.6077 
N1889 X170.478 Y-4.613 Z5.537 A22.1388 
N1890 X170.496 Y-5.521 Z5.288 A19.1202 
N1891 X170.505 Y-6.456 Z5.087 A15.6418 
N1892 X170.507 Y-7.411 Z4.947 A11.9958 
N1893 X170.507 Y-8.376 Z4.874 A8.3222 
N1894 X170.501 Y-9.338 Z4.870 A4.6913 
N1895 X170.492 Y-10.287 Z4.930 A1.1695 
N1896 X170.478 Y-11.210 Z5.049 A357.8037 
N1897 X170.458 Y-12.100 Z5.217 A354.7812 
N1898 X170.429 Y-12.948 Z5.423 A352.1158 
N1899 X170.389 Y-13.748 Z5.656 A349.8002 
N1900 X170.339 Y-14.494 Z5.904 A347.8120 
N1901 X170.277 Y-15.183 Z6.158 A346.1229 
N1902 X170.205 Y-15.812 Z6.410 A344.7053 
N1903 X170.126 Y-16.381 Z6.653 A343.5419 
N1904 X170.040 Y-16.888 Z6.883 A342.6325 
N1905 X169.951 Y-17.335 Z7.093 A341.8574 
N1906 X169.861 Y-17.725 Z7.283 A341.2099 
N1907 X169.775 Y-18.062 Z7.450 A340.6749 
N1908 X169.694 Y-18.348 Z7.595 A340.2365 
N1909 X169.620 Y-18.591 Z7.719 A339.8821 
N1910 X169.554 Y-18.793 Z7.825 A339.6038 
N1911 X169.496 Y-18.962 Z7.914 A339.3996 
N1912 X169.447 Y-19.101 Z7.989 A339.2740 
N1913 X169.404 Y-19.216 Z8.051 A339.2408 
N1914 X169.362 Y-19.310 Z8.105 A339.4351 
N1915 X169.307 Y-19.380 Z8.148 A340.1918 
N1916 X169.237 Y-19.418 Z8.179 A341.5113 
N1917 X169.171 Y-19.438 Z8.200 A342.9976 
N1918 X169.112 Y-19.452 Z8.218 A344.5093 
N1919 X169.060 Y-19.463 Z8.235 A346.0110 
N1920 X169.013 Y-19.473 Z8.250 A347.4838 
N1921 X168.970 Y-19.482 Z8.264 A348.9185 
N1922 X168.932 Y-19.490 Z8.277 A350.3103 
N1923 X168.897 Y-19.498 Z8.289 A351.6563 
N1924 X168.866 Y-19.505 Z8.301 A352.9540 
N1925 X168.838 Y-19.512 Z8.312 A354.2014 
N1926 X168.814 Y-19.519 Z8.323 A355.3971 
N1927 X168.793 Y-19.526 Z8.332 A356.5385 
N1928 X168.774 Y-19.533 Z8.342 A357.6223 
N1929 X168.759 Y-19.539 Z8.350 A358.6443 
N1930 X168.746 Y-19.545 Z8.358 A359.6013 
N1931 X168.735 Y-19.550 Z8.365 A0.4911 
N1932 X168.727 Y-19.555 Z8.372 A1.3126 
N1933 X168.721 Y-19.560 Z8.378 A2.0669 
N1934 X168.716 Y-19.564 Z8.383 A2.7568 
N1935 X168.711 Y-19.569 Z8.388 A3.3873 
N1936 X168.709 Y-19.572 Z8.392 A3.9561 
N1937 X168.707 Y-19.576 Z8.396 A4.4856 
N1938 X168.705 Y-19.579 Z8.400 A4.9766 
N1939 X168.704 Y-19.582 Z8.404 A5.4368 
N1940 X168.703 Y-19.584 Z8.407 A5.8966 
N1941 X168.703 Y-19.588 Z8.411 A6.3766 
N1942 X168.702 Y-19.591 Z8.414 A6.8862 
N1943 X168.703 Y-19.595 Z8.418 A7.4203 
N1944 X168.703 Y-19.599 Z8.422 A7.9732 
N1945 X168.705 Y-19.603 Z8.426 A8.5586 
N1946 X168.706 Y-19.607 Z8.431 A9.1602 
N1947 X168.708 Y-19.611 Z8.435 A9.7885 
N1948 X168.711 Y-19.616 Z8.440 A10.4760 
N1949 X168.715 Y-19.622 Z8.445 A11.2363 
N1950 X168.721 Y-19.628 Z8.451 A12.0816 
N1951 X168.729 Y-19.635 Z8.457 A13.0129 
N1952 X168.739 Y-19.642 Z8.463 A14.0335 
N1953 X168.753 Y-19.651 Z8.471 A15.1443 
N1954 X168.770 Y-19.660 Z8.478 A16.3473 
N1955 X168.792 Y-19.671 Z8.486 A17.6442 
N1956 X168.819 Y-19.682 Z8.494 A19.0366 
N1957 X168.851 Y-19.694 Z8.502 A20.5251 
N1958 X168.888 Y-19.708 Z8.511 A22.1074 
N1959 X168.932 Y-19.722 Z8.519 A23.7762 
N1960 X168.982 Y-19.738 Z8.528 A25.5215 
N1961 X169.037 Y-19.754 Z8.536 A27.3329 
N1962 X169.097 Y-19.771 Z8.544 A29.2000 
N1963 X169.161 Y-19.789 Z8.552 A31.1129 
N1964 X169.229 Y-19.807 Z8.559 A33.0640 
N1965 X169.299 Y-19.826 Z8.565 A35.0492 
N1966 X169.369 Y-19.846 Z8.571 A37.0689 
N1967 X169.439 Y-19.866 Z8.577 A39.1252 
N1968 X169.506 Y-19.887 Z8.581 A41.2191 
N1969 X169.571 Y-19.908 Z8.585 A43.3469 
N1970 X169.631 Y-19.930 Z8.588 A45.4990 
N1971 X169.686 Y-19.953 Z8.590 A47.6592 
N1972 X169.736 Y-19.975 Z8.592 A49.8044 
N1973 X169.780 Y-19.997 Z8.592 A51.9099 
N1974 X169.818 Y-20.018 Z8.592 A53.9540 
N1975 X169.850 Y-20.038 Z8.590 A55.9207 
N1976 X169.877 Y-20.057 Z8.589 A57.7972 
N1977 X169.899 Y-20.075 Z8.587 A59.5727 
N1978 X169.917 Y-20.092 Z8.584 A61.2382 
N1979 X169.931 Y-20.108 Z8.581 A62.7874 
N1980 X169.941 Y-20.123 Z8.578 A64.2168 
N1981 X169.949 Y-20.136 Z8.575 A65.5259 
N1982 X169.955 Y-20.148 Z8.572 A66.7216 
N1983 X169.959 Y-20.158 Z8.570 A67.8129 
N1984 X169.963 Y-20.168 Z8.567 A68.8164 
N1985 X169.964 Y-20.177 Z8.564 A69.7309 
N1986 X169.966 Y-20.185 Z8.562 A70.6043 
N1987 X169.967 Y-20.194 Z8.559 A71.4572 
N1988 X169.967 Y-20.202 Z8.556 A72.2831 
N1989 X169.967 Y-20.209 Z8.553 A73.0985 
N1990 X169.967 Y-20.217 Z8.551 A73.9149 
N1991 X169.966 Y-20.225 Z8.548 A74.7536 
N1992 X169.964 Y-20.234 Z8.544 A75.6547 
N1993 X169.961 Y-20.243 Z8.540 A76.6128 
N1994 X169.958 Y-20.252 Z8.536 A77.6571 
N1995 X169.953 Y-20.263 Z8.531 A78.8018 
N1996 X169.945 Y-20.274 Z8.525 A80.0642 
N1997 X169.936 Y-20.287 Z8.519 A81.4500 
N1998 X169.923 Y-20.300 Z8.511 A82.9639 
N1999 X169.907 Y-20.315 Z8.502 A84.6073 
N2000 X169.886 Y-20.330 Z8.492 A86.3783 
N2001 X169.860 Y-20.346 Z8.481 A88.2708 
N2002 X169.829 Y-20.362 Z8.469 A90.2748 
N2003 X169.792 Y-20.379 Z8.456 A92.3759 
N2004 X169.748 Y-20.396 Z8.441 A94.5551 
N2005 X169.697 Y-20.413 Z8.426 A96.7889 
N2006 X169.640 Y-20.429 Z8.410 A99.0521 
N2007 X169.577 Y-20.445 Z8.393 A101.3215 
N2008 X169.508 Y-20.460 Z8.376 A103.5804 
N2009 X169.435 Y-20.474 Z8.358 A105.8162 
N2010 X169.359 Y-20.487 Z8.341 A108.0189 
N2011 X169.281 Y-20.499 Z8.323 A110.1790 
N2012 X169.202 Y-20.511 Z8.305 A112.2887 
N2013 X169.124 Y-20.521 Z8.288 A114.3440 
N2014 X169.049 Y-20.531 Z8.270 A116.3447 
N2015 X168.977 Y-20.539 Z8.253 A118.2924 
N2016 X168.911 Y-20.547 Z8.235 A120.1872 
N2017 X168.850 Y-20.554 Z8.218 A122.0282 
N2018 X168.795 Y-20.560 Z8.201 A123.8124 
N2019 X168.747 Y-20.566 Z8.185 A125.5352 
N2020 X168.705 Y-20.570 Z8.168 A127.1910 
N2021 X168.670 Y-20.574 Z8.152 A128.7752 
N2022 X168.641 Y-20.578 Z8.137 A130.2868 
N2023 X168.617 Y-20.580 Z8.122 A131.7298 
N2024 X168.597 Y-20.582 Z8.108 A133.1141 
N2025 X168.581 Y-20.584 Z8.094 A134.4540 
N2026 X168.569 Y-20.585 Z8.079 A135.7691 
N2027 X168.559 Y-20.586 Z8.065 A137.0862 
N2028 X168.551 Y-20.586 Z8.050 A138.4379 
N2029 X168.545 Y-20.584 Z8.033 A139.8487 
N2030 X168.543 Y-20.581 Z8.014 A141.3091 
N2031 X168.548 Y-20.576 Z7.994 A142.7729 
N2032 X168.556 Y-20.569 Z7.974 A144.0960 
N2033 X168.566 Y-20.558 Z7.951 A145.3408 
N2034 X171.573 Y-26.302 Z0.338 
N2035 G00 X183.601 Y-49.279 Z-30.115 
RAPORT("T13732","Spiral Finish Transition:112 End")
N2037 ;trailer : concat=None
; points cnt = 1974
N2038 MSG (" --- GROUPED OF SUBPROGRAM --- ")
N2039 FGROUP()
N2040 TRAFOOF
N10 ; PROGRAM NAME: 1373232
N11 ; ORDER       : 13732
N12 ; OPER. NAME  : Spiral Finish Transition:114
N13 ; OPER. DESCR.: Spiral transition - Semi finish transition shroud
N14 ; OPER. TYPE  : finTransRoot
N15 ; GEO. OPTION : 7
N16 ; MACHINE     : SH_HX151_24_SIM840D
N17 ;             : STARRAG_HECKERT_5axis_finish_milling_machine
N18 ; CONTROL     : SINUMERIK 840D
N19 ; created:   2021-11-09 15:27:05.147974
;-------DODATKOWE DANE-------------------
; PROGRAMISTA : Mariusz Orzechowski
; PARTID      : 132T008743P1005_-
;  ae         : 1.5
;  lean_angle : 5.0
;  tilt_angle : -15.5
;  airf_offset: 0.05
;  plat_offset: 0.3
;----------------------------------------
N20 ;----------------------------------------
RAPORT("T13732","Spiral Finish Transition:114")
N21 TRAFOOF
N22 D0
N23 G0 G90 G94 Z260.0
N24 STOPRE
N25 M9 ; chlodziwo wyl
N26 ; --- Spiral Finish Transition:114 - Spiral transition - Semi finish transition shroud ---
N28 ;ToolChange : concat=None ,current_tdmid=None, PP.tdmId=958044
N29 TRAFOOF
N30 D0
N31 G0 G54 Z270.0
N32 S2579 M03
N33 STOPRE
N34 TOL(0.001,1,1)
N35 G0  A134.8018
N36 TRAORI
N37 G54 D2
N38 D2 
N39 TRANS  X=R4 A=R25
STOPRE
E_ZDARZ=400005
;ACS_PREFINISH_UBG_B_CONST_BBK_SHROUD=7758044
STOPRE
N40 ; DELTA A > 40.1
N41 TRAFOOF
N42 STOPRE
N43 G0 G53 D0 Z265.000
N44 G1 G53 A134.8018 F10000
N45 TRAORI
N46 G54 D2
N47 TRANS  X=R4 A=R25
N48 G00 X182.527 Y-55.138 Z-40.188 A134.8018 B-20.4173 
N49 M342 ; chlodziwo woda
N50 X195.889 Y-19.879 Z-7.351 
N51 G01 X195.889 Y-18.173 Z-4.729 F515 
N52 X195.889 Y-17.361 Z-1.707 
N53 X195.889 Y-17.523 Z1.417 
N54 X195.889 Y-18.642 Z4.339 
N55 X195.889 Y-20.610 Z6.772 
N56 X195.890 Y-20.702 Z6.837 A131.1890 
N57 X195.891 Y-20.829 Z6.932 A125.0438 
N58 X195.892 Y-20.957 Z7.050 A117.8343 
N59 X195.893 Y-21.061 Z7.171 A111.0098 
N60 X195.894 Y-21.140 Z7.288 A104.8735 
N61 X195.896 Y-21.192 Z7.383 A100.1383 
N62 X195.897 Y-21.228 Z7.465 A96.1990 
N63 X195.898 Y-21.252 Z7.534 A92.9379 
N64 X195.899 Y-21.269 Z7.593 A90.2240 
N65 X195.900 Y-21.282 Z7.647 A87.7581 
N66 X195.901 Y-21.291 Z7.696 A85.5082 
N67 X195.903 Y-21.298 Z7.744 A83.3528 
N68 X195.904 Y-21.303 Z7.790 A81.2739 
N69 X195.905 Y-21.305 Z7.834 A79.2547 
N70 X195.906 Y-21.307 Z7.878 A77.2796 
N71 X195.907 Y-21.306 Z7.921 A75.3369 
N72 X195.908 Y-21.305 Z7.963 A73.4170 
N73 X195.909 Y-21.302 Z8.005 A71.5137 
N74 X195.911 Y-21.297 Z8.046 A69.6213 
N75 X195.912 Y-21.291 Z8.087 A67.7365 
N76 X195.913 Y-21.284 Z8.128 A65.8568 
N77 X195.914 Y-21.276 Z8.168 A63.9798 
N78 X195.915 Y-21.266 Z8.208 A62.1048 
N79 X195.917 Y-21.256 Z8.247 A60.2307 
N80 X195.918 Y-21.244 Z8.286 A58.3568 
N81 X195.919 Y-21.230 Z8.324 A56.4829 
N82 X195.920 Y-21.216 Z8.362 A54.6087 
N83 X195.921 Y-21.200 Z8.399 A52.7341 
N84 X195.922 Y-21.184 Z8.435 A50.8589 
N85 X195.924 Y-21.166 Z8.471 A48.9831 
N86 X195.925 Y-21.147 Z8.506 A47.1068 
N87 X195.926 Y-21.127 Z8.541 A45.2297 
N88 X195.927 Y-21.106 Z8.574 A43.3519 
N89 X195.928 Y-21.085 Z8.607 A41.4730 
N90 X195.929 Y-21.062 Z8.639 A39.5922 
N91 X195.931 Y-21.038 Z8.671 A37.7095 
N92 X195.932 Y-21.013 Z8.701 A35.8232 
N93 X195.933 Y-20.988 Z8.731 A33.9317 
N94 X195.934 Y-20.961 Z8.759 A32.0333 
N95 X195.935 Y-20.934 Z8.787 A30.1241 
N96 X195.937 Y-20.905 Z8.814 A28.2004 
N97 X195.938 Y-20.876 Z8.841 A26.2562 
N98 X195.939 Y-20.845 Z8.867 A24.2837 
N99 X195.940 Y-20.814 Z8.892 A22.2730 
N100 X195.941 Y-20.780 Z8.916 A20.2109 
N101 X195.942 Y-20.745 Z8.940 A18.0814 
N102 X195.944 Y-20.708 Z8.964 A15.8650 
N103 X195.945 Y-20.669 Z8.988 A13.5451 
N104 X195.946 Y-20.625 Z9.012 A10.9769 
N105 X195.947 Y-20.574 Z9.038 A8.1180 
N106 X195.948 Y-20.517 Z9.064 A4.9254 
N107 X195.950 Y-20.446 Z9.091 A1.0564 
N108 X195.951 Y-20.359 Z9.119 A356.4344 
N109 X195.952 Y-20.253 Z9.143 A350.9905 
N110 X195.953 Y-20.140 Z9.157 A345.3801 
N111 X195.955 Y-20.023 Z9.159 A339.7663 
N112 X195.956 Y-19.912 Z9.148 A334.7890 
N113 X195.957 Y-19.825 Z9.127 A331.4143 
N114 X195.959 Y-19.758 Z9.102 A329.5342 
N115 X195.960 Y-19.700 Z9.072 A328.7747 
N116 X195.962 Y-19.637 Z9.035 A328.5011 
N117 X195.964 Y-19.561 Z8.989 A328.4283 
N118 X195.966 Y-19.468 Z8.933 A328.5054 
N119 X195.968 Y-19.352 Z8.864 A328.6446 
N120 X195.970 Y-19.209 Z8.781 A328.8378 
N121 X195.973 Y-19.037 Z8.683 A329.0829 
N122 X195.976 Y-18.832 Z8.568 A329.3819 
N123 X195.979 Y-18.592 Z8.436 A329.7405 
N124 X195.983 Y-18.315 Z8.286 A330.1680 
N125 X195.987 Y-18.001 Z8.119 A330.6772 
N126 X195.992 Y-17.649 Z7.936 A331.2829 
N127 X195.996 Y-17.262 Z7.740 A331.9988 
N128 X196.002 Y-16.840 Z7.534 A332.8332 
N129 X196.008 Y-16.387 Z7.321 A333.7887 
N130 X196.014 Y-15.906 Z7.104 A334.8654 
N131 X196.020 Y-15.401 Z6.888 A336.0651 
N132 X196.027 Y-14.877 Z6.677 A337.3914 
N133 X196.034 Y-14.337 Z6.474 A338.8476 
N134 X196.042 Y-13.787 Z6.282 A340.4354 
N135 X196.049 Y-13.230 Z6.105 A342.1549 
N136 X196.057 Y-12.668 Z5.946 A344.0033 
N137 X196.066 Y-12.104 Z5.805 A345.9746 
N138 X196.074 Y-11.539 Z5.684 A348.0595 
N139 X196.083 Y-10.973 Z5.585 A350.2461 
N140 X196.092 Y-10.406 Z5.509 A352.5203 
N141 X196.102 Y-9.836 Z5.455 A354.8660 
N142 X196.112 Y-9.261 Z5.426 A357.2642 
N143 X196.122 Y-8.681 Z5.423 A359.6928 
N144 X196.132 Y-8.092 Z5.445 A2.1259 
N145 X196.143 Y-7.495 Z5.496 A4.5330 
N146 X196.154 Y-6.887 Z5.576 A6.8789 
N147 X196.166 Y-6.270 Z5.685 A9.1257 
N148 X196.178 Y-5.645 Z5.823 A11.2395 
N149 X196.190 Y-5.014 Z5.987 A13.1987 
N150 X196.203 Y-4.379 Z6.178 A14.8455 
N151 X196.216 Y-3.743 Z6.389 A16.1646 
N152 X196.229 Y-3.111 Z6.615 A17.1455 
N153 X196.241 Y-2.488 Z6.850 A17.7943 
N154 X196.253 Y-1.878 Z7.087 A18.1320 
N155 X196.265 Y-1.288 Z7.320 A18.1855 
N156 X196.277 Y-0.721 Z7.544 A17.9771 
N157 X196.288 Y-0.183 Z7.754 A17.5147 
N158 X196.298 Y0.322 Z7.949 A16.7834 
N159 X196.307 Y0.794 Z8.125 A15.7474 
N160 X196.316 Y1.227 Z8.279 A14.5317 
N161 X196.324 Y1.623 Z8.411 A13.1321 
N162 X196.331 Y1.981 Z8.521 A11.5574 
N163 X196.337 Y2.301 Z8.612 A9.8215 
N164 X196.342 Y2.587 Z8.684 A7.9490 
N165 X196.347 Y2.839 Z8.740 A5.9712 
N166 X196.351 Y3.061 Z8.782 A3.9008 
N167 X196.355 Y3.255 Z8.814 A1.7382 
N168 X196.358 Y3.426 Z8.837 A359.4897 
N169 X196.361 Y3.576 Z8.853 A357.1652 
N170 X196.364 Y3.709 Z8.863 A354.7733 
N171 X196.366 Y3.827 Z8.869 A352.3222 
N172 X196.368 Y3.933 Z8.871 A349.8229 
N173 X196.370 Y4.030 Z8.870 A347.2905 
N174 X196.372 Y4.117 Z8.866 A344.7439 
N175 X196.373 Y4.198 Z8.860 A342.2035 
N176 X196.375 Y4.272 Z8.852 A339.6873 
N177 X196.376 Y4.342 Z8.842 A337.2088 
N178 X196.378 Y4.406 Z8.830 A334.7758 
N179 X196.379 Y4.467 Z8.817 A332.3916 
N180 X196.381 Y4.524 Z8.802 A330.0553 
N181 X196.382 Y4.579 Z8.786 A327.7636 
N182 X196.383 Y4.630 Z8.768 A325.5110 
N183 X196.385 Y4.680 Z8.749 A323.2911 
N184 X196.386 Y4.728 Z8.729 A321.0968 
N185 X196.387 Y4.774 Z8.708 A318.9208 
N186 X196.388 Y4.818 Z8.685 A316.7558 
N187 X196.389 Y4.861 Z8.661 A314.5947 
N188 X196.391 Y4.903 Z8.636 A312.4308 
N189 X196.392 Y4.944 Z8.609 A310.2572 
N190 X196.393 Y4.984 Z8.581 A308.0676 
N191 X196.394 Y5.024 Z8.551 A305.8560 
N192 X196.395 Y5.063 Z8.519 A303.6167 
N193 X196.396 Y5.101 Z8.485 A301.3450 
N194 X196.398 Y5.138 Z8.449 A299.0372 
N195 X196.399 Y5.175 Z8.410 A296.6916 
N196 X196.400 Y5.212 Z8.369 A294.3086 
N197 X196.401 Y5.248 Z8.324 A291.8913 
N198 X196.402 Y5.283 Z8.275 A289.4464 
N199 X196.403 Y5.317 Z8.223 A286.9847 
N200 X196.404 Y5.350 Z8.166 A284.5217 
N201 X196.404 Y5.381 Z8.104 A282.0766 
N202 X196.405 Y5.411 Z8.036 A279.6716 
N203 X196.406 Y5.438 Z7.962 A277.3286 
N204 X196.407 Y5.462 Z7.882 A275.0658 
N205 X196.407 Y5.483 Z7.794 A272.8957 
N206 X196.408 Y5.501 Z7.697 A270.8248 
N207 X196.408 Y5.515 Z7.590 A268.8537 
N208 X196.408 Y5.526 Z7.473 A266.9775 
N209 X196.408 Y5.531 Z7.344 A265.1870 
N210 X196.408 Y5.532 Z7.201 A263.4714 
N211 X196.407 Y5.527 Z7.044 A261.8189 
N212 X196.407 Y5.516 Z6.871 A260.2151 
N213 X196.406 Y5.498 Z6.682 A258.6436 
N214 X196.404 Y5.472 Z6.477 A257.0947 
N215 X196.403 Y5.437 Z6.255 A255.5697 
N216 X196.401 Y5.392 Z6.016 A254.0716 
N217 X196.399 Y5.336 Z5.761 A252.5975 
N218 X196.396 Y5.270 Z5.491 A251.1419 
N219 X196.394 Y5.192 Z5.207 A249.7002 
N220 X196.391 Y5.103 Z4.911 A248.2675 
N221 X196.387 Y5.002 Z4.604 A246.8363 
N222 X196.384 Y4.889 Z4.289 A245.3953 
N223 X196.380 Y4.765 Z3.966 A243.9320 
N224 X196.376 Y4.630 Z3.640 A242.4365 
N225 X196.372 Y4.484 Z3.312 A240.9043 
N226 X196.367 Y4.328 Z2.985 A239.3359 
N227 X196.363 Y4.162 Z2.660 A237.7337 
N228 X196.359 Y3.988 Z2.341 A236.0985 
N229 X196.354 Y3.806 Z2.029 A234.4281 
N230 X196.350 Y3.618 Z1.725 A232.7189 
N231 X196.345 Y3.424 Z1.432 A230.9677 
N232 X196.341 Y3.225 Z1.150 A229.1735 
N233 X196.337 Y3.021 Z0.879 A227.3369 
N234 X196.332 Y2.815 Z0.622 A225.4600 
N235 X196.328 Y2.606 Z0.377 A223.5462 
N236 X196.324 Y2.394 Z0.145 A221.5990 
N237 X196.320 Y2.181 Z-0.074 A219.6223 
N238 X196.317 Y1.966 Z-0.280 A217.6199 
N239 X196.313 Y1.750 Z-0.473 A215.5955 
N240 X196.309 Y1.533 Z-0.655 A213.5525 
N241 X196.306 Y1.315 Z-0.824 A211.4941 
N242 X196.303 Y1.096 Z-0.983 A209.4231 
N243 X196.299 Y0.875 Z-1.131 A207.3418 
N244 X196.296 Y0.653 Z-1.269 A205.2521 
N245 X196.293 Y0.429 Z-1.397 A203.1552 
N246 X196.290 Y0.203 Z-1.516 A201.0521 
N247 X196.287 Y-0.027 Z-1.626 A198.9435 
N248 X196.284 Y-0.259 Z-1.727 A196.8297 
N249 X196.281 Y-0.495 Z-1.820 A194.7108 
N250 X196.278 Y-0.736 Z-1.904 A192.5868 
N251 X196.276 Y-0.983 Z-1.980 A190.4569 
N252 X196.273 Y-1.235 Z-2.048 A188.3204 
N253 X196.270 Y-1.495 Z-2.107 A186.1762 
N254 X196.267 Y-1.764 Z-2.158 A184.0234 
N255 X196.264 Y-2.042 Z-2.199 A181.8610 
N256 X196.261 Y-2.331 Z-2.230 A179.6882 
N257 X196.258 Y-2.633 Z-2.251 A177.5043 
N258 X196.255 Y-2.950 Z-2.261 A175.3092 
N259 X196.251 Y-3.284 Z-2.257 A173.1032 
N260 X196.248 Y-3.637 Z-2.239 A170.8876 
N261 X196.244 Y-4.013 Z-2.205 A168.6653 
N262 X196.241 Y-4.413 Z-2.151 A166.4407 
N263 X196.237 Y-4.841 Z-2.076 A164.2199 
N264 X196.233 Y-5.299 Z-1.975 A162.0111 
N265 X196.228 Y-5.790 Z-1.846 A159.8244 
N266 X196.224 Y-6.316 Z-1.684 A157.6727 
N267 X196.219 Y-6.877 Z-1.486 A155.5720 
N268 X196.215 Y-7.474 Z-1.248 A153.5429 
N269 X196.210 Y-8.106 Z-0.968 A151.6084 
N270 X196.205 Y-8.772 Z-0.644 A149.7884 
N271 X196.200 Y-9.466 Z-0.277 A148.0955 
N272 X196.195 Y-10.186 Z0.133 A146.5375 
N273 X196.190 Y-10.925 Z0.581 A145.1198 
N274 X196.186 Y-11.675 Z1.062 A143.8461 
N275 X196.181 Y-12.429 Z1.569 A142.7173 
N276 X196.177 Y-13.179 Z2.094 A141.7318 
N277 X196.173 Y-13.914 Z2.628 A140.8854 
N278 X196.170 Y-14.626 Z3.160 A140.1697 
N279 X196.166 Y-15.306 Z3.681 A139.5714 
N280 X196.163 Y-15.948 Z4.182 A139.0767 
N281 X196.161 Y-16.543 Z4.654 A138.6732 
N282 X196.159 Y-17.088 Z5.091 A138.3495 
N283 X196.157 Y-17.577 Z5.489 A138.0945 
N284 X196.155 Y-18.011 Z5.845 A137.8969 
N285 X196.154 Y-18.389 Z6.156 A137.7449 
N286 X196.153 Y-18.712 Z6.425 A137.6272 
N287 X196.153 Y-18.984 Z6.652 A137.5346 
N288 X196.152 Y-19.208 Z6.841 A137.4592 
N289 X196.153 Y-19.391 Z6.995 A137.3944 
N290 X196.153 Y-19.536 Z7.120 A137.3333 
N291 X196.153 Y-19.650 Z7.218 A137.2674 
N292 X196.154 Y-19.737 Z7.295 A137.1868 
N293 X196.154 Y-19.804 Z7.354 A137.0254 
N294 X196.155 Y-19.857 Z7.398 A136.4481 
N295 X196.156 Y-19.904 Z7.429 A134.8018 
N296 X196.156 Y-19.960 Z7.445 A131.1890 
N297 X196.156 Y-20.029 Z7.455 A125.0438 
N298 X196.156 Y-20.101 Z7.467 A117.8343 
N299 X196.156 Y-20.166 Z7.482 A111.0098 
N300 X196.156 Y-20.221 Z7.501 A104.8735 
N301 X196.156 Y-20.262 Z7.519 A100.1383 
N302 X196.156 Y-20.295 Z7.536 A96.1990 
N303 X196.156 Y-20.321 Z7.552 A92.9379 
N304 X196.156 Y-20.342 Z7.567 A90.2240 
N305 X196.156 Y-20.361 Z7.581 A87.7581 
N306 X196.156 Y-20.377 Z7.595 A85.5082 
N307 X196.156 Y-20.392 Z7.609 A83.3528 
N308 X196.156 Y-20.407 Z7.623 A81.2739 
N309 X196.157 Y-20.420 Z7.637 A79.2547 
N310 X196.157 Y-20.432 Z7.651 A77.2796 
N311 X196.157 Y-20.444 Z7.666 A75.3369 
N312 X196.157 Y-20.455 Z7.680 A73.4170 
N313 X196.157 Y-20.466 Z7.695 A71.5137 
N314 X196.157 Y-20.476 Z7.711 A69.6213 
N315 X196.157 Y-20.485 Z7.727 A67.7365 
N316 X196.157 Y-20.494 Z7.743 A65.8568 
N317 X196.157 Y-20.502 Z7.759 A63.9798 
N318 X196.157 Y-20.510 Z7.776 A62.1048 
N319 X196.157 Y-20.517 Z7.792 A60.2307 
N320 X196.157 Y-20.524 Z7.809 A58.3568 
N321 X196.157 Y-20.530 Z7.827 A56.4829 
N322 X196.157 Y-20.535 Z7.844 A54.6087 
N323 X196.157 Y-20.540 Z7.862 A52.7341 
N324 X196.157 Y-20.544 Z7.880 A50.8589 
N325 X196.157 Y-20.548 Z7.898 A48.9831 
N326 X196.157 Y-20.551 Z7.916 A47.1068 
N327 X196.158 Y-20.554 Z7.934 A45.2297 
N328 X196.158 Y-20.556 Z7.952 A43.3519 
N329 X196.158 Y-20.557 Z7.970 A41.4730 
N330 X196.158 Y-20.558 Z7.989 A39.5922 
N331 X196.158 Y-20.558 Z8.007 A37.7095 
N332 X196.158 Y-20.558 Z8.025 A35.8232 
N333 X196.158 Y-20.557 Z8.043 A33.9317 
N334 X196.158 Y-20.555 Z8.062 A32.0333 
N335 X196.158 Y-20.553 Z8.080 A30.1241 
N336 X196.158 Y-20.551 Z8.099 A28.2004 
N337 X196.158 Y-20.547 Z8.117 A26.2562 
N338 X196.158 Y-20.543 Z8.135 A24.2837 
N339 X196.158 Y-20.539 Z8.154 A22.2730 
N340 X196.158 Y-20.534 Z8.173 A20.2109 
N341 X196.158 Y-20.528 Z8.193 A18.0814 
N342 X196.159 Y-20.521 Z8.212 A15.8650 
N343 X196.159 Y-20.513 Z8.233 A13.5451 
N344 X196.159 Y-20.503 Z8.255 A10.9769 
N345 X196.159 Y-20.491 Z8.279 A8.1180 
N346 X196.159 Y-20.476 Z8.306 A4.9254 
N347 X196.159 Y-20.456 Z8.337 A1.0564 
N348 X196.159 Y-20.429 Z8.371 A356.4344 
N349 X196.159 Y-20.394 Z8.410 A350.9905 
N350 X196.159 Y-20.351 Z8.445 A345.3801 
N351 X196.159 Y-20.300 Z8.474 A339.7663 
N352 X196.160 Y-20.246 Z8.493 A334.7890 
N353 X196.160 Y-20.195 Z8.497 A331.4143 
N354 X196.160 Y-20.146 Z8.488 A329.5342 
N355 X196.161 Y-20.094 Z8.466 A328.7747 
N356 X196.161 Y-20.032 Z8.434 A328.5011 
N357 X196.162 Y-19.955 Z8.392 A328.4283 
N358 X196.163 Y-19.858 Z8.339 A328.5054 
N359 X196.164 Y-19.739 Z8.273 A328.6446 
N360 X196.165 Y-19.592 Z8.192 A328.8378 
N361 X196.167 Y-19.415 Z8.096 A329.0829 
N362 X196.169 Y-19.205 Z7.982 A329.3819 
N363 X196.171 Y-18.959 Z7.851 A329.7405 
N364 X196.173 Y-18.675 Z7.701 A330.1680 
N365 X196.176 Y-18.354 Z7.535 A330.6772 
N366 X196.180 Y-17.994 Z7.352 A331.2829 
N367 X196.184 Y-17.597 Z7.155 A331.9988 
N368 X196.188 Y-17.165 Z6.947 A332.8332 
N369 X196.192 Y-16.701 Z6.732 A333.7887 
N370 X196.197 Y-16.207 Z6.514 A334.8654 
N371 X196.203 Y-15.688 Z6.295 A336.0651 
N372 X196.208 Y-15.148 Z6.081 A337.3914 
N373 X196.215 Y-14.592 Z5.875 A338.8476 
N374 X196.221 Y-14.023 Z5.680 A340.4354 
N375 X196.228 Y-13.446 Z5.501 A342.1549 
N376 X196.235 Y-12.863 Z5.338 A344.0033 
N377 X196.242 Y-12.277 Z5.194 A345.9746 
N378 X196.249 Y-11.689 Z5.072 A348.0595 
N379 X196.257 Y-11.099 Z4.972 A350.2461 
N380 X196.265 Y-10.506 Z4.895 A352.5203 
N381 X196.273 Y-9.911 Z4.842 A354.8660 
N382 X196.282 Y-9.310 Z4.814 A357.2642 
N383 X196.291 Y-8.704 Z4.813 A359.6928 
N384 X196.300 Y-8.089 Z4.839 A2.1259 
N385 X196.310 Y-7.466 Z4.894 A4.5330 
N386 X196.320 Y-6.835 Z4.980 A6.8789 
N387 X196.331 Y-6.195 Z5.095 A9.1257 
N388 X196.342 Y-5.549 Z5.240 A11.2395 
N389 X196.353 Y-4.899 Z5.413 A13.1987 
N390 X196.365 Y-4.248 Z5.610 A14.8455 
N391 X196.376 Y-3.600 Z5.828 A16.1646 
N392 X196.388 Y-2.960 Z6.061 A17.1455 
N393 X196.399 Y-2.331 Z6.302 A17.7943 
N394 X196.411 Y-1.719 Z6.544 A18.1320 
N395 X196.421 Y-1.129 Z6.781 A18.1855 
N396 X196.432 Y-0.566 Z7.008 A17.9771 
N397 X196.441 Y-0.034 Z7.221 A17.5147 
N398 X196.450 Y0.464 Z7.417 A16.7834 
N399 X196.459 Y0.925 Z7.595 A15.7474 
N400 X196.466 Y1.346 Z7.750 A14.5317 
N401 X196.473 Y1.728 Z7.883 A13.1321 
N402 X196.479 Y2.071 Z7.995 A11.5574 
N403 X196.484 Y2.375 Z8.087 A9.8215 
N404 X196.488 Y2.643 Z8.161 A7.9490 
N405 X196.492 Y2.877 Z8.219 A5.9712 
N406 X196.495 Y3.079 Z8.265 A3.9008 
N407 X196.497 Y3.254 Z8.300 A1.7382 
N408 X196.500 Y3.405 Z8.328 A359.4897 
N409 X196.501 Y3.535 Z8.349 A357.1652 
N410 X196.503 Y3.647 Z8.365 A354.7733 
N411 X196.504 Y3.745 Z8.378 A352.3222 
N412 X196.505 Y3.831 Z8.388 A349.8229 
N413 X196.506 Y3.907 Z8.396 A347.2905 
N414 X196.506 Y3.974 Z8.402 A344.7439 
N415 X196.507 Y4.036 Z8.406 A342.2035 
N416 X196.507 Y4.092 Z8.409 A339.6873 
N417 X196.508 Y4.144 Z8.411 A337.2088 
N418 X196.508 Y4.193 Z8.412 A334.7758 
N419 X196.508 Y4.238 Z8.411 A332.3916 
N420 X196.509 Y4.281 Z8.409 A330.0553 
N421 X196.509 Y4.322 Z8.406 A327.7636 
N422 X196.509 Y4.362 Z8.403 A325.5110 
N423 X196.509 Y4.400 Z8.398 A323.2911 
N424 X196.509 Y4.437 Z8.391 A321.0968 
N425 X196.510 Y4.473 Z8.384 A318.9208 
N426 X196.510 Y4.508 Z8.376 A316.7558 
N427 X196.510 Y4.543 Z8.367 A314.5947 
N428 X196.510 Y4.577 Z8.357 A312.4308 
N429 X196.510 Y4.611 Z8.345 A310.2572 
N430 X196.510 Y4.644 Z8.332 A308.0676 
N431 X196.510 Y4.678 Z8.318 A305.8560 
N432 X196.510 Y4.711 Z8.302 A303.6167 
N433 X196.510 Y4.744 Z8.284 A301.3450 
N434 X196.510 Y4.778 Z8.264 A299.0372 
N435 X196.510 Y4.811 Z8.242 A296.6916 
N436 X196.510 Y4.845 Z8.217 A294.3086 
N437 X196.510 Y4.878 Z8.189 A291.8913 
N438 X196.510 Y4.912 Z8.158 A289.4464 
N439 X196.510 Y4.945 Z8.122 A286.9847 
N440 X196.509 Y4.978 Z8.082 A284.5217 
N441 X196.509 Y5.010 Z8.037 A282.0766 
N442 X196.509 Y5.041 Z7.985 A279.6716 
N443 X196.508 Y5.070 Z7.927 A277.3286 
N444 X196.508 Y5.097 Z7.861 A275.0658 
N445 X196.507 Y5.122 Z7.787 A272.8957 
N446 X196.507 Y5.144 Z7.703 A270.8248 
N447 X196.506 Y5.163 Z7.609 A268.8537 
N448 X196.505 Y5.178 Z7.503 A266.9775 
N449 X196.504 Y5.188 Z7.384 A265.1870 
N450 X196.502 Y5.194 Z7.250 A263.4714 
N451 X196.501 Y5.195 Z7.102 A261.8189 
N452 X196.499 Y5.190 Z6.938 A260.2151 
N453 X196.497 Y5.177 Z6.757 A258.6436 
N454 X196.495 Y5.157 Z6.560 A257.0947 
N455 X196.492 Y5.128 Z6.345 A255.5697 
N456 X196.489 Y5.090 Z6.113 A254.0716 
N457 X196.486 Y5.041 Z5.864 A252.5975 
N458 X196.482 Y4.981 Z5.600 A251.1419 
N459 X196.478 Y4.910 Z5.322 A249.7002 
N460 X196.474 Y4.827 Z5.032 A248.2675 
N461 X196.470 Y4.732 Z4.730 A246.8363 
N462 X196.465 Y4.626 Z4.419 A245.3953 
N463 X196.460 Y4.509 Z4.102 A243.9320 
N464 X196.455 Y4.381 Z3.780 A242.4365 
N465 X196.450 Y4.243 Z3.456 A240.9043 
N466 X196.444 Y4.094 Z3.133 A239.3359 
N467 X196.439 Y3.936 Z2.813 A237.7337 
N468 X196.433 Y3.770 Z2.498 A236.0985 
N469 X196.428 Y3.596 Z2.190 A234.4281 
N470 X196.422 Y3.415 Z1.890 A232.7189 
N471 X196.417 Y3.229 Z1.600 A230.9677 
N472 X196.411 Y3.039 Z1.321 A229.1735 
N473 X196.406 Y2.844 Z1.054 A227.3369 
