; PROGRAM NAME: A00000114
; ORDER       : A000001
; OPER. NAME  : Spiral Rough Rhombic:103
; OPER. DESCR.: spiral roughing rhombic/bandaz zgr
; OPER. TYPE  : rouRoot
; GEO. OPTION : 4
; MACHINE     : HSTM_300_SIM840D_Py
;             : HSTM300/500 - HAMUEL: 5-axis milling machine-SIM840D Traori PP_Script
; CONTROL     : SINUMERIK 840D
; created:   2021-11-15 09:09:11.665250
;-------DODATKOWE DANE-------------------
; PROGRAMISTA : Mariusz Malec
; PARTID      : 138T005360P1002_-
;  ap         : 2.5
;  ae         : 30.0
;  lean_angle : 1.0
;  fin_offset : 0.6
;----------------------------------------
RAPORT("TA000001","Spiral Rough Rhombic:103")
N10 TRAFOOF
N11 D0
N12 G90 G94
N13 G0 G53 D0 Z550
N14 STOPRE
M9 ; chlodziwo wyl
; --- Spiral Rough Rhombic:103 - spiral roughing rhombic/bandaz zgr ---
N16 ;ToolChange : concat=None ,current_tdmid=None, PP.tdmId=958058
N17 TRAFOOF
N18 G0 G53 D0 X-200 Y150 Z550 B0
N19 T="7758058"
RAPORT("TA000001","ToolChangeStart 7758058")
N20 M6
RAPORT("TA000001","ToolChangeEnd")
N21 STOPRE
N22 MSG(" TLID=958058 D=50.0 R=6.0 Ang=0.0 Len=90.0 ")
;---> in saveDoc :0:00:00.049491
;---> in saveDoc :0:00:00.070929
N23 S2005 M03
N24 STOPRE
N25 TOL(0.1,1,1)
N26 G0 G53 A270.9830 B0.1720
N27 TRAORI
N28 G54 D1
N29 D1 
;---> in saveDoc :0:00:00.047904
N30 ; DELTA A > 40.1
N31 TRAFOOF
N32 D1
N33 STOPRE
N34 G00 G54 Z296.000
N35 G01 A270.9830 F10000
N36 TRAORI
N37 G54 D1
N38 STOPRE
N39 TRANS 
N40 G00 X-284.937 Y97.404 Z-45.747 A270.9830 B0.1720 
N41 M346 ; chlodziwo mgla
N42 X-285.087 Y47.411 Z-46.605 
N43 G01 X-285.096 Y44.321 Z-46.115 F2807 
N44 X-285.105 Y41.534 Z-44.693 
N45 X-285.111 Y39.322 Z-42.480 
N46 X-285.116 Y37.903 Z-39.692 
N47 X-285.117 Y37.414 Z-36.602 
N48 X-285.117 Y37.415 Z-33.222 B0.1605 
N49 X-285.117 Y37.416 Z-29.902 B0.1437 
N50 X-285.117 Y37.417 Z-26.695 B0.1270 
N51 X-285.117 Y37.418 Z-23.651 B0.1010 
N52 X-285.118 Y37.419 Z-20.810 B0.0651 
N53 X-285.118 Y37.420 Z-18.203 B0.0378 
N54 X-285.118 Y37.421 Z-15.850 B0.0192 
N55 X-285.118 Y37.421 Z-13.760 B0.0076 
N56 X-285.118 Y37.422 Z-11.932 A270.9830 B0.0019 
N57 X-285.118 Y37.436 Z-10.356 A271.0241 B0.0002 
N58 X-285.118 Y37.571 Z-9.012 A271.4432 B0.0000 
N59 X-285.118 Y37.998 Z-7.870 A272.7836 
N60 X-285.118 Y38.796 Z-6.874 A275.3247 B0.0000 
N61 X-285.118 Y39.929 Z-5.953 A278.9967 B0.0002 
N62 X-285.118 Y41.254 Z-5.043 A283.3871 B0.0010 
N63 X-285.118 Y42.611 Z-4.119 A288.0282 B0.0023 
N64 X-285.118 Y43.917 Z-3.176 A292.6596 B0.0036 
N65 X-285.118 Y45.123 Z-2.220 A297.1305 B0.0038 
N66 X-285.118 Y46.195 Z-1.272 A301.3065 B0.0026 
N67 X-285.118 Y47.122 Z-0.350 A305.1344 B-0.0001 
N68 X-285.118 Y47.924 Z0.546 A308.6612 B-0.0038 
N69 X-285.118 Y48.635 Z1.434 A311.9996 B-0.0080 
N70 X-285.118 Y49.285 Z2.341 A315.2769 B-0.0121 
N71 X-285.118 Y49.896 Z3.297 A318.6097 B-0.0155 
N72 X-285.118 Y50.473 Z4.328 A322.0850 B-0.0175 
N73 X-285.118 Y51.010 Z5.453 A325.7508 B-0.0175 
N74 X-285.118 Y51.486 Z6.683 A329.6167 B-0.0152 
N75 X-285.118 Y51.876 Z8.020 A333.6890 B-0.0111 
N76 X-285.118 Y52.150 Z9.471 A337.9801 B-0.0065 
N77 X-285.118 Y52.271 Z11.019 A342.4518 B-0.0028 
N78 X-285.118 Y52.190 Z12.615 A346.9826 B-0.0007 
N79 X-285.118 Y51.870 Z14.179 A351.3792 B-0.0001 
N80 X-285.118 Y51.288 Z15.601 A355.3832 B-0.0000 
N81 X-285.118 Y50.442 Z16.702 A358.5052 
N82 X-285.118 Y49.356 Z17.307 A0.2353 
N83 X-285.118 Y48.044 Z17.511 A0.8188 
N84 X-285.118 Y46.492 Z17.555 A0.9421 
N85 X-285.118 Y44.678 Z17.561 A0.9560 
N86 X-285.118 Y42.585 Z17.563 A0.9561 
N87 X-285.118 Y40.208 Z17.565 
N88 X-285.118 Y37.550 Z17.567 
N89 X-285.118 Y34.626 Z17.569 
N90 X-285.118 Y31.462 Z17.571 
N91 X-285.118 Y28.096 Z17.574 
N92 X-285.118 Y24.575 Z17.577 
N93 X-285.118 Y20.955 Z17.579 
N94 X-285.118 Y17.298 Z17.582 
N95 X-285.118 Y13.667 Z17.585 
N96 X-285.118 Y10.125 Z17.588 
N97 X-285.118 Y6.728 Z17.590 
N98 X-285.118 Y3.527 Z17.593 
N99 X-285.118 Y0.562 Z17.595 
N100 X-285.118 Y-2.138 Z17.597 
N101 X-285.118 Y-4.556 Z17.599 
N102 X-285.118 Y-6.687 Z17.601 
N103 X-285.118 Y-8.534 Z17.602 A0.9561 
N104 X-285.118 Y-10.111 Z17.609 A0.9728 
N105 X-285.118 Y-11.440 Z17.656 A1.1175 
N106 X-285.118 Y-12.548 Z17.844 A1.7010 
N107 X-285.118 Y-13.479 Z18.377 A3.3665 
N108 X-285.118 Y-14.309 Z19.398 A6.5859 
N109 X-285.118 Y-15.122 Z20.748 A10.9260 
N110 X-285.118 Y-15.946 Z22.141 A15.5330 
N111 X-285.118 Y-16.828 Z23.588 A20.4550 
N112 X-285.118 Y-17.938 Z25.337 A26.5748 
N113 X-285.118 Y-19.058 Z26.786 A31.9977 
N114 X-285.118 Y-20.008 Z27.787 A36.0688 
N115 X-285.118 Y-20.856 Z28.554 A39.4352 
N116 X-285.118 Y-21.669 Z29.213 A42.5174 
N117 X-285.118 Y-22.495 Z29.819 A45.5373 
N118 X-285.118 Y-23.372 Z30.401 A48.6417 
N119 X-285.118 Y-24.331 Z30.972 A51.9409 
N120 X-285.118 Y-25.402 Z31.528 A55.5062 
N121 X-285.118 Y-26.599 Z32.052 A59.3681 
N122 X-285.118 Y-27.926 Z32.513 A63.5146 
N123 X-285.118 Y-29.361 Z32.873 A67.8682 
N124 X-285.118 Y-30.857 Z33.088 A72.2932 
N125 X-285.118 Y-32.362 Z33.129 A76.6594 
N126 X-285.118 Y-33.819 Z32.980 A80.8359 
N127 X-285.118 Y-35.135 Z32.635 A84.5978 
N128 X-285.118 Y-36.181 Z32.103 A87.5917 
N129 X-285.118 Y-36.849 Z31.415 A89.5082 
N130 X-285.118 Y-37.161 Z30.599 A90.4018 
N131 X-285.118 Y-37.266 Z29.662 A90.6969 
N132 X-285.118 Y-37.294 Z28.605 A90.7686 
N133 X-285.118 Y-37.302 Z27.428 A90.7770 
N134 X-285.118 Y-37.307 Z26.137 A90.7770 
N135 X-285.118 Y-37.312 Z24.745 
N136 X-285.118 Y-37.318 Z23.268 
N137 X-285.118 Y-37.324 Z21.728 
N138 X-285.118 Y-37.330 Z20.148 
N139 X-285.118 Y-37.336 Z18.556 
N140 X-285.118 Y-37.343 Z16.978 
N141 X-285.118 Y-37.348 Z15.442 
N142 X-285.118 Y-37.354 Z13.971 
N143 X-285.118 Y-37.360 Z12.586 
N144 X-285.118 Y-37.365 Z11.302 A90.7788 
N145 X-285.118 Y-37.391 Z10.130 A90.8435 
N146 X-285.118 Y-37.513 Z9.074 A91.2102 
N147 X-285.118 Y-37.836 Z8.130 A92.2084 
N148 X-285.118 Y-38.414 Z7.279 A94.0322 
N149 X-285.118 Y-39.247 Z6.488 A96.7011 B-0.0000 
N150 X-285.118 Y-40.285 Z5.718 A100.0831 B-0.0002 
N151 X-285.118 Y-41.434 Z4.940 A103.9088 B-0.0007 
N152 X-285.118 Y-42.606 Z4.143 A107.9216 B-0.0016 
N153 X-285.118 Y-43.750 Z3.322 A111.9656 B-0.0028 
N154 X-285.118 Y-44.836 Z2.482 A115.9478 B-0.0036 
N155 X-285.118 Y-45.835 Z1.631 A119.7751 B-0.0034 
N156 X-285.118 Y-46.732 Z0.783 A123.3845 B-0.0015 
N157 X-285.118 Y-47.528 Z-0.054 A126.7692 B0.0022 
N158 X-285.118 Y-48.240 Z-0.887 A129.9842 B0.0077 
N159 X-285.118 Y-48.892 Z-1.734 A133.1214 B0.0146 
N160 X-285.118 Y-49.504 Z-2.619 A136.2845 B0.0223 
N161 X-285.118 Y-50.091 Z-3.569 A139.5705 B0.0301 
N162 X-285.118 Y-50.653 Z-4.610 A143.0478 B0.0369 
N163 X-285.118 Y-51.174 Z-5.754 A146.7418 B0.0414 
N164 X-285.118 Y-51.630 Z-7.003 A150.6413 B0.0420 
N165 X-285.118 Y-51.993 Z-8.362 A154.7491 B0.0382 
N166 X-285.118 Y-52.234 Z-9.833 A159.0739 B0.0304 
N167 X-285.118 Y-52.311 Z-11.395 A163.5652 B0.0201 
N168 X-285.118 Y-52.179 Z-12.990 A168.0817 B0.0103 
N169 X-285.118 Y-51.801 Z-14.531 A172.4155 B0.0036 
N170 X-285.118 Y-51.159 Z-15.898 A176.2720 B0.0006 
N171 X-285.118 Y-50.259 Z-16.898 A179.1167 B0.0000 
N172 X-285.118 Y-49.125 Z-17.394 A180.5448 B0.0000 
N173 X-285.118 Y-47.766 Z-17.540 A180.9670 
N174 X-285.118 Y-46.163 Z-17.565 A181.0451 B0.0001 
N175 X-285.118 Y-44.294 Z-17.566 A181.0515 B0.0011 
N176 X-285.118 Y-42.146 Z-17.564 B0.0051 
N177 X-285.118 Y-39.715 Z-17.561 B0.0149 
N178 X-285.118 Y-37.006 Z-17.559 B0.0321 
N179 X-285.118 Y-34.037 Z-17.556 B0.0566 
N180 X-285.118 Y-30.836 Z-17.553 B0.0796 
N181 X-285.117 Y-27.444 Z-17.550 B0.0973 
N182 X-285.117 Y-23.910 Z-17.547 B0.1156 
N183 X-285.117 Y-20.290 Z-17.544 B0.1309 
N184 X-285.117 Y-16.646 Z-17.541 B0.1416 
N185 X-285.117 Y-13.041 Z-17.537 B0.1514 
N186 X-285.117 Y-9.536 Z-17.534 B0.1609 
N187 X-285.117 Y-6.187 Z-17.531 B0.1700 
N188 X-285.117 Y-3.041 Z-17.528 A181.0515 B0.1786 
N189 X-285.117 Y-0.135 Z-17.526 B0.1865 
N190 X-285.117 Y2.505 Z-17.524 B0.1936 
N191 X-285.117 Y4.863 Z-17.521 B0.2000 
N192 X-285.117 Y6.937 Z-17.520 B0.2057 
N193 X-285.117 Y8.732 Z-17.518 A181.0515 B0.2106 
N194 X-285.117 Y10.265 Z-17.531 A181.0959 B0.2150 
N195 X-285.117 Y11.559 Z-17.683 A181.5698 B0.2230 
N196 X-285.117 Y12.652 Z-18.152 A183.0437 B0.2442 
N197 X-285.116 Y13.601 Z-18.986 A185.7021 B0.2869 
N198 X-285.116 Y14.481 Z-20.128 A189.4023 B0.3529 
N199 X-285.116 Y15.351 Z-21.447 A193.7689 B0.4383 
N200 X-285.115 Y16.238 Z-22.803 A198.3874 B0.5360 
N201 X-285.114 Y17.145 Z-24.104 A202.9781 B0.6384 
N202 X-285.114 Y18.064 Z-25.304 A207.3899 B0.7389 
N203 X-285.113 Y18.987 Z-26.388 A211.5674 B0.8301 
N204 X-285.113 Y19.909 Z-27.360 A215.5140 B0.9034 
N205 X-285.113 Y20.830 Z-28.229 A219.2527 B0.9514 
N206 X-285.112 Y21.754 Z-29.006 A222.8203 B0.9699 
N207 X-285.112 Y22.692 Z-29.705 A226.2764 B0.9590 
N208 X-285.113 Y23.658 Z-30.339 A229.6950 B0.9216 
N209 X-285.113 Y24.670 Z-30.917 A233.1381 B0.8626 
N210 X-285.113 Y25.741 Z-31.437 A236.6555 B0.7876 
N211 X-285.114 Y26.887 Z-31.896 A240.2936 B0.7024 
N212 X-285.114 Y28.121 Z-32.282 A244.0964 B0.6119 
N213 X-285.115 Y29.448 Z-32.577 A248.0806 B0.5207 
N214 X-285.116 Y30.856 Z-32.753 A252.2175 B0.4326 
N215 X-285.116 Y32.312 Z-32.779 A256.4231 B0.3515 
N216 X-285.116 Y33.750 Z-32.629 A260.5394 B0.2809 
N217 X-285.117 Y35.069 Z-32.288 A264.3021 B0.2238 
N218 X-285.117 Y36.136 Z-31.761 A267.3506 B0.1820 
N219 X-285.117 Y36.867 Z-31.078 A269.4538 B0.1544 
N220 X-285.117 Y37.280 Z-30.265 A270.6564 B0.1381 
N221 X-285.117 Y37.458 Z-29.333 A271.1891 B0.1288 
N222 X-285.117 Y37.501 Z-28.285 A271.3307 B0.1225 
N223 X-285.117 Y37.498 Z-27.121 A271.3424 B0.1164 
N224 X-285.117 Y37.490 Z-25.848 B0.1089 
N225 X-285.117 Y37.482 Z-24.477 B0.0977 
N226 X-285.118 Y37.473 Z-23.025 A271.3427 B0.0823 
N227 X-285.118 Y37.465 Z-21.511 A271.3464 B0.0655 
N228 X-285.118 Y37.459 Z-19.961 A271.3560 B0.0506 
N229 X-285.118 Y37.453 Z-18.400 A271.3660 B0.0387 
N230 X-285.118 Y37.444 Z-16.854 A271.3708 B0.0294 
N231 X-285.118 Y37.435 Z-15.350 A271.3722 B0.0220 
N232 X-285.118 Y37.426 Z-13.911 A271.3725 B0.0158 
N233 X-285.118 Y37.417 Z-12.555 A271.3725 B0.0106 
N234 X-285.118 Y37.410 Z-11.299 A271.3760 B0.0065 
N235 X-285.118 Y37.430 Z-10.152 A271.4614 B0.0035 
N236 X-285.118 Y37.561 Z-9.117 A271.8873 B0.0016 
N237 X-285.118 Y37.901 Z-8.187 A272.9743 B0.0008 
N238 X-285.118 Y38.501 Z-7.342 A274.8958 B0.0010 
N239 X-285.118 Y39.352 Z-6.548 A277.6541 B0.0022 
N240 X-285.118 Y40.399 Z-5.767 A281.0991 B0.0043 
N241 X-285.118 Y41.545 Z-4.974 A284.9556 B0.0067 
N242 X-285.118 Y42.708 Z-4.159 A288.9809 B0.0085 
N243 X-285.118 Y43.839 Z-3.320 A293.0308 B0.0090 
N244 X-285.118 Y44.908 Z-2.461 A297.0069 B0.0080 
N245 X-285.118 Y45.884 Z-1.595 A300.8111 B0.0052 
N246 X-285.118 Y46.755 Z-0.736 A304.3873 B0.0009 
N247 X-285.118 Y47.527 Z0.111 A307.7426 B-0.0045 
N248 X-285.118 Y48.218 Z0.957 A310.9443 B-0.0106 
N249 X-285.118 Y48.853 Z1.821 A314.0883 B-0.0168 
N250 X-285.118 Y49.451 Z2.728 A317.2751 B-0.0224 
N251 X-285.118 Y50.020 Z3.703 A320.5905 B-0.0266 
N252 X-285.118 Y50.558 Z4.766 A324.0893 B-0.0284 
N253 X-285.118 Y51.047 Z5.930 A327.7898 B-0.0271 
N254 X-285.118 Y51.464 Z7.198 A331.6916 B-0.0224 
N255 X-285.118 Y51.784 Z8.579 A335.8152 B-0.0154 
N256 X-285.118 Y51.974 Z10.072 A340.1612 B-0.0081 
N257 X-285.118 Y51.990 Z11.648 A344.6599 B-0.0028 
N258 X-285.118 Y51.785 Z13.240 A349.1466 B-0.0005 
N259 X-285.118 Y51.327 Z14.749 A353.3793 B-0.0000 
N260 X-285.118 Y50.602 Z16.024 A356.9700 B-0.0000 
N261 X-285.118 Y49.623 Z16.865 A359.3519 
N262 X-285.118 Y48.416 Z17.235 A0.3981 
N263 X-285.118 Y46.978 Z17.343 A0.6903 
N264 X-285.118 Y45.289 Z17.368 A0.7410 
N265 X-285.118 Y43.332 Z17.377 A0.7427 
N266 X-285.118 Y41.096 Z17.389 A0.7474 
N267 X-285.118 Y38.580 Z17.414 A0.7919 
N268 X-285.118 Y35.793 Z17.449 A0.8724 
N269 X-285.118 Y32.757 Z17.489 A0.9791 
N270 X-285.118 Y29.505 Z17.509 A1.0432 
N271 X-285.118 Y26.080 Z17.509 A1.0505 
N272 X-285.118 Y22.534 Z17.505 A1.0505 
N273 X-285.118 Y18.925 Z17.502 A1.0507 
N274 X-285.118 Y15.316 Z17.499 A1.0513 
N275 X-285.118 Y11.769 Z17.497 A1.0525 
N276 X-285.118 Y8.342 Z17.494 A1.0552 
N277 X-285.118 Y5.090 Z17.491 A1.0557 
N278 X-285.118 Y2.056 Z17.488 A1.0558 
N279 X-285.118 Y-0.727 Z17.486 
N280 X-285.118 Y-3.236 Z17.483 
N281 X-285.118 Y-5.461 Z17.481 
N282 X-285.118 Y-7.403 Z17.479 
N283 X-285.118 Y-9.071 Z17.478 A1.0584 
N284 X-285.118 Y-10.484 Z17.501 A1.1321 
N285 X-285.118 Y-11.665 Z17.619 A1.5043 
N286 X-285.118 Y-12.650 Z17.967 A2.5972 
N287 X-285.118 Y-13.495 Z18.718 A4.9621 
N288 X-285.118 Y-14.283 Z19.890 A8.6960 
N289 X-285.118 Y-15.082 Z21.285 A13.2284 
N290 X-285.118 Y-15.913 Z22.704 A17.9753 
N291 X-285.118 Y-16.893 Z24.326 A23.5449 
N292 X-285.118 Y-18.073 Z26.053 A29.7516 
N293 X-285.118 Y-19.141 Z27.306 A34.6259 
N294 X-285.118 Y-20.043 Z28.184 A38.3417 
N295 X-285.118 Y-20.864 Z28.881 A41.5172 
N296 X-285.118 Y-21.665 Z29.492 A44.4856 
N297 X-285.118 Y-22.486 Z30.061 A47.4342 
N298 X-285.118 Y-23.364 Z30.610 A50.4922 
N299 X-285.118 Y-24.328 Z31.146 A53.7534 
N300 X-285.118 Y-25.399 Z31.663 A57.2707 
N301 X-285.118 Y-26.590 Z32.142 A61.0644 
N302 X-285.118 Y-27.899 Z32.554 A65.1125 
N303 X-285.118 Y-29.302 Z32.861 A69.3370 
N304 X-285.118 Y-30.758 Z33.028 A73.6227 
N305 X-285.118 Y-32.226 Z33.031 A77.8742 
N306 X-285.118 Y-33.652 Z32.854 A81.9731 
N307 X-285.118 Y-34.948 Z32.489 A85.6957 
N308 X-285.118 Y-35.980 Z31.948 A88.6829 
N309 X-285.118 Y-36.648 Z31.262 A90.6405 
N310 X-285.118 Y-36.972 Z30.456 A91.6215 
N311 X-285.118 Y-37.083 Z29.540 A91.9936 
N312 X-285.118 Y-37.096 Z28.510 A92.0902 
N313 X-285.118 Y-37.077 Z27.367 A92.0995 
N314 X-285.118 Y-37.053 Z26.116 
N315 X-285.118 Y-37.027 Z24.770 
N316 X-285.118 Y-37.000 Z23.344 A92.0999 
N317 X-285.118 Y-36.973 Z21.860 A92.1041 
N318 X-285.118 Y-36.948 Z20.340 A92.1172 
N319 X-285.118 Y-36.924 Z18.810 A92.1362 
N320 X-285.118 Y-36.899 Z17.297 A92.1535 B-0.0000 
N321 X-285.118 Y-36.873 Z15.826 A92.1634 B-0.0003 
N322 X-285.118 Y-36.845 Z14.418 A92.1663 B-0.0011 
N323 X-285.118 Y-36.818 Z13.094 A92.1665 B-0.0029 
N324 X-285.118 Y-36.795 Z11.867 A92.1704 B-0.0058 
N325 X-285.118 Y-36.804 Z10.746 A92.2693 B-0.0097 
N326 X-285.118 Y-36.945 Z9.732 A92.7688 B-0.0143 
N327 X-285.118 Y-37.326 Z8.813 A94.0214 B-0.0196 
N328 X-285.118 Y-37.978 Z7.968 A96.1486 B-0.0258 
N329 X-285.118 Y-38.864 Z7.161 A99.0663 B-0.0323 
N330 X-285.118 Y-39.921 Z6.359 A102.5978 B-0.0377 
N331 X-285.118 Y-41.063 Z5.539 A106.5038 B-0.0401 
N332 X-285.118 Y-42.219 Z4.692 A110.5745 B-0.0382 
N333 X-285.118 Y-43.340 Z3.818 A114.6647 B-0.0318 
N334 X-285.118 Y-44.388 Z2.926 A118.6579 B-0.0219 
N335 X-285.118 Y-45.334 Z2.031 A122.4525 B-0.0096 
N336 X-285.118 Y-46.170 Z1.148 A126.0014 B0.0041 
N337 X-285.118 Y-46.905 Z0.278 A129.3289 B0.0186 
N338 X-285.118 Y-47.563 Z-0.593 A132.5183 B0.0338 
N339 X-285.118 Y-48.168 Z-1.487 A135.6758 B0.0496 
N340 X-285.118 Y-48.736 Z-2.432 A138.9023 B0.0658 
N341 X-285.118 Y-49.271 Z-3.450 A142.2668 B0.0822 
N342 X-285.117 Y-49.761 Z-4.553 A145.7958 B0.0981 
N343 X-285.117 Y-50.188 Z-5.748 A149.4951 B0.1130 
N344 X-285.117 Y-50.534 Z-7.051 A153.4076 B0.1266 
N345 X-285.117 Y-50.775 Z-8.480 A157.5890 B0.1387 
N346 X-285.117 Y-50.874 Z-10.031 A162.0359 B0.1495 
N347 X-285.117 Y-50.776 Z-11.654 A166.6195 B0.1589 
N348 X-285.117 Y-50.433 Z-13.238 A171.0518 B0.1673 
N349 X-285.117 Y-49.818 Z-14.620 A174.9060 B0.1755 
N350 X-285.117 Y-48.940 Z-15.604 A177.6379 B0.1845 
N351 X-285.117 Y-47.826 Z-16.108 A178.9976 B0.1955 
N352 X-285.117 Y-46.489 Z-16.296 A179.4417 B0.2098 
N353 X-285.117 Y-44.913 Z-16.368 A179.5341 B0.2277 
N354 X-285.117 Y-43.084 Z-16.417 A179.5397 B0.2485 
N355 X-285.116 Y-40.989 Z-16.470 B0.2724 
N356 X-285.116 Y-38.625 Z-16.531 A179.5425 B0.2994 
N357 X-285.116 Y-35.996 Z-16.622 A179.6178 B0.3316 
N358 X-285.116 Y-33.120 Z-16.794 A179.9451 B0.3700 
N359 X-285.116 Y-30.021 Z-16.999 A180.4308 B0.3823 
N360 X-285.116 Y-26.738 Z-17.172 A180.8905 B0.3770 
N361 X-285.116 Y-23.318 Z-17.247 A181.1229 B0.3794 
N362 X-285.116 Y-19.817 Z-17.247 A181.1473 B0.3863 
N363 X-285.116 Y-16.291 Z-17.238 A181.1473 B0.3934 
N364 X-285.116 Y-12.800 Z-17.229 B0.4005 
N365 X-285.116 Y-9.403 Z-17.220 B0.4074 
N366 X-285.116 Y-6.151 Z-17.211 B0.4140 
N367 X-285.116 Y-3.092 Z-17.204 B0.4202 
N368 X-285.116 Y-0.262 Z-17.196 B0.4259 
N369 X-285.116 Y2.315 Z-17.190 B0.4311 
N370 X-285.116 Y4.621 Z-17.184 A181.1473 B0.4358 
N371 X-285.115 Y6.654 Z-17.179 B0.4399 
N372 X-285.115 Y8.418 Z-17.174 B0.4435 
N373 X-285.115 Y9.927 Z-17.179 A181.1728 B0.4468 
N374 X-285.115 Y11.202 Z-17.287 A181.5165 B0.4535 
N375 X-285.115 Y12.277 Z-17.670 A182.7217 B0.4736 
N376 X-285.115 Y13.204 Z-18.412 A185.0808 B0.5161 
N377 X-285.115 Y14.052 Z-19.494 A188.5617 B0.5831 
N378 X-285.114 Y14.889 Z-20.795 A192.8301 B0.6701 
N379 X-285.114 Y15.748 Z-22.166 A197.4454 B0.7691 
N380 X-285.113 Y16.636 Z-23.501 A202.0943 B0.8720 
N381 X-285.112 Y17.542 Z-24.739 A206.5805 B0.9721 
N382 X-285.112 Y18.452 Z-25.855 A210.8136 B1.0634 
N383 X-285.111 Y19.361 Z-26.853 A214.7934 B1.1392 
N384 X-285.111 Y20.270 Z-27.747 A218.5622 B1.1929 
N385 X-285.111 Y21.183 Z-28.549 A222.1609 B1.2200 
N386 X-285.111 Y22.106 Z-29.270 A225.6312 B1.2190 
N387 X-285.111 Y23.047 Z-29.921 A229.0191 B1.1915 
N388 X-285.111 Y24.015 Z-30.505 A232.3683 B1.1412 
N389 X-285.112 Y25.020 Z-31.028 A235.7197 B1.0730 
N390 X-285.112 Y26.075 Z-31.489 A239.1226 B0.9917 
N391 X-285.113 Y27.200 Z-31.889 A242.6426 B0.9019 
N392 X-285.113 Y28.412 Z-32.219 A246.3397 B0.8073 
N393 X-285.114 Y29.718 Z-32.461 A250.2335 B0.7113 
N394 X-285.114 Y31.103 Z-32.587 A254.2939 B0.6171 
N395 X-285.115 Y32.535 Z-32.569 A258.4362 B0.5283 
N396 X-285.115 Y33.948 Z-32.382 A262.5017 B0.4488 
N397 X-285.116 Y35.238 Z-32.012 A266.2203 B0.3826 
N398 X-285.116 Y36.278 Z-31.472 A269.2471 B0.3325 
N399 X-285.116 Y36.996 Z-30.790 A271.3797 B0.2984 
N400 X-285.116 Y37.398 Z-29.994 A272.6309 B0.2778 
N401 X-285.116 Y37.548 Z-29.094 A273.1714 B0.2661 
N402 X-285.117 Y37.550 Z-28.088 A273.2973 B0.2586 
N403 X-285.117 Y37.508 Z-26.975 A273.3042 B0.2515 
N404 X-285.117 Y37.459 Z-25.759 B0.2438 
N405 X-285.117 Y37.406 Z-24.451 B0.2356 
N406 X-285.117 Y37.351 Z-23.068 A273.3052 B0.2269 
N407 X-285.117 Y37.295 Z-21.628 A273.3124 B0.2178 
N408 X-285.117 Y37.241 Z-20.154 A273.3309 B0.2086 
N409 X-285.117 Y37.190 Z-18.671 A273.3576 B0.1995 
N410 X-285.117 Y37.138 Z-17.204 A273.3846 B0.1905 
N411 X-285.117 Y37.085 Z-15.777 A273.4050 B0.1818 
N412 X-285.117 Y37.032 Z-14.412 A273.4170 B0.1734 
N413 X-285.117 Y36.980 Z-13.126 A273.4250 B0.1654 
N414 X-285.117 Y36.938 Z-11.933 A273.4505 B0.1579 
N415 X-285.117 Y36.950 Z-10.840 A273.6327 B0.1504 
N416 X-285.117 Y37.126 Z-9.842 A274.3093 B0.1419 
N417 X-285.117 Y37.556 Z-8.926 A275.7872 B0.1315 
N418 X-285.117 Y38.252 Z-8.064 A278.1273 B0.1193 
N419 X-285.117 Y39.168 Z-7.224 A281.2219 B0.1053 
N420 X-285.118 Y40.234 Z-6.377 A284.8776 B0.0896 
N421 X-285.118 Y41.367 Z-5.504 A288.8596 B0.0727 
N422 X-285.118 Y42.497 Z-4.601 A292.9705 B0.0549 
N423 X-285.118 Y43.576 Z-3.674 A297.0577 B0.0368 
N424 X-285.118 Y44.561 Z-2.741 A300.9814 B0.0188 
N425 X-285.118 Y45.430 Z-1.821 A304.6508 B0.0017 
N426 X-285.118 Y46.185 Z-0.922 A308.0589 B-0.0145 
N427 X-285.118 Y46.849 Z-0.035 A311.2765 B-0.0297 
N428 X-285.118 Y47.447 Z0.861 A314.4058 B-0.0438 
N429 X-285.118 Y47.999 Z1.787 A317.5420 B-0.0569 
N430 X-285.118 Y48.510 Z2.765 A320.7487 B-0.0685 
N431 X-285.118 Y48.975 Z3.806 A324.0598 B-0.0781 
N432 X-285.119 Y49.383 Z4.924 A327.5076 B-0.0849 
N433 X-285.119 Y49.728 Z6.144 A331.1637 B-0.0882 
N434 X-285.119 Y49.992 Z7.491 A335.1079 B-0.0861 
N435 X-285.118 Y50.142 Z8.978 A339.3733 B-0.0767 
N436 X-285.118 Y50.128 Z10.573 A343.8751 B-0.0599 
N437 X-285.118 Y49.888 Z12.177 A348.3440 B-0.0398 
N438 X-285.118 Y49.383 Z13.630 A352.3533 B-0.0219 
N439 X-285.118 Y48.608 Z14.750 A355.4043 B-0.0095 
N440 X-285.118 Y47.588 Z15.436 A357.2140 B-0.0029 
N441 X-285.118 Y46.341 Z15.774 A358.0102 B-0.0005 
N442 X-285.118 Y44.864 Z15.929 A358.2541 B-0.0000 
N443 X-285.118 Y43.146 Z16.058 A358.3987 B-0.0000 
N444 X-285.118 Y41.176 Z16.252 A358.7267 
N445 X-285.118 Y38.945 Z16.516 A359.2847 
N446 X-285.118 Y36.454 Z16.786 A359.9134 
N447 X-285.118 Y33.715 Z17.017 A0.4916 
N448 X-285.118 Y30.752 Z17.191 A0.9796 
N449 X-285.118 Y27.600 Z17.223 A1.0818 
N450 X-285.118 Y24.301 Z17.219 A1.0855 
N451 X-285.118 Y20.905 Z17.214 
N452 X-285.118 Y17.468 Z17.209 
N453 X-285.118 Y14.047 Z17.204 A1.0856 
N454 X-285.118 Y10.700 Z17.201 A1.0914 
N455 X-285.118 Y7.480 Z17.206 A1.1257 
N456 X-285.118 Y4.435 Z17.207 A1.1520 
N457 X-285.118 Y1.605 Z17.201 A1.1544 
N458 X-285.118 Y-0.982 Z17.194 A1.1545 
N459 X-285.118 Y-3.308 Z17.188 A1.1561 
N460 X-285.118 Y-5.365 Z17.185 A1.1654 
N461 X-285.118 Y-7.156 Z17.183 A1.1738 
N462 X-285.118 Y-8.690 Z17.180 A1.1803 
N463 X-285.118 Y-9.986 Z17.214 A1.2949 
N464 X-285.118 Y-11.070 Z17.379 A1.8188 
N465 X-285.118 Y-11.977 Z17.793 A3.1257 
N466 X-285.118 Y-12.762 Z18.569 A5.5820 
N467 X-285.118 Y-13.502 Z19.716 A9.2441 
N468 X-285.118 Y-14.265 Z21.101 A13.7446 
N469 X-285.118 Y-15.087 Z22.564 A18.6233 
N470 X-285.118 Y-16.061 Z24.199 A24.2385 
N471 X-285.118 Y-17.253 Z25.944 A30.5187 
N472 X-285.118 Y-18.350 Z27.237 A35.5537 
N473 X-285.118 Y-19.267 Z28.128 A39.3402 
N474 X-285.118 Y-20.087 Z28.819 A42.5079 
N475 X-285.118 Y-20.874 Z29.413 A45.4218 
N476 X-285.118 Y-21.674 Z29.958 A48.2811 
N477 X-285.118 Y-22.518 Z30.478 A51.2151 
N478 X-285.118 Y-23.436 Z30.983 A54.3146 
N479 X-285.118 Y-24.447 Z31.468 A57.6319 
N480 X-285.118 Y-25.562 Z31.918 A61.1892 
N481 X-285.118 Y-26.782 Z32.312 A64.9784 
N482 X-285.118 Y-28.095 Z32.619 A68.9511 
N483 X-285.118 Y-29.472 Z32.809 A73.0291 
N484 X-285.118 Y-30.886 Z32.859 A77.1487 
N485 X-285.118 Y-32.302 Z32.751 A81.2436 
N486 X-285.118 Y-33.660 Z32.470 A85.1655 
N487 X-285.118 Y-34.844 Z32.015 A88.6154 
N488 X-285.118 Y-35.723 Z31.409 A91.2210 
N489 X-285.118 Y-36.242 Z30.686 A92.8197 
N490 X-285.118 Y-36.466 Z29.864 A93.5886 
N491 X-285.118 Y-36.508 Z28.943 A93.8462 
N492 X-285.118 Y-36.470 Z27.919 A93.8865 B-0.0000 
N493 X-285.118 Y-36.413 Z26.792 A93.8871 B-0.0001 
N494 X-285.118 Y-36.352 Z25.571 B-0.0008 
N495 X-285.118 Y-36.286 Z24.267 A93.8871 B-0.0031 
N496 X-285.118 Y-36.218 Z22.900 A93.8891 B-0.0086 
N497 X-285.118 Y-36.149 Z21.488 A93.8980 B-0.0183 
N498 X-285.118 Y-36.083 Z20.056 A93.9164 B-0.0319 
N499 X-285.118 Y-36.017 Z18.627 A93.9398 B-0.0488 
N500 X-285.118 Y-35.951 Z17.224 A93.9583 B-0.0673 
N501 X-285.119 Y-35.884 Z15.871 A93.9656 B-0.0840 
N502 X-285.119 Y-35.818 Z14.587 A93.9689 B-0.0969 
N503 X-285.119 Y-35.763 Z13.385 A93.9898 B-0.1064 
N504 X-285.119 Y-35.742 Z12.276 A94.1032 B-0.1138 
N505 X-285.119 Y-35.838 Z11.260 A94.5660 B-0.1192 
N506 X-285.119 Y-36.169 Z10.324 A95.7561 B-0.1217 
N507 X-285.119 Y-36.780 Z9.445 A97.8406 B-0.1204 
N508 X-285.119 Y-37.629 Z8.594 A100.7272 B-0.1150 
N509 X-285.119 Y-38.649 Z7.739 A104.2332 B-0.1053 
N510 X-285.119 Y-39.758 Z6.862 A108.1309 B-0.0915 
N511 X-285.118 Y-40.882 Z5.953 A112.2097 B-0.0741 
N512 X-285.118 Y-41.969 Z5.018 A116.3123 B-0.0535 
N513 X-285.118 Y-42.976 Z4.069 A120.3025 B-0.0306 
N514 X-285.118 Y-43.872 Z3.125 A124.0682 B-0.0064 
N515 X-285.118 Y-44.652 Z2.200 A127.5731 B0.0185 
N516 X-285.118 Y-45.334 Z1.289 A130.8730 B0.0438 
N517 X-285.118 Y-45.947 Z0.370 A134.0769 B0.0697 
N518 X-285.117 Y-46.511 Z-0.584 A137.2935 B0.0963 
N519 X-285.117 Y-47.033 Z-1.594 A140.5910 B0.1234 
N520 X-285.117 Y-47.505 Z-2.670 A143.9958 B0.1505 
N521 X-285.117 Y-47.915 Z-3.827 A147.5390 B0.1775 
N522 X-285.117 Y-48.255 Z-5.090 A151.3025 B0.2046 
N523 X-285.117 Y-48.508 Z-6.485 A155.3628 B0.2323 
N524 X-285.117 Y-48.633 Z-8.015 A159.7231 B0.2608 
N525 X-285.116 Y-48.575 Z-9.623 A164.2298 B0.2893 
N526 X-285.116 Y-48.276 Z-11.188 A168.5487 B0.3170 
N527 X-285.116 Y-47.708 Z-12.535 A172.2140 B0.3429 
N528 X-285.116 Y-46.876 Z-13.495 A174.7479 B0.3665 
N529 X-285.116 Y-45.806 Z-14.040 A176.0696 B0.3885 
N530 X-285.116 Y-44.515 Z-14.308 A176.5581 B0.4109 
N531 X-285.116 Y-42.999 Z-14.455 A176.6490 B0.4354 
N532 X-285.115 Y-41.249 Z-14.590 A176.6561 B0.4631 
N533 X-285.115 Y-39.257 Z-14.751 A176.6850 B0.4953 
N534 X-285.115 Y-37.020 Z-14.957 A176.8035 B0.5343 
N535 X-285.115 Y-34.546 Z-15.299 A177.3085 B0.5855 
N536 X-285.114 Y-31.847 Z-15.823 A178.4337 B0.6319 
N537 X-285.114 Y-28.933 Z-16.329 A179.6546 B0.6262 
N538 X-285.114 Y-25.838 Z-16.724 A180.7139 B0.6114 
N539 X-285.114 Y-22.610 Z-16.863 A181.1242 B0.6132 
N540 X-285.114 Y-19.301 Z-16.865 A181.1568 B0.6200 
N541 X-285.114 Y-15.961 Z-16.856 B0.6270 
N542 X-285.114 Y-12.644 Z-16.847 B0.6339 
N543 X-285.114 Y-9.403 Z-16.838 B0.6407 
N544 X-285.114 Y-6.289 Z-16.829 A181.1568 B0.6472 
N545 X-285.114 Y-3.344 Z-16.821 B0.6533 
N546 X-285.114 Y-0.605 Z-16.814 B0.6591 
N547 X-285.114 Y1.902 Z-16.807 B0.6643 
N548 X-285.114 Y4.159 Z-16.801 B0.6690 
N549 X-285.114 Y6.160 Z-16.795 A181.1568 B0.6732 
N550 X-285.114 Y7.907 Z-16.790 B0.6768 
N551 X-285.114 Y9.410 Z-16.789 A181.1644 B0.6801 
N552 X-285.114 Y10.687 Z-16.847 A181.3527 B0.6853 
N553 X-285.114 Y11.763 Z-17.115 A182.1968 B0.7017 
N554 X-285.114 Y12.681 Z-17.711 A184.0808 B0.7394 
N555 X-285.113 Y13.503 Z-18.659 A187.1065 B0.8023 
N556 X-285.113 Y14.296 Z-19.878 A191.0580 B0.8869 
N557 X-285.112 Y15.106 Z-21.224 A195.5179 B0.9850 
N558 X-285.112 Y15.953 Z-22.583 A200.1561 B1.0880 
N559 X-285.111 Y16.834 Z-23.881 A204.7447 B1.1887 
N560 X-285.111 Y17.733 Z-25.069 A209.1298 B1.2815 
N561 X-285.110 Y18.634 Z-26.131 A213.2432 B1.3611 
N562 X-285.110 Y19.531 Z-27.073 A217.0928 B1.4225 
N563 X-285.110 Y20.423 Z-27.910 A220.7192 B1.4610 
N564 X-285.109 Y21.316 Z-28.657 A224.1714 B1.4743 
N565 X-285.110 Y22.217 Z-29.328 A227.5039 B1.4621 
N566 X-285.110 Y23.136 Z-29.934 A230.7702 B1.4262 
N567 X-285.110 Y24.083 Z-30.480 A234.0117 B1.3699 
N568 X-285.111 Y25.066 Z-30.968 A237.2646 B1.2975 
N569 X-285.111 Y26.097 Z-31.399 A240.5737 B1.2132 
N570 X-285.112 Y27.196 Z-31.772 A244.0008 B1.1204 
N571 X-285.112 Y28.376 Z-32.079 A247.5976 B1.0220 
N572 X-285.113 Y29.644 Z-32.302 A251.3811 B0.9206 
N573 X-285.113 Y30.988 Z-32.418 A255.3308 B0.8191 
N574 X-285.114 Y32.384 Z-32.401 A259.3882 B0.7205 
N575 X-285.114 Y33.780 Z-32.227 A263.4338 B0.6286 
N576 X-285.115 Y35.090 Z-31.882 A267.2433 B0.5480 
N577 X-285.115 Y36.193 Z-31.375 A270.4965 B0.4831 
N578 X-285.116 Y37.003 Z-30.733 A272.9533 B0.4360 
N579 X-285.116 Y37.489 Z-29.984 A274.5210 B0.4056 
N580 X-285.116 Y37.680 Z-29.147 A275.2661 B0.3886 
N581 X-285.116 Y37.675 Z-28.220 A275.4644 B0.3792 
N582 X-285.116 Y37.600 Z-27.194 A275.4799 B0.3715 
N583 X-285.116 Y37.512 Z-26.068 A275.4799 B0.3633 
N584 X-285.116 Y37.417 Z-24.853 A275.4808 B0.3544 
N585 X-285.116 Y37.317 Z-23.560 A275.4850 B0.3447 
N586 X-285.116 Y37.215 Z-22.209 A275.4973 B0.3339 
N587 X-285.116 Y37.113 Z-20.819 A275.5215 B0.3221 
N588 X-285.116 Y37.013 Z-19.413 A275.5536 B0.3098 
N589 X-285.116 Y36.911 Z-18.014 A275.5840 B0.2972 
N590 X-285.116 Y36.808 Z-16.646 A275.6041 B0.2846 
N591 X-285.116 Y36.705 Z-15.328 A275.6132 B0.2722 
N592 X-285.117 Y36.608 Z-14.079 A275.6252 B0.2601 
N593 X-285.117 Y36.532 Z-12.911 A275.6829 B0.2484 
N594 X-285.117 Y36.526 Z-11.829 A275.9361 B0.2360 
N595 X-285.117 Y36.700 Z-10.825 A276.7320 B0.2210 
N596 X-285.117 Y37.149 Z-9.878 A278.3898 B0.2016 
N597 X-285.117 Y37.870 Z-8.961 A280.9376 B0.1780 
N598 X-285.117 Y38.798 Z-8.046 A284.2117 B0.1513 
N599 X-285.117 Y39.846 Z-7.112 A287.9754 B0.1225 
N600 X-285.118 Y40.926 Z-6.151 A291.9775 B0.0930 
N601 X-285.118 Y41.977 Z-5.169 A296.0289 B0.0637 
N602 X-285.118 Y42.952 Z-4.179 A299.9838 B0.0354 
N603 X-285.118 Y43.817 Z-3.202 A303.7153 B0.0090 
N604 X-285.118 Y44.565 Z-2.251 A307.1773 B-0.0151 
N605 X-285.118 Y45.215 Z-1.321 A310.4281 B-0.0370 
N606 X-285.118 Y45.795 Z-0.390 A313.5745 B-0.0570 
N607 X-285.118 Y46.325 Z0.564 A316.7070 B-0.0749 
N608 X-285.119 Y46.806 Z1.556 A319.8734 B-0.0905 
N609 X-285.119 Y47.235 Z2.598 A323.1036 B-0.1034 
N610 X-285.119 Y47.609 Z3.709 A326.4568 B-0.1136 
N611 X-285.119 Y47.924 Z4.919 A330.0214 B-0.1213 
N612 X-285.119 Y48.163 Z6.252 A333.8639 B-0.1263 
N613 X-285.119 Y48.292 Z7.708 A337.9852 B-0.1278 
N614 X-285.119 Y48.258 Z9.245 A342.2602 B-0.1239 
N615 X-285.119 Y48.007 Z10.767 A346.4200 B-0.1123 
N616 X-285.119 Y47.504 Z12.125 A350.0647 B-0.0914 
N617 X-285.118 Y46.742 Z13.171 A352.7844 B-0.0633 
N618 X-285.118 Y45.740 Z13.854 A354.4367 B-0.0347 
N619 X-285.118 Y44.513 Z14.238 A355.1900 B-0.0132 
N620 X-285.118 Y43.067 Z14.494 A355.5295 B-0.0028 
N621 X-285.118 Y41.403 Z14.815 A356.0325 B-0.0003 
N622 X-285.118 Y39.511 Z15.278 A356.9664 B-0.0000 
N623 X-285.118 Y37.376 Z15.812 A358.1837 B-0.0000 
N624 X-285.118 Y34.994 Z16.291 A359.3458 
N625 X-285.118 Y32.378 Z16.714 A0.4636 
N626 X-285.118 Y29.555 Z16.915 A1.0418 
N627 X-285.118 Y26.560 Z16.936 A1.1199 
N628 X-285.118 Y23.432 Z16.930 A1.1210 
N629 X-285.118 Y20.214 Z16.923 
N630 X-285.118 Y16.960 Z16.916 
N631 X-285.118 Y13.720 Z16.909 A1.1213 
N632 X-285.118 Y10.549 Z16.906 A1.1317 
N633 X-285.118 Y7.496 Z16.917 A1.1885 
N634 X-285.118 Y4.606 Z16.920 A1.2324 
N635 X-285.118 Y1.916 Z16.911 A1.2367 
N636 X-285.118 Y-0.547 Z16.901 A1.2368 
N637 X-285.118 Y-2.766 Z16.892 A1.2392 
N638 X-285.118 Y-4.731 Z16.891 A1.2610 
N639 X-285.118 Y-6.445 Z16.900 A1.3122 
N640 X-285.118 Y-7.917 Z16.910 A1.3700 
N641 X-285.118 Y-9.162 Z16.936 A1.4759 
N642 X-285.118 Y-10.205 Z17.080 A1.9408 
N643 X-285.118 Y-11.079 Z17.465 A3.1638 
N644 X-285.118 Y-11.834 Z18.193 A5.4690 
N645 X-285.118 Y-12.541 Z19.286 A8.9542 
N646 X-285.118 Y-13.271 Z20.637 A13.3261 
N647 X-285.118 Y-14.063 Z22.094 A18.1554 
N648 X-285.118 Y-14.963 Z23.630 A23.4044 
N649 X-285.118 Y-16.090 Z25.347 A29.5078 
N650 X-285.118 Y-17.238 Z26.785 A34.9854 
N651 X-285.118 Y-18.208 Z27.780 A39.1114 
N652 X-285.118 Y-19.052 Z28.520 A42.4379 
N653 X-285.118 Y-19.843 Z29.136 A45.4052 
N654 X-285.118 Y-20.628 Z29.687 A48.2477 
N655 X-285.118 Y-21.443 Z30.203 A51.1066 
N656 X-285.118 Y-22.315 Z30.698 A54.0776 
N657 X-285.118 Y-23.263 Z31.172 A57.2205 
N658 X-285.118 Y-24.300 Z31.616 A60.5630 
N659 X-285.118 Y-25.430 Z32.014 A64.1114 
N660 X-285.118 Y-26.649 Z32.344 A67.8436 
N661 X-285.118 Y-27.939 Z32.581 A71.7098 
N662 X-285.118 Y-29.280 Z32.701 A75.6571 
N663 X-285.118 Y-30.652 Z32.686 A79.6547 
N664 X-285.118 Y-32.027 Z32.521 A83.6442 
N665 X-285.118 Y-33.339 Z32.193 A87.4711 
N666 X-285.118 Y-34.471 Z31.705 A90.8203 
N667 X-285.118 Y-35.302 Z31.085 A93.3520 
N668 X-285.118 Y-35.787 Z30.367 A94.9255 
N669 X-285.118 Y-35.975 Z29.566 A95.6711 B-0.0001 
N670 X-285.118 Y-35.972 Z28.681 A95.8841 B-0.0006 
N671 X-285.118 Y-35.895 Z27.703 A95.9048 B-0.0031 
N672 X-285.118 Y-35.803 Z26.630 A95.9048 B-0.0097 
N673 X-285.118 Y-35.704 Z25.471 B-0.0218 
N674 X-285.118 Y-35.598 Z24.239 A95.9051 B-0.0397 
N675 X-285.118 Y-35.489 Z22.951 A95.9085 B-0.0616 
N676 X-285.119 Y-35.378 Z21.625 A95.9200 B-0.0831 
N677 X-285.119 Y-35.269 Z20.284 A95.9398 B-0.1000 
N678 X-285.119 Y-35.161 Z18.949 A95.9617 B-0.1133 
N679 X-285.119 Y-35.052 Z17.643 A95.9759 B-0.1255 
N680 X-285.119 Y-34.944 Z16.385 A95.9804 B-0.1373 
N681 X-285.119 Y-34.844 Z15.191 A95.9930 B-0.1485 
N682 X-285.119 Y-34.773 Z14.073 A96.0726 B-0.1588 
N683 X-285.119 Y-34.783 Z13.034 A96.3851 B-0.1674 
N684 X-285.119 Y-34.987 Z12.064 A97.2859 B-0.1723 
N685 X-285.119 Y-35.478 Z11.140 A99.0894 B-0.1713 
N686 X-285.119 Y-36.239 Z10.234 A101.7836 B-0.1633 
N687 X-285.119 Y-37.191 Z9.321 A105.1623 B-0.1485 
N688 X-285.119 Y-38.245 Z8.382 A108.9783 B-0.1275 
N689 X-285.119 Y-39.317 Z7.415 A112.9905 B-0.1014 
N690 X-285.118 Y-40.351 Z6.427 A117.0291 B-0.0711 
N691 X-285.118 Y-41.306 Z5.428 A120.9660 B-0.0379 
N692 X-285.118 Y-42.153 Z4.440 A124.6868 B-0.0031 
N693 X-285.118 Y-42.886 Z3.473 A128.1610 B0.0324 
N694 X-285.118 Y-43.530 Z2.514 A131.4691 B0.0687 
N695 X-285.117 Y-44.113 Z1.536 A134.7345 B0.1060 
N696 X-285.117 Y-44.649 Z0.516 A138.0419 B0.1444 
N697 X-285.117 Y-45.131 Z-0.559 A141.4188 B0.1835 
N698 X-285.117 Y-45.551 Z-1.700 A144.8960 B0.2231 
N699 X-285.117 Y-45.906 Z-2.934 A148.5566 B0.2642 
N700 X-285.116 Y-46.181 Z-4.287 A152.4717 B0.3073 
N701 X-285.116 Y-46.341 Z-5.757 A156.6353 B0.3527 
N702 X-285.116 Y-46.336 Z-7.296 A160.9062 B0.3992 
N703 X-285.115 Y-46.111 Z-8.805 A165.0048 B0.4451 
N704 X-285.115 Y-45.634 Z-10.138 A168.5344 B0.4882 
N705 X-285.115 Y-44.900 Z-11.154 A171.0999 B0.5266 
N706 X-285.115 Y-43.927 Z-11.810 A172.5848 B0.5605 
N707 X-285.115 Y-42.735 Z-12.174 A173.1658 B0.5915 
N708 X-285.114 Y-41.332 Z-12.398 A173.2613 B0.6227 
N709 X-285.114 Y-39.723 Z-12.624 A173.2846 B0.6576 
N710 X-285.114 Y-37.903 Z-12.904 A173.3888 B0.6979 
N711 X-285.114 Y-35.872 Z-13.280 A173.7140 B0.7465 
N712 X-285.113 Y-33.641 Z-13.890 A174.7332 B0.8134 
N713 X-285.113 Y-31.210 Z-14.767 A176.6744 B0.8732 
N714 X-285.113 Y-28.557 Z-15.601 A178.7171 B0.8640 
N715 X-285.113 Y-25.710 Z-16.237 A180.4204 B0.8445 
N716 X-285.113 Y-22.720 Z-16.471 A181.0978 B0.8452 
N717 X-285.113 Y-19.637 Z-16.485 A181.1659 B0.8519 
N718 X-285.113 Y-16.504 Z-16.476 A181.1660 B0.8586 
N719 X-285.113 Y-13.367 Z-16.467 B0.8654 
N720 X-285.113 Y-10.274 Z-16.458 B0.8720 
N721 X-285.113 Y-7.273 Z-16.450 A181.1660 B0.8785 
N722 X-285.113 Y-4.406 Z-16.441 B0.8847 
N723 X-285.113 Y-1.710 Z-16.433 B0.8905 
N724 X-285.113 Y0.784 Z-16.426 B0.8958 
N725 X-285.113 Y3.057 Z-16.420 A181.1660 B0.9007 
N726 X-285.113 Y5.095 Z-16.414 B0.9051 
N727 X-285.113 Y6.894 Z-16.409 B0.9090 
N728 X-285.113 Y8.460 Z-16.404 A181.1660 B0.9124 
N729 X-285.113 Y9.802 Z-16.413 A181.2041 B0.9158 
N730 X-285.113 Y10.941 Z-16.524 A181.5588 B0.9246 
N731 X-285.113 Y11.903 Z-16.882 A182.6840 B0.9495 
N732 X-285.112 Y12.734 Z-17.580 A184.8905 B0.9992 
N733 X-285.112 Y13.499 Z-18.619 A188.2093 B1.0745 
N734 X-285.111 Y14.259 Z-19.887 A192.3282 B1.1688 
N735 X-285.111 Y15.049 Z-21.245 A196.8436 B1.2720 
N736 X-285.110 Y15.884 Z-22.599 A201.4825 B1.3758 
N737 X-285.109 Y16.755 Z-23.881 A206.0396 B1.4735 
N738 X-285.109 Y17.645 Z-25.046 A210.3686 B1.5602 
N739 X-285.109 Y18.534 Z-26.081 A214.4097 B1.6320 
N740 X-285.108 Y19.417 Z-26.997 A218.1826 B1.6850 
N741 X-285.108 Y20.296 Z-27.811 A221.7384 B1.7163 
N742 X-285.108 Y21.176 Z-28.539 A225.1318 B1.7242 
N743 X-285.108 Y22.064 Z-29.195 A228.4142 B1.7085 
N744 X-285.108 Y22.969 Z-29.787 A231.6273 B1.6707 
N745 X-285.109 Y23.895 Z-30.318 A234.7985 B1.6138 
N746 X-285.109 Y24.847 Z-30.789 A237.9529 B1.5414 
N747 X-285.110 Y25.835 Z-31.204 A241.1297 B1.4570 
N748 X-285.110 Y26.877 Z-31.563 A244.3927 B1.3637 
N749 X-285.111 Y27.991 Z-31.864 A247.8043 B1.2635 
N750 X-285.111 Y29.187 Z-32.094 A251.3967 B1.1582 
N751 X-285.112 Y30.463 Z-32.233 A255.1717 B1.0498 
N752 X-285.113 Y31.807 Z-32.258 A259.1041 B0.9409 
N753 X-285.113 Y33.188 Z-32.146 A263.1291 B0.8345 
N754 X-285.114 Y34.546 Z-31.878 A267.1007 B0.7350 
N755 X-285.114 Y35.779 Z-31.449 A270.7528 B0.6478 
N756 X-285.115 Y36.780 Z-30.879 A273.7951 B0.5780 
N757 X-285.115 Y37.475 Z-30.199 A276.0182 B0.5278 
N758 X-285.115 Y37.834 Z-29.440 A277.3183 B0.4970 
N759 X-285.115 Y37.904 Z-28.612 A277.8141 B0.4814 
N760 X-285.115 Y37.823 Z-27.703 A277.8986 B0.4725 
N761 X-285.115 Y37.702 Z-26.699 A277.9002 B0.4643 
N762 X-285.115 Y37.570 Z-25.603 A277.9010 B0.4554 
N763 X-285.115 Y37.429 Z-24.426 A277.9070 B0.4455 
N764 X-285.116 Y37.284 Z-23.180 A277.9241 B0.4341 
N765 X-285.116 Y37.136 Z-21.884 A277.9522 B0.4208 
N766 X-285.116 Y36.985 Z-20.558 A277.9870 B0.4061 
N767 X-285.116 Y36.833 Z-19.222 A278.0232 B0.3906 
N768 X-285.116 Y36.679 Z-17.900 A278.0509 B0.3748 
N769 X-285.116 Y36.524 Z-16.611 A278.0637 B0.3591 
N770 X-285.116 Y36.373 Z-15.374 A278.0712 B0.3434 
N771 X-285.116 Y36.244 Z-14.202 A278.1197 B0.3278 
N772 X-285.116 Y36.176 Z-13.100 A278.3333 B0.3112 
N773 X-285.116 Y36.266 Z-12.062 A279.0130 B0.2910 
N774 X-285.117 Y36.632 Z-11.063 A280.5487 B0.2639 
N775 X-285.117 Y37.292 Z-10.075 A283.0463 B0.2296 
N776 X-285.117 Y38.171 Z-9.075 A286.3153 B0.1904 
N777 X-285.117 Y39.166 Z-8.048 A290.0739 B0.1487 
N778 X-285.117 Y40.176 Z-7.001 A294.0296 B0.1071 
N779 X-285.118 Y41.137 Z-5.944 A297.9809 B0.0673 
N780 X-285.118 Y42.008 Z-4.895 A301.7898 B0.0302 
N781 X-285.118 Y42.764 Z-3.874 A305.3494 B-0.0032 
N782 X-285.118 Y43.411 Z-2.885 A308.6641 B-0.0329 
N783 X-285.118 Y43.980 Z-1.909 A311.8387 B-0.0594 
N784 X-285.119 Y44.494 Z-0.922 A314.9738 B-0.0828 
N785 X-285.119 Y44.956 Z0.091 A318.1122 B-0.1030 
N786 X-285.119 Y45.363 Z1.140 A321.2818 B-0.1196 
N787 X-285.119 Y45.717 Z2.246 A324.5502 B-0.1329 
N788 X-285.119 Y46.015 Z3.437 A327.9962 B-0.1435 
N789 X-285.119 Y46.241 Z4.730 A331.6666 B-0.1511 
N790 X-285.119 Y46.365 Z6.121 A335.5427 B-0.1555 
N791 X-285.119 Y46.341 Z7.574 A339.5151 B-0.1560 
N792 X-285.119 Y46.124 Z9.011 A343.3604 B-0.1517 
N793 X-285.119 Y45.676 Z10.309 A346.7405 B-0.1407 
N794 X-285.119 Y44.986 Z11.358 A349.3470 B-0.1182 
N795 X-285.119 Y44.065 Z12.107 A351.0410 B-0.0823 
N796 X-285.118 Y42.926 Z12.603 A351.9488 B-0.0426 
N797 X-285.118 Y41.589 Z13.022 A352.5814 B-0.0141 
N798 X-285.118 Y40.064 Z13.561 A353.5476 B-0.0020 
N799 X-285.118 Y38.340 Z14.298 A355.1411 B-0.0000 
N800 X-285.118 Y36.387 Z15.101 A357.0408 B-0.0000 
N801 X-285.118 Y34.192 Z15.806 A358.8037 
N802 X-285.118 Y31.769 Z16.393 A0.3930 
N803 X-285.118 Y29.148 Z16.627 A1.0680 
N804 X-285.118 Y26.363 Z16.650 A1.1561 
N805 X-285.118 Y23.444 Z16.642 A1.1572 
N806 X-285.118 Y20.431 Z16.634 
N807 X-285.118 Y17.368 Z16.625 
N808 X-285.118 Y14.304 Z16.617 A1.1574 
N809 X-285.118 Y11.287 Z16.611 A1.1647 
N810 X-285.118 Y8.364 Z16.621 A1.2236 
N811 X-285.118 Y5.579 Z16.635 A1.3056 
N812 X-285.118 Y2.970 Z16.626 A1.3219 
N813 X-285.118 Y0.564 Z16.613 A1.3227 
N814 X-285.118 Y-1.618 Z16.601 A1.3232 
N815 X-285.118 Y-3.564 Z16.596 A1.3402 
N816 X-285.118 Y-5.273 Z16.607 A1.4062 
N817 X-285.118 Y-6.751 Z16.631 A1.5153 
N818 X-285.118 Y-8.008 Z16.653 A1.6194 
N819 X-285.118 Y-9.066 Z16.728 A1.8828 
N820 X-285.118 Y-9.951 Z17.005 A2.7706 
N821 X-285.118 Y-10.706 Z17.597 A4.6456 
N822 X-285.118 Y-11.392 Z18.547 A7.6670 
N823 X-285.118 Y-12.080 Z19.802 A11.6951 
N824 X-285.118 Y-12.822 Z21.223 A16.3484 
N825 X-285.118 Y-13.642 Z22.689 A21.2881 
N826 X-285.118 Y-14.605 Z24.247 A26.7196 
N827 X-285.118 Y-15.756 Z25.858 A32.6158 
N828 X-285.118 Y-16.839 Z27.101 A37.5258 
N829 X-285.118 Y-17.756 Z27.982 A41.3058 
N830 X-285.118 Y-18.575 Z28.666 A44.4754 
N831 X-285.118 Y-19.358 Z29.250 A47.3735 
N832 X-285.118 Y-20.144 Z29.779 A50.1860 
N833 X-285.118 Y-20.962 Z30.275 A53.0288 
N834 X-285.118 Y-21.836 Z30.748 A55.9794 
N835 X-285.118 Y-22.780 Z31.195 A59.0813 
N836 X-285.118 Y-23.803 Z31.608 A62.3553 
N837 X-285.118 Y-24.908 Z31.972 A65.8045 
N838 X-285.118 Y-26.089 Z32.268 A69.4110 
N839 X-285.118 Y-27.334 Z32.477 A73.1388 
N840 X-285.118 Y-28.628 Z32.578 A76.9540 
N841 X-285.118 Y-29.958 Z32.556 A80.8418 
N842 X-285.118 Y-31.303 Z32.396 A84.7682 
N843 X-285.118 Y-32.613 Z32.085 A88.6209 
N844 X-285.118 Y-33.788 Z31.622 A92.1326 
N845 X-285.118 Y-34.705 Z31.032 A94.9600 B-0.0001 
N846 X-285.118 Y-35.283 Z30.352 A96.8680 B-0.0004 
N847 X-285.118 Y-35.529 Z29.607 A97.8508 B-0.0020 
N848 X-285.118 Y-35.531 Z28.797 A98.1556 B-0.0064 
N849 X-285.118 Y-35.431 Z27.906 A98.1900 B-0.0158 
N850 X-285.118 Y-35.307 Z26.927 A98.1900 B-0.0316 
N851 X-285.118 Y-35.173 Z25.866 B-0.0527 
N852 X-285.118 Y-35.030 Z24.732 A98.1903 B-0.0751 
N853 X-285.119 Y-34.882 Z23.541 A98.1947 B-0.0948 
N854 X-285.119 Y-34.731 Z22.310 A98.2105 B-0.1107 
N855 X-285.119 Y-34.581 Z21.058 A98.2365 B-0.1254 
N856 X-285.119 Y-34.431 Z19.806 A98.2625 B-0.1404 
N857 X-285.119 Y-34.279 Z18.573 A98.2788 B-0.1557 
N858 X-285.119 Y-34.128 Z17.379 A98.2840 B-0.1709 
N859 X-285.119 Y-33.988 Z16.238 A98.3021 B-0.1852 
N860 X-285.119 Y-33.890 Z15.160 A98.4241 B-0.1982 
N861 X-285.119 Y-33.901 Z14.142 A98.8602 B-0.2082 
N862 X-285.119 Y-34.138 Z13.167 A99.9861 B-0.2123 
N863 X-285.119 Y-34.681 Z12.207 A102.0897 B-0.2071 
N864 X-285.119 Y-35.488 Z11.235 A105.0832 B-0.1916 
N865 X-285.119 Y-36.455 Z10.233 A108.6927 B-0.1669 
N866 X-285.119 Y-37.476 Z9.200 A112.6206 B-0.1344 
N867 X-285.119 Y-38.472 Z8.145 A116.6231 B-0.0962 
N868 X-285.118 Y-39.396 Z7.082 A120.5584 B-0.0538 
N869 X-285.118 Y-40.217 Z6.028 A124.3080 B-0.0088 
N870 X-285.118 Y-40.924 Z4.997 A127.8204 B0.0374 
N871 X-285.118 Y-41.543 Z3.974 A131.1842 B0.0850 
N872 X-285.117 Y-42.103 Z2.927 A134.5328 B0.1346 
N873 X-285.117 Y-42.611 Z1.838 A137.9227 B0.1859 
N874 X-285.117 Y-43.054 Z0.700 A141.3658 B0.2384 
N875 X-285.116 Y-43.433 Z-0.509 A144.9273 B0.2929 
N876 X-285.116 Y-43.738 Z-1.813 A148.6774 B0.3505 
N877 X-285.116 Y-43.943 Z-3.214 A152.6163 B0.4115 
N878 X-285.115 Y-44.006 Z-4.679 A156.6373 B0.4746 
N879 X-285.115 Y-43.879 Z-6.134 A160.5304 B0.5376 
N880 X-285.115 Y-43.525 Z-7.467 A163.9798 B0.5976 
N881 X-285.114 Y-42.927 Z-8.559 A166.6533 B0.6517 
N882 X-285.114 Y-42.095 Z-9.344 A168.3674 B0.6986 
N883 X-285.114 Y-41.045 Z-9.837 A169.1470 B0.7387 
N884 X-285.114 Y-39.799 Z-10.164 A169.3509 B0.7756 
N885 X-285.113 Y-38.374 Z-10.474 A169.4005 B0.8148 
N886 X-285.113 Y-36.773 Z-10.842 A169.5185 B0.8593 
N887 X-285.113 Y-35.005 Z-11.359 A170.0024 B0.9149 
N888 X-285.112 Y-33.091 Z-12.198 A171.4450 B0.9968 
N889 X-285.112 Y-31.012 Z-13.402 A174.1178 B1.0866 
N890 X-285.112 Y-28.703 Z-14.623 A177.1228 B1.0988 
N891 X-285.112 Y-26.170 Z-15.586 A179.6722 B1.0778 
N892 X-285.112 Y-23.465 Z-16.037 A180.9474 B1.0758 
N893 X-285.112 Y-20.648 Z-16.107 A181.1730 B1.0822 
N894 X-285.112 Y-17.753 Z-16.100 A181.1764 B1.0887 
N895 X-285.112 Y-14.819 Z-16.091 B1.0952 
N896 X-285.112 Y-11.886 Z-16.082 B1.1018 
N897 X-285.112 Y-8.999 Z-16.073 A181.1764 B1.1082 
N898 X-285.112 Y-6.198 Z-16.064 B1.1144 
N899 X-285.112 Y-3.522 Z-16.056 B1.1204 
N900 X-285.112 Y-1.005 Z-16.048 A181.1764 B1.1260 
N901 X-285.111 Y1.326 Z-16.041 B1.1312 
N902 X-285.111 Y3.451 Z-16.034 B1.1359 
N903 X-285.111 Y5.359 Z-16.029 B1.1402 
N904 X-285.111 Y7.045 Z-16.023 A181.1764 B1.1439 
N905 X-285.111 Y8.514 Z-16.019 A181.1767 B1.1472 
N906 X-285.111 Y9.774 Z-16.031 A181.2260 B1.1509 
N907 X-285.111 Y10.844 Z-16.149 A181.5986 B1.1611 
N908 X-285.111 Y11.749 Z-16.504 A182.7151 B1.1889 
N909 X-285.111 Y12.532 Z-17.198 A184.9027 B1.2430 
N910 X-285.110 Y13.258 Z-18.234 A188.2039 B1.3236 
N911 X-285.110 Y13.984 Z-19.498 A192.2946 B1.4225 
N912 X-285.109 Y14.746 Z-20.855 A196.7843 B1.5287 
N913 X-285.109 Y15.558 Z-22.216 A201.4232 B1.6335 
N914 X-285.108 Y16.415 Z-23.516 A206.0111 B1.7303 
N915 X-285.108 Y17.297 Z-24.702 A210.3853 B1.8144 
N916 X-285.107 Y18.181 Z-25.754 A214.4612 B1.8828 
N917 X-285.107 Y19.055 Z-26.679 A218.2428 B1.9331 
N918 X-285.107 Y19.921 Z-27.496 A221.7817 B1.9634 
N919 X-285.107 Y20.784 Z-28.224 A225.1399 B1.9725 
N920 X-285.107 Y21.652 Z-28.879 A228.3763 B1.9600 
N921 X-285.107 Y22.534 Z-29.471 A231.5380 B1.9266 
N922 X-285.107 Y23.434 Z-30.005 A234.6519 B1.8742 
N923 X-285.108 Y24.354 Z-30.481 A237.7334 B1.8057 
N924 X-285.108 Y25.298 Z-30.900 A240.8053 B1.7244 
N925 X-285.109 Y26.280 Z-31.266 A243.9146 B1.6331 
N926 X-285.109 Y27.317 Z-31.578 A247.1273 B1.5335 
N927 X-285.110 Y28.425 Z-31.832 A250.4922 B1.4270 
N928 X-285.110 Y29.609 Z-32.013 A254.0318 B1.3149 
N929 X-285.111 Y30.868 Z-32.104 A257.7492 B1.1987 
N930 X-285.112 Y32.192 Z-32.084 A261.6302 B1.0805 
N931 X-285.112 Y33.552 Z-31.930 A265.6206 B0.9630 
N932 X-285.113 Y34.892 Z-31.626 A269.5811 B0.8508 
N933 X-285.114 Y36.114 Z-31.171 A273.2580 B0.7502 
N934 X-285.114 Y37.116 Z-30.586 A276.3775 B0.6673 
N935 X-285.115 Y37.815 Z-29.907 A278.6933 B0.6064 
N936 X-285.115 Y38.158 Z-29.170 A280.0358 B0.5696 
N937 X-285.115 Y38.193 Z-28.386 A280.5226 B0.5526 
N938 X-285.115 Y38.074 Z-27.531 A280.5971 B0.5442 
N939 X-285.115 Y37.915 Z-26.589 A280.5990 B0.5365 
N940 X-285.115 Y37.743 Z-25.558 A280.6037 B0.5273 
N941 X-285.115 Y37.560 Z-24.448 A280.6184 B0.5158 
N942 X-285.115 Y37.370 Z-23.272 A280.6481 B0.5018 
N943 X-285.115 Y37.174 Z-22.045 A280.6871 B0.4860 
N944 X-285.115 Y36.973 Z-20.786 A280.7284 B0.4690 
N945 X-285.115 Y36.768 Z-19.516 A280.7683 B0.4511 
N946 X-285.116 Y36.560 Z-18.254 A280.7970 B0.4328 
N947 X-285.116 Y36.351 Z-17.020 A280.8082 B0.4144 
N948 X-285.116 Y36.149 Z-15.831 A280.8211 B0.3959 
N949 X-285.116 Y35.986 Z-14.694 A280.9218 B0.3767 
N950 X-285.116 Y35.926 Z-13.608 A281.3134 B0.3544 
N951 X-285.116 Y36.085 Z-12.553 A282.3731 B0.3244 
N952 X-285.116 Y36.557 Z-11.496 A284.4337 B0.2835 
N953 X-285.117 Y37.303 Z-10.412 A287.4292 B0.2338 
N954 X-285.117 Y38.206 Z-9.293 A291.0489 B0.1797 
N955 X-285.117 Y39.140 Z-8.150 A294.9305 B0.1257 
N956 X-285.118 Y40.019 Z-7.007 A298.7993 B0.0751 
N957 X-285.118 Y40.801 Z-5.884 A302.5051 B0.0293 
N958 X-285.118 Y41.465 Z-4.802 A305.9493 B-0.0108 
N959 X-285.118 Y42.027 Z-3.756 A309.1706 B-0.0456 
N960 X-285.118 Y42.522 Z-2.721 A312.2989 B-0.0760 
N961 X-285.119 Y42.965 Z-1.676 A315.4056 B-0.1019 
N962 X-285.119 Y43.354 Z-0.611 A318.5123 B-0.1232 
N963 X-285.119 Y43.691 Z0.492 A321.6760 B-0.1404 
N964 X-285.119 Y43.977 Z1.657 A324.9659 B-0.1540 
N965 X-285.119 Y44.200 Z2.898 A328.4188 B-0.1643 
N966 X-285.119 Y44.336 Z4.215 A332.0219 B-0.1708 
N967 X-285.119 Y44.350 Z5.586 A335.7013 B-0.1729 
N968 X-285.119 Y44.201 Z6.951 A339.2820 B-0.1697 
N969 X-285.119 Y43.852 Z8.220 A342.4999 B-0.1596 
N970 X-285.119 Y43.286 Z9.306 A345.1129 B-0.1404 
N971 X-285.119 Y42.503 Z10.152 A346.9614 B-0.1096 
N972 X-285.118 Y41.517 Z10.792 A348.1457 B-0.0683 
N973 X-285.118 Y40.358 Z11.384 A349.1361 B-0.0279 
N974 X-285.118 Y39.048 Z12.135 A350.5828 B-0.0056 
N975 X-285.118 Y37.574 Z13.129 A352.8079 B-0.0005 
N976 X-285.118 Y35.885 Z14.213 A355.4315 B-0.0000 
N977 X-285.118 Y33.952 Z15.180 A357.8879 B-0.0000 
N978 X-285.118 Y31.787 Z15.965 A0.0175 
N979 X-285.118 Y29.423 Z16.314 A1.0182 
N980 X-285.118 Y26.893 Z16.364 A1.1879 
N981 X-285.118 Y24.223 Z16.357 A1.1941 
N982 X-285.118 Y21.441 Z16.348 
N983 X-285.118 Y18.586 Z16.338 
N984 X-285.118 Y15.699 Z16.328 
N985 X-285.118 Y12.826 Z16.319 A1.1959 
N986 X-285.118 Y10.010 Z16.318 A1.2231 
N987 X-285.118 Y7.295 Z16.341 A1.3309 
N988 X-285.118 Y4.720 Z16.349 A1.4033 
N989 X-285.118 Y2.319 Z16.334 A1.4114 
N990 X-285.118 Y0.115 Z16.319 A1.4118 
N991 X-285.118 Y-1.874 Z16.305 A1.4146 
N992 X-285.118 Y-3.641 Z16.305 A1.4551 
N993 X-285.118 Y-5.186 Z16.330 A1.5690 
N994 X-285.118 Y-6.516 Z16.366 A1.7223 
N995 X-285.118 Y-7.643 Z16.400 A1.8715 
N996 X-285.118 Y-8.587 Z16.514 A2.2626 
N997 X-285.118 Y-9.382 Z16.882 A3.4402 
N998 X-285.118 Y-10.073 Z17.598 A5.7079 
N999 X-285.118 Y-10.726 Z18.657 A9.0798 
N1000 X-285.118 Y-11.405 Z19.971 A13.3162 
N1001 X-285.118 Y-12.148 Z21.403 A18.0362 
N1002 X-285.118 Y-12.974 Z22.853 A22.9635 
N1003 X-285.118 Y-13.929 Z24.349 A28.2346 
N1004 X-285.118 Y-15.049 Z25.864 A33.8515 
N1005 X-285.118 Y-16.117 Z27.066 A38.6484 
N1006 X-285.118 Y-17.034 Z27.936 A42.4109 
N1007 X-285.118 Y-17.853 Z28.614 A45.5764 
N1008 X-285.118 Y-18.634 Z29.192 A48.4637 
N1009 X-285.118 Y-19.414 Z29.711 A51.2517 
N1010 X-285.118 Y-20.221 Z30.195 A54.0506 
N1011 X-285.118 Y-21.076 Z30.651 A56.9334 
N1012 X-285.118 Y-21.992 Z31.081 A59.9434 
N1013 X-285.118 Y-22.977 Z31.478 A63.1016 
N1014 X-285.118 Y-24.036 Z31.829 A66.4159 
N1015 X-285.118 Y-25.166 Z32.120 A69.8789 
N1016 X-285.118 Y-26.358 Z32.334 A73.4685 
N1017 X-285.118 Y-27.602 Z32.454 A77.1589 
N1018 X-285.118 Y-28.888 Z32.465 A80.9408 
N1019 X-285.118 Y-30.206 Z32.352 A84.8073 
N1020 X-285.118 Y-31.530 Z32.101 A88.7123 B-0.0000 
N1021 X-285.118 Y-32.792 Z31.703 A92.4927 B-0.0001 
N1022 X-285.118 Y-33.878 Z31.171 A95.8365 B-0.0003 
N1023 X-285.118 Y-34.672 Z30.540 A98.4101 B-0.0011 
N1024 X-285.118 Y-35.109 Z29.853 A100.0032 B-0.0037 
N1025 X-285.118 Y-35.213 Z29.127 A100.6673 B-0.0104 
N1026 X-285.118 Y-35.123 Z28.347 A100.7991 B-0.0237 
N1027 X-285.118 Y-34.976 Z27.488 A100.8036 B-0.0433 
N1028 X-285.118 Y-34.814 Z26.547 A100.8040 B-0.0658 
N1029 X-285.119 Y-34.640 Z25.533 A100.8074 B-0.0862 
N1030 X-285.119 Y-34.457 Z24.455 A100.8192 B-0.1030 
N1031 X-285.119 Y-34.270 Z23.329 A100.8427 B-0.1189 
N1032 X-285.119 Y-34.080 Z22.169 A100.8760 B-0.1355 
N1033 X-285.119 Y-33.887 Z20.996 A100.9103 B-0.1528 
N1034 X-285.119 Y-33.691 Z19.828 A100.9354 B-0.1705 
N1035 X-285.119 Y-33.494 Z18.682 A100.9459 B-0.1883 
N1036 X-285.119 Y-33.303 Z17.574 A100.9555 B-0.2056 
N1037 X-285.119 Y-33.149 Z16.511 A101.0542 B-0.2214 
N1038 X-285.119 Y-33.103 Z15.490 A101.4631 B-0.2336 
N1039 X-285.119 Y-33.277 Z14.491 A102.5433 B-0.2384 
N1040 X-285.119 Y-33.766 Z13.479 A104.6310 B-0.2310 
N1041 X-285.119 Y-34.533 Z12.429 A107.6726 B-0.2097 
N1042 X-285.119 Y-35.458 Z11.331 A111.3462 B-0.1760 
N1043 X-285.119 Y-36.416 Z10.197 A115.2958 B-0.1330 
N1044 X-285.119 Y-37.319 Z9.049 A119.2500 B-0.0834 
N1045 X-285.118 Y-38.128 Z7.906 A123.0687 B-0.0296 
N1046 X-285.118 Y-38.817 Z6.788 A126.6565 B0.0267 
N1047 X-285.118 Y-39.408 Z5.684 A130.0743 B0.0852 
N1048 X-285.117 Y-39.939 Z4.560 A133.4806 B0.1471 
N1049 X-285.117 Y-40.411 Z3.399 A136.9261 B0.2119 
N1050 X-285.116 Y-40.817 Z2.191 A140.4251 B0.2793 
N1051 X-285.116 Y-41.153 Z0.914 A144.0446 B0.3505 
N1052 X-285.116 Y-41.405 Z-0.440 A147.8024 B0.4259 
N1053 X-285.115 Y-41.537 Z-1.850 A151.6240 B0.5045 
N1054 X-285.115 Y-41.508 Z-3.266 A155.3534 B0.5840 
N1055 X-285.114 Y-41.281 Z-4.600 A158.7380 B0.6607 
N1056 X-285.114 Y-40.832 Z-5.753 A161.4905 B0.7306 
N1057 X-285.113 Y-40.158 Z-6.648 A163.3974 B0.7908 
N1058 X-285.113 Y-39.272 Z-7.268 A164.3982 B0.8400 
N1059 X-285.113 Y-38.205 Z-7.707 A164.7579 B0.8821 
N1060 X-285.113 Y-36.983 Z-8.092 A164.8460 B0.9232 
N1061 X-285.112 Y-35.623 Z-8.516 A164.9350 B0.9679 
N1062 X-285.112 Y-34.152 Z-9.119 A165.4689 B1.0260 
N1063 X-285.112 Y-32.606 Z-10.102 A167.1357 B1.1181 
N1064 X-285.111 Y-30.959 Z-11.540 A170.2891 B1.2443 
N1065 X-285.110 Y-29.105 Z-13.178 A174.3077 B1.3154 
N1066 X-285.110 Y-26.981 Z-14.561 A177.9050 B1.3091 
N1067 X-285.110 Y-24.636 Z-15.441 A180.3335 B1.3050 
N1068 X-285.110 Y-22.146 Z-15.708 A181.1116 B1.3108 
N1069 X-285.110 Y-19.551 Z-15.726 A181.1884 B1.3173 
N1070 X-285.110 Y-16.877 Z-15.717 A181.1885 B1.3235 
N1071 X-285.110 Y-14.157 Z-15.708 B1.3298 
N1072 X-285.110 Y-11.425 Z-15.699 A181.1885 B1.3362 
N1073 X-285.110 Y-8.719 Z-15.690 B1.3425 
N1074 X-285.110 Y-6.079 Z-15.682 A181.1885 B1.3486 
N1075 X-285.110 Y-3.540 Z-15.673 B1.3545 
N1076 X-285.110 Y-1.136 Z-15.665 B1.3600 
N1077 X-285.110 Y1.105 Z-15.658 A181.1885 B1.3652 
N1078 X-285.110 Y3.162 Z-15.651 B1.3700 
N1079 X-285.110 Y5.020 Z-15.645 B1.3743 
N1080 X-285.110 Y6.673 Z-15.640 A181.1885 B1.3782 
N1081 X-285.110 Y8.119 Z-15.635 A181.1885 B1.3815 
N1082 X-285.110 Y9.368 Z-15.638 A181.2117 B1.3849 
N1083 X-285.110 Y10.430 Z-15.711 A181.4466 B1.3928 
N1084 X-285.110 Y11.329 Z-15.973 A182.2682 B1.4158 
N1085 X-285.110 Y12.099 Z-16.545 A184.0658 B1.4645 
N1086 X-285.109 Y12.797 Z-17.479 A187.0203 B1.5423 
N1087 X-285.109 Y13.484 Z-18.687 A190.8925 B1.6417 
N1088 X-285.108 Y14.203 Z-20.026 A195.2692 B1.7505 
N1089 X-285.107 Y14.976 Z-21.400 A199.8806 B1.8585 
N1090 X-285.107 Y15.804 Z-22.741 A204.5289 B1.9583 
N1091 X-285.106 Y16.671 Z-23.987 A209.0259 B2.0448 
N1092 X-285.106 Y17.551 Z-25.101 A213.2397 B2.1151 
N1093 X-285.105 Y18.422 Z-26.076 A217.1299 B2.1678 
N1094 X-285.105 Y19.280 Z-26.931 A220.7345 B2.2022 
N1095 X-285.105 Y20.128 Z-27.687 A224.1196 B2.2177 
N1096 X-285.105 Y20.977 Z-28.364 A227.3544 B2.2137 
N1097 X-285.105 Y21.835 Z-28.977 A230.4975 B2.1902 
N1098 X-285.106 Y22.710 Z-29.534 A233.5872 B2.1479 
N1099 X-285.106 Y23.602 Z-30.035 A236.6368 B2.0883 
N1100 X-285.106 Y24.511 Z-30.479 A239.6507 B2.0142 
N1101 X-285.107 Y25.440 Z-30.867 A242.6457 B1.9285 
N1102 X-285.107 Y26.399 Z-31.203 A245.6681 B1.8332 
N1103 X-285.108 Y27.408 Z-31.488 A248.7823 B1.7297 
N1104 X-285.109 Y28.480 Z-31.717 A252.0350 B1.6186 
N1105 X-285.109 Y29.622 Z-31.880 A255.4521 B1.5009 
N1106 X-285.110 Y30.836 Z-31.959 A259.0463 B1.3774 
N1107 X-285.111 Y32.118 Z-31.937 A262.8219 B1.2495 
N1108 X-285.112 Y33.452 Z-31.794 A266.7536 B1.1191 
N1109 X-285.112 Y34.794 Z-31.510 A270.7450 B0.9903 
N1110 X-285.113 Y36.062 Z-31.080 A274.5882 B0.8693 
N1111 X-285.114 Y37.158 Z-30.519 A278.0193 B0.7637 
N1112 X-285.114 Y37.987 Z-29.862 A280.7696 B0.6802 
N1113 X-285.114 Y38.467 Z-29.155 A282.5788 B0.6246 
N1114 X-285.115 Y38.594 Z-28.425 A283.4097 B0.5964 
N1115 X-285.115 Y38.495 Z-27.651 A283.6242 B0.5844 
N1116 X-285.115 Y38.314 Z-26.803 A283.6525 B0.5765 
N1117 X-285.115 Y38.106 Z-25.870 A283.6577 B0.5678 
N1118 X-285.115 Y37.882 Z-24.857 A283.6665 B0.5569 
N1119 X-285.115 Y37.646 Z-23.771 A283.6920 B0.5431 
N1120 X-285.115 Y37.402 Z-22.628 A283.7327 B0.5268 
N1121 X-285.115 Y37.150 Z-21.442 A283.7783 B0.5088 
N1122 X-285.115 Y36.891 Z-20.233 A283.8243 B0.4896 
N1123 X-285.115 Y36.627 Z-19.018 A283.8623 B0.4696 
N1124 X-285.115 Y36.359 Z-17.817 A283.8812 B0.4494 
N1125 X-285.116 Y36.095 Z-16.646 A283.8936 B0.4290 
N1126 X-285.116 Y35.869 Z-15.510 A283.9971 B0.4071 
N1127 X-285.116 Y35.761 Z-14.402 A284.4370 B0.3801 
N1128 X-285.116 Y35.889 Z-13.294 A285.6108 B0.3422 
N1129 X-285.116 Y36.342 Z-12.149 A287.8460 B0.2895 
N1130 X-285.117 Y37.057 Z-10.948 A291.0150 B0.2262 
N1131 X-285.117 Y37.887 Z-9.702 A294.7158 B0.1596 
N1132 X-285.117 Y38.692 Z-8.449 A298.5193 B0.0964 
N1133 X-285.118 Y39.399 Z-7.223 A302.1691 B0.0403 
N1134 X-285.118 Y39.980 Z-6.050 A305.5417 B-0.0074 
N1135 X-285.118 Y40.453 Z-4.929 A308.6692 B-0.0474 
N1136 X-285.119 Y40.861 Z-3.828 A311.7061 B-0.0814 
N1137 X-285.119 Y41.220 Z-2.727 A314.7220 B-0.1093 
N1138 X-285.119 Y41.531 Z-1.613 A317.7521 B-0.1317 
N1139 X-285.119 Y41.800 Z-0.464 A320.8617 B-0.1495 
N1140 X-285.119 Y42.020 Z0.737 A324.0902 B-0.1632 
N1141 X-285.119 Y42.175 Z1.993 A327.4376 B-0.1726 
N1142 X-285.119 Y42.239 Z3.295 A330.8566 B-0.1774 
N1143 X-285.119 Y42.177 Z4.601 A334.2125 B-0.1766 
N1144 X-285.119 Y41.951 Z5.845 A337.3035 B-0.1695 
N1145 X-285.119 Y41.542 Z6.963 A339.9400 B-0.1551 
N1146 X-285.119 Y40.941 Z7.905 A341.9791 B-0.1306 
N1147 X-285.119 Y40.162 Z8.693 A343.4934 B-0.0927 
N1148 X-285.118 Y39.239 Z9.450 A344.8663 B-0.0486 
N1149 X-285.118 Y38.207 Z10.373 A346.7232 B-0.0165 
N1150 X-285.118 Y37.056 Z11.574 A349.4592 B-0.0029 
N1151 X-285.118 Y35.715 Z12.926 A352.7649 B-0.0001 
N1152 X-285.118 Y34.131 Z14.219 A356.0787 B-0.0000 
N1153 X-285.118 Y32.300 Z15.275 A358.9118 
N1154 X-285.118 Y30.252 Z15.909 A0.6998 
N1155 X-285.118 Y28.033 Z16.068 A1.1784 
N1156 X-285.118 Y25.662 Z16.076 A1.2314 
N1157 X-285.118 Y23.160 Z16.066 A1.2317 
N1158 X-285.118 Y20.552 Z16.056 
N1159 X-285.118 Y17.873 Z16.045 
N1160 X-285.118 Y15.162 Z16.034 A1.2317 
N1161 X-285.118 Y12.460 Z16.024 A1.2345 
N1162 X-285.118 Y9.809 Z16.025 A1.2729 
N1163 X-285.118 Y7.249 Z16.055 A1.4065 
N1164 X-285.118 Y4.818 Z16.065 A1.4935 
N1165 X-285.118 Y2.548 Z16.048 A1.5043 
N1166 X-285.118 Y0.462 Z16.030 A1.5048 
N1167 X-285.118 Y-1.422 Z16.014 A1.5071 
N1168 X-285.118 Y-3.096 Z16.014 A1.5526 
N1169 X-285.118 Y-4.561 Z16.045 A1.6917 
N1170 X-285.118 Y-5.823 Z16.088 A1.8732 
N1171 X-285.118 Y-6.893 Z16.133 A2.0610 
N1172 X-285.118 Y-7.789 Z16.242 A2.4450 
N1173 X-285.118 Y-8.544 Z16.596 A3.5832 
N1174 X-285.118 Y-9.204 Z17.315 A5.8584 
N1175 X-285.118 Y-9.832 Z18.375 A9.2289 
N1176 X-285.118 Y-10.489 Z19.685 A13.4466 
N1177 X-285.118 Y-11.213 Z21.106 A18.1217 
N1178 X-285.118 Y-12.015 Z22.538 A22.9740 
N1179 X-285.118 Y-12.910 Z23.951 A27.9426 
N1180 X-285.118 Y-13.947 Z25.381 A33.2102 
N1181 X-285.118 Y-15.034 Z26.656 A38.2118 
N1182 X-285.118 Y-16.004 Z27.617 A42.2868 
N1183 X-285.118 Y-16.857 Z28.348 A45.6353 
N1184 X-285.118 Y-17.649 Z28.950 A48.5990 
N1185 X-285.118 Y-18.423 Z29.478 A51.3905 
N1186 X-285.118 Y-19.209 Z29.960 A54.1364 
N1187 X-285.118 Y-20.027 Z30.410 A56.9186 
N1188 X-285.118 Y-20.893 Z30.832 A59.7905 
N1189 X-285.118 Y-21.817 Z31.224 A62.7812 
N1190 X-285.118 Y-22.805 Z31.578 A65.9059 
N1191 X-285.118 Y-23.859 Z31.883 A69.1693 
N1192 X-285.118 Y-24.975 Z32.128 A72.5650 
N1193 X-285.118 Y-26.146 Z32.296 A76.0773 
N1194 X-285.118 Y-27.365 Z32.373 A79.6921 
N1195 X-285.118 Y-28.626 Z32.347 A83.4106 
N1196 X-285.118 Y-29.922 Z32.203 A87.2371 B-0.0000 
N1197 X-285.118 Y-31.232 Z31.926 A91.1413 B-0.0001 
N1198 X-285.118 Y-32.497 Z31.509 A94.9785 B-0.0005 
N1199 X-285.118 Y-33.606 Z30.965 A98.4522 B-0.0016 
N1200 X-285.118 Y-34.436 Z30.334 A101.2068 B-0.0042 
N1201 X-285.118 Y-34.897 Z29.666 A102.9528 B-0.0101 
N1202 X-285.118 Y-34.996 Z28.988 A103.6803 B-0.0215 
N1203 X-285.118 Y-34.883 Z28.275 A103.8204 B-0.0389 
N1204 X-285.118 Y-34.706 Z27.491 A103.8247 B-0.0588 
N1205 X-285.118 Y-34.510 Z26.630 A103.8259 B-0.0774 
N1206 X-285.119 Y-34.301 Z25.698 A103.8367 B-0.0941 
N1207 X-285.119 Y-34.085 Z24.701 A103.8690 B-0.1102 
N1208 X-285.119 Y-33.862 Z23.655 A103.9159 B-0.1270 
N1209 X-285.119 Y-33.629 Z22.573 A103.9628 B-0.1448 
N1210 X-285.119 Y-33.390 Z21.472 A104.0070 B-0.1634 
N1211 X-285.119 Y-33.146 Z20.369 A104.0401 B-0.1826 
N1212 X-285.119 Y-32.899 Z19.280 A104.0530 B-0.2021 
N1213 X-285.119 Y-32.659 Z18.218 A104.0735 B-0.2210 
N1214 X-285.119 Y-32.482 Z17.181 A104.2636 B-0.2375 
N1215 X-285.119 Y-32.472 Z16.151 A104.9579 B-0.2474 
N1216 X-285.119 Y-32.750 Z15.093 A106.5679 B-0.2446 
N1217 X-285.119 Y-33.355 Z13.968 A109.2825 B-0.2239 
N1218 X-285.119 Y-34.177 Z12.768 A112.8303 B-0.1857 
N1219 X-285.119 Y-35.059 Z11.512 A116.7685 B-0.1343 
N1220 X-285.118 Y-35.874 Z10.243 A120.7056 B-0.0746 
N1221 X-285.118 Y-36.569 Z8.993 A124.4468 B-0.0102 
N1222 X-285.118 Y-37.133 Z7.778 A127.9286 B0.0571 
N1223 X-285.117 Y-37.612 Z6.567 A131.3198 B0.1288 
N1224 X-285.117 Y-38.034 Z5.328 A134.7477 B0.2057 
N1225 X-285.116 Y-38.391 Z4.051 A138.2309 B0.2873 
N1226 X-285.116 Y-38.682 Z2.719 A141.8207 B0.3745 
N1227 X-285.115 Y-38.883 Z1.334 A145.4880 B0.4669 
N1228 X-285.115 Y-38.958 Z-0.069 A149.1163 B0.5621 
N1229 X-285.114 Y-38.868 Z-1.426 A152.5014 B0.6558 
N1230 X-285.114 Y-38.579 Z-2.647 A155.3731 B0.7425 
N1231 X-285.113 Y-38.078 Z-3.653 A157.4958 B0.8172 
N1232 X-285.113 Y-37.371 Z-4.401 A158.7434 B0.8764 
N1233 X-285.113 Y-36.492 Z-4.950 A159.2857 B0.9227 
N1234 X-285.112 Y-35.480 Z-5.408 A159.4439 B0.9627 
N1235 X-285.112 Y-34.362 Z-5.869 A159.5001 B1.0035 
N1236 X-285.112 Y-33.185 Z-6.480 A159.9214 B1.0579 
N1237 X-285.111 Y-32.010 Z-7.461 A161.4487 B1.1487 
N1238 X-285.111 Y-30.837 Z-8.952 A164.6105 B1.2949 
N1239 X-285.110 Y-29.547 Z-10.853 A169.1930 B1.4519 
N1240 X-285.109 Y-27.985 Z-12.754 A174.0637 B1.5191 
N1241 X-285.109 Y-26.124 Z-14.269 A178.1265 B1.5285 
N1242 X-285.109 Y-24.041 Z-15.099 A180.4502 B1.5357 
N1243 X-285.109 Y-21.817 Z-15.332 A181.1352 B1.5439 
N1244 X-285.109 Y-19.482 Z-15.347 A181.2025 B1.5502 
N1245 X-285.109 Y-17.053 Z-15.338 A181.2026 B1.5561 
N1246 X-285.109 Y-14.554 Z-15.329 B1.5622 
N1247 X-285.109 Y-12.014 Z-15.320 A181.2026 B1.5684 
N1248 X-285.109 Y-9.467 Z-15.311 B1.5746 
N1249 X-285.109 Y-6.950 Z-15.303 A181.2026 B1.5807 
N1250 X-285.109 Y-4.497 Z-15.294 B1.5866 
N1251 X-285.109 Y-2.145 Z-15.286 A181.2026 B1.5924 
N1252 X-285.109 Y0.076 Z-15.278 B1.5978 
N1253 X-285.109 Y2.140 Z-15.270 A181.2026 B1.6028 
N1254 X-285.109 Y4.027 Z-15.264 B1.6074 
N1255 X-285.109 Y5.724 Z-15.258 B1.6115 
N1256 X-285.109 Y7.226 Z-15.253 A181.2026 B1.6151 
N1257 X-285.109 Y8.535 Z-15.248 A181.2042 B1.6183 
N1258 X-285.109 Y9.659 Z-15.266 A181.2689 B1.6227 
N1259 X-285.109 Y10.612 Z-15.382 A181.6382 B1.6351 
N1260 X-285.108 Y11.417 Z-15.720 A182.6969 B1.6673 
N1261 X-285.108 Y12.116 Z-16.402 A184.8386 B1.7293 
N1262 X-285.107 Y12.769 Z-17.438 A188.1153 B1.8204 
N1263 X-285.107 Y13.432 Z-18.702 A192.1705 B1.9289 
N1264 X-285.106 Y14.140 Z-20.064 A196.6358 B2.0418 
N1265 X-285.106 Y14.911 Z-21.447 A201.2969 B2.1496 
N1266 X-285.105 Y15.742 Z-22.785 A205.9607 B2.2452 
N1267 X-285.105 Y16.611 Z-24.016 A210.4378 B2.3244 
N1268 X-285.104 Y17.488 Z-25.107 A214.6026 B2.3853 
N1269 X-285.104 Y18.352 Z-26.056 A218.4254 B2.4283 
N1270 X-285.104 Y19.198 Z-26.883 A221.9518 B2.4537 
N1271 X-285.104 Y20.032 Z-27.612 A225.2552 B2.4618 
N1272 X-285.104 Y20.865 Z-28.265 A228.4116 B2.4528 
N1273 X-285.104 Y21.707 Z-28.858 A231.4857 B2.4262 
N1274 X-285.104 Y22.568 Z-29.399 A234.5203 B2.3821 
N1275 X-285.105 Y23.449 Z-29.889 A237.5279 B2.3216 
N1276 X-285.105 Y24.346 Z-30.325 A240.5030 B2.2467 
N1277 X-285.106 Y25.256 Z-30.706 A243.4455 B2.1600 
N1278 X-285.106 Y26.186 Z-31.034 A246.3830 B2.0636 
N1279 X-285.107 Y27.151 Z-31.312 A249.3737 B1.9587 
N1280 X-285.107 Y28.167 Z-31.539 A252.4699 B1.8456 
N1281 X-285.108 Y29.243 Z-31.707 A255.7053 B1.7249 
N1282 X-285.109 Y30.385 Z-31.806 A259.1024 B1.5969 
N1283 X-285.110 Y31.594 Z-31.819 A262.6812 B1.4622 
N1284 X-285.110 Y32.869 Z-31.728 A266.4525 B1.3216 
N1285 X-285.111 Y34.191 Z-31.515 A270.3867 B1.1770 
N1286 X-285.112 Y35.511 Z-31.163 A274.3712 B1.0331 
N1287 X-285.113 Y36.743 Z-30.673 A278.1886 B0.8975 
N1288 X-285.114 Y37.794 Z-30.067 A281.5874 B0.7784 
N1289 X-285.114 Y38.569 Z-29.387 A284.2857 B0.6845 
N1290 X-285.114 Y38.987 Z-28.684 A286.0201 B0.6232 
N1291 X-285.115 Y39.063 Z-27.979 A286.8036 B0.5929 
N1292 X-285.115 Y38.931 Z-27.241 A287.0299 B0.5798 
N1293 X-285.115 Y38.715 Z-26.436 A287.0769 B0.5713 
N1294 X-285.115 Y38.463 Z-25.549 A287.0859 B0.5626 
N1295 X-285.115 Y38.189 Z-24.584 A287.0990 B0.5513 
N1296 X-285.115 Y37.900 Z-23.548 A287.1307 B0.5369 
N1297 X-285.115 Y37.599 Z-22.452 A287.1764 B0.5199 
N1298 X-285.115 Y37.285 Z-21.312 A287.2270 B0.5010 
N1299 X-285.115 Y36.963 Z-20.144 A287.2785 B0.4809 
N1300 X-285.115 Y36.633 Z-18.965 A287.3210 B0.4599 
N1301 X-285.115 Y36.298 Z-17.793 A287.3454 B0.4385 
N1302 X-285.116 Y35.975 Z-16.639 A287.3917 B0.4163 
N1303 X-285.116 Y35.736 Z-15.494 A287.6804 B0.3891 
N1304 X-285.116 Y35.705 Z-14.328 A288.6179 B0.3494 
N1305 X-285.116 Y35.994 Z-13.095 A290.6147 B0.2913 
N1306 X-285.117 Y36.566 Z-11.777 A293.6365 B0.2184 
N1307 X-285.117 Y37.253 Z-10.403 A297.2139 B0.1419 
N1308 X-285.118 Y37.887 Z-9.038 A300.8178 B0.0721 
N1309 X-285.118 Y38.392 Z-7.731 A304.1584 B0.0137 
N1310 X-285.118 Y38.763 Z-6.502 A307.1697 B-0.0331 
N1311 X-285.118 Y39.053 Z-5.324 A310.0160 B-0.0710 
N1312 X-285.119 Y39.299 Z-4.164 A312.8334 B-0.1013 
N1313 X-285.119 Y39.513 Z-3.003 A315.6875 B-0.1251 
N1314 X-285.119 Y39.702 Z-1.817 A318.6457 B-0.1437 
N1315 X-285.119 Y39.858 Z-0.594 A321.7278 B-0.1576 
N1316 X-285.119 Y39.962 Z0.663 A324.9020 B-0.1665 
N1317 X-285.119 Y39.980 Z1.927 A328.0582 B-0.1697 
N1318 X-285.119 Y39.876 Z3.150 A331.0243 B-0.1664 
N1319 X-285.119 Y39.627 Z4.284 A333.6531 B-0.1559 
N1320 X-285.119 Y39.225 Z5.297 A335.8480 B-0.1369 
N1321 X-285.119 Y38.682 Z6.206 A337.6681 B-0.1074 
N1322 X-285.118 Y38.030 Z7.102 A339.4037 B-0.0701 
N1323 X-285.118 Y37.311 Z8.142 A341.5674 B-0.0346 
N1324 X-285.118 Y36.532 Z9.465 A344.6231 B-0.0107 
N1325 X-285.118 Y35.612 Z11.001 A348.3932 B-0.0012 
N1326 X-285.118 Y34.480 Z12.640 A352.6106 B-0.0000 
N1327 X-285.118 Y33.076 Z14.063 A356.3811 B-0.0000 
N1328 X-285.118 Y31.425 Z15.154 A359.3917 
N1329 X-285.118 Y29.573 Z15.674 A0.8806 
N1330 X-285.118 Y27.562 Z15.787 A1.2320 
N1331 X-285.118 Y25.403 Z15.790 A1.2695 
N1332 X-285.118 Y23.108 Z15.779 A1.2696 
N1333 X-285.118 Y20.701 Z15.768 
N1334 X-285.118 Y18.210 Z15.756 
N1335 X-285.118 Y15.669 Z15.744 
N1336 X-285.118 Y13.118 Z15.732 A1.2709 
N1337 X-285.118 Y10.595 Z15.727 A1.2926 
N1338 X-285.118 Y8.141 Z15.754 A1.4172 
N1339 X-285.118 Y5.793 Z15.783 A1.5641 
N1340 X-285.118 Y3.584 Z15.772 A1.5998 
N1341 X-285.118 Y1.542 Z15.751 A1.6023 
N1342 X-285.118 Y-0.316 Z15.732 A1.6024 
N1343 X-285.118 Y-1.978 Z15.720 A1.6195 
N1344 X-285.118 Y-3.441 Z15.741 A1.7338 
N1345 X-285.118 Y-4.708 Z15.792 A1.9402 
N1346 X-285.118 Y-5.788 Z15.844 A2.1552 
N1347 X-285.118 Y-6.696 Z15.920 A2.4454 
N1348 X-285.118 Y-7.456 Z16.144 A3.1852 
N1349 X-285.118 Y-8.109 Z16.706 A4.9702 
N1350 X-285.118 Y-8.714 Z17.657 A7.9785 
N1351 X-285.118 Y-9.335 Z18.900 A11.9491 
N1352 X-285.118 Y-10.016 Z20.301 A16.5080 
N1353 X-285.118 Y-10.771 Z21.730 A21.2821 
N1354 X-285.118 Y-11.600 Z23.118 A26.0851 
N1355 X-285.118 Y-12.512 Z24.456 A30.9063 
N1356 X-285.118 Y-13.528 Z25.753 A35.8249 
N1357 X-285.118 Y-14.569 Z26.894 A40.4411 
N1358 X-285.118 Y-15.515 Z27.783 A44.3183 
N1359 X-285.118 Y-16.361 Z28.478 A47.5850 
N1360 X-285.118 Y-17.152 Z29.054 A50.5052 
N1361 X-285.118 Y-17.925 Z29.560 A53.2617 
N1362 X-285.118 Y-18.706 Z30.020 A55.9677 
N1363 X-285.118 Y-19.516 Z30.446 A58.6965 
N1364 X-285.118 Y-20.367 Z30.842 A61.4973 
N1365 X-285.118 Y-21.268 Z31.207 A64.3991 
N1366 X-285.118 Y-22.226 Z31.535 A67.4172 
N1367 X-285.118 Y-23.241 Z31.818 A70.5590 
N1368 X-285.118 Y-24.313 Z32.045 A73.8241 
N1369 X-285.118 Y-25.439 Z32.204 A77.2056 
N1370 X-285.118 Y-26.611 Z32.284 A80.6940 
N1371 X-285.118 Y-27.825 Z32.271 A84.2904 
N1372 X-285.118 Y-29.079 Z32.152 A88.0091 B-0.0000 
N1373 X-285.118 Y-30.366 Z31.914 A91.8574 B-0.0001 
N1374 X-285.118 Y-31.657 Z31.542 A95.7828 B-0.0005 
N1375 X-285.118 Y-32.875 Z31.038 A99.5878 B-0.0016 
N1376 X-285.118 Y-33.901 Z30.428 A102.9438 B-0.0044 
N1377 X-285.118 Y-34.607 Z29.770 A105.4609 B-0.0101 
N1378 X-285.118 Y-34.912 Z29.122 A106.8549 B-0.0200 
N1379 X-285.118 Y-34.879 Z28.488 A107.2903 B-0.0348 
N1380 X-285.118 Y-34.699 Z27.815 A107.3381 B-0.0526 
N1381 X-285.118 Y-34.482 Z27.071 A107.3426 B-0.0694 
N1382 X-285.119 Y-34.248 Z26.252 A107.3586 B-0.0844 
N1383 X-285.119 Y-34.001 Z25.363 A107.4009 B-0.0996 
N1384 X-285.119 Y-33.745 Z24.412 A107.4695 B-0.1159 
N1385 X-285.119 Y-33.472 Z23.414 A107.5362 B-0.1333 
N1386 X-285.119 Y-33.184 Z22.382 A107.5912 B-0.1517 
N1387 X-285.119 Y-32.887 Z21.328 A107.6412 B-0.1707 
N1388 X-285.119 Y-32.584 Z20.269 A107.6801 B-0.1903 
N1389 X-285.119 Y-32.278 Z19.215 A107.7097 B-0.2103 
N1390 X-285.119 Y-32.021 Z18.165 A107.8792 B-0.2283 
N1391 X-285.119 Y-31.944 Z17.084 A108.6176 B-0.2379 
N1392 X-285.119 Y-32.182 Z15.922 A110.3963 B-0.2301 
N1393 X-285.119 Y-32.754 Z14.641 A113.3616 B-0.1986 
N1394 X-285.119 Y-33.501 Z13.255 A117.1121 B-0.1454 
N1395 X-285.119 Y-34.221 Z11.828 A121.0308 B-0.0789 
N1396 X-285.118 Y-34.794 Z10.432 A124.7036 B-0.0063 
N1397 X-285.118 Y-35.207 Z9.092 A128.0399 B0.0692 
N1398 X-285.117 Y-35.532 Z7.765 A131.2882 B0.1510 
N1399 X-285.117 Y-35.803 Z6.418 A134.5933 B0.2406 
N1400 X-285.116 Y-36.024 Z5.030 A138.0182 B0.3390 
N1401 X-285.115 Y-36.174 Z3.606 A141.5286 B0.4454 
N1402 X-285.115 Y-36.212 Z2.188 A144.9629 B0.5553 
N1403 X-285.114 Y-36.086 Z0.857 A148.0412 B0.6610 
N1404 X-285.114 Y-35.760 Z-0.293 A150.4641 B0.7538 
N1405 X-285.113 Y-35.227 Z-1.194 A152.0223 B0.8267 
N1406 X-285.113 Y-34.518 Z-1.869 A152.7854 B0.8796 
N1407 X-285.113 Y-33.689 Z-2.413 A153.0536 B0.9198 
N1408 X-285.112 Y-32.781 Z-2.916 A153.1139 B0.9554 
N1409 X-285.112 Y-31.849 Z-3.502 A153.3642 B0.9991 
N1410 X-285.112 Y-30.979 Z-4.372 A154.4925 B1.0755 
N1411 X-285.111 Y-30.223 Z-5.715 A157.1682 B1.2120 
N1412 X-285.110 Y-29.498 Z-7.555 A161.4877 B1.4108 
N1413 X-285.109 Y-28.637 Z-9.755 A167.0621 B1.6063 
N1414 X-285.108 Y-27.460 Z-11.893 A172.6829 B1.7074 
N1415 X-285.108 Y-25.949 Z-13.600 A177.3167 B1.7442 
N1416 X-285.108 Y-24.191 Z-14.585 A180.0755 B1.7628 
N1417 X-285.108 Y-22.280 Z-14.921 A181.0491 B1.7740 
N1418 X-285.108 Y-20.245 Z-14.970 A181.2152 B1.7811 
N1419 X-285.108 Y-18.096 Z-14.963 A181.2187 B1.7866 
N1420 X-285.108 Y-15.845 Z-14.955 B1.7924 
N1421 X-285.108 Y-13.515 Z-14.946 A181.2187 B1.7984 
N1422 X-285.108 Y-11.134 Z-14.937 B1.8045 
N1423 X-285.108 Y-8.734 Z-14.928 A181.2187 B1.8106 
N1424 X-285.108 Y-6.351 Z-14.919 B1.8167 
N1425 X-285.107 Y-4.021 Z-14.910 A181.2187 B1.8227 
N1426 X-285.107 Y-1.780 Z-14.901 B1.8284 
N1427 X-285.107 Y0.342 Z-14.893 A181.2188 B1.8339 
N1428 X-285.107 Y2.317 Z-14.886 B1.8389 
N1429 X-285.107 Y4.125 Z-14.879 A181.2188 B1.8435 
N1430 X-285.107 Y5.752 Z-14.872 B1.8477 
N1431 X-285.107 Y7.192 Z-14.867 B1.8514 
N1432 X-285.107 Y8.447 Z-14.863 A181.2206 B1.8547 
N1433 X-285.107 Y9.524 Z-14.878 A181.2799 B1.8591 
N1434 X-285.107 Y10.435 Z-14.980 A181.6045 B1.8713 
N1435 X-285.107 Y11.203 Z-15.287 A182.5671 B1.9034 
N1436 X-285.107 Y11.867 Z-15.939 A184.6037 B1.9668 
N1437 X-285.106 Y12.485 Z-16.952 A187.7953 B2.0614 
N1438 X-285.105 Y13.115 Z-18.203 A191.7905 B2.1740 
N1439 X-285.105 Y13.791 Z-19.565 A196.2275 B2.2906 
N1440 X-285.104 Y14.537 Z-20.963 A200.9008 B2.4009 
N1441 X-285.104 Y15.353 Z-22.329 A205.6190 B2.4975 
N1442 X-285.103 Y16.216 Z-23.595 A210.1780 B2.5755 
N1443 X-285.103 Y17.093 Z-24.720 A214.4286 B2.6338 
N1444 X-285.103 Y17.957 Z-25.695 A218.3157 B2.6732 
N1445 X-285.102 Y18.799 Z-26.538 A221.8705 B2.6957 
N1446 X-285.102 Y19.622 Z-27.274 A225.1661 B2.7025 
N1447 X-285.102 Y20.436 Z-27.928 A228.2846 B2.6942 
N1448 X-285.103 Y21.255 Z-28.520 A231.3024 B2.6708 
N1449 X-285.103 Y22.091 Z-29.062 A234.2801 B2.6316 
N1450 X-285.103 Y22.952 Z-29.560 A237.2506 B2.5765 
N1451 X-285.104 Y23.836 Z-30.011 A240.2145 B2.5063 
N1452 X-285.104 Y24.736 Z-30.410 A243.1544 B2.4227 
N1453 X-285.105 Y25.646 Z-30.755 A246.0606 B2.3282 
N1454 X-285.105 Y26.571 Z-31.048 A248.9553 B2.2247 
N1455 X-285.106 Y27.526 Z-31.290 A251.8928 B2.1127 
N1456 X-285.106 Y28.524 Z-31.482 A254.9206 B1.9926 
N1457 X-285.107 Y29.574 Z-31.617 A258.0713 B1.8644 
N1458 X-285.108 Y30.682 Z-31.685 A261.3707 B1.7282 
N1459 X-285.109 Y31.853 Z-31.672 A264.8458 B1.5841 
N1460 X-285.110 Y33.090 Z-31.563 A268.5202 B1.4321 
N1461 X-285.111 Y34.380 Z-31.338 A272.3845 B1.2734 
N1462 X-285.112 Y35.686 Z-30.982 A276.3596 B1.1118 
N1463 X-285.113 Y36.935 Z-30.490 A280.2643 B0.9548 
N1464 X-285.113 Y38.039 Z-29.882 A283.8683 B0.8112 
N1465 X-285.114 Y38.909 Z-29.195 A286.9099 B0.6909 
N1466 X-285.115 Y39.452 Z-28.487 A289.0917 B0.6043 
N1467 X-285.115 Y39.639 Z-27.797 A290.2897 B0.5551 
N1468 X-285.115 Y39.559 Z-27.107 A290.7563 B0.5328 
N1469 X-285.115 Y39.341 Z-26.372 A290.8892 B0.5221 
N1470 X-285.115 Y39.058 Z-25.565 A290.9147 B0.5141 
N1471 X-285.115 Y38.740 Z-24.678 A290.9257 B0.5046 
N1472 X-285.115 Y38.401 Z-23.711 A290.9569 B0.4917 
N1473 X-285.115 Y38.042 Z-22.675 A291.0080 B0.4759 
N1474 X-285.115 Y37.664 Z-21.581 A291.0658 B0.4579 
N1475 X-285.116 Y37.269 Z-20.444 A291.1263 B0.4383 
N1476 X-285.116 Y36.862 Z-19.278 A291.1848 B0.4175 
N1477 X-285.116 Y36.444 Z-18.100 A291.2296 B0.3961 
N1478 X-285.116 Y36.035 Z-16.920 A291.3028 B0.3733 
N1479 X-285.116 Y35.735 Z-15.713 A291.7266 B0.3417 
N1480 X-285.116 Y35.693 Z-14.428 A293.0087 B0.2907 
N1481 X-285.117 Y35.968 Z-13.025 A295.4179 B0.2182 
N1482 X-285.117 Y36.421 Z-11.537 A298.5942 B0.1366 
N1483 X-285.118 Y36.842 Z-10.052 A301.8710 B0.0622 
N1484 X-285.118 Y37.118 Z-8.650 A304.8224 B0.0033 
N1485 X-285.118 Y37.257 Z-7.350 A307.4080 B-0.0408 
N1486 X-285.118 Y37.333 Z-6.112 A309.8559 B-0.0743 
N1487 X-285.119 Y37.390 Z-4.900 A312.3290 B-0.1000 
N1488 X-285.119 Y37.453 Z-3.682 A314.9394 B-0.1201 
N1489 X-285.119 Y37.519 Z-2.444 A317.7188 B-0.1351 
N1490 X-285.119 Y37.563 Z-1.194 A320.5987 B-0.1446 
N1491 X-285.119 Y37.542 Z0.028 A323.4101 B-0.1475 
N1492 X-285.119 Y37.423 Z1.182 A325.9897 B-0.1433 
N1493 X-285.119 Y37.198 Z2.250 A328.2742 B-0.1324 
N1494 X-285.119 Y36.879 Z3.248 A330.3181 B-0.1144 
N1495 X-285.119 Y36.497 Z4.242 A332.3415 B-0.0895 
N1496 X-285.118 Y36.092 Z5.345 A334.7157 B-0.0596 
N1497 X-285.118 Y35.689 Z6.694 A337.8839 B-0.0295 
N1498 X-285.118 Y35.226 Z8.296 A341.8651 B-0.0083 
N1499 X-285.118 Y34.612 Z10.075 A346.4401 B-0.0007 
N1500 X-285.118 Y33.773 Z11.953 A351.4271 B-0.0000 
N1501 X-285.118 Y32.635 Z13.537 A355.7055 
N1502 X-285.118 Y31.242 Z14.734 A359.0345 
N1503 X-285.118 Y29.649 Z15.334 A0.7553 
N1504 X-285.118 Y27.898 Z15.491 A1.2315 
N1505 X-285.118 Y25.997 Z15.507 A1.3057 
N1506 X-285.118 Y23.951 Z15.496 A1.3079 
N1507 X-285.118 Y21.775 Z15.485 
N1508 X-285.118 Y19.491 Z15.472 
N1509 X-285.118 Y17.130 Z15.460 
N1510 X-285.118 Y14.723 Z15.447 A1.3080 
N1511 X-285.118 Y12.311 Z15.435 A1.3109 
N1512 X-285.118 Y9.931 Z15.436 A1.3561 
N1513 X-285.118 Y7.621 Z15.477 A1.5299 
N1514 X-285.118 Y5.419 Z15.502 A1.6750 
N1515 X-285.118 Y3.356 Z15.486 A1.7028 
N1516 X-285.118 Y1.455 Z15.463 A1.7048 
N1517 X-285.118 Y-0.266 Z15.442 A1.7050 
N1518 X-285.118 Y-1.799 Z15.431 A1.7282 
N1519 X-285.118 Y-3.142 Z15.459 A1.8690 
N1520 X-285.118 Y-4.300 Z15.522 A2.1162 
N1521 X-285.118 Y-5.283 Z15.587 A2.3741 
N1522 X-285.118 Y-6.106 Z15.692 A2.7559 
N1523 X-285.118 Y-6.795 Z15.962 A3.6416 
N1524 X-285.118 Y-7.395 Z16.583 A5.6121 
N1525 X-285.118 Y-7.970 Z17.619 A8.8839 
N1526 X-285.118 Y-8.584 Z18.938 A13.0991 
N1527 X-285.118 Y-9.271 Z20.378 A17.7950 
N1528 X-285.118 Y-10.031 Z21.805 A22.5863 
N1529 X-285.118 Y-10.854 Z23.156 A27.2929 
N1530 X-285.118 Y-11.738 Z24.423 A31.9004 
N1531 X-285.118 Y-12.684 Z25.608 A36.4288 
N1532 X-285.118 Y-13.674 Z26.690 A40.8130 
N1533 X-285.118 Y-14.633 Z27.599 A44.7638 
N1534 X-285.118 Y-15.512 Z28.330 A48.1810 
N1535 X-285.118 Y-16.327 Z28.928 A51.2032 
N1536 X-285.118 Y-17.110 Z29.443 A54.0012 
N1537 X-285.118 Y-17.887 Z29.901 A56.6968 
N1538 X-285.118 Y-18.679 Z30.318 A59.3712 
N1539 X-285.118 Y-19.500 Z30.703 A62.0802 
N1540 X-285.118 Y-20.362 Z31.056 A64.8621 
N1541 X-285.118 Y-21.271 Z31.376 A67.7416 
N1542 X-285.118 Y-22.233 Z31.657 A70.7325 
N1543 X-285.118 Y-23.248 Z31.891 A73.8419 
N1544 X-285.118 Y-24.315 Z32.069 A77.0713 
N1545 X-285.118 Y-25.432 Z32.180 A80.4164 B-0.0000 
N1546 X-285.118 Y-26.593 Z32.212 A83.8711 B-0.0000 
N1547 X-285.118 Y-27.792 Z32.155 A87.4373 B-0.0000 
N1548 X-285.118 Y-29.029 Z31.995 A91.1316 B-0.0001 
N1549 X-285.118 Y-30.299 Z31.717 A94.9698 B-0.0003 
N1550 X-285.118 Y-31.580 Z31.310 A98.9203 B-0.0009 
N1551 X-285.118 Y-32.805 Z30.772 A102.8191 B-0.0025 
N1552 X-285.118 Y-33.864 Z30.132 A106.3614 B-0.0060 
N1553 X-285.118 Y-34.627 Z29.451 A109.1422 B-0.0120 
N1554 X-285.118 Y-34.986 Z28.804 A110.7951 B-0.0212 
N1555 X-285.118 Y-34.977 Z28.207 A111.3881 B-0.0334 
N1556 X-285.118 Y-34.786 Z27.596 A111.4912 B-0.0473 
N1557 X-285.118 Y-34.539 Z26.920 A111.5066 B-0.0609 
N1558 X-285.118 Y-34.264 Z26.168 A111.5254 B-0.0741 
N1559 X-285.119 Y-33.973 Z25.340 A111.5801 B-0.0879 
N1560 X-285.119 Y-33.668 Z24.442 A111.6728 B-0.1026 
N1561 X-285.119 Y-33.337 Z23.487 A111.7575 B-0.1186 
N1562 X-285.119 Y-32.980 Z22.485 A111.8222 B-0.1357 
N1563 X-285.119 Y-32.605 Z21.447 A111.8806 B-0.1537 
N1564 X-285.119 Y-32.217 Z20.382 A111.9322 B-0.1725 
N1565 X-285.119 Y-31.839 Z19.295 A112.0428 B-0.1909 
N1566 X-285.119 Y-31.589 Z18.148 A112.5885 B-0.2026 
N1567 X-285.119 Y-31.635 Z16.873 A114.1668 B-0.1949 
N1568 X-285.119 Y-32.021 Z15.422 A117.0234 B-0.1577 
N1569 X-285.119 Y-32.548 Z13.849 A120.6233 B-0.0948 
N1570 X-285.118 Y-32.955 Z12.282 A124.1150 B-0.0209 
N1571 X-285.118 Y-33.157 Z10.806 A127.1306 B0.0547 
N1572 X-285.117 Y-33.242 Z9.380 A129.9401 B0.1358 
N1573 X-285.117 Y-33.293 Z7.948 A132.8401 B0.2283 
N1574 X-285.116 Y-33.327 Z6.484 A135.9273 B0.3347 
N1575 X-285.115 Y-33.303 Z5.021 A139.0622 B0.4506 
N1576 X-285.115 Y-33.147 Z3.652 A141.8818 B0.5640 
N1577 X-285.114 Y-32.794 Z2.492 A143.9716 B0.6593 
N1578 X-285.114 Y-32.236 Z1.600 A145.1334 B0.7266 
N1579 X-285.114 Y-31.538 Z0.910 A145.5976 B0.7708 
N1580 X-285.113 Y-30.773 Z0.320 A145.7141 B0.8025 
N1581 X-285.113 Y-30.002 Z-0.268 A145.8201 B0.8342 
N1582 X-285.113 Y-29.324 Z-1.015 A146.4934 B0.8890 
N1583 X-285.112 Y-28.837 Z-2.109 A148.4141 B0.9972 
N1584 X-285.111 Y-28.538 Z-3.660 A151.9446 B1.1791 
N1585 X-285.110 Y-28.287 Z-5.628 A156.8850 B1.4221 
N1586 X-285.108 Y-27.923 Z-7.945 A162.9779 B1.6726 
N1587 X-285.107 Y-27.253 Z-10.307 A169.3177 B1.8457 
N1588 X-285.107 Y-26.209 Z-12.309 A174.7729 B1.9322 
N1589 X-285.107 Y-24.864 Z-13.704 A178.6599 B1.9768 
N1590 X-285.106 Y-23.322 Z-14.365 A180.5429 B1.9978 
N1591 X-285.106 Y-21.641 Z-14.568 A181.1459 B2.0089 
N1592 X-285.106 Y-19.828 Z-14.592 A181.2353 B2.0152 
N1593 X-285.106 Y-17.885 Z-14.584 A181.2364 B2.0205 
N1594 X-285.106 Y-15.823 Z-14.576 B2.0260 
N1595 X-285.106 Y-13.661 Z-14.567 A181.2364 B2.0319 
N1596 X-285.106 Y-11.425 Z-14.557 B2.0380 
N1597 X-285.106 Y-9.146 Z-14.548 A181.2364 B2.0441 
N1598 X-285.106 Y-6.858 Z-14.539 B2.0503 
N1599 X-285.106 Y-4.599 Z-14.529 A181.2364 B2.0565 
N1600 X-285.106 Y-2.406 Z-14.520 B2.0624 
N1601 X-285.106 Y-0.312 Z-14.512 A181.2365 B2.0681 
N1602 X-285.106 Y1.652 Z-14.504 B2.0734 
N1603 X-285.106 Y3.465 Z-14.496 A181.2365 B2.0783 
N1604 X-285.106 Y5.107 Z-14.489 B2.0827 
N1605 X-285.106 Y6.571 Z-14.483 A181.2365 B2.0867 
N1606 X-285.106 Y7.854 Z-14.478 A181.2365 B2.0902 
N1607 X-285.106 Y8.960 Z-14.479 A181.2542 B2.0937 
N1608 X-285.106 Y9.899 Z-14.524 A181.4031 B2.1012 
N1609 X-285.106 Y10.688 Z-14.700 A181.9558 B2.1222 
N1610 X-285.105 Y11.356 Z-15.152 A183.3666 B2.1709 
N1611 X-285.105 Y11.951 Z-15.982 A185.9603 B2.2548 
N1612 X-285.104 Y12.534 Z-17.123 A189.5636 B2.3649 
N1613 X-285.104 Y13.152 Z-18.438 A193.7830 B2.4851 
N1614 X-285.103 Y13.836 Z-19.837 A198.3681 B2.6029 
N1615 X-285.102 Y14.601 Z-21.252 A203.1366 B2.7087 
N1616 X-285.102 Y15.438 Z-22.606 A207.8732 B2.7958 
N1617 X-285.101 Y16.312 Z-23.836 A212.3765 B2.8610 
N1618 X-285.101 Y17.190 Z-24.913 A216.5235 B2.9051 
N1619 X-285.101 Y18.046 Z-25.838 A220.2883 B2.9308 
N1620 X-285.101 Y18.875 Z-26.633 A223.7183 B2.9408 
N1621 X-285.101 Y19.680 Z-27.326 A226.8929 B2.9370 
N1622 X-285.101 Y20.475 Z-27.941 A229.8972 B2.9204 
N1623 X-285.101 Y21.274 Z-28.498 A232.8097 B2.8909 
N1624 X-285.102 Y22.092 Z-29.011 A235.6962 B2.8475 
N1625 X-285.102 Y22.940 Z-29.486 A238.6025 B2.7895 
N1626 X-285.102 Y23.820 Z-29.923 A241.5400 B2.7165 
N1627 X-285.103 Y24.726 Z-30.314 A244.4897 B2.6295 
N1628 X-285.103 Y25.646 Z-30.654 A247.4217 B2.5305 
N1629 X-285.104 Y26.574 Z-30.940 A250.3247 B2.4220 
N1630 X-285.105 Y27.518 Z-31.173 A253.2296 B2.3049 
N1631 X-285.105 Y28.492 Z-31.356 A256.1869 B2.1794 
N1632 X-285.106 Y29.506 Z-31.484 A259.2348 B2.0455 
N1633 X-285.107 Y30.567 Z-31.551 A262.4021 B1.9031 
N1634 X-285.108 Y31.680 Z-31.547 A265.7164 B1.7520 
N1635 X-285.109 Y32.852 Z-31.458 A269.2096 B1.5919 
N1636 X-285.110 Y34.083 Z-31.268 A272.9038 B1.4225 
N1637 X-285.111 Y35.358 Z-30.959 A276.7805 B1.2456 
N1638 X-285.112 Y36.631 Z-30.519 A280.7437 B1.0658 
N1639 X-285.113 Y37.828 Z-29.953 A284.6059 B0.8918 
N1640 X-285.114 Y38.869 Z-29.284 A288.1519 B0.7331 
N1641 X-285.115 Y39.671 Z-28.557 A291.1301 B0.6005 
N1642 X-285.115 Y40.152 Z-27.831 A293.2676 B0.5052 
N1643 X-285.115 Y40.297 Z-27.139 A294.4770 B0.4499 
N1644 X-285.116 Y40.186 Z-26.458 A294.9967 B0.4238 
N1645 X-285.116 Y39.924 Z-25.742 A295.1562 B0.4123 
N1646 X-285.116 Y39.583 Z-24.956 A295.1865 B0.4050 
N1647 X-285.116 Y39.200 Z-24.084 A295.2129 B0.3959 
N1648 X-285.116 Y38.787 Z-23.124 A295.2643 B0.3835 
N1649 X-285.116 Y38.343 Z-22.086 A295.3310 B0.3685 
N1650 X-285.116 Y37.868 Z-20.980 A295.4012 B0.3518 
N1651 X-285.116 Y37.367 Z-19.820 A295.4729 B0.3336 
N1652 X-285.116 Y36.843 Z-18.619 A295.5378 B0.3145 
N1653 X-285.116 Y36.312 Z-17.389 A295.6227 B0.2939 
N1654 X-285.117 Y35.864 Z-16.104 A296.0175 B0.2637 
N1655 X-285.117 Y35.647 Z-14.705 A297.2414 B0.2121 
N1656 X-285.117 Y35.687 Z-13.173 A299.4525 B0.1404 
N1657 X-285.118 Y35.802 Z-11.595 A302.1034 B0.0674 
N1658 X-285.118 Y35.806 Z-10.092 A304.5240 B0.0101 
N1659 X-285.118 Y35.669 Z-8.712 A306.5339 B-0.0294 
N1660 X-285.118 Y35.470 Z-7.421 A308.3554 B-0.0569 
N1661 X-285.118 Y35.281 Z-6.173 A310.2274 B-0.0774 
N1662 X-285.119 Y35.138 Z-4.936 A312.2959 B-0.0934 
N1663 X-285.119 Y35.031 Z-3.706 A314.5474 B-0.1046 
N1664 X-285.119 Y34.918 Z-2.518 A316.8129 B-0.1096 
N1665 X-285.119 Y34.764 Z-1.400 A318.9442 B-0.1081 
N1666 X-285.119 Y34.580 Z-0.337 A320.9865 B-0.1015 
N1667 X-285.119 Y34.398 Z0.724 A323.1159 B-0.0911 
N1668 X-285.118 Y34.252 Z1.860 A325.5886 B-0.0761 
N1669 X-285.118 Y34.172 Z3.172 A328.7211 B-0.0545 
N1670 X-285.118 Y34.138 Z4.737 A332.7216 B-0.0289 
N1671 X-285.118 Y34.044 Z6.497 A337.3461 B-0.0090 
N1672 X-285.118 Y33.810 Z8.426 A342.4903 B-0.0010 
N1673 X-285.118 Y33.372 Z10.533 A348.2262 B-0.0000 
N1674 X-285.118 Y32.609 Z12.386 A353.2994 B-0.0000 
N1675 X-285.118 Y31.559 Z13.842 A357.3424 
N1676 X-285.118 Y30.286 Z14.773 A359.9872 
N1677 X-285.118 Y28.844 Z15.136 A1.0485 
N1678 X-285.118 Y27.253 Z15.217 A1.3087 
N1679 X-285.118 Y25.509 Z15.219 A1.3456 
N1680 X-285.118 Y23.619 Z15.208 A1.3461 
N1681 X-285.118 Y21.594 Z15.195 
N1682 X-285.118 Y19.455 Z15.182 
N1683 X-285.118 Y17.229 Z15.169 
N1684 X-285.118 Y14.949 Z15.155 A1.3462 
N1685 X-285.118 Y12.652 Z15.142 A1.3475 
N1686 X-285.118 Y10.377 Z15.138 A1.3786 
N1687 X-285.118 Y8.160 Z15.177 A1.5478 
N1688 X-285.118 Y6.038 Z15.219 A1.7484 
N1689 X-285.118 Y4.044 Z15.212 A1.8074 
N1690 X-285.118 Y2.201 Z15.188 A1.8129 
N1691 X-285.118 Y0.529 Z15.164 A1.8132 
N1692 X-285.118 Y-0.964 Z15.145 A1.8193 
N1693 X-285.118 Y-2.275 Z15.152 A1.8992 
N1694 X-285.118 Y-3.407 Z15.209 A2.1282 
N1695 X-285.118 Y-4.370 Z15.287 A2.4281 
N1696 X-285.118 Y-5.177 Z15.396 A2.8213 
N1697 X-285.118 Y-5.851 Z15.626 A3.5880 
N1698 X-285.118 Y-6.427 Z16.122 A5.1706 
N1699 X-285.118 Y-6.965 Z17.021 A8.0067 
N1700 X-285.118 Y-7.540 Z18.302 A12.0712 
N1701 X-285.118 Y-8.199 Z19.773 A16.8236 
N1702 X-285.118 Y-8.942 Z21.248 A21.7229 
N1703 X-285.118 Y-9.742 Z22.623 A26.4601 
N1704 X-285.118 Y-10.583 Z23.877 A30.9642 
N1705 X-285.118 Y-11.464 Z25.027 A35.2893 
N1706 X-285.118 Y-12.376 Z26.071 A39.4318 
N1707 X-285.118 Y-13.298 Z27.001 A43.3507 
N1708 X-285.118 Y-14.205 Z27.807 A46.9811 
N1709 X-285.118 Y-15.071 Z28.488 A50.2773 
N1710 X-285.118 Y-15.894 Z29.064 A53.2843 
N1711 X-285.118 Y-16.691 Z29.562 A56.0944 
N1712 X-285.118 Y-17.480 Z30.003 A58.7973 
N1713 X-285.118 Y-18.277 Z30.401 A61.4610 
N1714 X-285.118 Y-19.095 Z30.761 A64.1356 
N1715 X-285.118 Y-19.945 Z31.088 A66.8589 
N1716 X-285.118 Y-20.835 Z31.381 A69.6606 
N1717 X-285.118 Y-21.771 Z31.637 A72.5628 
N1718 X-285.118 Y-22.758 Z31.849 A75.5808 
N1719 X-285.118 Y-23.797 Z32.010 A78.7237 
N1720 X-285.118 Y-24.888 Z32.111 A81.9944 B-0.0000 
N1721 X-285.118 Y-26.025 Z32.140 A85.3894 B-0.0000 
N1722 X-285.118 Y-27.202 Z32.087 A88.9011 B-0.0001 
N1723 X-285.118 Y-28.411 Z31.939 A92.5274 B-0.0003 
N1724 X-285.118 Y-29.649 Z31.684 A96.2792 B-0.0006 
N1725 X-285.118 Y-30.907 Z31.309 A100.1652 B-0.0013 
N1726 X-285.118 Y-32.157 Z30.803 A104.1418 B-0.0026 
N1727 X-285.118 Y-33.331 Z30.174 A108.0338 B-0.0051 
N1728 X-285.118 Y-34.321 Z29.461 A111.5352 B-0.0093 
N1729 X-285.118 Y-34.999 Z28.742 A114.2282 B-0.0150 
N1730 X-285.118 Y-35.268 Z28.094 A115.7601 B-0.0220 
N1731 X-285.118 Y-35.195 Z27.514 A116.3001 B-0.0302 
N1732 X-285.118 Y-34.957 Z26.918 A116.4184 B-0.0391 
N1733 X-285.118 Y-34.648 Z26.255 A116.4373 B-0.0485 
N1734 X-285.118 Y-34.302 Z25.506 A116.4661 B-0.0585 
N1735 X-285.118 Y-33.936 Z24.662 A116.5650 B-0.0692 
N1736 X-285.119 Y-33.535 Z23.733 A116.6859 B-0.0808 
N1737 X-285.119 Y-33.084 Z22.734 A116.7684 B-0.0940 
N1738 X-285.119 Y-32.596 Z21.667 A116.8431 B-0.1082 
N1739 X-285.119 Y-32.080 Z20.540 A116.9262 B-0.1232 
N1740 X-285.119 Y-31.583 Z19.340 A117.1664 B-0.1361 
N1741 X-285.119 Y-31.261 Z18.002 A118.0958 B-0.1355 
N1742 X-285.119 Y-31.229 Z16.461 A120.1848 B-0.1061 
N1743 X-285.118 Y-31.323 Z14.792 A122.9732 B-0.0498 
N1744 X-285.118 Y-31.260 Z13.175 A125.4768 B0.0130 
N1745 X-285.118 Y-31.011 Z11.672 A127.4867 B0.0745 
N1746 X-285.117 Y-30.714 Z10.209 A129.4477 B0.1440 
N1747 X-285.117 Y-30.441 Z8.743 A131.6131 B0.2293 
N1748 X-285.116 Y-30.166 Z7.301 A133.8780 B0.3269 
N1749 X-285.116 Y-29.792 Z5.990 A135.7951 B0.4192 
N1750 X-285.115 Y-29.238 Z4.924 A136.9058 B0.4849 
N1751 X-285.115 Y-28.548 Z4.081 A137.2964 B0.5222 
N1752 X-285.115 Y-27.827 Z3.356 A137.3782 B0.5458 
N1753 X-285.115 Y-27.160 Z2.649 A137.5319 B0.5717 
N1754 X-285.114 Y-26.691 Z1.788 A138.4573 B0.6331 
N1755 X-285.114 Y-26.527 Z0.607 A140.7844 B0.7632 
N1756 X-285.112 Y-26.626 Z-0.959 A144.6508 B0.9739 
N1757 X-285.111 Y-26.822 Z-2.859 A149.7116 B1.2483 
N1758 X-285.109 Y-26.970 Z-5.070 A155.7624 B1.5533 
N1759 X-285.107 Y-26.927 Z-7.540 A162.5963 B1.8337 
N1760 X-285.106 Y-26.510 Z-9.882 A169.0598 B2.0233 
N1761 X-285.106 Y-25.724 Z-11.848 A174.5117 B2.1351 
N1762 X-285.105 Y-24.646 Z-13.212 A178.3449 B2.1966 
N1763 X-285.105 Y-23.371 Z-13.906 A180.3261 B2.2254 
N1764 X-285.105 Y-21.951 Z-14.161 A181.0745 B2.2393 
N1765 X-285.105 Y-20.389 Z-14.213 A181.2443 B2.2466 
N1766 X-285.105 Y-18.682 Z-14.209 A181.2540 B2.2517 
N1767 X-285.105 Y-16.836 Z-14.200 B2.2570 
N1768 X-285.105 Y-14.863 Z-14.192 A181.2540 B2.2626 
N1769 X-285.105 Y-12.785 Z-14.182 B2.2686 
N1770 X-285.105 Y-10.628 Z-14.173 A181.2540 B2.2747 
N1771 X-285.105 Y-8.426 Z-14.163 B2.2810 
N1772 X-285.105 Y-6.216 Z-14.153 A181.2540 B2.2874 
N1773 X-285.105 Y-4.035 Z-14.144 B2.2936 
N1774 X-285.105 Y-1.919 Z-14.134 A181.2540 B2.2997 
N1775 X-285.105 Y0.097 Z-14.126 B2.3054 
N1776 X-285.105 Y1.984 Z-14.117 A181.2540 B2.3108 
N1777 X-285.105 Y3.720 Z-14.110 B2.3158 
N1778 X-285.105 Y5.289 Z-14.103 A181.2540 B2.3203 
N1779 X-285.105 Y6.682 Z-14.096 B2.3243 
N1780 X-285.105 Y7.898 Z-14.091 A181.2543 B2.3278 
N1781 X-285.105 Y8.942 Z-14.094 A181.2765 B2.3315 
N1782 X-285.104 Y9.826 Z-14.140 A181.4292 B2.3396 
N1783 X-285.104 Y10.565 Z-14.314 A181.9762 B2.3620 
N1784 X-285.104 Y11.188 Z-14.763 A183.3736 B2.4134 
N1785 X-285.104 Y11.744 Z-15.581 A185.9270 B2.5010 
N1786 X-285.103 Y12.290 Z-16.709 A189.4739 B2.6152 
N1787 X-285.102 Y12.875 Z-18.022 A193.6672 B2.7395 
N1788 X-285.101 Y13.535 Z-19.436 A198.2762 B2.8607 
N1789 X-285.101 Y14.286 Z-20.877 A203.1066 B2.9682 
N1790 X-285.100 Y15.118 Z-22.263 A207.9250 B3.0545 
N1791 X-285.100 Y15.996 Z-23.525 A212.5147 B3.1164 
N1792 X-285.100 Y16.880 Z-24.628 A216.7392 B3.1553 
N1793 X-285.100 Y17.741 Z-25.572 A220.5588 B3.1749 
N1794 X-285.100 Y18.569 Z-26.375 A224.0092 B3.1789 
N1795 X-285.100 Y19.366 Z-27.067 A227.1653 B3.1704 
N1796 X-285.100 Y20.142 Z-27.674 A230.1121 B3.1508 
N1797 X-285.100 Y20.911 Z-28.218 A232.9301 B3.1208 
N1798 X-285.100 Y21.690 Z-28.714 A235.6920 B3.0798 
N1799 X-285.100 Y22.492 Z-29.175 A238.4617 B3.0266 
N1800 X-285.101 Y23.333 Z-29.606 A241.2886 B2.9596 
N1801 X-285.101 Y24.218 Z-30.007 A244.1957 B2.8777 
N1802 X-285.102 Y25.143 Z-30.370 A247.1692 B2.7810 
N1803 X-285.103 Y26.095 Z-30.685 A250.1704 B2.6711 
N1804 X-285.103 Y27.060 Z-30.946 A253.1611 B2.5503 
N1805 X-285.104 Y28.034 Z-31.152 A256.1394 B2.4206 
N1806 X-285.105 Y29.029 Z-31.302 A259.1472 B2.2820 
N1807 X-285.106 Y30.056 Z-31.396 A262.2267 B2.1344 
N1808 X-285.107 Y31.121 Z-31.427 A265.4089 B1.9776 
N1809 X-285.108 Y32.230 Z-31.385 A268.7194 B1.8115 
N1810 X-285.109 Y33.387 Z-31.260 A272.1858 B1.6358 
N1811 X-285.110 Y34.592 Z-31.035 A275.8327 B1.4501 
N1812 X-285.111 Y35.835 Z-30.695 A279.6559 B1.2556 
N1813 X-285.112 Y37.081 Z-30.227 A283.5886 B1.0563 
N1814 X-285.113 Y38.264 Z-29.636 A287.4713 B0.8606 
N1815 X-285.114 Y39.312 Z-28.943 A291.1079 B0.6785 
N1816 X-285.115 Y40.156 Z-28.185 A294.3040 B0.5195 
N1817 X-285.116 Y40.730 Z-27.411 A296.8389 B0.3941 
N1818 X-285.116 Y40.994 Z-26.666 A298.5522 B0.3093 
N1819 X-285.117 Y40.968 Z-25.955 A299.4865 B0.2624 
N1820 X-285.117 Y40.720 Z-25.247 A299.8553 B0.2421 
N1821 X-285.117 Y40.335 Z-24.490 A299.9412 B0.2343 
N1822 X-285.117 Y39.879 Z-23.643 A299.9759 B0.2277 
N1823 X-285.117 Y39.377 Z-22.694 A300.0381 B0.2184 
N1824 X-285.117 Y38.827 Z-21.648 A300.1212 B0.2070 
N1825 X-285.117 Y38.228 Z-20.516 A300.2071 B0.1945 
N1826 X-285.117 Y37.586 Z-19.311 A300.2945 B0.1811 
N1827 X-285.117 Y36.910 Z-18.047 A300.3850 B0.1669 
N1828 X-285.117 Y36.240 Z-16.722 A300.5881 B0.1486 
N1829 X-285.117 Y35.679 Z-15.299 A301.2569 B0.1163 
N1830 X-285.118 Y35.268 Z-13.771 A302.5484 B0.0695 
N1831 X-285.118 Y34.887 Z-12.229 A304.0552 B0.0242 
N1832 X-285.118 Y34.421 Z-10.775 A305.3121 B-0.0071 
N1833 X-285.118 Y33.884 Z-9.430 A306.2948 B-0.0261 
N1834 X-285.118 Y33.348 Z-8.164 A307.2054 B-0.0383 
N1835 X-285.118 Y32.867 Z-6.951 A308.2222 B-0.0476 
N1836 X-285.118 Y32.452 Z-5.788 A309.3768 B-0.0542 
N1837 X-285.118 Y32.069 Z-4.704 A310.5265 B-0.0565 
N1838 X-285.118 Y31.723 Z-3.691 A311.6903 B-0.0553 
N1839 X-285.118 Y31.526 Z-2.637 A313.3393 B-0.0543 
N1840 X-285.118 Y31.546 Z-1.438 A315.8582 B-0.0529 
N1841 X-285.118 Y31.775 Z-0.022 A319.4141 B-0.0462 
N1842 X-285.118 Y32.152 Z1.662 A324.0405 B-0.0313 
N1843 X-285.118 Y32.519 Z3.546 A329.3270 B-0.0140 
N1844 X-285.118 Y32.746 Z5.540 A334.8954 B-0.0032 
N1845 X-285.118 Y32.830 Z7.775 A341.1671 B-0.0002 
N1846 X-285.118 Y32.635 Z10.088 A347.6557 B-0.0000 
N1847 X-285.118 Y32.064 Z11.993 A352.9615 
N1848 X-285.118 Y31.207 Z13.476 A357.1254 
N1849 X-285.118 Y30.133 Z14.422 A359.8311 
N1850 X-285.118 Y28.896 Z14.821 A0.9968 
N1851 X-285.118 Y27.513 Z14.924 A1.3195 
N1852 X-285.118 Y25.978 Z14.935 A1.3804 
N1853 X-285.118 Y24.291 Z14.925 A1.3839 
N1854 X-285.118 Y22.459 Z14.912 
N1855 X-285.118 Y20.497 Z14.899 
N1856 X-285.118 Y18.429 Z14.885 
N1857 X-285.118 Y16.284 Z14.871 
N1858 X-285.118 Y14.095 Z14.856 A1.3839 
N1859 X-285.118 Y11.901 Z14.842 A1.3861 
N1860 X-285.118 Y9.737 Z14.849 A1.4522 
N1861 X-285.118 Y7.641 Z14.907 A1.6862 
N1862 X-285.118 Y5.648 Z14.946 A1.8875 
N1863 X-285.118 Y3.786 Z14.933 A1.9387 
N1864 X-285.118 Y2.078 Z14.907 A1.9446 
N1865 X-285.118 Y0.537 Z14.882 A1.9449 
N1866 X-285.118 Y-0.828 Z14.860 A1.9470 
N1867 X-285.118 Y-2.018 Z14.848 A1.9705 
N1868 X-285.118 Y-3.038 Z14.865 A2.0760 
N1869 X-285.118 Y-3.901 Z14.952 A2.3921 
N1870 X-285.118 Y-4.625 Z15.170 A3.1081 
N1871 X-285.118 Y-5.236 Z15.589 A4.4517 
N1872 X-285.118 Y-5.773 Z16.259 A6.5777 
N1873 X-285.118 Y-6.284 Z17.193 A9.5440 
N1874 X-285.118 Y-6.829 Z18.392 A13.3760 
N1875 X-285.118 Y-7.462 Z19.788 A17.9088 
N1876 X-285.118 Y-8.191 Z21.234 A22.7249 
N1877 X-285.118 Y-8.985 Z22.592 A27.4167 
N1878 X-285.118 Y-9.813 Z23.819 A31.8377 
N1879 X-285.118 Y-10.672 Z24.933 A36.0431 
N1880 X-285.118 Y-11.565 Z25.951 A40.0943 
N1881 X-285.118 Y-12.467 Z26.858 A43.9238 
N1882 X-285.118 Y-13.351 Z27.645 A47.4687 
N1883 X-285.118 Y-14.211 Z28.325 A50.7506 
N1884 X-285.118 Y-15.048 Z28.916 A53.8174 
N1885 X-285.118 Y-15.868 Z29.432 A56.7185 
N1886 X-285.118 Y-16.678 Z29.888 A59.5018 
N1887 X-285.118 Y-17.487 Z30.294 A62.2119 
N1888 X-285.118 Y-18.305 Z30.655 A64.8889 
N1889 X-285.118 Y-19.140 Z30.979 A67.5687 
N1890 X-285.118 Y-20.000 Z31.265 A70.2842 
N1891 X-285.118 Y-20.896 Z31.515 A73.0666 
N1892 X-285.118 Y-21.835 Z31.726 A75.9479 
N1893 X-285.118 Y-22.827 Z31.894 A78.9592 
N1894 X-285.118 Y-23.880 Z32.011 A82.1288 
N1895 X-285.118 Y-24.998 Z32.067 A85.4783 
N1896 X-285.118 Y-26.181 Z32.047 A89.0173 B-0.0000 
N1897 X-285.118 Y-27.422 Z31.937 A92.7389 B-0.0001 
N1898 X-285.118 Y-28.704 Z31.722 A96.6181 B-0.0002 
N1899 X-285.118 Y-30.006 Z31.389 A100.6225 B-0.0005 
N1900 X-285.118 Y-31.303 Z30.927 A104.7149 B-0.0011 
N1901 X-285.118 Y-32.560 Z30.333 A108.8286 B-0.0023 
N1902 X-285.118 Y-33.714 Z29.620 A112.8115 B-0.0044 
N1903 X-285.118 Y-34.678 Z28.831 A116.4140 B-0.0072 
N1904 X-285.118 Y-35.355 Z28.034 A119.3065 B-0.0097 
N1905 X-285.118 Y-35.658 Z27.311 A121.1636 B-0.0111 
N1906 X-285.118 Y-35.611 Z26.674 A122.0170 B-0.0125 
N1907 X-285.118 Y-35.333 Z26.054 A122.2648 B-0.0149 
N1908 X-285.118 Y-34.932 Z25.375 A122.2947 B-0.0184 
N1909 X-285.118 Y-34.474 Z24.589 A122.3452 B-0.0223 
N1910 X-285.118 Y-33.968 Z23.687 A122.4604 B-0.0261 
N1911 X-285.118 Y-33.394 Z22.685 A122.5652 B-0.0303 
N1912 X-285.118 Y-32.758 Z21.586 A122.6671 B-0.0346 
N1913 X-285.118 Y-32.071 Z20.395 A122.7929 B-0.0386 
N1914 X-285.118 Y-31.374 Z19.106 A123.0626 B-0.0394 
N1915 X-285.118 Y-30.744 Z17.690 A123.7389 B-0.0295 
N1916 X-285.118 Y-30.163 Z16.181 A124.7615 B-0.0064 
N1917 X-285.118 Y-29.508 Z14.694 A125.6472 B0.0194 
N1918 X-285.118 Y-28.763 Z13.272 A126.2610 B0.0420 
N1919 X-285.118 Y-28.009 Z11.895 A126.8211 B0.0665 
N1920 X-285.117 Y-27.287 Z10.557 A127.4386 B0.0964 
N1921 X-285.117 Y-26.582 Z9.295 A128.0065 B0.1273 
N1922 X-285.117 Y-25.844 Z8.168 A128.2852 B0.1473 
N1923 X-285.117 Y-25.102 Z7.169 A128.3321 B0.1569 
N1924 X-285.117 Y-24.409 Z6.259 A128.3350 B0.1639 
N1925 X-285.117 Y-23.840 Z5.378 A128.5830 B0.1828 
N1926 X-285.117 Y-23.622 Z4.328 A130.0157 B0.2645 
N1927 X-285.115 Y-23.858 Z2.955 A133.2288 B0.4465 
N1928 X-285.114 Y-24.406 Z1.244 A137.9971 B0.7235 
N1929 X-285.112 Y-25.030 Z-0.725 A143.7192 B1.0608 
N1930 X-285.110 Y-25.616 Z-2.982 A150.3159 B1.4329 
N1931 X-285.108 Y-26.038 Z-5.536 A157.7206 B1.7970 
N1932 X-285.106 Y-26.078 Z-8.047 A164.8593 B2.0764 
N1933 X-285.105 Y-25.707 Z-10.252 A171.0611 B2.2605 
N1934 X-285.104 Y-24.997 Z-11.983 A175.9413 B2.3738 
N1935 X-285.104 Y-24.038 Z-13.073 A179.0383 B2.4335 
N1936 X-285.104 Y-22.911 Z-13.600 A180.5562 B2.4608 
N1937 X-285.104 Y-21.640 Z-13.793 A181.1264 B2.4739 
N1938 X-285.104 Y-20.222 Z-13.831 A181.2576 B2.4807 
N1939 X-285.104 Y-18.651 Z-13.827 A181.2654 B2.4856 
N1940 X-285.104 Y-16.932 Z-13.819 B2.4907 
N1941 X-285.104 Y-15.076 Z-13.810 A181.2654 B2.4962 
N1942 X-285.104 Y-13.101 Z-13.801 B2.5020 
N1943 X-285.103 Y-11.034 Z-13.791 A181.2654 B2.5082 
N1944 X-285.103 Y-8.907 Z-13.782 B2.5145 
N1945 X-285.103 Y-6.756 Z-13.772 A181.2654 B2.5209 
N1946 X-285.103 Y-4.617 Z-13.762 B2.5273 
N1947 X-285.103 Y-2.529 Z-13.752 A181.2654 B2.5335 
N1948 X-285.103 Y-0.527 Z-13.743 B2.5394 
N1949 X-285.103 Y1.359 Z-13.734 A181.2654 B2.5450 
N1950 X-285.103 Y3.104 Z-13.726 B2.5502 
N1951 X-285.103 Y4.689 Z-13.719 A181.2654 B2.5549 
N1952 X-285.103 Y6.105 Z-13.712 B2.5591 
N1953 X-285.103 Y7.347 Z-13.707 A181.2654 B2.5628 
N1954 X-285.103 Y8.417 Z-13.704 A181.2722 B2.5662 
N1955 X-285.103 Y9.326 Z-13.724 A181.3474 B2.5718 
N1956 X-285.103 Y10.086 Z-13.821 A181.6574 B2.5864 
N1957 X-285.103 Y10.720 Z-14.103 A182.5367 B2.6223 
N1958 X-285.102 Y11.262 Z-14.704 A184.4048 B2.6925 
N1959 X-285.102 Y11.768 Z-15.665 A187.4025 B2.7974 
N1960 X-285.101 Y12.296 Z-16.900 A191.2955 B2.9231 
N1961 X-285.100 Y12.890 Z-18.291 A195.7549 B3.0523 
N1962 X-285.100 Y13.575 Z-19.747 A200.5338 B3.1713 
N1963 X-285.099 Y14.357 Z-21.194 A205.4381 B3.2705 
N1964 X-285.099 Y15.215 Z-22.556 A210.2476 B3.3440 
N1965 X-285.098 Y16.108 Z-23.774 A214.7634 B3.3908 
N1966 X-285.098 Y16.993 Z-24.824 A218.8704 B3.4143 
N1967 X-285.098 Y17.843 Z-25.710 A222.5437 B3.4195 
N1968 X-285.098 Y18.649 Z-26.456 A225.8297 B3.4111 
N1969 X-285.098 Y19.415 Z-27.094 A228.8131 B3.3923 
N1970 X-285.099 Y20.154 Z-27.650 A231.5818 B3.3646 
N1971 X-285.099 Y20.880 Z-28.147 A234.2165 B3.3287 
N1972 X-285.099 Y21.611 Z-28.600 A236.7892 B3.2842 
N1973 X-285.099 Y22.362 Z-29.022 A239.3675 B3.2299 
N1974 X-285.100 Y23.151 Z-29.421 A242.0156 B3.1637 
N1975 X-285.100 Y23.997 Z-29.802 A244.7946 B3.0833 
N1976 X-285.101 Y24.914 Z-30.162 A247.7448 B2.9861 
N1977 X-285.101 Y25.906 Z-30.494 A250.8778 B2.8703 
N1978 X-285.102 Y26.963 Z-30.783 A254.1590 B2.7363 
N1979 X-285.103 Y28.060 Z-31.013 A257.5175 B2.5865 
N1980 X-285.104 Y29.174 Z-31.174 A260.8862 B2.4246 
N1981 X-285.105 Y30.300 Z-31.264 A264.2662 B2.2524 
N1982 X-285.106 Y31.450 Z-31.280 A267.7086 B2.0692 
N1983 X-285.107 Y32.637 Z-31.213 A271.2626 B1.8744 
N1984 X-285.108 Y33.862 Z-31.053 A274.9538 B1.6683 
N1985 X-285.110 Y35.116 Z-30.787 A278.7776 B1.4527 
N1986 X-285.111 Y36.377 Z-30.403 A282.7017 B1.2308 
N1987 X-285.112 Y37.611 Z-29.896 A286.6574 B1.0075 
N1988 X-285.113 Y38.764 Z-29.273 A290.5203 B0.7907 
N1989 X-285.115 Y39.775 Z-28.556 A294.1307 B0.5897 
N1990 X-285.116 Y40.604 Z-27.772 A297.3742 B0.4108 
N1991 X-285.117 Y41.220 Z-26.948 A300.1635 B0.2586 
N1992 X-285.117 Y41.593 Z-26.115 A302.3913 B0.1383 
N1993 X-285.118 Y41.679 Z-25.314 A303.8908 B0.0582 
N1994 X-285.118 Y41.456 Z-24.571 A304.5566 B0.0229 
N1995 X-285.118 Y41.013 Z-23.828 A304.6837 B0.0159 
N1996 X-285.118 Y40.465 Z-23.001 A304.6917 B0.0149 
N1997 X-285.118 Y39.843 Z-22.068 A304.6920 B0.0142 
N1998 X-285.118 Y39.151 Z-21.030 B0.0135 
N1999 X-285.118 Y38.396 Z-19.898 B0.0127 
N2000 X-285.118 Y37.585 Z-18.682 B0.0118 
N2001 X-285.118 Y36.730 Z-17.399 B0.0109 
N2002 X-285.118 Y35.844 Z-16.070 B0.0100 
N2003 X-285.118 Y34.942 Z-14.717 B0.0090 
N2004 X-285.118 Y34.039 Z-13.364 B0.0081 
N2005 X-285.118 Y33.152 Z-12.032 B0.0071 
N2006 X-285.118 Y32.293 Z-10.744 B0.0062 
N2007 X-285.118 Y31.476 Z-9.518 B0.0054 
N2008 X-285.118 Y30.709 Z-8.369 B0.0046 
N2009 X-285.118 Y30.000 Z-7.306 B0.0038 
N2010 X-285.118 Y29.355 Z-6.332 A304.7001 B0.0030 
N2011 X-285.118 Y28.861 Z-5.387 A305.0461 B-0.0004 
N2012 X-285.118 Y28.738 Z-4.299 A306.6009 B-0.0101 
N2013 X-285.118 Y29.093 Z-2.921 A309.9438 B-0.0214 
N2014 X-285.118 Y29.837 Z-1.175 A315.0801 B-0.0243 
N2015 X-285.118 Y30.689 Z0.869 A321.3155 B-0.0154 
N2016 X-285.118 Y31.376 Z3.028 A327.7485 B-0.0051 
N2017 X-285.118 Y31.896 Z5.393 A334.6834 B-0.0006 
N2018 X-285.118 Y32.188 Z8.046 A342.3784 B-0.0000 
N2019 X-285.118 Y32.019 Z10.383 A349.0169 B-0.0000 
N2020 X-285.118 Y31.469 Z12.204 A354.1418 
N2021 X-285.118 Y30.657 Z13.550 A357.9614 
N2022 X-285.118 Y29.651 Z14.317 A0.1698 
N2023 X-285.118 Y28.498 Z14.608 A1.0235 
N2024 X-285.118 Y27.199 Z14.678 A1.2448 
N2025 X-285.118 Y25.748 Z14.685 A1.2855 
N2026 X-285.118 Y24.143 Z14.678 A1.2876 
N2027 X-285.118 Y22.392 Z14.669 
N2028 X-285.118 Y20.507 Z14.659 
N2029 X-285.118 Y18.512 Z14.649 
N2030 X-285.118 Y16.435 Z14.639 
N2031 X-285.118 Y14.308 Z14.628 
N2032 X-285.118 Y12.168 Z14.618 A1.2886 
N2033 X-285.118 Y10.053 Z14.624 A1.3400 
N2034 X-285.118 Y7.999 Z14.683 A1.5654 
N2035 X-285.118 Y6.039 Z14.736 A1.7956 
N2036 X-285.118 Y4.204 Z14.729 A1.8538 
N2037 X-285.118 Y2.517 Z14.704 A1.8558 
N2038 X-285.118 Y0.992 Z14.682 A1.8559 
N2039 X-285.118 Y-0.362 Z14.661 
N2040 X-285.118 Y-1.544 Z14.644 A1.8560 
N2041 X-285.118 Y-2.559 Z14.638 A1.8846 
N2042 X-285.118 Y-3.418 Z14.698 A2.1088 
N2043 X-285.118 Y-4.139 Z14.914 A2.8090 
N2044 X-285.118 Y-4.751 Z15.370 A4.2516 
N2045 X-285.118 Y-5.292 Z16.101 A6.5602 
N2046 X-285.118 Y-5.806 Z17.052 A9.5794 
N2047 X-285.118 Y-6.329 Z18.153 A13.1082 
N2048 X-285.118 Y-6.905 Z19.393 A17.1359 
N2049 X-285.118 Y-7.572 Z20.743 A21.6104 
N2050 X-285.118 Y-8.326 Z22.094 A26.2248 
N2051 X-285.118 Y-9.131 Z23.346 A30.6704 
N2052 X-285.118 Y-9.968 Z24.482 A34.8905 
N2053 X-285.118 Y-10.843 Z25.525 A38.9631 
N2054 X-285.118 Y-11.742 Z26.472 A42.8743 
N2055 X-285.118 Y-12.632 Z27.299 A46.5120 
N2056 X-285.118 Y-13.490 Z28.006 A49.8431 
N2057 X-285.118 Y-14.321 Z28.618 A52.9328 
N2058 X-285.118 Y-15.137 Z29.156 A55.8578 
N2059 X-285.118 Y-15.947 Z29.634 A58.6759 
N2060 X-285.118 Y-16.760 Z30.062 A61.4295 
N2061 X-285.118 Y-17.584 Z30.447 A64.1511 
N2062 X-285.118 Y-18.423 Z30.791 A66.8681 
N2063 X-285.118 Y-19.285 Z31.097 A69.6079 
N2064 X-285.118 Y-20.178 Z31.366 A72.4023 
N2065 X-285.118 Y-21.114 Z31.596 A75.2886 
N2066 X-285.118 Y-22.105 Z31.785 A78.3107 
N2067 X-285.118 Y-23.167 Z31.926 A81.5179 
N2068 X-285.118 Y-24.314 Z32.008 A84.9587 
N2069 X-285.118 Y-25.554 Z32.014 A88.6698 
N2070 X-285.118 Y-26.885 Z31.923 A92.6635 B-0.0000 
N2071 X-285.118 Y-28.290 Z31.713 A96.9101 B-0.0000 
N2072 X-285.118 Y-29.727 Z31.365 A101.3256 B-0.0002 
N2073 X-285.118 Y-31.137 Z30.876 A105.7744 B-0.0005 
N2074 X-285.118 Y-32.451 Z30.258 A110.0888 B-0.0013 
N2075 X-285.118 Y-33.609 Z29.539 A114.1059 B-0.0027 
N2076 X-285.118 Y-34.562 Z28.753 A117.6953 B-0.0047 
N2077 X-285.118 Y-35.269 Z27.942 A120.7150 B-0.0061 
N2078 X-285.118 Y-35.672 Z27.166 A122.9490 B-0.0054 
N2079 X-285.118 Y-35.742 Z26.465 A124.2616 B-0.0030 
N2080 X-285.118 Y-35.517 Z25.825 A124.7613 B-0.0013 
N2081 X-285.118 Y-35.105 Z25.169 A124.8287 B-0.0012 
N2082 X-285.118 Y-34.603 Z24.420 A124.8289 B-0.0015 
N2083 X-285.118 Y-34.028 Z23.562 B-0.0019 
N2084 X-285.118 Y-33.381 Z22.596 B-0.0023 
N2085 X-285.118 Y-32.664 Z21.527 B-0.0027 
N2086 X-285.118 Y-31.886 Z20.366 B-0.0032 
N2087 X-285.118 Y-31.055 Z19.126 B-0.0037 
N2088 X-285.118 Y-30.183 Z17.825 B-0.0042 
N2089 X-285.118 Y-29.285 Z16.485 B-0.0048 
N2090 X-285.118 Y-28.376 Z15.129 B-0.0053 
N2091 X-285.118 Y-27.472 Z13.780 B-0.0059 
N2092 X-285.118 Y-26.588 Z12.461 B-0.0064 
N2093 X-285.118 Y-25.738 Z11.192 B-0.0070 
N2094 X-285.118 Y-24.933 Z9.991 B-0.0075 
N2095 X-285.118 Y-24.182 Z8.871 B-0.0079 
N2096 X-285.118 Y-23.491 Z7.839 B-0.0083 
N2097 X-285.118 Y-22.869 Z6.893 A124.8594 B-0.0072 
N2098 X-285.118 Y-22.476 Z5.917 A125.5234 B0.0280 
N2099 X-285.117 Y-22.575 Z4.689 A127.9049 B0.1598 
N2100 X-285.116 Y-23.136 Z3.121 A132.1694 B0.4055 
N2101 X-285.114 Y-23.908 Z1.261 A137.7062 B0.7359 
N2102 X-285.112 Y-24.682 Z-0.837 A144.0113 B1.1143 
