; PROGRAM NAME: A00000134
; ORDER       : A000001
; OPER. NAME  : Spiral Finish Airfoil:115
; OPER. DESCR.: Spiral Finishing Airfoil/pioro wk
; OPER. TYPE  : finAirfoil
; GEO. OPTION : 5
; MACHINE     : HSTM_300_SIM840D_Py
;             : HSTM300/500 - HAMUEL: 5-axis milling machine-SIM840D Traori PP_Script
; CONTROL     : SINUMERIK 840D
; created:   2021-11-15 09:09:43.442475
;-------DODATKOWE DANE-------------------
; PROGRAMISTA : Mariusz Malec
; PARTID      : 138T005360P1002_-
;  ae         : 1.5
;  lean_angle : 20.0
;  airf_offset: 0.05
;----------------------------------------
RAPORT("TA000001","Spiral Finish Airfoil:115")
N10 TRAFOOF
N11 D0
N12 G90 G94
N13 G0 G53 D0 Z550
N14 STOPRE
M9 ; chlodziwo wyl
; --- Spiral Finish Airfoil:115 - Spiral Finishing Airfoil/pioro wk ---
N16 ;ToolChange : concat=None ,current_tdmid=None, PP.tdmId=959063
N17 TRAFOOF
N18 G0 G53 D0 X-200 Y150 Z550 B0
N19 T="7759063"
RAPORT("TA000001","ToolChangeStart 7759063")
N20 M6
RAPORT("TA000001","ToolChangeEnd")
N21 STOPRE
N22 MSG(" TLID=959063 D=12.0 R=3.0 Ang=0.0 Len=130.0 ")
;---> in saveDoc :0:00:00.157579
;---> in saveDoc :0:00:00.136660
N23 S3183 M03
N24 STOPRE
N25 TOL(0.01,1,1)
N26 G0 G53 A118.3674 B-0.6562
N27 TRAORI
N28 G54 D1
N29 D1 
;---> in saveDoc :0:00:00.138628
N30 TRANS  A=R25
;---> in saveDoc :0:00:00.149699
STOPRE
E_ZDARZ=300001
;ACS_FINISH_AIRFOIL=7759063
STOPRE
N31 ; DELTA A > 40.1
N32 TRAFOOF
N33 D1
N34 STOPRE
N35 G00 G54 Z256.000
N36 G01 A118.3674 F10000
N37 TRAORI
N38 G54 D1
N39 STOPRE
N40 TRANS  A=R25
N41 G00 X-286.615 Y-64.701 Z-31.280 A118.3674 B-0.6562 
N42 M342 ; chlodziwo woda
N43 X-286.043 Y-20.708 Z-7.526 
N44 G01 X-286.059 Y-19.020 Z-4.891 F827 
N45 X-286.107 Y-18.228 Z-1.865 
N46 X-286.181 Y-18.411 Z1.258 
N47 X-286.274 Y-19.549 Z4.170 
N48 X-286.378 Y-21.532 Z6.588 
N49 X-286.395 Y-21.758 Z6.610 A115.8105 B-0.5537 
N50 X-286.426 Y-22.136 Z6.643 A111.1943 B-0.3727 
N51 X-286.468 Y-22.629 Z6.720 A104.9750 B-0.1213 
N52 X-286.517 Y-23.120 Z6.849 A98.5898 B0.1707 
N53 X-286.566 Y-23.585 Z7.026 A92.3200 B0.4649 
N54 X-286.607 Y-24.008 Z7.240 A86.3224 B0.7218 
N55 X-286.640 Y-24.363 Z7.465 A80.9941 B0.9308 
N56 X-286.668 Y-24.653 Z7.688 A76.3494 B1.1025 
N57 X-286.690 Y-24.887 Z7.898 A72.3585 B1.2436 
N58 X-286.709 Y-25.090 Z8.106 A68.6778 B1.3644 
N59 X-286.726 Y-25.265 Z8.309 A65.2655 B1.4703 
N60 X-286.740 Y-25.417 Z8.509 A62.0736 B1.5648 
N61 X-286.753 Y-25.551 Z8.705 A59.0552 B1.6509 
N62 X-286.766 Y-25.668 Z8.899 A56.1689 B1.7302 
N63 X-286.777 Y-25.772 Z9.092 A53.3807 B1.8038 
N64 X-286.787 Y-25.865 Z9.284 A50.6633 B1.8725 
N65 X-286.797 Y-25.946 Z9.478 A47.9958 B1.9367 
N66 X-286.806 Y-26.018 Z9.672 A45.3625 B1.9964 
N67 X-286.814 Y-26.080 Z9.867 A42.7513 B2.0519 
N68 X-286.822 Y-26.133 Z10.064 A40.1530 B2.1030 
N69 X-286.829 Y-26.177 Z10.263 A37.5606 B2.1499 
N70 X-286.835 Y-26.212 Z10.463 A34.9681 B2.1924 
N71 X-286.840 Y-26.238 Z10.665 A32.3705 B2.2303 
N72 X-286.845 Y-26.255 Z10.868 A29.7623 B2.2634 
N73 X-286.849 Y-26.263 Z11.074 A27.1374 B2.2917 
N74 X-286.852 Y-26.261 Z11.281 A24.4877 B2.3153 
N75 X-286.854 Y-26.251 Z11.490 A21.8026 B2.3341 
N76 X-286.856 Y-26.230 Z11.702 A19.0680 B2.3482 
N77 X-286.857 Y-26.199 Z11.918 A16.2647 B2.3574 
N78 X-286.857 Y-26.156 Z12.139 A13.3670 B2.3613 
N79 X-286.857 Y-26.100 Z12.367 A10.3415 B2.3595 
N80 X-286.855 Y-26.028 Z12.605 A7.1455 B2.3514 
N81 X-286.853 Y-25.937 Z12.854 A3.7264 B2.3357 
N82 X-286.848 Y-25.823 Z13.117 A0.0236 B2.3103 
N83 X-286.842 Y-25.680 Z13.396 A355.9719 B2.2716 
N84 X-286.832 Y-25.500 Z13.691 A351.5128 B2.2186 
N85 X-286.820 Y-25.277 Z13.998 A346.6170 B2.1465 
N86 X-286.801 Y-25.006 Z14.310 A341.2976 B2.0418 
N87 X-286.773 Y-24.687 Z14.611 A335.6520 B1.8886 
N88 X-286.740 Y-24.330 Z14.885 A329.8838 B1.7050 
N89 X-286.705 Y-23.952 Z15.114 A324.2639 B1.5186 
N90 X-286.674 Y-23.595 Z15.281 A319.3310 B1.3541 
N91 X-286.652 Y-23.329 Z15.370 A315.9576 B1.2441 
N92 X-286.639 Y-23.157 Z15.400 A314.0931 B1.1839 
N93 X-286.631 Y-23.026 Z15.401 A312.9402 B1.1567 
N94 X-286.625 Y-22.925 Z15.380 A312.3589 B1.1470 
N95 X-286.620 Y-22.827 Z15.346 A312.0047 B1.1484 
N96 X-286.615 Y-22.727 Z15.299 A311.8153 B1.1503 
N97 X-286.608 Y-22.618 Z15.241 A311.7412 B1.1555 
N98 X-286.601 Y-22.498 Z15.172 A311.7473 B1.1604 
N99 X-286.592 Y-22.363 Z15.092 A311.8112 B1.1649 
N100 X-286.582 Y-22.212 Z15.000 A311.9197 B1.1711 
N101 X-286.571 Y-22.043 Z14.897 A312.0648 B1.1770 
N102 X-286.558 Y-21.856 Z14.783 A312.2417 B1.1838 
N103 X-286.545 Y-21.651 Z14.658 A312.4472 B1.1926 
N104 X-286.529 Y-21.428 Z14.524 A312.6790 B1.2001 
N105 X-286.513 Y-21.188 Z14.380 A312.9364 B1.2098 
N106 X-286.495 Y-20.934 Z14.229 A313.2192 B1.2200 
N107 X-286.476 Y-20.665 Z14.071 A313.5285 B1.2302 
N108 X-286.457 Y-20.385 Z13.907 A313.8658 B1.2420 
N109 X-286.436 Y-20.095 Z13.738 A314.2323 B1.2554 
N110 X-286.415 Y-19.797 Z13.567 A314.6290 B1.2695 
N111 X-286.393 Y-19.492 Z13.393 A315.0554 B1.2842 
N112 X-286.371 Y-19.183 Z13.218 A315.5105 B1.3012 
N113 X-286.349 Y-18.870 Z13.043 A315.9920 B1.3182 
N114 X-286.325 Y-18.554 Z12.869 A316.4977 B1.3360 
N115 X-286.302 Y-18.237 Z12.696 A317.0255 B1.3545 
N116 X-286.278 Y-17.920 Z12.526 A317.5741 B1.3734 
N117 X-286.254 Y-17.603 Z12.358 A318.1427 B1.3927 
N118 X-286.230 Y-17.286 Z12.194 A318.7310 B1.4126 
N119 X-286.205 Y-16.971 Z12.032 A319.3385 B1.4330 
N120 X-286.180 Y-16.657 Z11.874 A319.9651 B1.4539 
N121 X-286.155 Y-16.345 Z11.720 A320.6102 B1.4752 
N122 X-286.130 Y-16.035 Z11.570 A321.2733 B1.4969 
N123 X-286.105 Y-15.727 Z11.423 A321.9539 B1.5189 
N124 X-286.080 Y-15.420 Z11.280 A322.6514 B1.5412 
N125 X-286.054 Y-15.116 Z11.141 A323.3658 B1.5638 
N126 X-286.029 Y-14.814 Z11.006 A324.0967 B1.5867 
N127 X-286.003 Y-14.513 Z10.875 A324.8441 B1.6097 
N128 X-285.977 Y-14.215 Z10.748 A325.6079 B1.6330 
N129 X-285.951 Y-13.918 Z10.625 A326.3882 B1.6566 
N130 X-285.925 Y-13.624 Z10.506 A327.1847 B1.6803 
N131 X-285.898 Y-13.331 Z10.391 A327.9972 B1.7041 
N132 X-285.871 Y-13.040 Z10.280 A328.8256 B1.7281 
N133 X-285.844 Y-12.750 Z10.173 A329.6693 B1.7521 
N134 X-285.817 Y-12.462 Z10.070 A330.5279 B1.7762 
N135 X-285.790 Y-12.175 Z9.971 A331.4007 B1.8003 
N136 X-285.762 Y-11.890 Z9.876 A332.2872 B1.8243 
N137 X-285.734 Y-11.606 Z9.785 A333.1866 B1.8483 
N138 X-285.706 Y-11.322 Z9.698 A334.0979 B1.8721 
N139 X-285.678 Y-11.039 Z9.615 A335.0202 B1.8957 
N140 X-285.649 Y-10.757 Z9.537 A335.9526 B1.9191 
N141 X-285.620 Y-10.476 Z9.463 A336.8939 B1.9422 
N142 X-285.590 Y-10.194 Z9.393 A337.8428 B1.9649 
N143 X-285.560 Y-9.912 Z9.327 A338.7983 B1.9873 
N144 X-285.530 Y-9.631 Z9.266 A339.7588 B2.0092 
N145 X-285.500 Y-9.348 Z9.209 A340.7229 B2.0307 
N146 X-285.468 Y-9.065 Z9.157 A341.6893 B2.0516 
N147 X-285.437 Y-8.781 Z9.110 A342.6563 B2.0720 
N148 X-285.405 Y-8.496 Z9.068 A343.6224 B2.0918 
N149 X-285.372 Y-8.209 Z9.031 A344.5859 B2.1109 
N150 X-285.339 Y-7.921 Z8.999 A345.5450 B2.1293 
N151 X-285.306 Y-7.630 Z8.972 A346.4982 B2.1471 
N152 X-285.271 Y-7.337 Z8.951 A347.4437 B2.1641 
N153 X-285.237 Y-7.042 Z8.935 A348.3796 B2.1804 
N154 X-285.201 Y-6.744 Z8.926 A349.3045 B2.1959 
N155 X-285.165 Y-6.443 Z8.922 A350.2164 B2.2106 
N156 X-285.128 Y-6.139 Z8.925 A351.1137 B2.2246 
N157 X-285.090 Y-5.831 Z8.934 A351.9945 B2.2378 
N158 X-285.052 Y-5.519 Z8.950 A352.8568 B2.2502 
N159 X-285.013 Y-5.203 Z8.973 A353.6985 B2.2619 
N160 X-284.973 Y-4.882 Z9.003 A354.5172 B2.2728 
N161 X-284.932 Y-4.557 Z9.040 A355.3103 B2.2829 
N162 X-284.890 Y-4.227 Z9.086 A356.0750 B2.2923 
N163 X-284.848 Y-3.891 Z9.139 A356.8080 B2.3010 
N164 X-284.804 Y-3.550 Z9.200 A357.5056 B2.3089 
N165 X-284.760 Y-3.203 Z9.271 A358.1641 B2.3161 
N166 X-284.714 Y-2.850 Z9.350 A358.7792 B2.3225 
N167 X-284.668 Y-2.492 Z9.438 A359.3466 B2.3282 
N168 X-284.621 Y-2.128 Z9.535 A359.8621 B2.3332 
N169 X-284.573 Y-1.758 Z9.640 A0.3221 B2.3375 
N170 X-284.524 Y-1.383 Z9.755 A0.7231 B2.3411 
N171 X-284.474 Y-1.003 Z9.878 A1.0629 B2.3441 
N172 X-284.424 Y-0.619 Z10.009 A1.3399 B2.3464 
N173 X-284.374 Y-0.232 Z10.147 A1.5533 B2.3481 
N174 X-284.323 Y0.158 Z10.291 A1.7033 B2.3492 
N175 X-284.272 Y0.550 Z10.440 A1.7908 B2.3499 
N176 X-284.221 Y0.942 Z10.594 A1.8171 B2.3501 
N177 X-284.170 Y1.333 Z10.752 A1.7835 B2.3495 
N178 X-284.120 Y1.723 Z10.911 A1.6914 B2.3493 
N179 X-284.070 Y2.109 Z11.072 A1.5408 B2.3480 
N180 X-284.021 Y2.491 Z11.233 A1.3306 B2.3455 
N181 X-283.973 Y2.868 Z11.395 A1.0588 B2.3447 
N182 X-283.926 Y3.239 Z11.555 A0.7209 B2.3412 
N183 X-283.880 Y3.602 Z11.715 A0.3124 B2.3373 
N184 X-283.835 Y3.957 Z11.873 A359.8292 B2.3338 
N185 X-283.793 Y4.304 Z12.030 A359.2672 B2.3293 
N186 X-283.751 Y4.642 Z12.183 A358.6243 B2.3214 
N187 X-283.711 Y4.970 Z12.334 A357.9008 B2.3157 
N188 X-283.673 Y5.289 Z12.481 A357.0968 B2.3057 
N189 X-283.636 Y5.597 Z12.625 A356.2137 B2.2962 
N190 X-283.602 Y5.895 Z12.765 A355.2512 B2.2845 
N191 X-283.569 Y6.183 Z12.901 A354.2089 B2.2712 
N192 X-283.537 Y6.460 Z13.033 A353.0876 B2.2563 
N193 X-283.508 Y6.728 Z13.160 A351.8907 B2.2380 
N194 X-283.480 Y6.986 Z13.284 A350.6237 B2.2199 
N195 X-283.453 Y7.234 Z13.403 A349.2869 B2.1978 
N196 X-283.429 Y7.473 Z13.519 A347.8747 B2.1758 
N197 X-283.405 Y7.705 Z13.633 A346.3757 B2.1502 
N198 X-283.383 Y7.930 Z13.745 A344.7800 B2.1210 
N199 X-283.361 Y8.149 Z13.856 A343.0804 B2.0881 
N200 X-283.341 Y8.365 Z13.967 A341.2709 B2.0515 
N201 X-283.321 Y8.578 Z14.077 A339.3445 B2.0096 
N202 X-283.302 Y8.790 Z14.187 A337.2932 B1.9639 
N203 X-283.283 Y9.003 Z14.297 A335.1086 B1.9113 
N204 X-283.264 Y9.218 Z14.407 A332.7852 B1.8513 
N205 X-283.245 Y9.437 Z14.516 A330.3228 B1.7852 
N206 X-283.225 Y9.661 Z14.622 A327.7282 B1.7091 
N207 X-283.204 Y9.890 Z14.725 A325.0164 B1.6252 
N208 X-283.183 Y10.124 Z14.823 A322.2082 B1.5348 
N209 X-283.162 Y10.362 Z14.913 A319.3256 B1.4383 
N210 X-283.141 Y10.605 Z14.994 A316.3899 B1.3365 
N211 X-283.119 Y10.850 Z15.066 A313.4191 B1.2302 
N212 X-283.097 Y11.097 Z15.127 A310.4264 B1.1206 
N213 X-283.075 Y11.347 Z15.177 A307.4201 B1.0091 
N214 X-283.053 Y11.597 Z15.215 A304.4039 B0.8955 
N215 X-283.031 Y11.849 Z15.240 A301.3775 B0.7789 
N216 X-283.009 Y12.103 Z15.254 A298.3380 B0.6587 
N217 X-282.986 Y12.357 Z15.254 A295.2818 B0.5357 
N218 X-282.964 Y12.613 Z15.241 A292.2054 B0.4117 
N219 X-282.941 Y12.870 Z15.214 A289.1074 B0.2855 
N220 X-282.918 Y13.128 Z15.173 A285.9897 B0.1559 
N221 X-282.895 Y13.384 Z15.116 A282.8592 B0.0218 
N222 X-282.872 Y13.638 Z15.043 A279.7287 B-0.1145 
N223 X-282.849 Y13.888 Z14.954 A276.6170 B-0.2487 
N224 X-282.827 Y14.131 Z14.850 A273.5483 B-0.3806 
N225 X-282.807 Y14.364 Z14.731 A270.5503 B-0.5098 
N226 X-282.787 Y14.586 Z14.598 A267.6526 B-0.6347 
N227 X-282.770 Y14.793 Z14.452 A264.8828 B-0.7517 
N228 X-282.755 Y14.984 Z14.295 A262.2638 B-0.8587 
N229 X-282.743 Y15.158 Z14.129 A259.8092 B-0.9536 
N230 X-282.732 Y15.315 Z13.954 A257.5225 B-1.0415 
N231 X-282.725 Y15.456 Z13.771 A255.3981 B-1.1193 
N232 X-282.719 Y15.582 Z13.581 A253.4248 B-1.1890 
N233 X-282.716 Y15.694 Z13.382 A251.5891 B-1.2535 
N234 X-282.715 Y15.792 Z13.175 A249.8766 B-1.3118 
N235 X-282.715 Y15.878 Z12.960 A248.2749 B-1.3657 
N236 X-282.718 Y15.952 Z12.735 A246.7721 B-1.4151 
N237 X-282.722 Y16.014 Z12.502 A245.3556 B-1.4600 
N238 X-282.729 Y16.067 Z12.259 A244.0110 B-1.5017 
N239 X-282.736 Y16.109 Z12.006 A242.7227 B-1.5414 
N240 X-282.746 Y16.142 Z11.744 A241.4779 B-1.5796 
N241 X-282.757 Y16.166 Z11.471 A240.2701 B-1.6175 
N242 X-282.769 Y16.181 Z11.189 A239.0979 B-1.6535 
N243 X-282.783 Y16.186 Z10.899 A237.9607 B-1.6866 
N244 X-282.799 Y16.181 Z10.600 A236.8563 B-1.7192 
N245 X-282.816 Y16.168 Z10.295 A235.7808 B-1.7491 
N246 X-282.834 Y16.145 Z9.983 A234.7312 B-1.7784 
N247 X-282.854 Y16.114 Z9.665 A233.7057 B-1.8076 
N248 X-282.875 Y16.074 Z9.343 A232.7028 B-1.8332 
N249 X-282.898 Y16.026 Z9.017 A231.7213 B-1.8593 
N250 X-282.921 Y15.969 Z8.687 A230.7586 B-1.8844 
N251 X-282.945 Y15.906 Z8.355 A229.8109 B-1.9070 
N252 X-282.970 Y15.834 Z8.020 A228.8733 B-1.9292 
N253 X-282.996 Y15.757 Z7.685 A227.9404 B-1.9516 
N254 X-283.023 Y15.673 Z7.348 A227.0068 B-1.9736 
N255 X-283.050 Y15.583 Z7.010 A226.0679 B-1.9947 
N256 X-283.078 Y15.487 Z6.672 A225.1207 B-2.0153 
N257 X-283.106 Y15.386 Z6.335 A224.1637 B-2.0369 
N258 X-283.134 Y15.279 Z5.998 A223.1959 B-2.0578 
N259 X-283.163 Y15.167 Z5.663 A222.2171 B-2.0775 
N260 X-283.193 Y15.051 Z5.330 A221.2272 B-2.0974 
N261 X-283.222 Y14.929 Z4.999 A220.2256 B-2.1169 
N262 X-283.252 Y14.803 Z4.671 A219.2113 B-2.1357 
N263 X-283.282 Y14.672 Z4.345 A218.1826 B-2.1541 
N264 X-283.312 Y14.537 Z4.023 A217.1376 B-2.1722 
N265 X-283.342 Y14.398 Z3.704 A216.0744 B-2.1898 
N266 X-283.372 Y14.255 Z3.389 A214.9915 B-2.2071 
N267 X-283.402 Y14.108 Z3.077 A213.8877 B-2.2239 
N268 X-283.432 Y13.958 Z2.768 A212.7620 B-2.2402 
N269 X-283.462 Y13.803 Z2.464 A211.6138 B-2.2560 
N270 X-283.492 Y13.645 Z2.163 A210.4429 B-2.2711 
N271 X-283.522 Y13.483 Z1.867 A209.2491 B-2.2856 
N272 X-283.552 Y13.317 Z1.575 A208.0327 B-2.2994 
N273 X-283.582 Y13.148 Z1.287 A206.7937 B-2.3124 
N274 X-283.612 Y12.974 Z1.004 A205.5326 B-2.3245 
N275 X-283.642 Y12.797 Z0.725 A204.2497 B-2.3357 
N276 X-283.672 Y12.616 Z0.451 A202.9455 B-2.3459 
N277 X-283.702 Y12.431 Z0.181 A201.6206 B-2.3550 
N278 X-283.732 Y12.242 Z-0.084 A200.2757 B-2.3629 
N279 X-283.761 Y12.049 Z-0.343 A198.9117 B-2.3697 
N280 X-283.791 Y11.852 Z-0.598 A197.5293 B-2.3753 
N281 X-283.821 Y11.651 Z-0.848 A196.1297 B-2.3794 
N282 X-283.851 Y11.446 Z-1.092 A194.7139 B-2.3822 
N283 X-283.881 Y11.236 Z-1.331 A193.2833 B-2.3836 
N284 X-283.911 Y11.022 Z-1.565 A191.8390 B-2.3836 
N285 X-283.941 Y10.803 Z-1.793 A190.3825 B-2.3819 
N286 X-283.971 Y10.581 Z-2.016 A188.9149 B-2.3787 
N287 X-284.001 Y10.353 Z-2.233 A187.4378 B-2.3740 
N288 X-284.031 Y10.121 Z-2.444 A185.9526 B-2.3677 
N289 X-284.061 Y9.884 Z-2.649 A184.4608 B-2.3598 
N290 X-284.092 Y9.643 Z-2.848 A182.9640 B-2.3502 
N291 X-284.122 Y9.397 Z-3.040 A181.4639 B-2.3390 
N292 X-284.153 Y9.146 Z-3.226 A179.9621 B-2.3262 
N293 X-284.183 Y8.890 Z-3.405 A178.4604 B-2.3119 
N294 X-284.214 Y8.630 Z-3.577 A176.9605 B-2.2960 
N295 X-284.245 Y8.365 Z-3.743 A175.4640 B-2.2785 
N296 X-284.276 Y8.095 Z-3.901 A173.9726 B-2.2596 
N297 X-284.308 Y7.820 Z-4.052 A172.4877 B-2.2393 
N298 X-284.339 Y7.541 Z-4.195 A171.0111 B-2.2177 
N299 X-284.370 Y7.257 Z-4.331 A169.5442 B-2.1946 
N300 X-284.402 Y6.969 Z-4.459 A168.0887 B-2.1703 
N301 X-284.434 Y6.676 Z-4.580 A166.6460 B-2.1450 
N302 X-284.465 Y6.379 Z-4.692 A165.2178 B-2.1185 
N303 X-284.497 Y6.078 Z-4.796 A163.8054 B-2.0910 
N304 X-284.529 Y5.772 Z-4.891 A162.4104 B-2.0626 
N305 X-284.561 Y5.462 Z-4.978 A161.0339 B-2.0334 
N306 X-284.593 Y5.148 Z-5.057 A159.6772 B-2.0036 
N307 X-284.625 Y4.830 Z-5.127 A158.3415 B-1.9730 
N308 X-284.657 Y4.509 Z-5.188 A157.0276 B-1.9418 
N309 X-284.689 Y4.183 Z-5.240 A155.7367 B-1.9103 
N310 X-284.721 Y3.855 Z-5.283 A154.4695 B-1.8784 
N311 X-284.753 Y3.523 Z-5.318 A153.2269 B-1.8462 
N312 X-284.785 Y3.187 Z-5.343 A152.0095 B-1.8138 
N313 X-284.817 Y2.849 Z-5.360 A150.8181 B-1.7814 
N314 X-284.848 Y2.507 Z-5.367 A149.6532 B-1.7489 
N315 X-284.880 Y2.163 Z-5.366 A148.5150 B-1.7164 
N316 X-284.911 Y1.816 Z-5.356 A147.4041 B-1.6841 
N317 X-284.943 Y1.467 Z-5.336 A146.3205 B-1.6519 
N318 X-284.974 Y1.115 Z-5.308 A145.2644 B-1.6200 
N319 X-285.005 Y0.761 Z-5.271 A144.2359 B-1.5884 
N320 X-285.036 Y0.405 Z-5.225 A143.2352 B-1.5572 
N321 X-285.066 Y0.047 Z-5.170 A142.2619 B-1.5264 
N322 X-285.096 Y-0.313 Z-5.107 A141.3161 B-1.4960 
N323 X-285.127 Y-0.675 Z-5.035 A140.3974 B-1.4662 
N324 X-285.156 Y-1.038 Z-4.955 A139.5054 B-1.4368 
N325 X-285.186 Y-1.403 Z-4.867 A138.6397 B-1.4080 
N326 X-285.215 Y-1.769 Z-4.770 A137.7998 B-1.3797 
N327 X-285.244 Y-2.137 Z-4.666 A136.9850 B-1.3520 
N328 X-285.273 Y-2.506 Z-4.554 A136.1948 B-1.3248 
N329 X-285.302 Y-2.875 Z-4.434 A135.4287 B-1.2982 
N330 X-285.330 Y-3.246 Z-4.306 A134.6865 B-1.2722 
N331 X-285.358 Y-3.618 Z-4.171 A133.9680 B-1.2467 
N332 X-285.386 Y-3.990 Z-4.028 A133.2732 B-1.2219 
N333 X-285.413 Y-4.363 Z-3.878 A132.6024 B-1.1978 
N334 X-285.440 Y-4.737 Z-3.721 A131.9557 B-1.1743 
N335 X-285.467 Y-5.111 Z-3.558 A131.3332 B-1.1517 
N336 X-285.493 Y-5.485 Z-3.387 A130.7348 B-1.1298 
N337 X-285.519 Y-5.860 Z-3.210 A130.1601 B-1.1087 
N338 X-285.545 Y-6.235 Z-3.026 A129.6086 B-1.0884 
N339 X-285.570 Y-6.610 Z-2.836 A129.0797 B-1.0688 
N340 X-285.595 Y-6.985 Z-2.640 A128.5725 B-1.0500 
N341 X-285.620 Y-7.361 Z-2.438 A128.0864 B-1.0319 
N342 X-285.645 Y-7.737 Z-2.231 A127.6205 B-1.0145 
N343 X-285.669 Y-8.113 Z-2.018 A127.1741 B-0.9977 
N344 X-285.693 Y-8.489 Z-1.800 A126.7464 B-0.9815 
N345 X-285.717 Y-8.865 Z-1.576 A126.3369 B-0.9660 
N346 X-285.740 Y-9.241 Z-1.348 A125.9448 B-0.9511 
N347 X-285.763 Y-9.618 Z-1.115 A125.5697 B-0.9368 
N348 X-285.786 Y-9.994 Z-0.877 A125.2111 B-0.9231 
N349 X-285.809 Y-10.370 Z-0.634 A124.8686 B-0.9099 
N350 X-285.831 Y-10.747 Z-0.388 A124.5417 B-0.8974 
N351 X-285.853 Y-11.123 Z-0.137 A124.2301 B-0.8853 
N352 X-285.875 Y-11.500 Z0.118 A123.9335 B-0.8738 
N353 X-285.897 Y-11.876 Z0.377 A123.6517 B-0.8629 
N354 X-285.918 Y-12.252 Z0.640 A123.3845 B-0.8525 
N355 X-285.940 Y-12.628 Z0.906 A123.1318 B-0.8426 
N356 X-285.961 Y-13.004 Z1.175 A122.8935 B-0.8333 
N357 X-285.981 Y-13.379 Z1.447 A122.6695 B-0.8245 
N358 X-286.002 Y-13.754 Z1.723 A122.4596 B-0.8163 
N359 X-286.022 Y-14.127 Z2.000 A122.2634 B-0.8087 
N360 X-286.042 Y-14.500 Z2.280 A122.0807 B-0.8016 
N361 X-286.062 Y-14.871 Z2.561 A121.9108 B-0.7950 
N362 X-286.082 Y-15.240 Z2.843 A121.7533 B-0.7889 
N363 X-286.101 Y-15.605 Z3.125 A121.6077 B-0.7832 
N364 X-286.120 Y-15.967 Z3.407 A121.4735 B-0.7780 
N365 X-286.139 Y-16.325 Z3.687 A121.3506 B-0.7731 
N366 X-286.157 Y-16.675 Z3.963 A121.2386 B-0.7689 
N367 X-286.175 Y-17.019 Z4.236 A121.1373 B-0.7649 
N368 X-286.192 Y-17.353 Z4.503 A121.0465 B-0.7611 
N369 X-286.208 Y-17.676 Z4.762 A120.9658 B-0.7584 
N370 X-286.224 Y-17.986 Z5.012 A120.8944 B-0.7554 
N371 X-286.239 Y-18.282 Z5.252 A120.8314 B-0.7531 
N372 X-286.253 Y-18.562 Z5.480 A120.7760 B-0.7515 
N373 X-286.266 Y-18.824 Z5.694 A120.7269 B-0.7496 
N374 X-286.279 Y-19.067 Z5.894 A120.6831 B-0.7479 
N375 X-286.290 Y-19.291 Z6.078 A120.6438 B-0.7471 
N376 X-286.300 Y-19.494 Z6.246 A120.6078 B-0.7452 
N377 X-286.309 Y-19.676 Z6.396 A120.5741 B-0.7447 
N378 X-286.317 Y-19.838 Z6.531 A120.5411 B-0.7436 
N379 X-286.324 Y-19.980 Z6.649 A120.5068 B-0.7429 
N380 X-286.331 Y-20.103 Z6.751 A120.4681 B-0.7428 
N381 X-286.336 Y-20.210 Z6.838 A120.4203 B-0.7416 
N382 X-286.340 Y-20.301 Z6.912 A120.3578 B-0.7404 
N383 X-286.345 Y-20.378 Z6.973 A120.2753 B-0.7371 
N384 X-286.349 Y-20.448 Z7.022 A120.1140 B-0.7282 
N385 X-286.355 Y-20.529 Z7.054 A119.6144 B-0.7067 
N386 X-286.366 Y-20.652 Z7.063 A118.3674 B-0.6562 
N387 X-286.386 Y-20.858 Z7.045 A115.8105 B-0.5537 
N388 X-286.419 Y-21.204 Z7.004 A111.1943 B-0.3727 
N389 X-286.466 Y-21.663 Z6.978 A104.9750 B-0.1213 
N390 X-286.520 Y-22.132 Z6.998 A98.5898 B0.1707 
N391 X-286.574 Y-22.586 Z7.066 A92.3200 B0.4649 
N392 X-286.620 Y-23.010 Z7.176 A86.3224 B0.7218 
N393 X-286.657 Y-23.375 Z7.309 A80.9941 B0.9308 
N394 X-286.687 Y-23.682 Z7.452 A76.3494 B1.1025 
N395 X-286.712 Y-23.935 Z7.595 A72.3585 B1.2436 
N396 X-286.733 Y-24.158 Z7.742 A68.6778 B1.3644 
N397 X-286.751 Y-24.357 Z7.891 A65.2655 B1.4703 
N398 X-286.768 Y-24.534 Z8.040 A62.0736 B1.5648 
N399 X-286.782 Y-24.693 Z8.191 A59.0552 B1.6509 
N400 X-286.796 Y-24.838 Z8.342 A56.1689 B1.7302 
N401 X-286.808 Y-24.970 Z8.496 A53.3807 B1.8038 
N402 X-286.820 Y-25.092 Z8.651 A50.6633 B1.8725 
N403 X-286.831 Y-25.204 Z8.809 A47.9958 B1.9367 
N404 X-286.841 Y-25.307 Z8.970 A45.3625 B1.9964 
N405 X-286.850 Y-25.402 Z9.133 A42.7513 B2.0519 
N406 X-286.858 Y-25.489 Z9.300 A40.1530 B2.1030 
N407 X-286.866 Y-25.568 Z9.471 A37.5606 B2.1499 
N408 X-286.873 Y-25.639 Z9.644 A34.9681 B2.1924 
N409 X-286.879 Y-25.703 Z9.821 A32.3705 B2.2303 
N410 X-286.884 Y-25.759 Z10.001 A29.7623 B2.2634 
N411 X-286.889 Y-25.807 Z10.184 A27.1374 B2.2917 
N412 X-286.892 Y-25.847 Z10.371 A24.4877 B2.3153 
N413 X-286.895 Y-25.880 Z10.562 A21.8026 B2.3341 
N414 X-286.897 Y-25.904 Z10.758 A19.0680 B2.3482 
N415 X-286.898 Y-25.919 Z10.959 A16.2647 B2.3574 
N416 X-286.899 Y-25.925 Z11.167 A13.3670 B2.3613 
N417 X-286.898 Y-25.920 Z11.384 A10.3415 B2.3595 
N418 X-286.896 Y-25.904 Z11.613 A7.1455 B2.3514 
N419 X-286.893 Y-25.872 Z11.857 A3.7264 B2.3357 
N420 X-286.889 Y-25.823 Z12.118 A0.0236 B2.3103 
N421 X-286.881 Y-25.750 Z12.400 A355.9719 B2.2716 
N422 X-286.871 Y-25.647 Z12.703 A351.5128 B2.2186 
N423 X-286.857 Y-25.508 Z13.026 A346.6170 B2.1465 
N424 X-286.837 Y-25.326 Z13.363 A341.2976 B2.0418 
N425 X-286.806 Y-25.099 Z13.700 A335.6520 B1.8886 
N426 X-286.770 Y-24.831 Z14.020 A329.8838 B1.7050 
N427 X-286.732 Y-24.536 Z14.303 A324.2639 B1.5186 
N428 X-286.698 Y-24.247 Z14.523 A319.3310 B1.3541 
N429 X-286.674 Y-24.024 Z14.651 A315.9576 B1.2441 
N430 X-286.660 Y-23.875 Z14.704 A314.0931 B1.1839 
N431 X-286.651 Y-23.758 Z14.720 A312.9402 B1.1567 
N432 X-286.645 Y-23.664 Z14.706 A312.3589 B1.1470 
N433 X-286.640 Y-23.570 Z14.677 A312.0047 B1.1484 
N434 X-286.635 Y-23.472 Z14.633 A311.8153 B1.1503 
N435 X-286.629 Y-23.364 Z14.576 A311.7412 B1.1555 
N436 X-286.621 Y-23.244 Z14.507 A311.7473 B1.1604 
N437 X-286.613 Y-23.109 Z14.425 A311.8112 B1.1649 
N438 X-286.603 Y-22.956 Z14.332 A311.9197 B1.1711 
N439 X-286.592 Y-22.785 Z14.227 A312.0648 B1.1770 
N440 X-286.579 Y-22.596 Z14.111 A312.2417 B1.1838 
N441 X-286.565 Y-22.388 Z13.983 A312.4472 B1.1926 
N442 X-286.550 Y-22.163 Z13.846 A312.6790 B1.2001 
N443 X-286.534 Y-21.920 Z13.699 A312.9364 B1.2098 
N444 X-286.517 Y-21.662 Z13.544 A313.2192 B1.2200 
N445 X-286.498 Y-21.390 Z13.382 A313.5285 B1.2302 
N446 X-286.478 Y-21.106 Z13.214 A313.8658 B1.2420 
N447 X-286.458 Y-20.811 Z13.041 A314.2323 B1.2554 
N448 X-286.437 Y-20.508 Z12.864 A314.6290 B1.2695 
N449 X-286.416 Y-20.198 Z12.685 A315.0554 B1.2842 
N450 X-286.394 Y-19.883 Z12.505 A315.5105 B1.3012 
N451 X-286.372 Y-19.564 Z12.324 A315.9920 B1.3182 
N452 X-286.349 Y-19.242 Z12.144 A316.4977 B1.3360 
N453 X-286.325 Y-18.919 Z11.965 A317.0255 B1.3545 
N454 X-286.302 Y-18.594 Z11.788 A317.5741 B1.3734 
N455 X-286.278 Y-18.270 Z11.614 A318.1427 B1.3927 
N456 X-286.254 Y-17.946 Z11.442 A318.7310 B1.4126 
N457 X-286.230 Y-17.622 Z11.274 A319.3385 B1.4330 
N458 X-286.206 Y-17.300 Z11.109 A319.9651 B1.4539 
N459 X-286.181 Y-16.980 Z10.948 A320.6102 B1.4752 
N460 X-286.157 Y-16.660 Z10.790 A321.2733 B1.4969 
N461 X-286.132 Y-16.343 Z10.636 A321.9539 B1.5189 
N462 X-286.107 Y-16.027 Z10.485 A322.6514 B1.5412 
N463 X-286.082 Y-15.713 Z10.339 A323.3658 B1.5638 
N464 X-286.057 Y-15.400 Z10.197 A324.0967 B1.5867 
N465 X-286.031 Y-15.089 Z10.058 A324.8441 B1.6097 
N466 X-286.006 Y-14.780 Z9.924 A325.6079 B1.6330 
N467 X-285.980 Y-14.472 Z9.793 A326.3882 B1.6566 
N468 X-285.954 Y-14.165 Z9.666 A327.1847 B1.6803 
N469 X-285.928 Y-13.861 Z9.544 A327.9972 B1.7041 
N470 X-285.901 Y-13.557 Z9.425 A328.8256 B1.7281 
N471 X-285.875 Y-13.255 Z9.310 A329.6693 B1.7521 
N472 X-285.848 Y-12.954 Z9.200 A330.5279 B1.7762 
N473 X-285.821 Y-12.654 Z9.093 A331.4007 B1.8003 
N474 X-285.794 Y-12.355 Z8.991 A332.2872 B1.8243 
N475 X-285.767 Y-12.056 Z8.893 A333.1866 B1.8483 
N476 X-285.739 Y-11.759 Z8.799 A334.0979 B1.8721 
N477 X-285.711 Y-11.462 Z8.710 A335.0202 B1.8957 
N478 X-285.682 Y-11.165 Z8.624 A335.9526 B1.9191 
N479 X-285.654 Y-10.868 Z8.543 A336.8939 B1.9422 
N480 X-285.625 Y-10.571 Z8.467 A337.8428 B1.9649 
N481 X-285.595 Y-10.274 Z8.395 A338.7983 B1.9873 
N482 X-285.565 Y-9.976 Z8.328 A339.7588 B2.0092 
N483 X-285.535 Y-9.678 Z8.266 A340.7229 B2.0307 
N484 X-285.504 Y-9.379 Z8.209 A341.6893 B2.0516 
N485 X-285.473 Y-9.079 Z8.156 A342.6563 B2.0720 
N486 X-285.441 Y-8.778 Z8.109 A343.6224 B2.0918 
N487 X-285.409 Y-8.475 Z8.067 A344.5859 B2.1109 
N488 X-285.376 Y-8.170 Z8.031 A345.5450 B2.1293 
N489 X-285.343 Y-7.863 Z8.000 A346.4982 B2.1471 
N490 X-285.309 Y-7.555 Z7.975 A347.4437 B2.1641 
N491 X-285.275 Y-7.243 Z7.957 A348.3796 B2.1804 
N492 X-285.239 Y-6.930 Z7.944 A349.3045 B2.1959 
N493 X-285.203 Y-6.613 Z7.937 A350.2164 B2.2106 
N494 X-285.167 Y-6.293 Z7.938 A351.1137 B2.2246 
N495 X-285.129 Y-5.970 Z7.945 A351.9945 B2.2378 
N496 X-285.091 Y-5.643 Z7.958 A352.8568 B2.2502 
N497 X-285.052 Y-5.312 Z7.980 A353.6985 B2.2619 
N498 X-285.013 Y-4.978 Z8.008 A354.5172 B2.2728 
N499 X-284.972 Y-4.639 Z8.044 A355.3103 B2.2829 
N500 X-284.930 Y-4.295 Z8.089 A356.0750 B2.2923 
N501 X-284.888 Y-3.947 Z8.141 A356.8080 B2.3010 
N502 X-284.845 Y-3.593 Z8.202 A357.5056 B2.3089 
N503 X-284.800 Y-3.235 Z8.272 A358.1641 B2.3161 
N504 X-284.755 Y-2.872 Z8.351 A358.7792 B2.3225 
N505 X-284.709 Y-2.503 Z8.438 A359.3466 B2.3282 
N506 X-284.662 Y-2.130 Z8.535 A359.8621 B2.3332 
N507 X-284.614 Y-1.752 Z8.641 A0.3221 B2.3375 
N508 X-284.565 Y-1.370 Z8.756 A0.7231 B2.3411 
N509 X-284.515 Y-0.985 Z8.879 A1.0629 B2.3441 
N510 X-284.465 Y-0.596 Z9.010 A1.3399 B2.3464 
N511 X-284.415 Y-0.205 Z9.148 A1.5533 B2.3481 
N512 X-284.364 Y0.188 Z9.292 A1.7033 B2.3492 
N513 X-284.313 Y0.581 Z9.442 A1.7908 B2.3499 
N514 X-284.262 Y0.974 Z9.596 A1.8171 B2.3501 
N515 X-284.211 Y1.364 Z9.753 A1.7835 B2.3495 
N516 X-284.161 Y1.752 Z9.912 A1.6914 B2.3493 
N517 X-284.111 Y2.136 Z10.073 A1.5408 B2.3480 
N518 X-284.062 Y2.515 Z10.234 A1.3306 B2.3455 
N519 X-284.014 Y2.887 Z10.396 A1.0588 B2.3447 
N520 X-283.967 Y3.251 Z10.556 A0.7209 B2.3412 
N521 X-283.921 Y3.607 Z10.716 A0.3124 B2.3373 
N522 X-283.876 Y3.954 Z10.874 A359.8292 B2.3338 
N523 X-283.833 Y4.291 Z11.031 A359.2672 B2.3293 
N524 X-283.791 Y4.618 Z11.184 A358.6243 B2.3214 
N525 X-283.752 Y4.934 Z11.336 A357.9008 B2.3157 
N526 X-283.713 Y5.238 Z11.484 A357.0968 B2.3057 
N527 X-283.677 Y5.531 Z11.628 A356.2137 B2.2962 
N528 X-283.642 Y5.812 Z11.769 A355.2512 B2.2845 
N529 X-283.608 Y6.082 Z11.907 A354.2089 B2.2712 
N530 X-283.577 Y6.340 Z12.041 A353.0876 B2.2563 
N531 X-283.547 Y6.587 Z12.171 A351.8907 B2.2380 
N532 X-283.519 Y6.823 Z12.298 A350.6237 B2.2199 
N533 X-283.492 Y7.048 Z12.421 A349.2869 B2.1978 
N534 X-283.467 Y7.263 Z12.542 A347.8747 B2.1758 
N535 X-283.443 Y7.469 Z12.662 A346.3757 B2.1502 
N536 X-283.420 Y7.667 Z12.781 A344.7800 B2.1210 
N537 X-283.398 Y7.858 Z12.900 A343.0804 B2.0881 
N538 X-283.377 Y8.044 Z13.021 A341.2709 B2.0515 
N539 X-283.356 Y8.225 Z13.142 A339.3445 B2.0096 
N540 X-283.336 Y8.404 Z13.265 A337.2932 B1.9639 
N541 X-283.316 Y8.582 Z13.390 A335.1086 B1.9113 
N542 X-283.296 Y8.761 Z13.518 A332.7852 B1.8513 
N543 X-283.276 Y8.942 Z13.647 A330.3228 B1.7852 
N544 X-283.254 Y9.127 Z13.777 A327.7282 B1.7091 
N545 X-283.233 Y9.317 Z13.906 A325.0164 B1.6252 
N546 X-283.210 Y9.511 Z14.033 A322.2082 B1.5348 
N547 X-283.187 Y9.711 Z14.155 A319.3256 B1.4383 
N548 X-283.164 Y9.915 Z14.270 A316.3899 B1.3365 
N549 X-283.140 Y10.124 Z14.379 A313.4191 B1.2302 
N550 X-283.116 Y10.336 Z14.479 A310.4264 B1.1206 
N551 X-283.093 Y10.552 Z14.569 A307.4201 B1.0091 
N552 X-283.069 Y10.772 Z14.650 A304.4039 B0.8955 
N553 X-283.045 Y10.996 Z14.720 A301.3775 B0.7789 
N554 X-283.020 Y11.222 Z14.779 A298.3380 B0.6587 
N555 X-282.996 Y11.453 Z14.827 A295.2818 B0.5357 
N556 X-282.971 Y11.687 Z14.863 A292.2054 B0.4117 
N557 X-282.946 Y11.925 Z14.887 A289.1074 B0.2855 
N558 X-282.921 Y12.166 Z14.897 A285.9897 B0.1559 
N559 X-282.895 Y12.409 Z14.893 A282.8592 B0.0218 
N560 X-282.870 Y12.653 Z14.874 A279.7287 B-0.1145 
N561 X-282.845 Y12.895 Z14.839 A276.6170 B-0.2487 
N562 X-282.821 Y13.133 Z14.788 A273.5483 B-0.3806 
N563 X-282.798 Y13.364 Z14.721 A270.5503 B-0.5098 
N564 X-282.776 Y13.587 Z14.639 A267.6526 B-0.6347 
N565 X-282.757 Y13.797 Z14.541 A264.8828 B-0.7517 
N566 X-282.740 Y13.993 Z14.430 A262.2638 B-0.8587 
N567 X-282.726 Y14.174 Z14.306 A259.8092 B-0.9536 
N568 X-282.714 Y14.339 Z14.170 A257.5225 B-1.0415 
N569 X-282.705 Y14.489 Z14.023 A255.3981 B-1.1193 
N570 X-282.699 Y14.624 Z13.866 A253.4248 B-1.1890 
N571 X-282.694 Y14.745 Z13.698 A251.5891 B-1.2535 
N572 X-282.692 Y14.853 Z13.519 A249.8766 B-1.3118 
N573 X-282.691 Y14.949 Z13.330 A248.2749 B-1.3657 
N574 X-282.693 Y15.033 Z13.130 A246.7721 B-1.4151 
N575 X-282.697 Y15.106 Z12.919 A245.3556 B-1.4600 
N576 X-282.702 Y15.168 Z12.697 A244.0110 B-1.5017 
N577 X-282.710 Y15.221 Z12.465 A242.7227 B-1.5414 
N578 X-282.718 Y15.264 Z12.221 A241.4779 B-1.5796 
N579 X-282.728 Y15.298 Z11.967 A240.2701 B-1.6175 
N580 X-282.740 Y15.323 Z11.702 A239.0979 B-1.6535 
N581 X-282.754 Y15.338 Z11.429 A237.9607 B-1.6866 
N582 X-282.769 Y15.345 Z11.147 A236.8563 B-1.7192 
N583 X-282.785 Y15.341 Z10.857 A235.7808 B-1.7491 
N584 X-282.803 Y15.329 Z10.560 A234.7312 B-1.7784 
N585 X-282.823 Y15.309 Z10.257 A233.7057 B-1.8076 
N586 X-282.843 Y15.279 Z9.949 A232.7028 B-1.8332 
N587 X-282.865 Y15.241 Z9.636 A231.7213 B-1.8593 
N588 X-282.888 Y15.195 Z9.319 A230.7586 B-1.8844 
N589 X-282.912 Y15.142 Z9.000 A229.8109 B-1.9070 
N590 X-282.937 Y15.082 Z8.678 A228.8733 B-1.9292 
N591 X-282.962 Y15.015 Z8.354 A227.9404 B-1.9516 
N592 X-282.988 Y14.942 Z8.029 A227.0068 B-1.9736 
N593 X-283.015 Y14.863 Z7.703 A226.0679 B-1.9947 
N594 X-283.043 Y14.779 Z7.377 A225.1207 B-2.0153 
N595 X-283.070 Y14.690 Z7.052 A224.1637 B-2.0369 
N596 X-283.099 Y14.595 Z6.727 A223.1959 B-2.0578 
N597 X-283.127 Y14.496 Z6.403 A222.2171 B-2.0775 
N598 X-283.156 Y14.392 Z6.081 A221.2272 B-2.0974 
N599 X-283.185 Y14.284 Z5.762 A220.2256 B-2.1169 
N600 X-283.215 Y14.171 Z5.445 A219.2113 B-2.1357 
N601 X-283.244 Y14.054 Z5.131 A218.1826 B-2.1541 
N602 X-283.274 Y13.934 Z4.820 A217.1376 B-2.1722 
N603 X-283.303 Y13.810 Z4.512 A216.0744 B-2.1898 
N604 X-283.333 Y13.682 Z4.207 A214.9915 B-2.2071 
N605 X-283.363 Y13.551 Z3.906 A213.8877 B-2.2239 
N606 X-283.393 Y13.417 Z3.608 A212.7620 B-2.2402 
N607 X-283.423 Y13.280 Z3.315 A211.6138 B-2.2560 
N608 X-283.453 Y13.139 Z3.025 A210.4429 B-2.2711 
N609 X-283.482 Y12.995 Z2.739 A209.2491 B-2.2856 
N610 X-283.512 Y12.848 Z2.457 A208.0327 B-2.2994 
N611 X-283.542 Y12.697 Z2.179 A206.7937 B-2.3124 
N612 X-283.572 Y12.544 Z1.905 A205.5326 B-2.3245 
N613 X-283.601 Y12.387 Z1.636 A204.2497 B-2.3357 
N614 X-283.631 Y12.227 Z1.371 A202.9455 B-2.3459 
N615 X-283.661 Y12.063 Z1.110 A201.6206 B-2.3550 
N616 X-283.690 Y11.896 Z0.854 A200.2757 B-2.3629 
N617 X-283.720 Y11.725 Z0.602 A198.9117 B-2.3697 
N618 X-283.750 Y11.551 Z0.355 A197.5293 B-2.3753 
N619 X-283.780 Y11.374 Z0.112 A196.1297 B-2.3794 
N620 X-283.809 Y11.192 Z-0.126 A194.7139 B-2.3822 
N621 X-283.839 Y11.006 Z-0.359 A193.2833 B-2.3836 
N622 X-283.869 Y10.817 Z-0.587 A191.8390 B-2.3836 
N623 X-283.899 Y10.623 Z-0.811 A190.3825 B-2.3819 
N624 X-283.929 Y10.426 Z-1.029 A188.9149 B-2.3787 
N625 X-283.959 Y10.224 Z-1.242 A187.4378 B-2.3740 
N626 X-283.990 Y10.017 Z-1.450 A185.9526 B-2.3677 
N627 X-284.020 Y9.806 Z-1.653 A184.4608 B-2.3598 
N628 X-284.051 Y9.591 Z-1.850 A182.9640 B-2.3502 
N629 X-284.081 Y9.371 Z-2.041 A181.4639 B-2.3390 
N630 X-284.112 Y9.146 Z-2.227 A179.9621 B-2.3262 
N631 X-284.143 Y8.917 Z-2.406 A178.4604 B-2.3119 
N632 X-284.174 Y8.683 Z-2.580 A176.9605 B-2.2960 
N633 X-284.206 Y8.444 Z-2.747 A175.4640 B-2.2785 
N634 X-284.237 Y8.200 Z-2.907 A173.9726 B-2.2596 
N635 X-284.269 Y7.951 Z-3.061 A172.4877 B-2.2393 
N636 X-284.300 Y7.697 Z-3.208 A171.0111 B-2.2177 
N637 X-284.332 Y7.439 Z-3.349 A169.5442 B-2.1946 
N638 X-284.364 Y7.175 Z-3.482 A168.0887 B-2.1703 
N639 X-284.396 Y6.907 Z-3.607 A166.6460 B-2.1450 
N640 X-284.428 Y6.634 Z-3.725 A165.2178 B-2.1185 
N641 X-284.461 Y6.356 Z-3.836 A163.8054 B-2.0910 
N642 X-284.493 Y6.074 Z-3.938 A162.4104 B-2.0626 
N643 X-284.526 Y5.787 Z-4.033 A161.0339 B-2.0334 
N644 X-284.558 Y5.495 Z-4.120 A159.6772 B-2.0036 
N645 X-284.591 Y5.199 Z-4.198 A158.3415 B-1.9730 
N646 X-284.623 Y4.899 Z-4.268 A157.0276 B-1.9418 
N647 X-284.656 Y4.594 Z-4.329 A155.7367 B-1.9103 
N648 X-284.688 Y4.286 Z-4.382 A154.4695 B-1.8784 
N649 X-284.721 Y3.973 Z-4.426 A153.2269 B-1.8462 
N650 X-284.753 Y3.656 Z-4.461 A152.0095 B-1.8138 
N651 X-284.786 Y3.336 Z-4.487 A150.8181 B-1.7814 
N652 X-284.818 Y3.012 Z-4.505 A149.6532 B-1.7489 
N653 X-284.850 Y2.685 Z-4.514 A148.5150 B-1.7164 
N654 X-284.882 Y2.355 Z-4.513 A147.4041 B-1.6841 
N655 X-284.914 Y2.021 Z-4.504 A146.3205 B-1.6519 
N656 X-284.946 Y1.685 Z-4.486 A145.2644 B-1.6200 
N657 X-284.977 Y1.345 Z-4.460 A144.2359 B-1.5884 
N658 X-285.008 Y1.003 Z-4.424 A143.2352 B-1.5572 
N659 X-285.040 Y0.658 Z-4.380 A142.2619 B-1.5264 
N660 X-285.070 Y0.311 Z-4.327 A141.3161 B-1.4960 
N661 X-285.101 Y-0.038 Z-4.265 A140.3974 B-1.4662 
N662 X-285.131 Y-0.389 Z-4.195 A139.5054 B-1.4368 
N663 X-285.161 Y-0.743 Z-4.117 A138.6397 B-1.4080 
N664 X-285.191 Y-1.098 Z-4.030 A137.7998 B-1.3797 
N665 X-285.221 Y-1.455 Z-3.935 A136.9850 B-1.3520 
N666 X-285.250 Y-1.813 Z-3.832 A136.1948 B-1.3248 
N667 X-285.279 Y-2.174 Z-3.721 A135.4287 B-1.2982 
N668 X-285.308 Y-2.535 Z-3.603 A134.6865 B-1.2722 
N669 X-285.336 Y-2.898 Z-3.477 A133.9680 B-1.2467 
N670 X-285.364 Y-3.262 Z-3.343 A133.2732 B-1.2219 
N671 X-285.392 Y-3.627 Z-3.202 A132.6024 B-1.1978 
N672 X-285.420 Y-3.993 Z-3.053 A131.9557 B-1.1743 
N673 X-285.447 Y-4.360 Z-2.897 A131.3332 B-1.1517 
N674 X-285.473 Y-4.727 Z-2.735 A130.7348 B-1.1298 
N675 X-285.500 Y-5.096 Z-2.565 A130.1601 B-1.1087 
N676 X-285.526 Y-5.465 Z-2.389 A129.6086 B-1.0884 
N677 X-285.552 Y-5.834 Z-2.206 A129.0797 B-1.0688 
N678 X-285.577 Y-6.204 Z-2.017 A128.5725 B-1.0500 
N679 X-285.602 Y-6.574 Z-1.822 A128.0864 B-1.0319 
N680 X-285.627 Y-6.945 Z-1.621 A127.6205 B-1.0145 
N681 X-285.652 Y-7.316 Z-1.414 A127.1741 B-0.9977 
N682 X-285.676 Y-7.688 Z-1.201 A126.7464 B-0.9815 
N683 X-285.700 Y-8.060 Z-0.984 A126.3369 B-0.9660 
N684 X-285.723 Y-8.432 Z-0.761 A125.9448 B-0.9511 
N685 X-285.747 Y-8.804 Z-0.533 A125.5697 B-0.9368 
N686 X-285.770 Y-9.177 Z-0.300 A125.2111 B-0.9231 
N687 X-285.793 Y-9.550 Z-0.063 A124.8686 B-0.9099 
N688 X-285.815 Y-9.923 Z0.179 A124.5417 B-0.8974 
N689 X-285.838 Y-10.297 Z0.426 A124.2301 B-0.8853 
N690 X-285.860 Y-10.670 Z0.676 A123.9335 B-0.8738 
N691 X-285.882 Y-11.044 Z0.931 A123.6517 B-0.8629 
N692 X-285.903 Y-11.417 Z1.190 A123.3845 B-0.8525 
N693 X-285.925 Y-11.791 Z1.452 A123.1318 B-0.8426 
N694 X-285.946 Y-12.164 Z1.718 A122.8935 B-0.8333 
N695 X-285.967 Y-12.537 Z1.987 A122.6695 B-0.8245 
N696 X-285.988 Y-12.910 Z2.259 A122.4596 B-0.8163 
N697 X-286.008 Y-13.282 Z2.534 A122.2634 B-0.8087 
N698 X-286.028 Y-13.653 Z2.811 A122.0807 B-0.8016 
N699 X-286.048 Y-14.022 Z3.090 A121.9108 B-0.7950 
N700 X-286.068 Y-14.389 Z3.369 A121.7533 B-0.7889 
N701 X-286.088 Y-14.754 Z3.650 A121.6077 B-0.7832 
N702 X-286.107 Y-15.115 Z3.929 A121.4735 B-0.7780 
N703 X-286.125 Y-15.471 Z4.207 A121.3506 B-0.7731 
N704 X-286.144 Y-15.820 Z4.482 A121.2386 B-0.7689 
N705 X-286.161 Y-16.163 Z4.753 A121.1373 B-0.7649 
N706 X-286.179 Y-16.496 Z5.018 A121.0465 B-0.7611 
N707 X-286.195 Y-16.818 Z5.276 A120.9658 B-0.7584 
N708 X-286.211 Y-17.128 Z5.526 A120.8944 B-0.7554 
N709 X-286.226 Y-17.423 Z5.765 A120.8314 B-0.7531 
N710 X-286.240 Y-17.702 Z5.992 A120.7760 B-0.7515 
N711 X-286.253 Y-17.964 Z6.205 A120.7269 B-0.7496 
N712 X-286.266 Y-18.207 Z6.404 A120.6831 B-0.7479 
N713 X-286.277 Y-18.430 Z6.588 A120.6438 B-0.7471 
N714 X-286.287 Y-18.633 Z6.755 A120.6078 B-0.7452 
N715 X-286.296 Y-18.815 Z6.905 A120.5741 B-0.7447 
N716 X-286.304 Y-18.977 Z7.039 A120.5411 B-0.7436 
N717 X-286.311 Y-19.119 Z7.156 A120.5068 B-0.7429 
N718 X-286.318 Y-19.242 Z7.258 A120.4681 B-0.7428 
N719 X-286.323 Y-19.347 Z7.345 A120.4203 B-0.7416 
N720 X-286.327 Y-19.438 Z7.417 A120.3578 B-0.7404 
N721 X-286.332 Y-19.514 Z7.477 A120.2753 B-0.7371 
N722 X-286.336 Y-19.583 Z7.523 A120.1140 B-0.7282 
N723 X-286.343 Y-19.660 Z7.548 A119.6144 B-0.7067 
N724 X-286.355 Y-19.772 Z7.539 A118.3674 B-0.6562 
N725 X-286.376 Y-19.960 Z7.479 A115.8105 B-0.5537 
N726 X-286.413 Y-20.277 Z7.364 A111.1943 B-0.3727 
N727 X-286.464 Y-20.705 Z7.234 A104.9750 B-0.1213 
N728 X-286.523 Y-21.155 Z7.146 A98.5898 B0.1707 
N729 X-286.582 Y-21.601 Z7.106 A92.3200 B0.4649 
N730 X-286.632 Y-22.030 Z7.113 A86.3224 B0.7218 
N731 X-286.672 Y-22.408 Z7.156 A80.9941 B0.9308 
N732 X-286.706 Y-22.733 Z7.222 A76.3494 B1.1025 
N733 X-286.733 Y-23.007 Z7.300 A72.3585 B1.2436 
N734 X-286.756 Y-23.255 Z7.389 A68.6778 B1.3644 
N735 X-286.776 Y-23.478 Z7.486 A65.2655 B1.4703 
N736 X-286.794 Y-23.682 Z7.589 A62.0736 B1.5648 
N737 X-286.810 Y-23.869 Z7.697 A59.0552 B1.6509 
N738 X-286.825 Y-24.042 Z7.809 A56.1689 B1.7302 
N739 X-286.838 Y-24.204 Z7.926 A53.3807 B1.8038 
N740 X-286.851 Y-24.355 Z8.047 A50.6633 B1.8725 
N741 X-286.863 Y-24.498 Z8.174 A47.9958 B1.9367 
N742 X-286.874 Y-24.634 Z8.305 A45.3625 B1.9964 
N743 X-286.884 Y-24.761 Z8.441 A42.7513 B2.0519 
N744 X-286.893 Y-24.882 Z8.582 A40.1530 B2.1030 
N745 X-286.901 Y-24.996 Z8.728 A37.5606 B2.1499 
N746 X-286.909 Y-25.104 Z8.879 A34.9681 B2.1924 
N747 X-286.915 Y-25.204 Z9.034 A32.3705 B2.2303 
N748 X-286.921 Y-25.298 Z9.195 A29.7623 B2.2634 
N749 X-286.926 Y-25.385 Z9.361 A27.1374 B2.2917 
N750 X-286.930 Y-25.465 Z9.532 A24.4877 B2.3153 
N751 X-286.933 Y-25.538 Z9.708 A21.8026 B2.3341 
N752 X-286.935 Y-25.604 Z9.891 A19.0680 B2.3482 
N753 X-286.936 Y-25.663 Z10.082 A16.2647 B2.3574 
N754 X-286.936 Y-25.714 Z10.281 A13.3670 B2.3613 
N755 X-286.935 Y-25.757 Z10.492 A10.3415 B2.3595 
N756 X-286.933 Y-25.791 Z10.716 A7.1455 B2.3514 
N757 X-286.930 Y-25.814 Z10.957 A3.7264 B2.3357 
N758 X-286.925 Y-25.822 Z11.219 A0.0236 B2.3103 
N759 X-286.917 Y-25.813 Z11.506 A355.9719 B2.2716 
N760 X-286.906 Y-25.779 Z11.820 A351.5128 B2.2186 
N761 X-286.891 Y-25.714 Z12.161 A346.6170 B2.1465 
N762 X-286.868 Y-25.610 Z12.523 A341.2976 B2.0418 
N763 X-286.836 Y-25.463 Z12.895 A335.6520 B1.8886 
N764 X-286.796 Y-25.273 Z13.258 A329.8838 B1.7050 
N765 X-286.755 Y-25.049 Z13.590 A324.2639 B1.5186 
N766 X-286.718 Y-24.817 Z13.859 A319.3310 B1.3541 
N767 X-286.693 Y-24.630 Z14.024 A315.9576 B1.2441 
N768 X-286.678 Y-24.500 Z14.099 A314.0931 B1.1839 
N769 X-286.669 Y-24.392 Z14.129 A312.9402 B1.1567 
N770 X-286.662 Y-24.302 Z14.124 A312.3589 B1.1470 
N771 X-286.658 Y-24.210 Z14.101 A312.0047 B1.1484 
N772 X-286.652 Y-24.111 Z14.061 A311.8153 B1.1503 
N773 X-286.646 Y-24.002 Z14.007 A311.7412 B1.1555 
N774 X-286.639 Y-23.880 Z13.939 A311.7473 B1.1604 
N775 X-286.630 Y-23.741 Z13.859 A311.8112 B1.1649 
N776 X-286.620 Y-23.585 Z13.767 A311.9197 B1.1711 
N777 X-286.609 Y-23.411 Z13.662 A312.0648 B1.1770 
N778 X-286.596 Y-23.218 Z13.546 A312.2417 B1.1838 
N779 X-286.583 Y-23.006 Z13.418 A312.4472 B1.1926 
N780 X-286.568 Y-22.776 Z13.281 A312.6790 B1.2001 
N781 X-286.551 Y-22.529 Z13.133 A312.9364 B1.2098 
N782 X-286.534 Y-22.266 Z12.977 A313.2192 B1.2200 
N783 X-286.516 Y-21.988 Z12.814 A313.5285 B1.2302 
N784 X-286.496 Y-21.699 Z12.644 A313.8658 B1.2420 
N785 X-286.476 Y-21.398 Z12.470 A314.2323 B1.2554 
N786 X-286.456 Y-21.089 Z12.291 A314.6290 B1.2695 
N787 X-286.434 Y-20.773 Z12.109 A315.0554 B1.2842 
N788 X-286.412 Y-20.451 Z11.926 A315.5105 B1.3012 
N789 X-286.390 Y-20.125 Z11.743 A315.9920 B1.3182 
N790 X-286.367 Y-19.796 Z11.560 A316.4977 B1.3360 
N791 X-286.344 Y-19.465 Z11.378 A317.0255 B1.3545 
N792 X-286.321 Y-19.133 Z11.199 A317.5741 B1.3734 
N793 X-286.298 Y-18.801 Z11.021 A318.1427 B1.3927 
N794 X-286.274 Y-18.469 Z10.847 A318.7310 B1.4126 
N795 X-286.250 Y-18.137 Z10.675 A319.3385 B1.4330 
N796 X-286.226 Y-17.806 Z10.507 A319.9651 B1.4539 
N797 X-286.201 Y-17.477 Z10.342 A320.6102 B1.4752 
N798 X-286.177 Y-17.149 Z10.181 A321.2733 B1.4969 
N799 X-286.152 Y-16.822 Z10.023 A321.9539 B1.5189 
N800 X-286.128 Y-16.497 Z9.869 A322.6514 B1.5412 
N801 X-286.103 Y-16.173 Z9.720 A323.3658 B1.5638 
N802 X-286.078 Y-15.851 Z9.574 A324.0967 B1.5867 
N803 X-286.053 Y-15.530 Z9.432 A324.8441 B1.6097 
N804 X-286.027 Y-15.210 Z9.294 A325.6079 B1.6330 
N805 X-286.002 Y-14.892 Z9.160 A326.3882 B1.6566 
N806 X-285.976 Y-14.576 Z9.030 A327.1847 B1.6803 
N807 X-285.950 Y-14.260 Z8.904 A327.9972 B1.7041 
N808 X-285.924 Y-13.946 Z8.782 A328.8256 B1.7281 
N809 X-285.898 Y-13.633 Z8.665 A329.6693 B1.7521 
N810 X-285.871 Y-13.320 Z8.551 A330.5279 B1.7762 
N811 X-285.845 Y-13.009 Z8.442 A331.4007 B1.8003 
N812 X-285.818 Y-12.698 Z8.337 A332.2872 B1.8243 
N813 X-285.790 Y-12.389 Z8.236 A333.1866 B1.8483 
N814 X-285.763 Y-12.079 Z8.139 A334.0979 B1.8721 
N815 X-285.735 Y-11.770 Z8.047 A335.0202 B1.8957 
N816 X-285.707 Y-11.461 Z7.960 A335.9526 B1.9191 
N817 X-285.678 Y-11.152 Z7.877 A336.8939 B1.9422 
N818 X-285.649 Y-10.843 Z7.799 A337.8428 B1.9649 
N819 X-285.620 Y-10.534 Z7.725 A338.7983 B1.9873 
N820 X-285.590 Y-10.224 Z7.657 A339.7588 B2.0092 
N821 X-285.560 Y-9.913 Z7.593 A340.7229 B2.0307 
N822 X-285.530 Y-9.602 Z7.535 A341.6893 B2.0516 
N823 X-285.499 Y-9.290 Z7.482 A342.6563 B2.0720 
N824 X-285.467 Y-8.976 Z7.434 A343.6224 B2.0918 
N825 X-285.435 Y-8.661 Z7.392 A344.5859 B2.1109 
N826 X-285.402 Y-8.344 Z7.355 A345.5450 B2.1293 
N827 X-285.369 Y-8.026 Z7.325 A346.4982 B2.1471 
N828 X-285.335 Y-7.705 Z7.300 A347.4437 B2.1641 
N829 X-285.301 Y-7.382 Z7.282 A348.3796 B2.1804 
N830 X-285.266 Y-7.057 Z7.270 A349.3045 B2.1959 
N831 X-285.230 Y-6.729 Z7.265 A350.2164 B2.2106 
N832 X-285.193 Y-6.398 Z7.266 A351.1137 B2.2246 
N833 X-285.156 Y-6.064 Z7.274 A351.9945 B2.2378 
N834 X-285.118 Y-5.727 Z7.290 A352.8568 B2.2502 
N835 X-285.079 Y-5.386 Z7.313 A353.6985 B2.2619 
N836 X-285.039 Y-5.042 Z7.343 A354.5172 B2.2728 
N837 X-284.998 Y-4.693 Z7.381 A355.3103 B2.2829 
N838 X-284.957 Y-4.340 Z7.428 A356.0750 B2.2923 
N839 X-284.914 Y-3.983 Z7.483 A356.8080 B2.3010 
N840 X-284.871 Y-3.622 Z7.547 A357.5056 B2.3089 
N841 X-284.827 Y-3.256 Z7.619 A358.1641 B2.3161 
N842 X-284.781 Y-2.885 Z7.700 A358.7792 B2.3225 
N843 X-284.735 Y-2.511 Z7.791 A359.3466 B2.3282 
N844 X-284.688 Y-2.132 Z7.891 A359.8621 B2.3332 
N845 X-284.640 Y-1.749 Z8.000 A0.3221 B2.3375 
N846 X-284.591 Y-1.362 Z8.118 A0.7231 B2.3411 
N847 X-284.541 Y-0.973 Z8.244 A1.0629 B2.3441 
N848 X-284.491 Y-0.581 Z8.378 A1.3399 B2.3464 
N849 X-284.441 Y-0.188 Z8.519 A1.5533 B2.3481 
N850 X-284.390 Y0.206 Z8.666 A1.7033 B2.3492 
N851 X-284.339 Y0.600 Z8.818 A1.7908 B2.3499 
N852 X-284.287 Y0.993 Z8.975 A1.8171 B2.3501 
N853 X-284.236 Y1.384 Z9.135 A1.7835 B2.3495 
N854 X-284.186 Y1.770 Z9.298 A1.6914 B2.3493 
N855 X-284.136 Y2.153 Z9.461 A1.5408 B2.3480 
N856 X-284.087 Y2.529 Z9.626 A1.3306 B2.3455 
N857 X-284.039 Y2.898 Z9.790 A1.0588 B2.3447 
N858 X-283.991 Y3.259 Z9.953 A0.7209 B2.3412 
N859 X-283.945 Y3.611 Z10.116 A0.3124 B2.3373 
N860 X-283.901 Y3.953 Z10.277 A359.8292 B2.3338 
N861 X-283.857 Y4.284 Z10.436 A359.2672 B2.3293 
N862 X-283.815 Y4.604 Z10.593 A358.6243 B2.3214 
N863 X-283.775 Y4.912 Z10.748 A357.9008 B2.3157 
N864 X-283.737 Y5.208 Z10.899 A357.0968 B2.3057 
N865 X-283.700 Y5.493 Z11.047 A356.2137 B2.2962 
N866 X-283.665 Y5.764 Z11.192 A355.2512 B2.2845 
N867 X-283.631 Y6.024 Z11.333 A354.2089 B2.2712 
N868 X-283.599 Y6.271 Z11.471 A353.0876 B2.2563 
N869 X-283.569 Y6.507 Z11.606 A351.8907 B2.2380 
N870 X-283.541 Y6.731 Z11.738 A350.6237 B2.2199 
N871 X-283.513 Y6.943 Z11.866 A349.2869 B2.1978 
N872 X-283.488 Y7.145 Z11.993 A347.8747 B2.1758 
N873 X-283.464 Y7.338 Z12.119 A346.3757 B2.1502 
N874 X-283.440 Y7.521 Z12.245 A344.7800 B2.1210 
N875 X-283.418 Y7.698 Z12.371 A343.0804 B2.0881 
N876 X-283.397 Y7.867 Z12.500 A341.2709 B2.0515 
N877 X-283.375 Y8.032 Z12.630 A339.3445 B2.0096 
N878 X-283.355 Y8.194 Z12.763 A337.2932 B1.9639 
N879 X-283.334 Y8.354 Z12.900 A335.1086 B1.9113 
N880 X-283.314 Y8.515 Z13.039 A332.7852 B1.8513 
N881 X-283.292 Y8.677 Z13.182 A330.3228 B1.7852 
N882 X-283.270 Y8.843 Z13.327 A327.7282 B1.7091 
N883 X-283.248 Y9.013 Z13.472 A325.0164 B1.6252 
N884 X-283.224 Y9.189 Z13.617 A322.2082 B1.5348 
N885 X-283.200 Y9.370 Z13.758 A319.3256 B1.4383 
N886 X-283.176 Y9.556 Z13.894 A316.3899 B1.3365 
N887 X-283.151 Y9.748 Z14.023 A313.4191 B1.2302 
N888 X-283.127 Y9.944 Z14.145 A310.4264 B1.1206 
N889 X-283.102 Y10.146 Z14.258 A307.4201 B1.0091 
N890 X-283.077 Y10.352 Z14.362 A304.4039 B0.8955 
N891 X-283.052 Y10.564 Z14.456 A301.3775 B0.7789 
N892 X-283.026 Y10.780 Z14.540 A298.3380 B0.6587 
N893 X-283.000 Y11.001 Z14.614 A295.2818 B0.5357 
N894 X-282.975 Y11.227 Z14.675 A292.2054 B0.4117 
N895 X-282.949 Y11.459 Z14.725 A289.1074 B0.2855 
N896 X-282.922 Y11.694 Z14.762 A285.9897 B0.1559 
N897 X-282.896 Y11.933 Z14.784 A282.8592 B0.0218 
N898 X-282.869 Y12.175 Z14.792 A279.7287 B-0.1145 
N899 X-282.843 Y12.416 Z14.784 A276.6170 B-0.2487 
N900 X-282.818 Y12.655 Z14.759 A273.5483 B-0.3806 
N901 X-282.794 Y12.888 Z14.717 A270.5503 B-0.5098 
N902 X-282.771 Y13.114 Z14.658 A267.6526 B-0.6347 
N903 X-282.751 Y13.328 Z14.583 A264.8828 B-0.7517 
N904 X-282.733 Y13.530 Z14.493 A262.2638 B-0.8587 
N905 X-282.718 Y13.717 Z14.388 A259.8092 B-0.9536 
N906 X-282.706 Y13.888 Z14.270 A257.5225 B-1.0415 
N907 X-282.696 Y14.045 Z14.139 A255.3981 B-1.1193 
N908 X-282.689 Y14.187 Z13.996 A253.4248 B-1.1890 
N909 X-282.684 Y14.316 Z13.841 A251.5891 B-1.2535 
N910 X-282.682 Y14.431 Z13.674 A249.8766 B-1.3118 
N911 X-282.681 Y14.534 Z13.495 A248.2749 B-1.3657 
N912 X-282.682 Y14.625 Z13.304 A246.7721 B-1.4151 
N913 X-282.686 Y14.705 Z13.102 A245.3556 B-1.4600 
N914 X-282.691 Y14.775 Z12.889 A244.0110 B-1.5017 
N915 X-282.698 Y14.834 Z12.664 A242.7227 B-1.5414 
N916 X-282.706 Y14.885 Z12.427 A241.4779 B-1.5796 
N917 X-282.716 Y14.926 Z12.179 A240.2701 B-1.6175 
N918 X-282.728 Y14.958 Z11.921 A239.0979 B-1.6535 
N919 X-282.741 Y14.980 Z11.653 A237.9607 B-1.6866 
N920 X-282.756 Y14.993 Z11.377 A236.8563 B-1.7192 
N921 X-282.773 Y14.997 Z11.092 A235.7808 B-1.7491 
N922 X-282.791 Y14.991 Z10.799 A234.7312 B-1.7784 
N923 X-282.810 Y14.977 Z10.500 A233.7057 B-1.8076 
N924 X-282.830 Y14.954 Z10.196 A232.7028 B-1.8332 
N925 X-282.852 Y14.923 Z9.887 A231.7213 B-1.8593 
N926 X-282.875 Y14.884 Z9.574 A230.7586 B-1.8844 
N927 X-282.899 Y14.837 Z9.257 A229.8109 B-1.9070 
N928 X-282.923 Y14.783 Z8.938 A228.8733 B-1.9292 
N929 X-282.949 Y14.723 Z8.618 A227.9404 B-1.9516 
N930 X-282.975 Y14.656 Z8.295 A227.0068 B-1.9736 
N931 X-283.002 Y14.584 Z7.972 A226.0679 B-1.9947 
N932 X-283.029 Y14.507 Z7.649 A225.1207 B-2.0153 
N933 X-283.057 Y14.424 Z7.325 A224.1637 B-2.0369 
N934 X-283.085 Y14.336 Z7.002 A223.1959 B-2.0578 
N935 X-283.114 Y14.244 Z6.681 A222.2171 B-2.0775 
N936 X-283.142 Y14.147 Z6.361 A221.2272 B-2.0974 
N937 X-283.171 Y14.045 Z6.044 A220.2256 B-2.1169 
N938 X-283.201 Y13.939 Z5.729 A219.2113 B-2.1357 
N939 X-283.230 Y13.830 Z5.417 A218.1826 B-2.1541 
N940 X-283.260 Y13.716 Z5.107 A217.1376 B-2.1722 
N941 X-283.290 Y13.599 Z4.801 A216.0744 B-2.1898 
N942 X-283.320 Y13.479 Z4.498 A214.9915 B-2.2071 
N943 X-283.349 Y13.355 Z4.198 A213.8877 B-2.2239 
N944 X-283.379 Y13.228 Z3.902 A212.7620 B-2.2402 
N945 X-283.409 Y13.098 Z3.609 A211.6138 B-2.2560 
N946 X-283.439 Y12.965 Z3.320 A210.4429 B-2.2711 
N947 X-283.469 Y12.829 Z3.035 A209.2491 B-2.2856 
N948 X-283.499 Y12.689 Z2.754 A208.0327 B-2.2994 
N949 X-283.528 Y12.547 Z2.477 A206.7937 B-2.3124 
N950 X-283.558 Y12.401 Z2.204 A205.5326 B-2.3245 
N951 X-283.588 Y12.252 Z1.935 A204.2497 B-2.3357 
N952 X-283.618 Y12.100 Z1.670 A202.9455 B-2.3459 
N953 X-283.647 Y11.944 Z1.410 A201.6206 B-2.3550 
N954 X-283.677 Y11.785 Z1.153 A200.2757 B-2.3629 
N955 X-283.707 Y11.623 Z0.901 A198.9117 B-2.3697 
N956 X-283.737 Y11.457 Z0.654 A197.5293 B-2.3753 
N957 X-283.767 Y11.287 Z0.410 A196.1297 B-2.3794 
N958 X-283.797 Y11.114 Z0.172 A194.7139 B-2.3822 
N959 X-283.827 Y10.937 Z-0.063 A193.2833 B-2.3836 
N960 X-283.857 Y10.755 Z-0.292 A191.8390 B-2.3836 
N961 X-283.887 Y10.570 Z-0.517 A190.3825 B-2.3819 
N962 X-283.917 Y10.380 Z-0.737 A188.9149 B-2.3787 
N963 X-283.947 Y10.186 Z-0.952 A187.4378 B-2.3740 
N964 X-283.978 Y9.987 Z-1.162 A185.9526 B-2.3677 
N965 X-284.008 Y9.784 Z-1.367 A184.4608 B-2.3598 
N966 X-284.039 Y9.576 Z-1.566 A182.9640 B-2.3502 
N967 X-284.070 Y9.364 Z-1.760 A181.4639 B-2.3390 
N968 X-284.101 Y9.147 Z-1.949 A179.9621 B-2.3262 
N969 X-284.132 Y8.924 Z-2.131 A178.4604 B-2.3119 
N970 X-284.163 Y8.697 Z-2.308 A176.9605 B-2.2960 
N971 X-284.195 Y8.465 Z-2.478 A175.4640 B-2.2785 
N972 X-284.226 Y8.228 Z-2.643 A173.9726 B-2.2596 
N973 X-284.258 Y7.985 Z-2.800 A172.4877 B-2.2393 
N974 X-284.290 Y7.738 Z-2.951 A171.0111 B-2.2177 
N975 X-284.322 Y7.486 Z-3.096 A169.5442 B-2.1946 
N976 X-284.354 Y7.228 Z-3.233 A168.0887 B-2.1703 
N977 X-284.387 Y6.965 Z-3.363 A166.6460 B-2.1450 
N978 X-284.419 Y6.697 Z-3.485 A165.2178 B-2.1185 
N979 X-284.452 Y6.425 Z-3.600 A163.8054 B-2.0910 
N980 X-284.484 Y6.147 Z-3.707 A162.4104 B-2.0626 
N981 X-284.517 Y5.865 Z-3.807 A161.0339 B-2.0334 
N982 X-284.550 Y5.577 Z-3.898 A159.6772 B-2.0036 
N983 X-284.583 Y5.285 Z-3.981 A158.3415 B-1.9730 
N984 X-284.615 Y4.989 Z-4.055 A157.0276 B-1.9418 
N985 X-284.648 Y4.688 Z-4.121 A155.7367 B-1.9103 
N986 X-284.681 Y4.382 Z-4.179 A154.4695 B-1.8784 
N987 X-284.714 Y4.073 Z-4.228 A153.2269 B-1.8462 
N988 X-284.746 Y3.759 Z-4.268 A152.0095 B-1.8138 
N989 X-284.779 Y3.441 Z-4.299 A150.8181 B-1.7814 
N990 X-284.811 Y3.120 Z-4.321 A149.6532 B-1.7489 
N991 X-284.844 Y2.795 Z-4.335 A148.5150 B-1.7164 
N992 X-284.876 Y2.466 Z-4.339 A147.4041 B-1.6841 
N993 X-284.908 Y2.134 Z-4.335 A146.3205 B-1.6519 
N994 X-284.940 Y1.799 Z-4.321 A145.2644 B-1.6200 
N995 X-284.972 Y1.461 Z-4.299 A144.2359 B-1.5884 
N996 X-285.003 Y1.120 Z-4.268 A143.2352 B-1.5572 
N997 X-285.034 Y0.776 Z-4.228 A142.2619 B-1.5264 
N998 X-285.065 Y0.430 Z-4.179 A141.3161 B-1.4960 
N999 X-285.096 Y0.081 Z-4.122 A140.3974 B-1.4662 
N1000 X-285.127 Y-0.270 Z-4.056 A139.5054 B-1.4368 
N1001 X-285.157 Y-0.623 Z-3.981 A138.6397 B-1.4080 
N1002 X-285.187 Y-0.979 Z-3.898 A137.7998 B-1.3797 
N1003 X-285.217 Y-1.336 Z-3.807 A136.9850 B-1.3520 
N1004 X-285.246 Y-1.695 Z-3.708 A136.1948 B-1.3248 
N1005 X-285.275 Y-2.055 Z-3.601 A135.4287 B-1.2982 
N1006 X-285.304 Y-2.417 Z-3.486 A134.6865 B-1.2722 
N1007 X-285.333 Y-2.781 Z-3.364 A133.9680 B-1.2467 
N1008 X-285.361 Y-3.146 Z-3.233 A133.2732 B-1.2219 
N1009 X-285.389 Y-3.512 Z-3.096 A132.6024 B-1.1978 
N1010 X-285.416 Y-3.879 Z-2.950 A131.9557 B-1.1743 
N1011 X-285.444 Y-4.247 Z-2.798 A131.3332 B-1.1517 
N1012 X-285.471 Y-4.615 Z-2.638 A130.7348 B-1.1298 
N1013 X-285.497 Y-4.985 Z-2.471 A130.1601 B-1.1087 
N1014 X-285.523 Y-5.355 Z-2.298 A129.6086 B-1.0884 
N1015 X-285.549 Y-5.726 Z-2.118 A129.0797 B-1.0688 
N1016 X-285.575 Y-6.097 Z-1.932 A128.5725 B-1.0500 
N1017 X-285.600 Y-6.469 Z-1.740 A128.0864 B-1.0319 
N1018 X-285.625 Y-6.842 Z-1.541 A127.6205 B-1.0145 
N1019 X-285.649 Y-7.215 Z-1.337 A127.1741 B-0.9977 
N1020 X-285.674 Y-7.588 Z-1.127 A126.7464 B-0.9815 
N1021 X-285.698 Y-7.962 Z-0.912 A126.3369 B-0.9660 
N1022 X-285.721 Y-8.336 Z-0.691 A125.9448 B-0.9511 
N1023 X-285.745 Y-8.711 Z-0.466 A125.5697 B-0.9368 
N1024 X-285.768 Y-9.085 Z-0.235 A125.2111 B-0.9231 
N1025 X-285.791 Y-9.460 Z-0.000 A124.8686 B-0.9099 
N1026 X-285.814 Y-9.836 Z0.240 A124.5417 B-0.8974 
N1027 X-285.836 Y-10.211 Z0.484 A124.2301 B-0.8853 
N1028 X-285.858 Y-10.587 Z0.733 A123.9335 B-0.8738 
N1029 X-285.880 Y-10.962 Z0.985 A123.6517 B-0.8629 
N1030 X-285.902 Y-11.338 Z1.242 A123.3845 B-0.8525 
N1031 X-285.923 Y-11.714 Z1.502 A123.1318 B-0.8426 
N1032 X-285.945 Y-12.090 Z1.766 A122.8935 B-0.8333 
N1033 X-285.966 Y-12.465 Z2.033 A122.6695 B-0.8245 
N1034 X-285.986 Y-12.840 Z2.304 A122.4596 B-0.8163 
N1035 X-286.007 Y-13.214 Z2.577 A122.2634 B-0.8087 
N1036 X-286.027 Y-13.588 Z2.852 A122.0807 B-0.8016 
N1037 X-286.047 Y-13.959 Z3.129 A121.9108 B-0.7950 
N1038 X-286.067 Y-14.329 Z3.407 A121.7533 B-0.7889 
N1039 X-286.087 Y-14.696 Z3.685 A121.6077 B-0.7832 
N1040 X-286.106 Y-15.059 Z3.963 A121.4735 B-0.7780 
N1041 X-286.125 Y-15.418 Z4.239 A121.3506 B-0.7731 
N1042 X-286.143 Y-15.770 Z4.513 A121.2386 B-0.7689 
N1043 X-286.161 Y-16.115 Z4.782 A121.1373 B-0.7649 
N1044 X-286.178 Y-16.450 Z5.046 A121.0465 B-0.7611 
N1045 X-286.194 Y-16.775 Z5.302 A120.9658 B-0.7584 
N1046 X-286.210 Y-17.087 Z5.550 A120.8944 B-0.7554 
N1047 X-286.225 Y-17.385 Z5.788 A120.8314 B-0.7531 
N1048 X-286.240 Y-17.667 Z6.013 A120.7760 B-0.7515 
N1049 X-286.253 Y-17.931 Z6.225 A120.7269 B-0.7496 
N1050 X-286.265 Y-18.177 Z6.422 A120.6831 B-0.7479 
N1051 X-286.276 Y-18.402 Z6.604 A120.6438 B-0.7471 
N1052 X-286.287 Y-18.608 Z6.770 A120.6078 B-0.7452 
N1053 X-286.296 Y-18.792 Z6.919 A120.5741 B-0.7447 
N1054 X-286.304 Y-18.956 Z7.051 A120.5411 B-0.7436 
N1055 X-286.311 Y-19.101 Z7.167 A120.5068 B-0.7429 
N1056 X-286.317 Y-19.226 Z7.267 A120.4681 B-0.7428 
N1057 X-286.323 Y-19.335 Z7.352 A120.4203 B-0.7416 
N1058 X-286.327 Y-19.427 Z7.423 A120.3578 B-0.7404 
N1059 X-286.332 Y-19.507 Z7.482 A120.2753 B-0.7371 
N1060 X-286.336 Y-19.577 Z7.526 A120.1140 B-0.7282 
N1061 X-286.343 Y-19.657 Z7.549 A119.6144 B-0.7067 
N1062 X-286.355 Y-19.772 Z7.539 A118.3674 B-0.6562 
N1063 X-286.376 Y-19.960 Z7.479 A115.8094 B-0.5536 
N1064 X-286.413 Y-20.277 Z7.363 A111.1901 B-0.3724 
N1065 X-286.464 Y-20.706 Z7.234 A104.9661 B-0.1207 
N1066 X-286.524 Y-21.156 Z7.146 A98.5765 B0.1716 
N1067 X-286.582 Y-21.603 Z7.106 A92.3026 B0.4660 
N1068 X-286.632 Y-22.031 Z7.113 A86.3014 B0.7229 
N1069 X-286.673 Y-22.410 Z7.156 A80.9703 B0.9320 
N1070 X-286.706 Y-22.735 Z7.222 A76.3237 B1.1038 
N1071 X-286.733 Y-23.009 Z7.301 A72.3314 B1.2449 
N1072 X-286.756 Y-23.256 Z7.390 A68.6495 B1.3657 
N1073 X-286.776 Y-23.480 Z7.487 A65.2360 B1.4716 
N1074 X-286.794 Y-23.684 Z7.590 A62.0429 B1.5662 
N1075 X-286.810 Y-23.871 Z7.698 A59.0233 B1.6522 
N1076 X-286.825 Y-24.044 Z7.810 A56.1360 B1.7315 
N1077 X-286.839 Y-24.206 Z7.927 A53.3466 B1.8051 
N1078 X-286.851 Y-24.357 Z8.049 A50.6280 B1.8738 
N1079 X-286.863 Y-24.500 Z8.175 A47.9593 B1.9379 
N1080 X-286.874 Y-24.635 Z8.307 A45.3248 B1.9977 
N1081 X-286.884 Y-24.763 Z8.443 A42.7123 B2.0531 
N1082 X-286.893 Y-24.884 Z8.584 A40.1127 B2.1043 
N1083 X-286.901 Y-24.998 Z8.730 A37.5188 B2.1511 
N1084 X-286.909 Y-25.105 Z8.881 A34.9249 B2.1935 
N1085 X-286.916 Y-25.206 Z9.037 A32.3257 B2.2314 
N1086 X-286.921 Y-25.300 Z9.198 A29.7158 B2.2645 
N1087 X-286.926 Y-25.386 Z9.364 A27.0890 B2.2927 
N1088 X-286.930 Y-25.466 Z9.535 A24.4371 B2.3162 
N1089 X-286.933 Y-25.540 Z9.712 A21.7495 B2.3350 
N1090 X-286.935 Y-25.606 Z9.895 A19.0119 B2.3490 
N1091 X-286.936 Y-25.664 Z10.086 A16.2047 B2.3581 
N1092 X-286.936 Y-25.715 Z10.286 A13.3023 B2.3619 
N1093 X-286.936 Y-25.758 Z10.497 A10.2709 B2.3600 
N1094 X-286.934 Y-25.792 Z10.721 A7.0674 B2.3517 
N1095 X-286.930 Y-25.814 Z10.963 A3.6390 B2.3358 
N1096 X-286.925 Y-25.822 Z11.226 A359.9246 B2.3102 
N1097 X-286.917 Y-25.812 Z11.514 A355.8591 B2.2710 
N1098 X-286.906 Y-25.778 Z11.829 A351.3850 B2.2176 
N1099 X-286.890 Y-25.712 Z12.170 A346.4742 B2.1448 
N1100 X-286.868 Y-25.607 Z12.533 A341.1401 B2.0386 
N1101 X-286.835 Y-25.458 Z12.906 A335.4869 B1.8840 
N1102 X-286.795 Y-25.267 Z13.268 A329.7204 B1.6999 
N1103 X-286.754 Y-25.042 Z13.598 A324.1130 B1.5136 
N1104 X-286.717 Y-24.811 Z13.865 A319.2075 B1.3506 
N1105 X-286.693 Y-24.625 Z14.028 A315.8700 B1.2425 
N1106 X-286.678 Y-24.495 Z14.101 A314.0345 B1.1838 
N1107 X-286.669 Y-24.389 Z14.130 A312.9029 B1.1575 
N1108 X-286.663 Y-24.298 Z14.124 A312.3349 B1.1485 
N1109 X-286.658 Y-24.206 Z14.100 A311.9902 B1.1502 
N1110 X-286.652 Y-24.107 Z14.059 A311.8073 B1.1525 
N1111 X-286.646 Y-23.998 Z14.005 A311.7377 B1.1581 
N1112 X-286.639 Y-23.875 Z13.937 A311.7469 B1.1635 
N1113 X-286.630 Y-23.736 Z13.856 A311.8131 B1.1685 
N1114 X-286.620 Y-23.580 Z13.763 A311.9233 B1.1754 
N1115 X-286.609 Y-23.405 Z13.658 A312.0698 B1.1821 
N1116 X-286.597 Y-23.211 Z13.542 A312.2479 B1.1900 
N1117 X-286.583 Y-22.999 Z13.414 A312.4544 B1.2000 
N1118 X-286.568 Y-22.768 Z13.276 A312.6871 B1.2090 
N1119 X-286.552 Y-22.521 Z13.128 A312.9453 B1.2206 
N1120 X-286.535 Y-22.257 Z12.972 A313.2290 B1.2329 
N1121 X-286.517 Y-21.979 Z12.809 A313.5391 B1.2457 
N1122 X-286.498 Y-21.689 Z12.639 A313.8772 B1.2607 
N1123 X-286.478 Y-21.389 Z12.464 A314.2447 B1.2778 
N1124 X-286.458 Y-21.080 Z12.285 A314.6421 B1.2964 
N1125 X-286.437 Y-20.763 Z12.104 A315.0694 B1.3165 
N1126 X-286.416 Y-20.442 Z11.921 A315.5251 B1.3399 
N1127 X-286.394 Y-20.116 Z11.738 A316.0072 B1.3643 
N1128 X-286.372 Y-19.787 Z11.555 A316.5134 B1.3908 
N1129 X-286.350 Y-19.457 Z11.374 A317.0416 B1.4194 
N1130 X-286.328 Y-19.125 Z11.194 A317.5906 B1.4497 
N1131 X-286.305 Y-18.793 Z11.017 A318.1595 B1.4823 
N1132 X-286.282 Y-18.461 Z10.843 A318.7479 B1.5171 
N1133 X-286.260 Y-18.130 Z10.672 A319.3557 B1.5542 
N1134 X-286.237 Y-17.800 Z10.504 A319.9825 B1.5938 
N1135 X-286.214 Y-17.471 Z10.339 A320.6278 B1.6357 
N1136 X-286.190 Y-17.144 Z10.179 A321.2910 B1.6800 
N1137 X-286.167 Y-16.818 Z10.021 A321.9717 B1.7266 
N1138 X-286.143 Y-16.493 Z9.868 A322.6695 B1.7754 
N1139 X-286.119 Y-16.170 Z9.719 A323.3840 B1.8261 
N1140 X-286.095 Y-15.848 Z9.573 A324.1152 B1.8786 
N1141 X-286.070 Y-15.528 Z9.432 A324.8628 B1.9326 
N1142 X-286.045 Y-15.209 Z9.294 A325.6269 B1.9875 
N1143 X-286.019 Y-14.891 Z9.161 A326.4075 B2.0435 
N1144 X-285.993 Y-14.575 Z9.031 A327.2042 B2.0994 
N1145 X-285.965 Y-14.260 Z8.906 A328.0170 B2.1550 
N1146 X-285.937 Y-13.946 Z8.784 A328.8456 B2.2102 
N1147 X-285.908 Y-13.633 Z8.667 A329.6894 B2.2638 
N1148 X-285.877 Y-13.321 Z8.554 A330.5479 B2.3156 
N1149 X-285.846 Y-13.010 Z8.445 A331.4207 B2.3654 
N1150 X-285.813 Y-12.700 Z8.340 A332.3069 B2.4123 
N1151 X-285.779 Y-12.391 Z8.239 A333.2057 B2.4562 
N1152 X-285.744 Y-12.082 Z8.143 A334.1163 B2.4969 
N1153 X-285.708 Y-11.773 Z8.051 A335.0377 B2.5341 
N1154 X-285.671 Y-11.464 Z7.964 A335.9690 B2.5677 
N1155 X-285.633 Y-11.156 Z7.881 A336.9089 B2.5978 
N1156 X-285.593 Y-10.848 Z7.803 A337.8564 B2.6244 
N1157 X-285.553 Y-10.539 Z7.730 A338.8102 B2.6475 
N1158 X-285.511 Y-10.229 Z7.661 A339.7689 B2.6673 
N1159 X-285.469 Y-9.920 Z7.598 A340.7312 B2.6843 
N1160 X-285.426 Y-9.609 Z7.539 A341.6956 B2.6984 
N1161 X-285.382 Y-9.297 Z7.486 A342.6606 B2.7099 
N1162 X-285.338 Y-8.984 Z7.438 A343.6247 B2.7194 
N1163 X-285.293 Y-8.670 Z7.396 A344.5863 B2.7269 
N1164 X-285.247 Y-8.354 Z7.359 A345.5436 B2.7325 
N1165 X-285.201 Y-8.036 Z7.328 A346.4950 B2.7368 
N1166 X-285.154 Y-7.716 Z7.304 A347.4388 B2.7398 
N1167 X-285.107 Y-7.394 Z7.285 A348.3732 B2.7417 
N1168 X-285.059 Y-7.070 Z7.273 A349.2967 B2.7429 
N1169 X-285.011 Y-6.742 Z7.267 A350.2074 B2.7434 
N1170 X-284.962 Y-6.413 Z7.268 A351.1037 B2.7432 
N1171 X-284.913 Y-6.079 Z7.276 A351.9836 B2.7427 
N1172 X-284.863 Y-5.743 Z7.291 A352.8454 B2.7419 
N1173 X-284.813 Y-5.403 Z7.313 A353.6867 B2.7408 
N1174 X-284.762 Y-5.060 Z7.343 A354.5054 B2.7396 
N1175 X-284.710 Y-4.712 Z7.381 A355.2988 B2.7382 
N1176 X-284.658 Y-4.360 Z7.427 A356.0641 B2.7367 
N1177 X-284.605 Y-4.004 Z7.481 A356.7980 B2.7351 
N1178 X-284.552 Y-3.644 Z7.544 A357.4971 B2.7335 
N1179 X-284.497 Y-3.279 Z7.615 A358.1575 B2.7318 
N1180 X-284.442 Y-2.910 Z7.696 A358.7750 B2.7301 
N1181 X-284.386 Y-2.536 Z7.786 A359.3455 B2.7283 
N1182 X-284.329 Y-2.158 Z7.884 A359.8646 B2.7263 
N1183 X-284.272 Y-1.776 Z7.992 A0.3286 B2.7243 
N1184 X-284.214 Y-1.391 Z8.109 A0.7343 B2.7222 
N1185 X-284.155 Y-1.003 Z8.234 A1.0791 B2.7200 
N1186 X-284.096 Y-0.612 Z8.367 A1.3614 B2.7177 
N1187 X-284.037 Y-0.220 Z8.507 A1.5805 B2.7152 
N1188 X-283.977 Y0.174 Z8.653 A1.7362 B2.7120 
N1189 X-283.916 Y0.567 Z8.805 A1.8291 B2.7054 
N1190 X-283.856 Y0.959 Z8.961 A1.8605 B2.6954 
N1191 X-283.796 Y1.349 Z9.121 A1.8323 B2.6872 
N1192 X-283.737 Y1.735 Z9.283 A1.7463 B2.6839 
N1193 X-283.680 Y2.118 Z9.446 A1.6025 B2.6828 
N1194 X-283.624 Y2.494 Z9.610 A1.3994 B2.6799 
N1195 X-283.568 Y2.863 Z9.774 A1.1352 B2.6792 
N1196 X-283.514 Y3.225 Z9.937 A0.8054 B2.6758 
N1197 X-283.461 Y3.577 Z10.100 A0.4059 B2.6716 
N1198 X-283.410 Y3.920 Z10.261 A359.9322 B2.6681 
N1199 X-283.361 Y4.252 Z10.420 A359.3802 B2.6638 
N1200 X-283.313 Y4.573 Z10.577 A358.7473 B2.6557 
N1201 X-283.267 Y4.883 Z10.732 A358.0341 B2.6501 
N1202 X-283.222 Y5.181 Z10.883 A357.2402 B2.6406 
N1203 X-283.180 Y5.466 Z11.031 A356.3669 B2.6307 
N1204 X-283.140 Y5.739 Z11.176 A355.4145 B2.6197 
N1205 X-283.102 Y6.000 Z11.318 A354.3821 B2.6061 
N1206 X-283.065 Y6.249 Z11.456 A353.2704 B2.5918 
N1207 X-283.031 Y6.486 Z11.591 A352.0823 B2.5736 
N1208 X-282.998 Y6.711 Z11.723 A350.8235 B2.5559 
N1209 X-282.967 Y6.925 Z11.852 A349.4949 B2.5336 
N1210 X-282.938 Y7.129 Z11.978 A348.0919 B2.5122 
N1211 X-282.911 Y7.322 Z12.104 A346.6032 B2.4870 
N1212 X-282.885 Y7.507 Z12.230 A345.0186 B2.4582 
N1213 X-282.860 Y7.684 Z12.356 A343.3306 B2.4262 
N1214 X-282.836 Y7.854 Z12.484 A341.5328 B2.3896 
N1215 X-282.812 Y8.020 Z12.614 A339.6189 B2.3491 
N1216 X-282.790 Y8.182 Z12.747 A337.5804 B2.3036 
N1217 X-282.768 Y8.342 Z12.883 A335.4091 B2.2525 
N1218 X-282.745 Y8.502 Z13.022 A333.0987 B2.1932 
N1219 X-282.723 Y8.664 Z13.164 A330.6484 B2.1284 
N1220 X-282.699 Y8.830 Z13.309 A328.0639 B2.0536 
N1221 X-282.675 Y8.999 Z13.454 A325.3596 B1.9708 
N1222 X-282.651 Y9.174 Z13.599 A322.5557 B1.8814 
N1223 X-282.626 Y9.354 Z13.740 A319.6744 B1.7858 
N1224 X-282.601 Y9.540 Z13.877 A316.7374 B1.6849 
N1225 X-282.575 Y9.731 Z14.007 A313.7631 B1.5793 
N1226 X-282.550 Y9.927 Z14.130 A310.7655 B1.4703 
N1227 X-282.524 Y10.128 Z14.245 A307.7537 B1.3593 
N1228 X-282.498 Y10.334 Z14.350 A304.7317 B1.2461 
N1229 X-282.472 Y10.545 Z14.445 A301.6996 B1.1302 
N1230 X-282.446 Y10.760 Z14.531 A298.6549 B1.0106 
N1231 X-282.420 Y10.981 Z14.605 A295.5940 B0.8880 
N1232 X-282.393 Y11.207 Z14.669 A292.5135 B0.7644 
N1233 X-282.366 Y11.437 Z14.720 A289.4115 B0.6388 
N1234 X-282.340 Y11.672 Z14.758 A286.2896 B0.5099 
N1235 X-282.312 Y11.911 Z14.782 A283.1542 B0.3766 
N1236 X-282.284 Y12.152 Z14.792 A280.0177 B0.2405 
N1237 X-282.257 Y12.394 Z14.785 A276.8984 B0.1063 
N1238 X-282.231 Y12.633 Z14.762 A273.8201 B-0.0258 
N1239 X-282.206 Y12.867 Z14.722 A270.8103 B-0.1550 
N1240 X-282.182 Y13.094 Z14.665 A267.8984 B-0.2801 
N1241 X-282.160 Y13.309 Z14.592 A265.1127 B-0.3977 
N1242 X-282.141 Y13.512 Z14.504 A262.4765 B-0.5056 
N1243 X-282.125 Y13.700 Z14.400 A260.0044 B-0.6013 
N1244 X-282.111 Y13.874 Z14.284 A257.7006 B-0.6896 
N1245 X-282.099 Y14.032 Z14.154 A255.5603 B-0.7684 
N1246 X-282.090 Y14.175 Z14.012 A253.5725 B-0.8384 
N1247 X-282.083 Y14.305 Z13.858 A251.7237 B-0.9034 
N1248 X-282.078 Y14.422 Z13.692 A249.9996 B-0.9619 
N1249 X-282.074 Y14.526 Z13.515 A248.3875 B-1.0163 
N1250 X-282.073 Y14.618 Z13.325 A246.8753 B-1.0659 
N1251 X-282.073 Y14.699 Z13.124 A245.4507 B-1.1111 
N1252 X-282.075 Y14.770 Z12.912 A244.0996 B-1.1532 
N1253 X-282.079 Y14.830 Z12.688 A242.8059 B-1.1926 
N1254 X-282.083 Y14.882 Z12.452 A241.5567 B-1.2312 
N1255 X-282.090 Y14.924 Z12.205 A240.3448 B-1.2689 
N1256 X-282.097 Y14.956 Z11.948 A239.1686 B-1.3050 
N1257 X-282.106 Y14.980 Z11.681 A238.0275 B-1.3384 
N1258 X-282.117 Y14.993 Z11.405 A236.9195 B-1.3708 
N1259 X-282.129 Y14.998 Z11.120 A235.8407 B-1.4010 
N1260 X-282.142 Y14.994 Z10.828 A234.7881 B-1.4302 
N1261 X-282.156 Y14.980 Z10.530 A233.7597 B-1.4593 
N1262 X-282.172 Y14.958 Z10.226 A232.7541 B-1.4852 
N1263 X-282.188 Y14.928 Z9.917 A231.7699 B-1.5111 
N1264 X-282.206 Y14.889 Z9.604 A230.8048 B-1.5363 
N1265 X-282.225 Y14.843 Z9.288 A229.8551 B-1.5590 
N1266 X-282.244 Y14.790 Z8.969 A228.9160 B-1.5812 
N1267 X-282.264 Y14.730 Z8.648 A227.9819 B-1.6035 
N1268 X-282.285 Y14.664 Z8.326 A227.0475 B-1.6254 
N1269 X-282.306 Y14.592 Z8.002 A226.1081 B-1.6465 
N1270 X-282.328 Y14.515 Z7.678 A225.1607 B-1.6671 
N1271 X-282.350 Y14.433 Z7.355 A224.2034 B-1.6884 
N1272 X-282.373 Y14.346 Z7.032 A223.2353 B-1.7093 
N1273 X-282.396 Y14.254 Z6.710 A222.2562 B-1.7290 
N1274 X-282.419 Y14.157 Z6.390 A221.2661 B-1.7488 
N1275 X-282.443 Y14.056 Z6.072 A220.2644 B-1.7683 
N1276 X-282.467 Y13.950 Z5.757 A219.2500 B-1.7870 
N1277 X-282.491 Y13.841 Z5.444 A218.2213 B-1.8054 
N1278 X-282.515 Y13.728 Z5.134 A217.1764 B-1.8234 
N1279 X-282.540 Y13.611 Z4.827 A216.1135 B-1.8410 
N1280 X-282.564 Y13.491 Z4.524 A215.0309 B-1.8581 
N1281 X-282.589 Y13.368 Z4.224 A213.9275 B-1.8748 
N1282 X-282.614 Y13.241 Z3.927 A212.8022 B-1.8911 
N1283 X-282.638 Y13.111 Z3.634 A211.6545 B-1.9068 
N1284 X-282.663 Y12.978 Z3.345 A210.4841 B-1.9219 
N1285 X-282.688 Y12.842 Z3.059 A209.2908 B-1.9363 
N1286 X-282.713 Y12.703 Z2.777 A208.0748 B-1.9501 
N1287 X-282.738 Y12.561 Z2.500 A206.8363 B-1.9630 
N1288 X-282.763 Y12.415 Z2.226 A205.5756 B-1.9750 
N1289 X-282.788 Y12.267 Z1.957 A204.2932 B-1.9861 
N1290 X-282.813 Y12.115 Z1.691 A202.9894 B-1.9963 
N1291 X-282.838 Y11.960 Z1.430 A201.6650 B-2.0053 
N1292 X-282.863 Y11.801 Z1.174 A200.3205 B-2.0132 
N1293 X-282.888 Y11.639 Z0.921 A198.9567 B-2.0199 
N1294 X-282.913 Y11.473 Z0.673 A197.5747 B-2.0254 
N1295 X-282.939 Y11.304 Z0.429 A196.1753 B-2.0295 
N1296 X-282.964 Y11.131 Z0.190 A194.7598 B-2.0322 
N1297 X-282.990 Y10.953 Z-0.045 A193.3294 B-2.0336 
N1298 X-283.015 Y10.772 Z-0.275 A191.8853 B-2.0335 
N1299 X-283.041 Y10.587 Z-0.500 A190.4288 B-2.0318 
N1300 X-283.067 Y10.398 Z-0.721 A188.9613 B-2.0286 
N1301 X-283.093 Y10.204 Z-0.936 A187.4842 B-2.0238 
N1302 X-283.119 Y10.006 Z-1.147 A185.9990 B-2.0174 
N1303 X-283.145 Y9.803 Z-1.352 A184.5071 B-2.0094 
N1304 X-283.172 Y9.595 Z-1.552 A183.0101 B-1.9998 
N1305 X-283.198 Y9.383 Z-1.747 A181.5098 B-1.9885 
N1306 X-283.225 Y9.166 Z-1.936 A180.0077 B-1.9757 
N1307 X-283.252 Y8.944 Z-2.119 A178.5057 B-1.9613 
N1308 X-283.279 Y8.717 Z-2.296 A177.0054 B-1.9453 
N1309 X-283.306 Y8.485 Z-2.468 A175.5084 B-1.9278 
N1310 X-283.333 Y8.248 Z-2.632 A174.0164 B-1.9088 
N1311 X-283.361 Y8.006 Z-2.791 A172.5310 B-1.8884 
N1312 X-283.388 Y7.758 Z-2.942 A171.0537 B-1.8667 
N1313 X-283.416 Y7.506 Z-3.087 A169.5861 B-1.8436 
N1314 X-283.444 Y7.248 Z-3.225 A168.1298 B-1.8192 
N1315 X-283.472 Y6.986 Z-3.355 A166.6863 B-1.7938 
N1316 X-283.499 Y6.718 Z-3.479 A165.2571 B-1.7673 
N1317 X-283.527 Y6.445 Z-3.594 A163.8438 B-1.7397 
N1318 X-283.555 Y6.168 Z-3.702 A162.4477 B-1.7111 
N1319 X-283.584 Y5.885 Z-3.802 A161.0702 B-1.6819 
N1320 X-283.612 Y5.598 Z-3.893 A159.7124 B-1.6519 
N1321 X-283.640 Y5.306 Z-3.977 A158.3755 B-1.6212 
N1322 X-283.668 Y5.009 Z-4.052 A157.0604 B-1.5900 
N1323 X-283.696 Y4.708 Z-4.119 A155.7683 B-1.5584 
N1324 X-283.723 Y4.403 Z-4.177 A154.4998 B-1.5264 
N1325 X-283.751 Y4.093 Z-4.226 A153.2559 B-1.4940 
N1326 X-283.779 Y3.779 Z-4.267 A152.0373 B-1.4615 
N1327 X-283.806 Y3.462 Z-4.299 A150.8446 B-1.4290 
N1328 X-283.833 Y3.140 Z-4.321 A149.6783 B-1.3964 
N1329 X-283.861 Y2.815 Z-4.335 A148.5388 B-1.3638 
N1330 X-283.887 Y2.486 Z-4.340 A147.4265 B-1.3314 
N1331 X-283.914 Y2.154 Z-4.336 A146.3416 B-1.2992 
N1332 X-283.940 Y1.818 Z-4.323 A145.2842 B-1.2671 
N1333 X-283.966 Y1.480 Z-4.301 A144.2545 B-1.2354 
N1334 X-283.992 Y1.139 Z-4.271 A143.2525 B-1.2041 
N1335 X-284.018 Y0.795 Z-4.231 A142.2780 B-1.1732 
N1336 X-284.043 Y0.448 Z-4.183 A141.3310 B-1.1427 
N1337 X-284.068 Y0.099 Z-4.126 A140.4111 B-1.1128 
N1338 X-284.092 Y-0.252 Z-4.060 A139.5180 B-1.0833 
N1339 X-284.117 Y-0.606 Z-3.986 A138.6512 B-1.0544 
N1340 X-284.140 Y-0.961 Z-3.903 A137.8101 B-1.0260 
N1341 X-284.164 Y-1.319 Z-3.813 A136.9943 B-0.9982 
N1342 X-284.187 Y-1.678 Z-3.714 A136.2031 B-0.9710 
N1343 X-284.210 Y-2.039 Z-3.607 A135.4361 B-0.9443 
N1344 X-284.232 Y-2.401 Z-3.492 A134.6929 B-0.9182 
N1345 X-284.254 Y-2.765 Z-3.370 A133.9735 B-0.8926 
N1346 X-284.275 Y-3.130 Z-3.239 A133.2779 B-0.8677 
N1347 X-284.296 Y-3.497 Z-3.102 A132.6062 B-0.8435 
N1348 X-284.317 Y-3.864 Z-2.957 A131.9587 B-0.8200 
N1349 X-284.337 Y-4.232 Z-2.804 A131.3354 B-0.7972 
N1350 X-284.357 Y-4.601 Z-2.645 A130.7361 B-0.7752 
N1351 X-284.377 Y-4.971 Z-2.478 A130.1607 B-0.7541 
N1352 X-284.396 Y-5.342 Z-2.305 A129.6085 B-0.7337 
N1353 X-284.414 Y-5.713 Z-2.125 A129.0788 B-0.7140 
N1354 X-284.433 Y-6.085 Z-1.939 A128.5710 B-0.6951 
N1355 X-284.451 Y-6.457 Z-1.746 A128.0843 B-0.6769 
N1356 X-284.468 Y-6.830 Z-1.548 A127.6178 B-0.6594 
N1357 X-284.485 Y-7.203 Z-1.344 A127.1709 B-0.6426 
N1358 X-284.502 Y-7.577 Z-1.134 A126.7427 B-0.6264 
N1359 X-284.518 Y-7.951 Z-0.918 A126.3327 B-0.6108 
N1360 X-284.534 Y-8.325 Z-0.698 A125.9402 B-0.5958 
N1361 X-284.550 Y-8.700 Z-0.472 A125.5647 B-0.5814 
N1362 X-284.565 Y-9.075 Z-0.242 A125.2057 B-0.5676 
N1363 X-284.580 Y-9.451 Z-0.006 A124.8628 B-0.5544 
N1364 X-284.595 Y-9.826 Z0.234 A124.5356 B-0.5417 
N1365 X-284.610 Y-10.202 Z0.478 A124.2237 B-0.5296 
N1366 X-284.624 Y-10.578 Z0.727 A123.9269 B-0.5181 
N1367 X-284.638 Y-10.954 Z0.979 A123.6448 B-0.5071 
N1368 X-284.651 Y-11.330 Z1.236 A123.3773 B-0.4966 
N1369 X-284.664 Y-11.706 Z1.497 A123.1244 B-0.4866 
N1370 X-284.677 Y-12.082 Z1.761 A122.8858 B-0.4772 
N1371 X-284.690 Y-12.458 Z2.028 A122.6616 B-0.4684 
N1372 X-284.703 Y-12.833 Z2.299 A122.4515 B-0.4601 
N1373 X-284.715 Y-13.208 Z2.572 A122.2551 B-0.4524 
N1374 X-284.727 Y-13.581 Z2.847 A122.0722 B-0.4453 
N1375 X-284.738 Y-13.953 Z3.124 A121.9021 B-0.4386 
N1376 X-284.750 Y-14.323 Z3.403 A121.7445 B-0.4324 
N1377 X-284.761 Y-14.691 Z3.681 A121.5988 B-0.4266 
N1378 X-284.772 Y-15.054 Z3.959 A121.4645 B-0.4213 
N1379 X-284.783 Y-15.413 Z4.235 A121.3415 B-0.4164 
N1380 X-284.793 Y-15.765 Z4.509 A121.2294 B-0.4120 
N1381 X-284.803 Y-16.110 Z4.779 A121.1281 B-0.4079 
N1382 X-284.812 Y-16.446 Z5.043 A121.0372 B-0.4042 
N1383 X-284.821 Y-16.771 Z5.299 A120.9564 B-0.4013 
N1384 X-284.830 Y-17.084 Z5.547 A120.8850 B-0.3984 
N1385 X-284.838 Y-17.382 Z5.785 A120.8220 B-0.3960 
N1386 X-284.846 Y-17.664 Z6.011 A120.7665 B-0.3941 
N1387 X-284.853 Y-17.928 Z6.223 A120.7173 B-0.3923 
N1388 X-284.860 Y-18.174 Z6.420 A120.6736 B-0.3906 
N1389 X-284.865 Y-18.400 Z6.602 A120.6342 B-0.3895 
N1390 X-284.871 Y-18.605 Z6.768 A120.5982 B-0.3879 
N1391 X-284.876 Y-18.790 Z6.917 A120.5645 B-0.3871 
N1392 X-284.880 Y-18.954 Z7.049 A120.5316 B-0.3861 
N1393 X-284.884 Y-19.099 Z7.165 A120.4973 B-0.3854 
N1394 X-284.887 Y-19.224 Z7.265 A120.4585 B-0.3850 
N1395 X-284.890 Y-19.333 Z7.351 A120.4108 B-0.3841 
N1396 X-284.893 Y-19.426 Z7.422 A120.3484 B-0.3828 
N1397 X-284.895 Y-19.505 Z7.480 A120.2660 B-0.3794 
N1398 X-284.898 Y-19.576 Z7.525 A120.1050 B-0.3708 
N1399 X-284.904 Y-19.655 Z7.548 A119.6059 B-0.3492 
N1400 X-284.914 Y-19.771 Z7.537 A118.3592 B-0.2990 
N1401 X-284.935 Y-19.959 Z7.478 A115.8026 B-0.1967 
N1402 X-284.971 Y-20.277 Z7.363 A111.1872 B-0.0159 
N1403 X-285.021 Y-20.706 Z7.234 A104.9666 B0.2385 
N1404 X-285.080 Y-21.156 Z7.147 A98.5801 B0.5340 
N1405 X-285.138 Y-21.604 Z7.108 A92.3095 B0.8300 
N1406 X-285.187 Y-22.033 Z7.116 A86.3115 B1.0846 
N1407 X-285.227 Y-22.411 Z7.160 A80.9841 B1.2909 
N1408 X-285.259 Y-22.736 Z7.227 A76.3414 B1.4606 
N1409 X-285.287 Y-23.009 Z7.306 A72.3528 B1.6018 
N1410 X-285.309 Y-23.256 Z7.395 A68.6742 B1.7219 
N1411 X-285.329 Y-23.480 Z7.493 A65.2635 B1.8265 
N1412 X-285.346 Y-23.683 Z7.596 A62.0728 B1.9195 
N1413 X-285.362 Y-23.870 Z7.704 A59.0552 B2.0040 
N1414 X-285.377 Y-24.042 Z7.816 A56.1694 B2.0819 
N1415 X-285.390 Y-24.204 Z7.934 A53.3811 B2.1544 
N1416 X-285.402 Y-24.355 Z8.055 A50.6633 B2.2220 
N1417 X-285.414 Y-24.498 Z8.182 A47.9950 B2.2853 
N1418 X-285.424 Y-24.632 Z8.313 A45.3605 B2.3443 
N1419 X-285.434 Y-24.760 Z8.450 A42.7477 B2.3990 
N1420 X-285.443 Y-24.880 Z8.591 A40.1475 B2.4496 
N1421 X-285.451 Y-24.994 Z8.737 A37.5529 B2.4958 
N1422 X-285.459 Y-25.101 Z8.888 A34.9580 B2.5378 
N1423 X-285.465 Y-25.201 Z9.044 A32.3576 B2.5752 
N1424 X-285.470 Y-25.295 Z9.205 A29.7462 B2.6080 
N1425 X-285.475 Y-25.381 Z9.371 A27.1176 B2.6361 
N1426 X-285.478 Y-25.461 Z9.542 A24.4637 B2.6595 
N1427 X-285.481 Y-25.534 Z9.719 A21.7738 B2.6783 
N1428 X-285.483 Y-25.599 Z9.902 A19.0331 B2.6925 
N1429 X-285.484 Y-25.658 Z10.093 A16.2223 B2.7021 
N1430 X-285.484 Y-25.709 Z10.292 A13.3150 B2.7066 
N1431 X-285.483 Y-25.751 Z10.503 A10.2771 B2.7058 
N1432 X-285.481 Y-25.785 Z10.728 A7.0649 B2.6989 
N1433 X-285.477 Y-25.807 Z10.971 A3.6248 B2.6845 
N1434 X-285.472 Y-25.814 Z11.234 A359.8939 B2.6603 
N1435 X-285.463 Y-25.804 Z11.523 A355.8059 B2.6220 
N1436 X-285.452 Y-25.768 Z11.839 A351.3030 B2.5698 
N1437 X-285.436 Y-25.701 Z12.182 A346.3528 B2.4987 
N1438 X-285.413 Y-25.594 Z12.548 A340.9589 B2.3916 
N1439 X-285.380 Y-25.443 Z12.924 A335.2279 B2.2343 
N1440 X-285.340 Y-25.247 Z13.291 A329.3569 B2.0477 
N1441 X-285.299 Y-25.015 Z13.628 A323.5985 B1.8573 
N1442 X-285.263 Y-24.793 Z13.879 A318.9473 B1.6902 
N1443 X-285.238 Y-24.612 Z14.034 A315.7335 B1.5806 
N1444 X-285.222 Y-24.485 Z14.104 A313.9554 B1.5215 
N1445 X-285.213 Y-24.380 Z14.131 A312.8596 B1.4950 
N1446 X-285.205 Y-24.291 Z14.124 A312.3119 B1.4853 
N1447 X-285.199 Y-24.199 Z14.098 A311.9818 B1.4870 
N1448 X-285.191 Y-24.100 Z14.057 A311.8091 B1.4885 
N1449 X-285.183 Y-23.991 Z14.002 A311.7467 B1.4937 
N1450 X-285.173 Y-23.868 Z13.934 A311.7609 B1.4985 
N1451 X-285.162 Y-23.729 Z13.853 A311.8305 B1.5025 
N1452 X-285.149 Y-23.572 Z13.759 A311.9433 B1.5090 
N1453 X-285.134 Y-23.397 Z13.654 A312.0916 B1.5146 
N1454 X-285.117 Y-23.203 Z13.537 A312.2711 B1.5213 
N1455 X-285.099 Y-22.990 Z13.409 A312.4788 B1.5302 
N1456 X-285.079 Y-22.759 Z13.271 A312.7124 B1.5373 
N1457 X-285.058 Y-22.511 Z13.123 A312.9714 B1.5472 
N1458 X-285.035 Y-22.247 Z12.967 A313.2558 B1.5573 
N1459 X-285.011 Y-21.969 Z12.803 A313.5666 B1.5672 
N1460 X-284.985 Y-21.679 Z12.633 A313.9054 B1.5788 
N1461 X-284.959 Y-21.378 Z12.458 A314.2736 B1.5922 
N1462 X-284.932 Y-21.069 Z12.280 A314.6719 B1.6062 
N1463 X-284.904 Y-20.752 Z12.098 A315.0999 B1.6207 
N1464 X-284.876 Y-20.430 Z11.915 A315.5564 B1.6377 
N1465 X-284.847 Y-20.104 Z11.732 A316.0392 B1.6544 
N1466 X-284.818 Y-19.775 Z11.549 A316.5460 B1.6719 
N1467 X-284.788 Y-19.444 Z11.368 A317.0749 B1.6903 
N1468 X-284.758 Y-19.113 Z11.188 A317.6244 B1.7089 
N1469 X-284.728 Y-18.780 Z11.011 A318.1939 B1.7281 
N1470 X-284.697 Y-18.448 Z10.837 A318.7829 B1.7477 
N1471 X-284.667 Y-18.117 Z10.665 A319.3913 B1.7679 
N1472 X-284.636 Y-17.786 Z10.497 A320.0186 B1.7885 
N1473 X-284.605 Y-17.457 Z10.333 A320.6644 B1.8096 
N1474 X-284.574 Y-17.129 Z10.172 A321.3281 B1.8310 
N1475 X-284.543 Y-16.803 Z10.015 A322.0092 B1.8528 
N1476 X-284.512 Y-16.478 Z9.861 A322.7073 B1.8748 
N1477 X-284.481 Y-16.154 Z9.712 A323.4222 B1.8972 
N1478 X-284.449 Y-15.832 Z9.566 A324.1535 B1.9198 
N1479 X-284.418 Y-15.512 Z9.425 A324.9014 B1.9426 
N1480 X-284.386 Y-15.192 Z9.287 A325.6657 B1.9656 
N1481 X-284.355 Y-14.874 Z9.154 A326.4463 B1.9889 
N1482 X-284.323 Y-14.558 Z9.024 A327.2432 B2.0123 
N1483 X-284.291 Y-14.243 Z8.898 A328.0562 B2.0358 
N1484 X-284.259 Y-13.928 Z8.777 A328.8848 B2.0596 
N1485 X-284.227 Y-13.615 Z8.660 A329.7288 B2.0833 
N1486 X-284.194 Y-13.303 Z8.546 A330.5877 B2.1071 
N1487 X-284.161 Y-12.992 Z8.437 A331.4608 B2.1310 
N1488 X-284.129 Y-12.682 Z8.332 A332.3474 B2.1547 
N1489 X-284.095 Y-12.372 Z8.232 A333.2469 B2.1784 
N1490 X-284.062 Y-12.063 Z8.136 A334.1583 B2.2019 
N1491 X-284.029 Y-11.754 Z8.044 A335.0807 B2.2252 
N1492 X-283.995 Y-11.445 Z7.957 A336.0131 B2.2483 
N1493 X-283.960 Y-11.136 Z7.874 A336.9543 B2.2712 
N1494 X-283.926 Y-10.827 Z7.796 A337.9032 B2.2936 
N1495 X-283.891 Y-10.518 Z7.723 A338.8585 B2.3157 
N1496 X-283.856 Y-10.208 Z7.655 A339.8188 B2.3374 
N1497 X-283.820 Y-9.898 Z7.592 A340.7827 B2.3586 
N1498 X-283.784 Y-9.587 Z7.534 A341.7487 B2.3793 
N1499 X-283.747 Y-9.275 Z7.481 A342.7153 B2.3994 
N1500 X-283.710 Y-8.961 Z7.433 A343.6810 B2.4189 
N1501 X-283.672 Y-8.646 Z7.391 A344.6440 B2.4377 
N1502 X-283.634 Y-8.330 Z7.355 A345.6026 B2.4559 
N1503 X-283.595 Y-8.011 Z7.325 A346.5552 B2.4734 
N1504 X-283.555 Y-7.691 Z7.301 A347.5000 B2.4902 
N1505 X-283.515 Y-7.368 Z7.283 A348.4353 B2.5062 
N1506 X-283.474 Y-7.043 Z7.271 A349.3593 B2.5214 
N1507 X-283.432 Y-6.715 Z7.266 A350.2705 B2.5359 
N1508 X-283.390 Y-6.385 Z7.267 A351.1670 B2.5497 
N1509 X-283.347 Y-6.051 Z7.276 A352.0469 B2.5626 
N1510 X-283.303 Y-5.714 Z7.292 A352.9084 B2.5748 
N1511 X-283.258 Y-5.374 Z7.315 A353.7492 B2.5862 
N1512 X-283.212 Y-5.029 Z7.345 A354.5670 B2.5969 
N1513 X-283.165 Y-4.681 Z7.384 A355.3593 B2.6068 
N1514 X-283.117 Y-4.329 Z7.431 A356.1231 B2.6160 
N1515 X-283.069 Y-3.972 Z7.486 A356.8552 B2.6244 
N1516 X-283.019 Y-3.611 Z7.549 A357.5520 B2.6321 
N1517 X-282.968 Y-3.246 Z7.622 A358.2097 B2.6390 
N1518 X-282.916 Y-2.876 Z7.703 A358.8240 B2.6452 
N1519 X-282.863 Y-2.501 Z7.794 A359.3907 B2.6507 
N1520 X-282.809 Y-2.123 Z7.894 A359.9057 B2.6555 
N1521 X-282.755 Y-1.740 Z8.003 A0.3651 B2.6596 
N1522 X-282.699 Y-1.355 Z8.120 A0.7658 B2.6630 
N1523 X-282.642 Y-0.966 Z8.246 A1.1053 B2.6657 
N1524 X-282.585 Y-0.574 Z8.380 A1.3820 B2.6678 
N1525 X-282.528 Y-0.182 Z8.521 A1.5954 B2.6693 
N1526 X-282.469 Y0.212 Z8.668 A1.7455 B2.6703 
N1527 X-282.411 Y0.606 Z8.820 A1.8332 B2.6709 
N1528 X-282.353 Y0.998 Z8.977 A1.8598 B2.6709 
N1529 X-282.295 Y1.388 Z9.137 A1.8267 B2.6702 
N1530 X-282.238 Y1.774 Z9.299 A1.7352 B2.6699 
N1531 X-282.181 Y2.156 Z9.462 A1.5854 B2.6685 
N1532 X-282.125 Y2.532 Z9.626 A1.3763 B2.6658 
N1533 X-282.070 Y2.901 Z9.790 A1.1057 B2.6651 
N1534 X-282.016 Y3.261 Z9.954 A0.7691 B2.6615 
N1535 X-281.964 Y3.613 Z10.116 A0.3622 B2.6575 
N1536 X-281.913 Y3.955 Z10.277 A359.8807 B2.6541 
N1537 X-281.864 Y4.286 Z10.436 A359.3207 B2.6497 
N1538 X-281.816 Y4.605 Z10.593 A358.6796 B2.6416 
N1539 X-281.771 Y4.914 Z10.747 A357.9582 B2.6362 
N1540 X-281.727 Y5.210 Z10.898 A357.1562 B2.6263 
N1541 X-281.685 Y5.494 Z11.046 A356.2751 B2.6169 
N1542 X-281.645 Y5.766 Z11.190 A355.3147 B2.6054 
N1543 X-281.607 Y6.026 Z11.332 A354.2746 B2.5923 
N1544 X-281.572 Y6.273 Z11.470 A353.1552 B2.5778 
N1545 X-281.537 Y6.509 Z11.604 A351.9602 B2.5596 
N1546 X-281.505 Y6.733 Z11.736 A350.6951 B2.5420 
N1547 X-281.474 Y6.946 Z11.864 A349.3602 B2.5200 
N1548 X-281.446 Y7.148 Z11.991 A347.9501 B2.4984 
N1549 X-281.419 Y7.340 Z12.116 A346.4535 B2.4733 
N1550 X-281.393 Y7.524 Z12.242 A344.8602 B2.4446 
N1551 X-281.368 Y7.700 Z12.368 A343.1630 B2.4123 
N1552 X-281.344 Y7.870 Z12.496 A341.3558 B2.3763 
N1553 X-281.321 Y8.035 Z12.626 A339.4317 B2.3352 
N1554 X-281.299 Y8.197 Z12.759 A337.3827 B2.2901 
N1555 X-281.277 Y8.357 Z12.895 A335.2002 B2.2384 
N1556 X-281.254 Y8.517 Z13.035 A332.8784 B2.1791 
N1557 X-281.232 Y8.679 Z13.177 A330.4172 B2.1139 
N1558 X-281.209 Y8.845 Z13.322 A327.8229 B2.0386 
N1559 X-281.185 Y9.015 Z13.467 A325.1108 B1.9555 
N1560 X-281.160 Y9.190 Z13.612 A322.3013 B1.8658 
N1561 X-281.136 Y9.371 Z13.753 A319.4167 B1.7698 
N1562 X-281.111 Y9.556 Z13.889 A316.4786 B1.6686 
N1563 X-281.085 Y9.748 Z14.018 A313.5050 B1.5628 
N1564 X-281.060 Y9.944 Z14.140 A310.5094 B1.4535 
N1565 X-281.034 Y10.145 Z14.254 A307.5003 B1.3424 
N1566 X-281.009 Y10.351 Z14.358 A304.4815 B1.2291 
N1567 X-280.983 Y10.562 Z14.453 A301.4526 B1.1129 
N1568 X-280.957 Y10.778 Z14.537 A298.4109 B0.9930 
N1569 X-280.930 Y10.998 Z14.611 A295.3527 B0.8704 
N1570 X-280.904 Y11.224 Z14.673 A292.2747 B0.7468 
N1571 X-280.878 Y11.455 Z14.723 A289.1750 B0.6210 
N1572 X-280.851 Y11.690 Z14.760 A286.0556 B0.4920 
N1573 X-280.824 Y11.929 Z14.784 A282.9232 B0.3586 
N1574 X-280.796 Y12.170 Z14.792 A279.7904 B0.2229 
N1575 X-280.770 Y12.411 Z14.784 A276.6760 B0.0892 
N1576 X-280.744 Y12.650 Z14.760 A273.6041 B-0.0422 
N1577 X-280.719 Y12.883 Z14.719 A270.6024 B-0.1705 
N1578 X-280.695 Y13.109 Z14.661 A267.7004 B-0.2944 
N1579 X-280.674 Y13.324 Z14.587 A264.9260 B-0.4106 
N1580 X-280.655 Y13.525 Z14.497 A262.3021 B-0.5167 
N1581 X-280.639 Y13.713 Z14.393 A259.8429 B-0.6109 
N1582 X-280.625 Y13.885 Z14.276 A257.5517 B-0.6977 
N1583 X-280.614 Y14.042 Z14.145 A255.4233 B-0.7747 
N1584 X-280.605 Y14.184 Z14.003 A253.4465 B-0.8436 
N1585 X-280.598 Y14.313 Z13.848 A251.6075 B-0.9073 
N1586 X-280.593 Y14.429 Z13.682 A249.8922 B-0.9648 
N1587 X-280.589 Y14.532 Z13.503 A248.2880 B-1.0181 
N1588 X-280.588 Y14.624 Z13.314 A246.7829 B-1.0669 
N1589 X-280.588 Y14.704 Z13.112 A245.3644 B-1.1112 
N1590 X-280.591 Y14.774 Z12.899 A244.0183 B-1.1525 
N1591 X-280.594 Y14.834 Z12.674 A242.7287 B-1.1916 
N1592 X-280.599 Y14.884 Z12.438 A241.4827 B-1.2294 
N1593 X-280.605 Y14.926 Z12.191 A240.2737 B-1.2668 
N1594 X-280.613 Y14.958 Z11.933 A239.1002 B-1.3023 
N1595 X-280.622 Y14.981 Z11.665 A237.9617 B-1.3352 
N1596 X-280.633 Y14.994 Z11.389 A236.8561 B-1.3673 
N1597 X-280.645 Y14.998 Z11.104 A235.7794 B-1.3970 
N1598 X-280.658 Y14.993 Z10.812 A234.7288 B-1.4260 
N1599 X-280.672 Y14.979 Z10.513 A233.7022 B-1.4546 
N1600 X-280.688 Y14.957 Z10.209 A232.6983 B-1.4802 
N1601 X-280.704 Y14.926 Z9.900 A231.7158 B-1.5059 
N1602 X-280.722 Y14.887 Z9.587 A230.7522 B-1.5306 
N1603 X-280.740 Y14.841 Z9.271 A229.8038 B-1.5531 
N1604 X-280.760 Y14.787 Z8.952 A228.8656 B-1.5751 
N1605 X-280.780 Y14.727 Z8.631 A227.9322 B-1.5971 
N1606 X-280.800 Y14.660 Z8.309 A226.9982 B-1.6188 
N1607 X-280.822 Y14.588 Z7.986 A226.0590 B-1.6397 
N1608 X-280.843 Y14.511 Z7.662 A225.1115 B-1.6602 
N1609 X-280.866 Y14.429 Z7.339 A224.1541 B-1.6814 
N1610 X-280.888 Y14.341 Z7.016 A223.1860 B-1.7020 
N1611 X-280.911 Y14.249 Z6.694 A222.2068 B-1.7216 
N1612 X-280.934 Y14.152 Z6.375 A221.2166 B-1.7413 
N1613 X-280.958 Y14.051 Z6.057 A220.2148 B-1.7605 
N1614 X-280.982 Y13.945 Z5.742 A219.2002 B-1.7792 
N1615 X-281.006 Y13.836 Z5.429 A218.1713 B-1.7974 
N1616 X-281.030 Y13.723 Z5.120 A217.1261 B-1.8152 
N1617 X-281.054 Y13.606 Z4.813 A216.0629 B-1.8327 
N1618 X-281.078 Y13.486 Z4.510 A214.9799 B-1.8497 
N1619 X-281.103 Y13.362 Z4.210 A213.8760 B-1.8663 
N1620 X-281.127 Y13.235 Z3.914 A212.7503 B-1.8825 
N1621 X-281.152 Y13.106 Z3.621 A211.6022 B-1.8981 
N1622 X-281.177 Y12.973 Z3.332 A210.4313 B-1.9130 
N1623 X-281.201 Y12.836 Z3.047 A209.2376 B-1.9273 
N1624 X-281.226 Y12.697 Z2.766 A208.0212 B-1.9410 
N1625 X-281.251 Y12.555 Z2.488 A206.7824 B-1.9538 
N1626 X-281.276 Y12.409 Z2.215 A205.5214 B-1.9657 
N1627 X-281.300 Y12.261 Z1.946 A204.2387 B-1.9767 
N1628 X-281.325 Y12.109 Z1.681 A202.9348 B-1.9867 
N1629 X-281.350 Y11.953 Z1.420 A201.6102 B-1.9956 
N1630 X-281.375 Y11.795 Z1.163 A200.2656 B-2.0034 
N1631 X-281.400 Y11.633 Z0.911 A198.9018 B-2.0100 
N1632 X-281.425 Y11.467 Z0.663 A197.5198 B-2.0154 
N1633 X-281.450 Y11.297 Z0.420 A196.1206 B-2.0194 
N1634 X-281.476 Y11.124 Z0.181 A194.7053 B-2.0219 
N1635 X-281.501 Y10.947 Z-0.053 A193.2751 B-2.0232 
N1636 X-281.527 Y10.766 Z-0.283 A191.8314 B-2.0230 
N1637 X-281.552 Y10.581 Z-0.508 A190.3753 B-2.0211 
N1638 X-281.578 Y10.391 Z-0.728 A188.9083 B-2.0178 
N1639 X-281.604 Y10.197 Z-0.944 A187.4318 B-2.0129 
N1640 X-281.630 Y9.999 Z-1.154 A185.9471 B-2.0064 
N1641 X-281.656 Y9.796 Z-1.359 A184.4559 B-1.9982 
N1642 X-281.682 Y9.589 Z-1.559 A182.9597 B-1.9885 
N1643 X-281.708 Y9.376 Z-1.753 A181.4602 B-1.9771 
N1644 X-281.735 Y9.159 Z-1.942 A179.9590 B-1.9642 
N1645 X-281.761 Y8.937 Z-2.125 A178.4578 B-1.9497 
N1646 X-281.788 Y8.710 Z-2.302 A176.9585 B-1.9336 
N1647 X-281.815 Y8.478 Z-2.472 A175.4626 B-1.9160 
N1648 X-281.842 Y8.241 Z-2.637 A173.9716 B-1.8968 
N1649 X-281.870 Y7.999 Z-2.795 A172.4873 B-1.8764 
N1650 X-281.897 Y7.752 Z-2.946 A171.0112 B-1.8546 
N1651 X-281.924 Y7.499 Z-3.091 A169.5447 B-1.8314 
N1652 X-281.952 Y7.242 Z-3.228 A168.0895 B-1.8069 
N1653 X-281.980 Y6.979 Z-3.359 A166.6472 B-1.7814 
N1654 X-282.007 Y6.712 Z-3.482 A165.2193 B-1.7549 
N1655 X-282.035 Y6.439 Z-3.597 A163.8072 B-1.7273 
N1656 X-282.063 Y6.161 Z-3.704 A162.4124 B-1.6987 
N1657 X-282.091 Y5.879 Z-3.804 A161.0361 B-1.6694 
N1658 X-282.119 Y5.592 Z-3.896 A159.6795 B-1.6394 
N1659 X-282.146 Y5.300 Z-3.979 A158.3438 B-1.6087 
N1660 X-282.174 Y5.003 Z-4.054 A157.0300 B-1.5775 
N1661 X-282.202 Y4.702 Z-4.120 A155.7391 B-1.5459 
N1662 X-282.230 Y4.397 Z-4.178 A154.4718 B-1.5139 
N1663 X-282.257 Y4.087 Z-4.227 A153.2291 B-1.4816 
N1664 X-282.284 Y3.773 Z-4.268 A152.0116 B-1.4491 
N1665 X-282.312 Y3.456 Z-4.299 A150.8200 B-1.4166 
N1666 X-282.339 Y3.134 Z-4.322 A149.6548 B-1.3841 
N1667 X-282.366 Y2.809 Z-4.336 A148.5165 B-1.3515 
N1668 X-282.392 Y2.480 Z-4.340 A147.4052 B-1.3192 
N1669 X-282.419 Y2.148 Z-4.336 A146.3213 B-1.2870 
N1670 X-282.445 Y1.813 Z-4.323 A145.2649 B-1.2551 
N1671 X-282.471 Y1.475 Z-4.301 A144.2362 B-1.2235 
N1672 X-282.496 Y1.133 Z-4.270 A143.2350 B-1.1922 
N1673 X-282.521 Y0.790 Z-4.230 A142.2615 B-1.1614 
N1674 X-282.546 Y0.443 Z-4.182 A141.3153 B-1.1310 
N1675 X-282.571 Y0.094 Z-4.125 A140.3962 B-1.1011 
N1676 X-282.595 Y-0.257 Z-4.059 A139.5039 B-1.0718 
N1677 X-282.619 Y-0.611 Z-3.985 A138.6378 B-1.0430 
N1678 X-282.643 Y-0.966 Z-3.902 A137.7975 B-1.0147 
N1679 X-282.666 Y-1.323 Z-3.811 A136.9824 B-0.9870 
N1680 X-282.689 Y-1.682 Z-3.713 A136.1918 B-0.9599 
N1681 X-282.711 Y-2.043 Z-3.606 A135.4254 B-0.9333 
N1682 X-282.733 Y-2.406 Z-3.491 A134.6829 B-0.9073 
N1683 X-282.755 Y-2.769 Z-3.368 A133.9640 B-0.8819 
N1684 X-282.776 Y-3.134 Z-3.238 A133.2689 B-0.8570 
N1685 X-282.797 Y-3.501 Z-3.100 A132.5977 B-0.8329 
N1686 X-282.818 Y-3.868 Z-2.955 A131.9507 B-0.8095 
N1687 X-282.838 Y-4.236 Z-2.803 A131.3278 B-0.7869 
N1688 X-282.857 Y-4.605 Z-2.643 A130.7291 B-0.7650 
N1689 X-282.877 Y-4.975 Z-2.477 A130.1540 B-0.7439 
N1690 X-282.895 Y-5.345 Z-2.303 A129.6022 B-0.7237 
N1691 X-282.914 Y-5.716 Z-2.123 A129.0730 B-0.7041 
N1692 X-282.932 Y-6.088 Z-1.937 A128.5656 B-0.6853 
N1693 X-282.949 Y-6.460 Z-1.745 A128.0792 B-0.6672 
N1694 X-282.967 Y-6.833 Z-1.546 A127.6131 B-0.6498 
N1695 X-282.983 Y-7.206 Z-1.342 A127.1664 B-0.6330 
N1696 X-283.000 Y-7.580 Z-1.132 A126.7386 B-0.6169 
N1697 X-283.016 Y-7.954 Z-0.917 A126.3288 B-0.6014 
N1698 X-283.032 Y-8.328 Z-0.696 A125.9366 B-0.5865 
N1699 X-283.047 Y-8.703 Z-0.471 A125.5613 B-0.5722 
N1700 X-283.063 Y-9.078 Z-0.240 A125.2026 B-0.5584 
N1701 X-283.077 Y-9.453 Z-0.005 A124.8599 B-0.5453 
N1702 X-283.092 Y-9.828 Z0.235 A124.5328 B-0.5327 
N1703 X-283.106 Y-10.204 Z0.479 A124.2211 B-0.5206 
N1704 X-283.120 Y-10.580 Z0.728 A123.9244 B-0.5091 
N1705 X-283.134 Y-10.956 Z0.981 A123.6425 B-0.4982 
N1706 X-283.147 Y-11.332 Z1.237 A123.3752 B-0.4878 
N1707 X-283.160 Y-11.708 Z1.498 A123.1224 B-0.4779 
N1708 X-283.173 Y-12.084 Z1.762 A122.8840 B-0.4685 
N1709 X-283.185 Y-12.460 Z2.029 A122.6598 B-0.4597 
N1710 X-283.198 Y-12.835 Z2.300 A122.4498 B-0.4515 
N1711 X-283.210 Y-13.209 Z2.573 A122.2536 B-0.4438 
N1712 X-283.221 Y-13.583 Z2.848 A122.0708 B-0.4367 
N1713 X-283.233 Y-13.955 Z3.125 A121.9008 B-0.4301 
N1714 X-283.244 Y-14.325 Z3.403 A121.7433 B-0.4239 
N1715 X-283.255 Y-14.692 Z3.682 A121.5976 B-0.4182 
N1716 X-283.266 Y-15.055 Z3.960 A121.4635 B-0.4129 
N1717 X-283.276 Y-15.414 Z4.236 A121.3405 B-0.4080 
N1718 X-283.286 Y-15.766 Z4.510 A121.2285 B-0.4036 
N1719 X-283.296 Y-16.111 Z4.779 A121.1272 B-0.3996 
N1720 X-283.305 Y-16.447 Z5.043 A121.0364 B-0.3959 
N1721 X-283.314 Y-16.772 Z5.300 A120.9557 B-0.3930 
N1722 X-283.323 Y-17.084 Z5.548 A120.8843 B-0.3901 
N1723 X-283.331 Y-17.382 Z5.785 A120.8214 B-0.3877 
N1724 X-283.338 Y-17.664 Z6.011 A120.7659 B-0.3859 
N1725 X-283.345 Y-17.929 Z6.223 A120.7169 B-0.3840 
N1726 X-283.352 Y-18.174 Z6.421 A120.6732 B-0.3824 
N1727 X-283.357 Y-18.400 Z6.602 A120.6339 B-0.3813 
N1728 X-283.363 Y-18.606 Z6.768 A120.5980 B-0.3797 
N1729 X-283.368 Y-18.790 Z6.917 A120.5643 B-0.3789 
N1730 X-283.372 Y-18.954 Z7.049 A120.5315 B-0.3779 
N1731 X-283.376 Y-19.099 Z7.165 A120.4974 B-0.3772 
N1732 X-283.379 Y-19.225 Z7.265 A120.4587 B-0.3768 
N1733 X-283.382 Y-19.333 Z7.351 A120.4111 B-0.3759 
N1734 X-283.384 Y-19.426 Z7.422 A120.3487 B-0.3746 
N1735 X-283.387 Y-19.505 Z7.480 A120.2664 B-0.3712 
N1736 X-283.390 Y-19.576 Z7.525 A120.1051 B-0.3626 
N1737 X-283.395 Y-19.655 Z7.548 A119.6056 B-0.3411 
N1738 X-283.406 Y-19.771 Z7.537 A118.3591 B-0.2912 
N1739 X-283.426 Y-19.959 Z7.478 A115.8024 B-0.1895 
N1740 X-283.462 Y-20.277 Z7.363 A111.1867 B-0.0096 
N1741 X-283.512 Y-20.706 Z7.234 A104.9656 B0.2434 
N1742 X-283.570 Y-21.156 Z7.147 A98.5787 B0.5373 
N1743 X-283.628 Y-21.604 Z7.108 A92.3076 B0.8316 
N1744 X-283.677 Y-22.033 Z7.116 A86.3092 B1.0846 
N1745 X-283.716 Y-22.411 Z7.160 A80.9813 B1.2895 
N1746 X-283.749 Y-22.736 Z7.227 A76.3383 B1.4581 
N1747 X-283.775 Y-23.010 Z7.306 A72.3496 B1.5984 
N1748 X-283.798 Y-23.257 Z7.395 A68.6707 B1.7177 
N1749 X-283.818 Y-23.480 Z7.493 A65.2598 B1.8215 
N1750 X-283.835 Y-23.683 Z7.596 A62.0689 B1.9138 
N1751 X-283.851 Y-23.870 Z7.704 A59.0511 B1.9977 
N1752 X-283.865 Y-24.043 Z7.816 A56.1652 B2.0750 
N1753 X-283.878 Y-24.204 Z7.934 A53.3768 B2.1469 
N1754 X-283.890 Y-24.355 Z8.055 A50.6589 B2.2140 
N1755 X-283.902 Y-24.498 Z8.182 A47.9905 B2.2768 
N1756 X-283.912 Y-24.633 Z8.313 A45.3559 B2.3352 
N1757 X-283.922 Y-24.760 Z8.450 A42.7430 B2.3895 
N1758 X-283.931 Y-24.881 Z8.591 A40.1428 B2.4396 
N1759 X-283.939 Y-24.994 Z8.737 A37.5482 B2.4855 
N1760 X-283.946 Y-25.101 Z8.888 A34.9533 B2.5270 
N1761 X-283.952 Y-25.201 Z9.044 A32.3528 B2.5641 
N1762 X-283.958 Y-25.295 Z9.205 A29.7414 B2.5965 
N1763 X-283.962 Y-25.382 Z9.371 A27.1129 B2.6242 
N1764 X-283.966 Y-25.461 Z9.542 A24.4590 B2.6473 
N1765 X-283.968 Y-25.534 Z9.719 A21.7691 B2.6658 
N1766 X-283.970 Y-25.600 Z9.902 A19.0285 B2.6798 
N1767 X-283.971 Y-25.658 Z10.093 A16.2177 B2.6891 
N1768 X-283.971 Y-25.709 Z10.292 A13.3105 B2.6935 
N1769 X-283.970 Y-25.752 Z10.503 A10.2726 B2.6925 
N1770 X-283.968 Y-25.785 Z10.728 A7.0605 B2.6854 
N1771 X-283.964 Y-25.807 Z10.971 A3.6205 B2.6710 
N1772 X-283.959 Y-25.815 Z11.234 A359.8898 B2.6466 
N1773 X-283.950 Y-25.804 Z11.523 A355.8019 B2.6083 
N1774 X-283.939 Y-25.769 Z11.839 A351.2993 B2.5562 
N1775 X-283.923 Y-25.702 Z12.182 A346.3493 B2.4852 
N1776 X-283.901 Y-25.595 Z12.548 A340.9557 B2.3782 
N1777 X-283.867 Y-25.443 Z12.924 A335.2252 B2.2213 
N1778 X-283.828 Y-25.248 Z13.291 A329.3548 B2.0353 
N1779 X-283.787 Y-25.015 Z13.628 A323.5969 B1.8456 
N1780 X-283.751 Y-24.793 Z13.879 A318.9462 B1.6792 
N1781 X-283.726 Y-24.612 Z14.034 A315.7326 B1.5700 
N1782 X-283.710 Y-24.486 Z14.104 A313.9546 B1.5112 
N1783 X-283.701 Y-24.380 Z14.131 A312.8588 B1.4848 
N1784 X-283.693 Y-24.291 Z14.124 A312.3112 B1.4752 
N1785 X-283.687 Y-24.199 Z14.098 A311.9810 B1.4769 
N1786 X-283.680 Y-24.100 Z14.057 A311.8084 B1.4783 
N1787 X-283.671 Y-23.991 Z14.002 A311.7459 B1.4835 
N1788 X-283.662 Y-23.868 Z13.934 A311.7601 B1.4883 
N1789 X-283.650 Y-23.729 Z13.853 A311.8298 B1.4923 
N1790 X-283.637 Y-23.572 Z13.759 A311.9425 B1.4987 
N1791 X-283.622 Y-23.397 Z13.654 A312.0908 B1.5043 
N1792 X-283.606 Y-23.203 Z13.537 A312.2703 B1.5110 
N1793 X-283.588 Y-22.990 Z13.409 A312.4780 B1.5198 
N1794 X-283.568 Y-22.759 Z13.271 A312.7116 B1.5269 
N1795 X-283.547 Y-22.511 Z13.123 A312.9706 B1.5367 
N1796 X-283.524 Y-22.247 Z12.967 A313.2550 B1.5467 
N1797 X-283.500 Y-21.969 Z12.803 A313.5658 B1.5566 
N1798 X-283.475 Y-21.679 Z12.633 A313.9046 B1.5682 
N1799 X-283.449 Y-21.378 Z12.458 A314.2728 B1.5816 
N1800 X-283.422 Y-21.069 Z12.280 A314.6710 B1.5954 
N1801 X-283.394 Y-20.752 Z12.098 A315.0990 B1.6099 
N1802 X-283.366 Y-20.430 Z11.915 A315.5555 B1.6268 
N1803 X-283.337 Y-20.104 Z11.732 A316.0382 B1.6435 
N1804 X-283.308 Y-19.776 Z11.549 A316.5450 B1.6609 
N1805 X-283.279 Y-19.445 Z11.368 A317.0739 B1.6792 
N1806 X-283.249 Y-19.113 Z11.188 A317.6234 B1.6977 
N1807 X-283.219 Y-18.780 Z11.011 A318.1929 B1.7168 
N1808 X-283.189 Y-18.448 Z10.837 A318.7819 B1.7363 
N1809 X-283.158 Y-18.117 Z10.666 A319.3902 B1.7564 
N1810 X-283.128 Y-17.787 Z10.498 A320.0175 B1.7769 
N1811 X-283.097 Y-17.458 Z10.333 A320.6633 B1.7979 
N1812 X-283.066 Y-17.130 Z10.172 A321.3270 B1.8192 
N1813 X-283.036 Y-16.803 Z10.015 A322.0081 B1.8409 
N1814 X-283.005 Y-16.478 Z9.862 A322.7062 B1.8629 
N1815 X-282.974 Y-16.155 Z9.712 A323.4210 B1.8851 
N1816 X-282.943 Y-15.832 Z9.567 A324.1523 B1.9076 
N1817 X-282.911 Y-15.512 Z9.425 A324.9001 B1.9303 
N1818 X-282.880 Y-15.193 Z9.287 A325.6644 B1.9533 
N1819 X-282.848 Y-14.875 Z9.154 A326.4450 B1.9765 
N1820 X-282.817 Y-14.558 Z9.024 A327.2419 B1.9998 
N1821 X-282.785 Y-14.243 Z8.899 A328.0548 B2.0233 
N1822 X-282.753 Y-13.929 Z8.777 A328.8834 B2.0469 
N1823 X-282.721 Y-13.616 Z8.660 A329.7274 B2.0705 
N1824 X-282.689 Y-13.304 Z8.546 A330.5862 B2.0943 
N1825 X-282.657 Y-12.992 Z8.437 A331.4593 B2.1180 
N1826 X-282.624 Y-12.682 Z8.333 A332.3460 B2.1417 
N1827 X-282.591 Y-12.372 Z8.232 A333.2454 B2.1652 
N1828 X-282.558 Y-12.063 Z8.136 A334.1568 B2.1887 
N1829 X-282.524 Y-11.754 Z8.044 A335.0792 B2.2120 
N1830 X-282.491 Y-11.445 Z7.957 A336.0115 B2.2350 
N1831 X-282.457 Y-11.137 Z7.874 A336.9527 B2.2577 
N1832 X-282.422 Y-10.828 Z7.796 A337.9016 B2.2801 
N1833 X-282.388 Y-10.518 Z7.723 A338.8568 B2.3022 
N1834 X-282.353 Y-10.209 Z7.655 A339.8171 B2.3238 
N1835 X-282.317 Y-9.898 Z7.592 A340.7810 B2.3449 
N1836 X-282.281 Y-9.587 Z7.534 A341.7470 B2.3655 
N1837 X-282.245 Y-9.275 Z7.481 A342.7136 B2.3856 
N1838 X-282.208 Y-8.962 Z7.433 A343.6793 B2.4050 
N1839 X-282.170 Y-8.647 Z7.391 A344.6422 B2.4238 
N1840 X-282.132 Y-8.330 Z7.355 A345.6009 B2.4420 
N1841 X-282.093 Y-8.012 Z7.325 A346.5534 B2.4594 
N1842 X-282.054 Y-7.691 Z7.301 A347.4982 B2.4761 
N1843 X-282.014 Y-7.369 Z7.283 A348.4335 B2.4921 
N1844 X-281.973 Y-7.044 Z7.271 A349.3576 B2.5074 
N1845 X-281.932 Y-6.716 Z7.266 A350.2687 B2.5218 
N1846 X-281.890 Y-6.385 Z7.267 A351.1652 B2.5355 
N1847 X-281.847 Y-6.052 Z7.276 A352.0451 B2.5485 
N1848 X-281.803 Y-5.715 Z7.292 A352.9066 B2.5607 
N1849 X-281.758 Y-5.374 Z7.315 A353.7474 B2.5721 
N1850 X-281.713 Y-5.030 Z7.345 A354.5652 B2.5827 
N1851 X-281.666 Y-4.682 Z7.384 A355.3575 B2.5926 
N1852 X-281.619 Y-4.329 Z7.431 A356.1213 B2.6018 
N1853 X-281.570 Y-3.973 Z7.486 A356.8534 B2.6102 
N1854 X-281.521 Y-3.611 Z7.549 A357.5502 B2.6179 
N1855 X-281.470 Y-3.246 Z7.622 A358.2079 B2.6249 
N1856 X-281.419 Y-2.876 Z7.703 A358.8222 B2.6311 
N1857 X-281.366 Y-2.502 Z7.794 A359.3890 B2.6366 
N1858 X-281.313 Y-2.123 Z7.894 A359.9039 B2.6414 
N1859 X-281.258 Y-1.741 Z8.002 A0.3633 B2.6455 
N1860 X-281.203 Y-1.355 Z8.120 A0.7640 B2.6489 
N1861 X-281.146 Y-0.966 Z8.246 A1.1035 B2.6516 
N1862 X-281.090 Y-0.575 Z8.380 A1.3803 B2.6537 
N1863 X-281.032 Y-0.182 Z8.521 A1.5936 B2.6553 
N1864 X-280.975 Y0.212 Z8.668 A1.7437 B2.6562 
N1865 X-280.917 Y0.605 Z8.820 A1.8314 B2.6568 
N1866 X-280.859 Y0.998 Z8.977 A1.8579 B2.6569 
N1867 X-280.801 Y1.388 Z9.137 A1.8248 B2.6561 
N1868 X-280.744 Y1.774 Z9.299 A1.7333 B2.6558 
N1869 X-280.687 Y2.156 Z9.462 A1.5835 B2.6545 
N1870 X-280.632 Y2.531 Z9.626 A1.3743 B2.6517 
N1871 X-280.577 Y2.900 Z9.790 A1.1037 B2.6510 
N1872 X-280.524 Y3.261 Z9.953 A0.7671 B2.6474 
N1873 X-280.471 Y3.613 Z10.116 A0.3602 B2.6433 
N1874 X-280.421 Y3.954 Z10.277 A359.8787 B2.6400 
N1875 X-280.372 Y4.285 Z10.436 A359.3186 B2.6355 
N1876 X-280.325 Y4.605 Z10.593 A358.6775 B2.6275 
N1877 X-280.280 Y4.914 Z10.747 A357.9560 B2.6221 
N1878 X-280.236 Y5.210 Z10.898 A357.1540 B2.6121 
N1879 X-280.194 Y5.494 Z11.046 A356.2728 B2.6027 
N1880 X-280.155 Y5.766 Z11.190 A355.3124 B2.5913 
N1881 X-280.117 Y6.025 Z11.332 A354.2722 B2.5781 
N1882 X-280.081 Y6.273 Z11.470 A353.1529 B2.5636 
N1883 X-280.047 Y6.509 Z11.604 A351.9578 B2.5454 
N1884 X-280.015 Y6.733 Z11.736 A350.6927 B2.5279 
N1885 X-279.985 Y6.945 Z11.864 A349.3578 B2.5059 
N1886 X-279.956 Y7.148 Z11.991 A347.9477 B2.4844 
N1887 X-279.929 Y7.340 Z12.116 A346.4510 B2.4594 
N1888 X-279.903 Y7.524 Z12.242 A344.8577 B2.4307 
N1889 X-279.879 Y7.700 Z12.368 A343.1605 B2.3985 
N1890 X-279.855 Y7.870 Z12.496 A341.3533 B2.3626 
N1891 X-279.832 Y8.035 Z12.627 A339.4293 B2.3216 
N1892 X-279.810 Y8.197 Z12.759 A337.3802 B2.2766 
N1893 X-279.788 Y8.357 Z12.895 A335.1977 B2.2251 
N1894 X-279.766 Y8.517 Z13.035 A332.8760 B2.1660 
N1895 X-279.743 Y8.679 Z13.178 A330.4147 B2.1010 
N1896 X-279.720 Y8.845 Z13.322 A327.8205 B2.0260 
N1897 X-279.696 Y9.015 Z13.468 A325.1084 B1.9432 
N1898 X-279.672 Y9.190 Z13.612 A322.2989 B1.8539 
N1899 X-279.648 Y9.370 Z13.753 A319.4145 B1.7583 
N1900 X-279.623 Y9.556 Z13.889 A316.4764 B1.6575 
N1901 X-279.597 Y9.748 Z14.018 A313.5028 B1.5522 
N1902 X-279.572 Y9.944 Z14.140 A310.5072 B1.4435 
N1903 X-279.547 Y10.145 Z14.254 A307.4981 B1.3329 
N1904 X-279.521 Y10.351 Z14.358 A304.4792 B1.2201 
N1905 X-279.496 Y10.562 Z14.453 A301.4502 B1.1045 
N1906 X-279.470 Y10.778 Z14.537 A298.4085 B0.9852 
N1907 X-279.443 Y10.998 Z14.611 A295.3502 B0.8632 
N1908 X-279.417 Y11.224 Z14.673 A292.2719 B0.7402 
N1909 X-279.391 Y11.455 Z14.723 A289.1721 B0.6152 
N1910 X-279.365 Y11.690 Z14.760 A286.0526 B0.4869 
N1911 X-279.337 Y11.929 Z14.784 A282.9199 B0.3542 
N1912 X-279.310 Y12.170 Z14.792 A279.7869 B0.2192 
N1913 X-279.283 Y12.411 Z14.784 A276.6724 B0.0863 
N1914 X-279.258 Y12.650 Z14.760 A273.6004 B-0.0442 
N1915 X-279.233 Y12.884 Z14.719 A270.5986 B-0.1718 
N1916 X-279.210 Y13.109 Z14.661 A267.6965 B-0.2949 
N1917 X-279.188 Y13.324 Z14.587 A264.9221 B-0.4104 
N1918 X-279.169 Y13.526 Z14.497 A262.2983 B-0.5158 
N1919 X-279.154 Y13.713 Z14.393 A259.8392 B-0.6093 
N1920 X-279.140 Y13.885 Z14.276 A257.5482 B-0.6955 
N1921 X-279.129 Y14.042 Z14.145 A255.4198 B-0.7720 
N1922 X-279.120 Y14.185 Z14.003 A253.4432 B-0.8404 
N1923 X-279.113 Y14.313 Z13.848 A251.6043 B-0.9037 
N1924 X-279.108 Y14.429 Z13.681 A249.8892 B-0.9608 
N1925 X-279.105 Y14.532 Z13.503 A248.2850 B-1.0136 
N1926 X-279.103 Y14.624 Z13.313 A246.7800 B-1.0621 
N1927 X-279.104 Y14.704 Z13.112 A245.3616 B-1.1061 
N1928 X-279.106 Y14.774 Z12.899 A244.0156 B-1.1471 
N1929 X-279.110 Y14.834 Z12.674 A242.7260 B-1.1859 
N1930 X-279.114 Y14.885 Z12.438 A241.4800 B-1.2235 
N1931 X-279.121 Y14.926 Z12.190 A240.2710 B-1.2605 
N1932 X-279.128 Y14.958 Z11.933 A239.0976 B-1.2958 
N1933 X-279.137 Y14.981 Z11.665 A237.9591 B-1.3285 
N1934 X-279.148 Y14.994 Z11.389 A236.8535 B-1.3603 
N1935 X-279.160 Y14.998 Z11.104 A235.7769 B-1.3898 
N1936 X-279.173 Y14.993 Z10.812 A234.7263 B-1.4185 
N1937 X-279.187 Y14.979 Z10.513 A233.6997 B-1.4469 
N1938 X-279.203 Y14.957 Z10.209 A232.6958 B-1.4723 
N1939 X-279.219 Y14.926 Z9.900 A231.7133 B-1.4978 
N1940 X-279.236 Y14.887 Z9.587 A230.7497 B-1.5223 
N1941 X-279.255 Y14.840 Z9.270 A229.8013 B-1.5446 
N1942 X-279.274 Y14.787 Z8.952 A228.8631 B-1.5664 
N1943 X-279.294 Y14.727 Z8.631 A227.9297 B-1.5883 
N1944 X-279.315 Y14.660 Z8.308 A226.9956 B-1.6098 
N1945 X-279.336 Y14.588 Z7.985 A226.0564 B-1.6305 
N1946 X-279.358 Y14.511 Z7.662 A225.1089 B-1.6508 
N1947 X-279.380 Y14.429 Z7.338 A224.1515 B-1.6719 
N1948 X-279.402 Y14.341 Z7.015 A223.1833 B-1.6923 
N1949 X-279.425 Y14.249 Z6.694 A222.2041 B-1.7117 
N1950 X-279.448 Y14.152 Z6.374 A221.2138 B-1.7312 
N1951 X-279.471 Y14.051 Z6.056 A220.2120 B-1.7503 
N1952 X-279.495 Y13.945 Z5.741 A219.1974 B-1.7687 
N1953 X-279.519 Y13.836 Z5.429 A218.1684 B-1.7868 
N1954 X-279.543 Y13.722 Z5.119 A217.1232 B-1.8045 
N1955 X-279.567 Y13.606 Z4.813 A216.0599 B-1.8218 
N1956 X-279.591 Y13.485 Z4.510 A214.9769 B-1.8386 
N1957 X-279.616 Y13.362 Z4.210 A213.8729 B-1.8551 
N1958 X-279.640 Y13.235 Z3.913 A212.7472 B-1.8710 
N1959 X-279.665 Y13.105 Z3.621 A211.5989 B-1.8865 
N1960 X-279.689 Y12.972 Z3.332 A210.4280 B-1.9013 
N1961 X-279.714 Y12.836 Z3.046 A209.2343 B-1.9154 
N1962 X-279.738 Y12.697 Z2.765 A208.0178 B-1.9289 
N1963 X-279.763 Y12.555 Z2.488 A206.7790 B-1.9415 
N1964 X-279.787 Y12.409 Z2.215 A205.5179 B-1.9533 
N1965 X-279.812 Y12.261 Z1.945 A204.2352 B-1.9641 
N1966 X-279.837 Y12.109 Z1.681 A202.9312 B-1.9740 
N1967 X-279.862 Y11.953 Z1.420 A201.6066 B-1.9828 
N1968 X-279.886 Y11.795 Z1.163 A200.2620 B-1.9904 
N1969 X-279.911 Y11.632 Z0.911 A198.8982 B-1.9969 
N1970 X-279.936 Y11.467 Z0.663 A197.5162 B-2.0021 
N1971 X-279.961 Y11.297 Z0.420 A196.1169 B-2.0060 
N1972 X-279.986 Y11.124 Z0.181 A194.7016 B-2.0085 
N1973 X-280.012 Y10.947 Z-0.054 A193.2714 B-2.0096 
N1974 X-280.037 Y10.766 Z-0.283 A191.8276 B-2.0093 
N1975 X-280.062 Y10.581 Z-0.508 A190.3716 B-2.0073 
N1976 X-280.088 Y10.391 Z-0.729 A188.9046 B-2.0039 
N1977 X-280.113 Y10.197 Z-0.944 A187.4280 B-1.9989 
N1978 X-280.139 Y9.999 Z-1.154 A185.9434 B-1.9923 
N1979 X-280.165 Y9.796 Z-1.359 A184.4522 B-1.9841 
N1980 X-280.191 Y9.589 Z-1.559 A182.9560 B-1.9743 
N1981 X-280.217 Y9.376 Z-1.753 A181.4565 B-1.9629 
N1982 X-280.244 Y9.159 Z-1.942 A179.9554 B-1.9499 
N1983 X-280.270 Y8.937 Z-2.125 A178.4543 B-1.9354 
N1984 X-280.297 Y8.710 Z-2.302 A176.9550 B-1.9193 
N1985 X-280.324 Y8.478 Z-2.473 A175.4591 B-1.9017 
N1986 X-280.351 Y8.241 Z-2.637 A173.9682 B-1.8826 
N1987 X-280.378 Y7.999 Z-2.795 A172.4840 B-1.8621 
N1988 X-280.405 Y7.752 Z-2.947 A171.0079 B-1.8404 
N1989 X-280.432 Y7.499 Z-3.091 A169.5415 B-1.8172 
N1990 X-280.460 Y7.242 Z-3.229 A168.0864 B-1.7928 
N1991 X-280.487 Y6.979 Z-3.359 A166.6441 B-1.7673 
N1992 X-280.515 Y6.711 Z-3.482 A165.2163 B-1.7408 
