; PROGRAM NAME: A00000150
; ORDER       : A000001
; OPER. NAME  : Side Milling:113
; OPER. DESCR.: Side Milling/podciecie wk
; OPER. TYPE  : sideMill
; GEO. OPTION : 1
; MACHINE     : HSTM_300_SIM840D_Py
;             : HSTM300/500 - HAMUEL: 5-axis milling machine-SIM840D Traori PP_Script
; CONTROL     : SINUMERIK 840D
; created:   2021-11-15 09:09:31.033998
;-------DODATKOWE DANE-------------------
; PROGRAMISTA : Mariusz Malec
; PARTID      : 138T005360P1002_-
;  ap         : 1.0
;  ae         : 1.0
;  lean_angle : 0.0
;  fin_offset : 0.0
;----------------------------------------
RAPORT("TA000001","Side Milling:113")
N10 TRAFOOF
N11 D0
N12 G90 G94
N13 G0 G53 D0 Z550
N14 STOPRE
M9 ; chlodziwo wyl
; --- Side Milling:113 - Side Milling/podciecie wk ---
N16 ;ToolChange : concat=None ,current_tdmid=None, PP.tdmId=940973
N17 TRAFOOF
N18 G0 G53 D0 X-200 Y150 Z550 B0
N19 T="7740973"
RAPORT("TA000001","ToolChangeStart 7740973")
N20 M6
RAPORT("TA000001","ToolChangeEnd")
N21 STOPRE
N22 MSG(" TLID=940973 D=12.0 R=3.0 Ang=0.0 Len=109.0 ")
;---> in saveDoc :0:00:00.104768
;---> in saveDoc :0:00:00.103723
N23 S2122 M03
N24 STOPRE
N25 TOL(0.1,1,1)
N26 G0 G53 A304.0000 B-0.0000
N27 TRAORI
N28 G54 D1
N29 D1 
;---> in saveDoc :0:00:00.115263
STOPRE
E_ZDARZ=300019
;ACS_FINISH_UNDERCUT=7740973
STOPRE
N30 ; DELTA A > 40.1
N31 TRAFOOF
N32 D1
N33 STOPRE
N34 G00 G54 Z277.000
N35 G01 A304.0000 F10000
N36 TRAORI
N37 G54 D1
N38 STOPRE
N39 TRANS 
N40 G00 X-159.404 Y41.530 Z70.466 A304.0000 
N41 M342 ; chlodziwo woda
N42 X-159.404 Y0.078 Z42.506 
N43 G01 X-159.418 Y-2.210 Z40.372 F222 
N44 X-159.458 Y-3.727 Z37.636 
N45 X-159.520 Y-4.325 Z34.566 
N46 X-159.598 Y-3.944 Z31.462 
N47 ;NGE_2_1
N48 G01 G41 X-159.685 Y-2.623 Z28.627 F222
N49 X-159.685 Y-2.623 Z28.627 
N50 X-159.686 Y-2.592 Z28.581 F111 
N51 X-159.688 Y-2.561 Z28.535 
N52 X-159.690 Y-2.530 Z28.489 
N53 X-159.691 Y-2.498 Z28.443 
N54 X-159.693 Y-2.467 Z28.397 
N55 X-159.694 Y-2.436 Z28.351 
N56 X-159.696 Y-2.405 Z28.305 
N57 X-159.697 Y-2.374 Z28.259 
N58 X-159.699 Y-2.343 Z28.213 
N59 X-159.701 Y-2.312 Z28.167 
N60 X-159.702 Y-2.281 Z28.121 
N61 X-159.704 Y-2.250 Z28.075 
N62 X-159.705 Y-2.219 Z28.028 
N63 X-159.707 Y-2.188 Z27.982 
N64 X-159.708 Y-2.157 Z27.936 
N65 X-159.710 Y-2.126 Z27.890 
N66 X-159.711 Y-2.095 Z27.844 
N67 X-159.713 Y-2.064 Z27.798 
N68 X-159.715 Y-2.033 Z27.752 
N69 X-159.716 Y-2.002 Z27.706 
N70 X-159.718 Y-1.971 Z27.660 
N71 X-159.719 Y-1.940 Z27.614 
N72 X-159.721 Y-1.908 Z27.568 
N73 X-159.722 Y-1.877 Z27.522 
N74 X-159.724 Y-1.846 Z27.476 
N75 X-159.725 Y-1.815 Z27.430 
N76 X-159.727 Y-1.784 Z27.384 
N77 X-159.729 Y-1.753 Z27.338 
N78 X-159.730 Y-1.722 Z27.292 
N79 X-159.732 Y-1.691 Z27.246 
N80 X-159.733 Y-1.660 Z27.200 
N81 X-159.735 Y-1.629 Z27.154 
N82 X-159.736 Y-1.598 Z27.108 
N83 X-159.738 Y-1.567 Z27.062 
N84 X-159.740 Y-1.536 Z27.016 
N85 X-159.741 Y-1.505 Z26.970 
N86 X-159.743 Y-1.474 Z26.924 
N87 X-159.744 Y-1.443 Z26.877 
N88 X-159.746 Y-1.412 Z26.831 
N89 X-159.747 Y-1.381 Z26.785 
N90 X-159.749 Y-1.350 Z26.739 
N91 X-159.750 Y-1.318 Z26.693 
N92 X-159.752 Y-1.287 Z26.647 
N93 X-159.754 Y-1.256 Z26.601 
N94 X-159.755 Y-1.225 Z26.555 
N95 X-159.757 Y-1.194 Z26.509 
N96 X-159.758 Y-1.163 Z26.463 
N97 X-159.760 Y-1.132 Z26.417 
N98 X-159.761 Y-1.101 Z26.371 
N99 X-159.763 Y-1.070 Z26.325 
N100 X-159.765 Y-1.039 Z26.279 
N101 X-159.766 Y-1.008 Z26.233 
N102 X-159.768 Y-0.977 Z26.187 
N103 X-159.769 Y-0.946 Z26.141 
N104 X-159.771 Y-0.915 Z26.095 
N105 X-159.772 Y-0.884 Z26.049 
N106 X-159.774 Y-0.853 Z26.003 
N107 X-159.775 Y-0.822 Z25.957 
N108 X-159.777 Y-0.791 Z25.911 
N109 X-159.779 Y-0.759 Z25.865 
N110 X-159.780 Y-0.728 Z25.819 
N111 X-159.782 Y-0.697 Z25.773 
N112 X-159.783 Y-0.666 Z25.727 
N113 X-159.785 Y-0.635 Z25.680 
N114 X-159.786 Y-0.604 Z25.634 
N115 X-159.788 Y-0.573 Z25.588 
N116 X-159.789 Y-0.542 Z25.542 
N117 X-159.791 Y-0.511 Z25.496 
N118 X-159.793 Y-0.480 Z25.450 
N119 X-159.794 Y-0.449 Z25.404 
N120 X-159.796 Y-0.418 Z25.358 
N121 X-159.797 Y-0.387 Z25.312 
N122 X-159.799 Y-0.356 Z25.266 
N123 X-159.800 Y-0.325 Z25.220 
N124 X-159.802 Y-0.294 Z25.174 
N125 X-159.804 Y-0.263 Z25.128 
N126 X-159.805 Y-0.232 Z25.082 
N127 X-159.807 Y-0.201 Z25.036 
N128 X-159.808 Y-0.169 Z24.990 
N129 X-159.810 Y-0.138 Z24.944 
N130 X-159.811 Y-0.107 Z24.898 
N131 X-159.813 Y-0.076 Z24.852 
N132 X-159.814 Y-0.045 Z24.806 
N133 X-159.816 Y-0.014 Z24.760 
N134 X-159.818 Y0.017 Z24.714 
N135 X-159.819 Y0.048 Z24.668 
N136 X-159.821 Y0.079 Z24.622 
N137 X-159.822 Y0.110 Z24.576 
N138 X-159.824 Y0.141 Z24.529 
N139 X-159.825 Y0.172 Z24.483 
N140 X-159.827 Y0.203 Z24.437 
N141 X-159.828 Y0.234 Z24.391 
N142 X-159.830 Y0.265 Z24.345 
N143 X-159.832 Y0.296 Z24.299 
N144 X-159.833 Y0.327 Z24.253 
N145 X-159.835 Y0.358 Z24.207 
N146 X-159.836 Y0.390 Z24.161 
N147 X-159.838 Y0.421 Z24.115 
N148 X-159.839 Y0.452 Z24.069 
N149 X-159.841 Y0.483 Z24.023 
N150 X-159.843 Y0.514 Z23.977 
N151 X-159.844 Y0.545 Z23.931 
N152 X-159.846 Y0.576 Z23.885 
N153 X-159.847 Y0.607 Z23.839 
N154 X-159.849 Y0.638 Z23.793 
N155 X-159.850 Y0.669 Z23.747 
N156 X-159.852 Y0.700 Z23.701 
N157 X-159.853 Y0.731 Z23.655 
N158 X-159.855 Y0.762 Z23.609 
N159 X-159.857 Y0.793 Z23.563 
N160 X-159.858 Y0.824 Z23.517 
N161 X-159.860 Y0.855 Z23.471 
N162 X-159.861 Y0.886 Z23.425 
N163 X-159.863 Y0.917 Z23.378 
N164 X-159.864 Y0.948 Z23.332 
N165 X-159.866 Y0.980 Z23.286 
N166 X-159.867 Y1.011 Z23.240 
N167 X-159.869 Y1.042 Z23.194 
N168 X-159.871 Y1.073 Z23.148 
N169 X-159.872 Y1.104 Z23.102 
N170 X-159.874 Y1.135 Z23.056 
N171 X-159.875 Y1.166 Z23.010 
N172 X-159.877 Y1.197 Z22.964 
N173 X-159.878 Y1.228 Z22.918 
N174 X-159.880 Y1.259 Z22.872 
N175 X-159.882 Y1.290 Z22.826 
N176 X-159.883 Y1.321 Z22.780 
N177 X-159.885 Y1.352 Z22.734 
N178 X-159.886 Y1.383 Z22.688 
N179 X-159.888 Y1.414 Z22.642 
N180 X-159.889 Y1.445 Z22.596 
N181 X-159.891 Y1.476 Z22.550 
N182 X-159.892 Y1.507 Z22.504 
N183 X-159.894 Y1.539 Z22.458 
N184 X-159.896 Y1.570 Z22.412 
N185 X-159.897 Y1.601 Z22.366 
N186 X-159.899 Y1.632 Z22.320 
N187 X-159.900 Y1.663 Z22.274 
N188 X-159.902 Y1.694 Z22.228 
N189 X-159.903 Y1.725 Z22.181 
N190 X-159.905 Y1.756 Z22.135 
N191 X-159.907 Y1.787 Z22.089 
N192 X-159.908 Y1.818 Z22.043 
N193 X-159.910 Y1.849 Z21.997 
N194 X-159.911 Y1.880 Z21.951 
N195 X-159.913 Y1.911 Z21.905 
N196 X-159.914 Y1.942 Z21.859 
N197 X-159.916 Y1.973 Z21.813 
N198 X-159.917 Y2.004 Z21.767 
N199 X-159.919 Y2.035 Z21.721 
N200 X-159.921 Y2.066 Z21.675 
N201 X-159.922 Y2.097 Z21.629 
N202 X-159.924 Y2.129 Z21.583 
N203 X-159.925 Y2.160 Z21.537 
N204 X-159.927 Y2.191 Z21.491 
N205 X-159.928 Y2.222 Z21.445 
N206 X-159.930 Y2.253 Z21.399 
N207 X-159.931 Y2.284 Z21.353 
N208 X-159.933 Y2.315 Z21.307 
N209 X-159.935 Y2.346 Z21.261 
N210 X-159.936 Y2.377 Z21.215 
N211 X-159.938 Y2.408 Z21.169 
N212 X-159.939 Y2.439 Z21.123 
N213 X-159.941 Y2.470 Z21.077 
N214 X-159.942 Y2.501 Z21.030 
N215 X-159.944 Y2.532 Z20.984 
N216 X-159.946 Y2.563 Z20.938 
N217 X-159.947 Y2.594 Z20.892 
N218 X-159.949 Y2.625 Z20.846 
N219 X-159.950 Y2.656 Z20.800 
N220 X-159.952 Y2.688 Z20.754 
N221 X-159.953 Y2.719 Z20.708 
N222 X-159.955 Y2.750 Z20.662 
N223 X-159.956 Y2.781 Z20.616 
N224 X-159.958 Y2.812 Z20.570 
N225 X-159.960 Y2.843 Z20.524 
N226 X-159.961 Y2.874 Z20.478 
N227 X-159.963 Y2.905 Z20.432 
N228 X-159.964 Y2.936 Z20.386 
N229 X-159.966 Y2.967 Z20.340 
N230 X-159.967 Y2.998 Z20.294 F112 
N231 X-159.969 Y3.030 Z20.247 F114 
N232 X-159.971 Y3.062 Z20.199 F115 
N233 X-159.972 Y3.095 Z20.151 F117 
N234 X-159.974 Y3.128 Z20.102 F118 
N235 X-159.976 Y3.161 Z20.052 F120 
N236 X-159.977 Y3.195 Z20.002 F121 
N237 X-159.979 Y3.229 Z19.951 F123 
N238 X-159.981 Y3.264 Z19.900 F124 
N239 X-159.983 Y3.299 Z19.848 F126 
N240 X-159.984 Y3.335 Z19.795 F127 
N241 X-159.986 Y3.371 Z19.741 F129 
N242 X-159.988 Y3.407 Z19.687 F131 
N243 X-159.990 Y3.444 Z19.633 F132 
N244 X-159.992 Y3.481 Z19.577 F134 
N245 X-159.994 Y3.519 Z19.521 F135 
N246 X-159.995 Y3.557 Z19.465 F137 
N247 X-159.997 Y3.596 Z19.408 F138 
N248 X-159.999 Y3.635 Z19.350 F140 
N249 X-160.001 Y3.674 Z19.291 F141 
N250 X-160.003 Y3.714 Z19.232 F143 
N251 X-160.005 Y3.755 Z19.172 F144 
N252 X-160.007 Y3.795 Z19.112 F146 
N253 X-160.010 Y3.837 Z19.051 F148 
N254 X-160.012 Y3.878 Z18.989 F149 
N255 X-160.014 Y3.920 Z18.927 F151 
N256 X-160.016 Y3.963 Z18.864 F152 
N257 X-160.018 Y4.006 Z18.800 F154 
N258 X-160.020 Y4.049 Z18.736 F155 
N259 X-160.022 Y4.093 Z18.671 F157 
N260 X-160.025 Y4.137 Z18.605 F158 
N261 X-160.027 Y4.182 Z18.539 F160 
N262 X-160.029 Y4.227 Z18.472 F161 
N263 X-160.031 Y4.272 Z18.405 F163 
N264 X-160.034 Y4.318 Z18.337 F164 
N265 X-160.036 Y4.364 Z18.268 F166 
N266 X-160.038 Y4.411 Z18.199 F168 
N267 X-160.041 Y4.458 Z18.129 F169 
N268 X-160.043 Y4.506 Z18.058 F171 
N269 X-160.046 Y4.554 Z17.987 F172 
N270 X-160.048 Y4.603 Z17.915 F174 
N271 X-160.050 Y4.652 Z17.842 F175 
N272 X-160.053 Y4.701 Z17.769 F177 
N273 X-160.055 Y4.751 Z17.695 F178 
N274 X-160.058 Y4.801 Z17.621 F180 
N275 X-160.061 Y4.852 Z17.546 F181 
N276 X-160.063 Y4.903 Z17.470 F183 
N277 X-160.066 Y4.954 Z17.393 F185 
N278 X-160.068 Y5.006 Z17.316 F186 
N279 X-160.071 Y5.059 Z17.239 F188 
N280 X-160.074 Y5.112 Z17.160 F189 
N281 X-160.076 Y5.165 Z17.081 F191 
N282 X-160.079 Y5.219 Z17.002 F192 
N283 X-160.082 Y5.273 Z16.921 F194 
N284 X-160.084 Y5.327 Z16.841 F195 
N285 X-160.087 Y5.382 Z16.759 F197 
N286 X-160.090 Y5.438 Z16.677 F198 
N287 X-160.093 Y5.494 Z16.594 F200 
N288 X-160.096 Y5.550 Z16.511 F201 
N289 X-160.098 Y5.607 Z16.427 F203 
N290 X-160.101 Y5.664 Z16.342 F205 
N291 X-160.104 Y5.721 Z16.256 F206 
N292 X-160.107 Y5.779 Z16.170 F208 
N293 X-160.110 Y5.838 Z16.084 F209 
N294 X-160.113 Y5.897 Z15.997 F211 
N295 X-160.116 Y5.956 Z15.909 F212 
N296 X-160.119 Y6.016 Z15.820 F214 
N297 X-160.122 Y6.076 Z15.731 F215 
N298 X-160.125 Y6.136 Z15.641 F217 
N299 X-160.128 Y6.197 Z15.551 F218 
N300 X-160.131 Y6.259 Z15.459 F220 
N301 X-160.134 Y6.321 Z15.368 F222 
N302 X-160.137 Y6.383 Z15.276 
N303 X-160.141 Y6.445 Z15.184 
N304 X-160.144 Y6.507 Z15.092 
N305 X-160.147 Y6.569 Z15.000 
N306 X-160.150 Y6.631 Z14.908 
N307 X-160.153 Y6.693 Z14.816 
N308 X-160.156 Y6.755 Z14.725 
N309 X-160.158 Y6.817 Z14.633 
N310 X-160.161 Y6.879 Z14.541 
N311 X-160.164 Y6.941 Z14.449 
N312 X-160.167 Y7.003 Z14.357 
N313 X-160.170 Y7.064 Z14.265 
N314 X-160.172 Y7.126 Z14.173 
N315 X-160.175 Y7.188 Z14.081 
N316 X-160.178 Y7.250 Z13.989 
N317 X-160.180 Y7.312 Z13.898 
N318 X-160.183 Y7.374 Z13.806 
N319 X-160.185 Y7.436 Z13.714 
N320 X-160.188 Y7.498 Z13.622 
N321 X-160.190 Y7.560 Z13.530 
N322 X-160.193 Y7.622 Z13.438 
N323 X-160.195 Y7.684 Z13.346 
N324 X-160.197 Y7.746 Z13.254 
N325 X-160.200 Y7.808 Z13.163 
N326 X-160.202 Y7.870 Z13.071 
N327 X-160.204 Y7.932 Z12.979 
N328 X-160.206 Y7.994 Z12.887 
N329 X-160.208 Y8.056 Z12.795 
N330 X-160.211 Y8.118 Z12.703 
N331 X-160.213 Y8.180 Z12.611 
N332 X-160.215 Y8.242 Z12.519 
N333 X-160.217 Y8.304 Z12.427 
N334 X-160.219 Y8.366 Z12.336 
N335 X-160.221 Y8.428 Z12.244 
N336 X-160.222 Y8.490 Z12.152 
N337 X-160.224 Y8.552 Z12.060 
N338 X-160.226 Y8.614 Z11.968 
N339 X-160.228 Y8.676 Z11.876 
N340 X-160.230 Y8.738 Z11.784 
N341 X-160.231 Y8.800 Z11.692 
N342 X-160.233 Y8.862 Z11.600 
N343 X-160.234 Y8.924 Z11.508 
N344 X-160.236 Y8.986 Z11.417 
N345 X-160.238 Y9.048 Z11.325 
N346 X-160.239 Y9.110 Z11.233 
N347 X-160.241 Y9.172 Z11.141 
N348 X-160.242 Y9.234 Z11.049 
N349 X-160.243 Y9.296 Z10.957 
N350 X-160.245 Y9.358 Z10.865 
N351 X-160.246 Y9.420 Z10.773 
N352 X-160.247 Y9.482 Z10.681 
N353 X-160.249 Y9.544 Z10.589 
N354 X-160.250 Y9.606 Z10.498 
N355 X-160.251 Y9.668 Z10.406 
N356 X-160.252 Y9.730 Z10.314 
N357 X-160.253 Y9.792 Z10.222 
N358 X-160.254 Y9.854 Z10.130 
N359 X-160.255 Y9.916 Z10.038 
N360 X-160.256 Y9.978 Z9.946 
N361 X-160.257 Y10.040 Z9.854 
N362 X-160.258 Y10.102 Z9.762 
N363 X-160.259 Y10.164 Z9.670 
N364 X-160.260 Y10.226 Z9.579 
N365 X-160.261 Y10.288 Z9.487 
N366 X-160.261 Y10.350 Z9.395 
N367 X-160.262 Y10.412 Z9.303 
N368 X-160.263 Y10.474 Z9.211 
N369 X-160.263 Y10.536 Z9.119 
N370 X-160.264 Y10.598 Z9.027 
N371 X-160.264 Y10.660 Z8.935 
N372 X-160.265 Y10.722 Z8.843 
N373 X-160.266 Y10.784 Z8.751 
N374 X-160.266 Y10.846 Z8.659 
N375 X-160.266 Y10.908 Z8.568 
N376 X-160.267 Y10.970 Z8.476 
N377 X-160.267 Y11.032 Z8.384 
N378 X-160.267 Y11.094 Z8.292 
N379 X-160.268 Y11.156 Z8.200 
N380 X-160.268 Y11.218 Z8.108 
N381 X-160.268 Y11.280 Z8.016 
N382 X-160.268 Y11.341 Z7.924 
N383 X-160.268 Y11.403 Z7.832 
N384 X-160.268 Y11.465 Z7.740 
N385 X-160.268 Y11.527 Z7.648 
N386 X-160.268 Y11.589 Z7.557 
N387 X-160.268 Y11.651 Z7.465 
N388 X-160.268 Y11.713 Z7.373 
N389 X-160.268 Y11.775 Z7.281 
N390 X-160.268 Y11.837 Z7.189 
N391 X-160.268 Y11.899 Z7.097 
N392 X-160.268 Y11.961 Z7.005 
N393 X-160.267 Y12.023 Z6.913 
N394 X-160.267 Y12.085 Z6.821 
N395 X-160.267 Y12.147 Z6.729 
N396 X-160.266 Y12.209 Z6.638 
N397 X-160.266 Y12.271 Z6.546 
N398 X-160.266 Y12.333 Z6.454 
N399 X-160.265 Y12.395 Z6.362 
N400 X-160.265 Y12.457 Z6.270 
N401 X-160.264 Y12.519 Z6.178 
N402 X-160.263 Y12.581 Z6.086 
N403 X-160.263 Y12.643 Z5.994 
N404 X-160.262 Y12.705 Z5.902 
N405 X-160.261 Y12.767 Z5.810 
N406 X-160.261 Y12.829 Z5.718 
N407 X-160.260 Y12.891 Z5.627 
N408 X-160.259 Y12.953 Z5.535 
N409 X-160.258 Y13.015 Z5.443 
N410 X-160.257 Y13.077 Z5.351 
N411 X-160.256 Y13.139 Z5.259 
N412 X-160.255 Y13.201 Z5.167 
N413 X-160.254 Y13.263 Z5.075 
N414 X-160.253 Y13.325 Z4.983 
N415 X-160.252 Y13.387 Z4.891 
N416 X-160.251 Y13.449 Z4.799 
N417 X-160.250 Y13.511 Z4.708 
N418 X-160.249 Y13.573 Z4.616 
N419 X-160.247 Y13.635 Z4.524 
N420 X-160.246 Y13.697 Z4.432 
N421 X-160.245 Y13.759 Z4.340 
N422 X-160.244 Y13.821 Z4.248 
N423 X-160.242 Y13.883 Z4.156 
N424 X-160.241 Y13.945 Z4.064 
N425 X-160.239 Y14.007 Z3.972 
N426 X-160.238 Y14.069 Z3.880 
N427 X-160.236 Y14.131 Z3.789 
N428 X-160.235 Y14.193 Z3.697 
N429 X-160.233 Y14.255 Z3.605 
N430 X-160.232 Y14.317 Z3.513 
N431 X-160.230 Y14.379 Z3.421 
N432 X-160.228 Y14.441 Z3.329 
N433 X-160.226 Y14.503 Z3.237 
N434 X-160.225 Y14.565 Z3.145 
N435 X-160.223 Y14.627 Z3.053 
N436 X-160.221 Y14.689 Z2.961 
N437 X-160.219 Y14.751 Z2.870 
N438 X-160.217 Y14.813 Z2.778 
N439 X-160.215 Y14.875 Z2.686 
N440 X-160.213 Y14.937 Z2.594 
N441 X-160.211 Y14.999 Z2.502 
N442 X-160.209 Y15.061 Z2.410 
N443 X-160.207 Y15.123 Z2.318 
N444 X-160.204 Y15.185 Z2.226 
N445 X-160.202 Y15.247 Z2.134 
N446 X-160.200 Y15.309 Z2.043 
N447 X-160.198 Y15.371 Z1.951 
N448 X-160.195 Y15.433 Z1.859 
N449 X-160.193 Y15.495 Z1.767 
N450 X-160.191 Y15.557 Z1.675 
N451 X-160.188 Y15.619 Z1.583 
N452 X-160.186 Y15.681 Z1.491 
N453 X-160.183 Y15.743 Z1.399 
N454 X-160.181 Y15.805 Z1.307 
N455 X-160.178 Y15.867 Z1.216 
N456 X-160.176 Y15.929 Z1.124 
N457 X-160.173 Y15.990 Z1.032 
N458 X-160.170 Y16.052 Z0.940 
N459 X-160.167 Y16.114 Z0.848 
N460 X-160.165 Y16.176 Z0.756 
N461 X-160.162 Y16.238 Z0.664 
N462 X-160.159 Y16.300 Z0.572 
N463 X-160.156 Y16.362 Z0.481 
N464 X-160.153 Y16.424 Z0.389 
N465 X-160.150 Y16.486 Z0.297 
N466 X-160.147 Y16.548 Z0.205 
N467 X-160.144 Y16.610 Z0.113 
N468 X-160.141 Y16.672 Z0.021 
N469 X-160.138 Y16.734 Z-0.071 
N470 X-160.135 Y16.796 Z-0.163 
N471 X-160.132 Y16.858 Z-0.254 
N472 X-160.128 Y16.920 Z-0.346 
N473 X-160.125 Y16.982 Z-0.438 
N474 X-160.122 Y17.044 Z-0.530 
N475 X-160.119 Y17.106 Z-0.622 
N476 X-160.115 Y17.168 Z-0.714 
N477 X-160.112 Y17.230 Z-0.806 
N478 X-160.108 Y17.292 Z-0.898 
N479 X-160.105 Y17.354 Z-0.989 
N480 X-160.101 Y17.416 Z-1.081 
N481 X-160.098 Y17.478 Z-1.173 
N482 X-160.094 Y17.540 Z-1.265 
N483 X-160.091 Y17.602 Z-1.357 
N484 X-160.087 Y17.664 Z-1.449 
N485 X-160.083 Y17.726 Z-1.541 
N486 X-160.079 Y17.787 Z-1.632 
N487 X-160.076 Y17.849 Z-1.724 
N488 X-160.072 Y17.911 Z-1.816 
N489 X-160.068 Y17.973 Z-1.908 
N490 X-160.064 Y18.035 Z-2.000 
N491 X-160.060 Y18.097 Z-2.092 
N492 X-160.056 Y18.159 Z-2.183 
N493 X-160.052 Y18.221 Z-2.275 
N494 X-160.048 Y18.283 Z-2.367 
N495 X-160.044 Y18.345 Z-2.459 
N496 X-160.040 Y18.407 Z-2.551 
N497 X-160.036 Y18.469 Z-2.643 
N498 X-160.032 Y18.531 Z-2.735 
N499 X-160.027 Y18.593 Z-2.826 
N500 X-160.023 Y18.655 Z-2.918 
N501 X-160.019 Y18.717 Z-3.010 
N502 X-160.014 Y18.779 Z-3.102 
N503 X-160.010 Y18.841 Z-3.194 
N504 X-160.006 Y18.903 Z-3.286 
N505 X-160.001 Y18.965 Z-3.377 
N506 X-159.997 Y19.026 Z-3.469 
N507 X-159.992 Y19.088 Z-3.561 
N508 X-159.988 Y19.150 Z-3.653 
N509 X-159.983 Y19.212 Z-3.745 
N510 X-159.978 Y19.274 Z-3.837 
N511 X-159.974 Y19.336 Z-3.928 
N512 X-159.969 Y19.398 Z-4.020 
N513 X-159.964 Y19.460 Z-4.112 
N514 X-159.959 Y19.522 Z-4.204 
N515 X-159.954 Y19.584 Z-4.296 
N516 X-159.950 Y19.646 Z-4.387 
N517 X-159.945 Y19.708 Z-4.479 
N518 X-159.940 Y19.770 Z-4.571 
N519 X-159.935 Y19.832 Z-4.663 
N520 X-159.930 Y19.894 Z-4.755 
N521 X-159.925 Y19.955 Z-4.847 
N522 X-159.920 Y20.017 Z-4.938 
N523 X-159.914 Y20.079 Z-5.030 
N524 X-159.909 Y20.141 Z-5.122 
N525 X-159.904 Y20.203 Z-5.214 
N526 X-159.899 Y20.265 Z-5.306 
N527 X-159.894 Y20.327 Z-5.398 
N528 X-159.888 Y20.389 Z-5.490 
N529 X-159.883 Y20.451 Z-5.582 
N530 X-159.878 Y20.513 Z-5.674 
N531 X-159.873 Y20.575 Z-5.766 
N532 X-159.868 Y20.637 Z-5.858 
N533 X-159.863 Y20.700 Z-5.950 
N534 X-159.857 Y20.762 Z-6.042 
N535 X-159.852 Y20.824 Z-6.134 
N536 X-159.847 Y20.886 Z-6.226 
N537 X-159.842 Y20.948 Z-6.318 
N538 X-159.837 Y21.010 Z-6.410 
N539 X-159.831 Y21.072 Z-6.502 
N540 X-159.826 Y21.134 Z-6.594 
N541 X-159.821 Y21.196 Z-6.686 
N542 X-159.816 Y21.258 Z-6.778 
N543 X-159.811 Y21.320 Z-6.870 
N544 X-159.805 Y21.382 Z-6.962 
N545 X-159.800 Y21.444 Z-7.054 
N546 X-159.795 Y21.506 Z-7.146 
N547 X-159.790 Y21.568 Z-7.238 
N548 X-159.785 Y21.631 Z-7.330 
N549 X-159.779 Y21.693 Z-7.422 
N550 X-159.774 Y21.755 Z-7.514 
N551 X-159.769 Y21.817 Z-7.606 
N552 X-159.764 Y21.879 Z-7.698 
N553 X-159.759 Y21.941 Z-7.790 
N554 X-159.753 Y22.003 Z-7.882 
N555 X-159.748 Y22.065 Z-7.974 
N556 X-159.743 Y22.127 Z-8.066 
N557 X-159.738 Y22.189 Z-8.158 
N558 X-159.733 Y22.251 Z-8.250 
N559 X-159.728 Y22.313 Z-8.342 
N560 X-159.722 Y22.375 Z-8.434 
N561 X-159.717 Y22.437 Z-8.526 
N562 X-159.712 Y22.499 Z-8.618 
N563 X-159.707 Y22.561 Z-8.710 
N564 X-159.702 Y22.624 Z-8.802 
N565 X-159.696 Y22.686 Z-8.894 
N566 X-159.691 Y22.748 Z-8.986 
N567 X-159.686 Y22.810 Z-9.078 
N568 X-159.681 Y22.872 Z-9.170 
N569 X-159.676 Y22.934 Z-9.262 
N570 X-159.670 Y22.996 Z-9.354 
N571 X-159.665 Y23.058 Z-9.446 
N572 X-159.660 Y23.120 Z-9.538 
N573 X-159.655 Y23.182 Z-9.630 
N574 X-159.650 Y23.244 Z-9.722 
N575 X-159.644 Y23.306 Z-9.814 
N576 X-159.639 Y23.368 Z-9.906 
N577 X-159.634 Y23.430 Z-9.998 
N578 X-159.629 Y23.492 Z-10.090 
N579 X-159.624 Y23.555 Z-10.182 
N580 X-159.619 Y23.617 Z-10.274 
N581 G40 X-159.151 Y29.202 Z-18.556 F222
N582 X-159.151 Y29.202 Z-18.556 
N583 G00 X-159.151 Y70.654 Z9.404 
RAPORT("TA000001","Side Milling:113 End")
;trailer : concat=None
; points cnt = 537
N585 MSG (" --- GROUPED OF SUBPROGRAM --- ")
N586 FGROUP()
N587 TRAFOOF
; PROGRAM NAME: A00000150
; ORDER       : A000001
; OPER. NAME  : Side Milling:114
; OPER. DESCR.: Undercut finish milling NGA
; OPER. TYPE  : sideMill
; GEO. OPTION : 1
; MACHINE     : HSTM_300_SIM840D_Py
;             : HSTM300/500 - HAMUEL: 5-axis milling machine-SIM840D Traori PP_Script
; CONTROL     : SINUMERIK 840D
; created:   2021-11-15 09:09:33.054891
;-------DODATKOWE DANE-------------------
; PROGRAMISTA : Mariusz Malec
; PARTID      : 138T005360P1002_-
;  ap         : 1.0
;  ae         : 1.0
;  lean_angle : 0.0
;  fin_offset : 0.0
;----------------------------------------
RAPORT("TA000001","Side Milling:114")
N10 TRAFOOF
N11 D0
N12 G90 G94
N13 G0 G53 D0 Z550
N14 STOPRE
M9 ; chlodziwo wyl
; --- Side Milling:114 - Undercut finish milling NGA ---
N16 ;ToolChange : concat=None ,current_tdmid=None, PP.tdmId=940973
N17 TRAFOOF
N18 G0 G53 D0 Z550 B0
N19 STOPRE
N20 MSG(" TLID=940973 D=12.0 R=3.0 Ang=0.0 Len=109.0 ")
N21 S2122 M03
N22 STOPRE
N23 TOL(0.1,1,1)
N24 G0 G53 A124.0000 B0.0000
N25 TRAORI
N26 G54 D2
N27 D2 
;---> in saveDoc :0:00:00.137500
STOPRE
E_ZDARZ=300019
;ACS_FINISH_UNDERCUT=7740973
STOPRE
N28 ; DELTA A > 40.1
N29 TRAFOOF
N30 D2
N31 STOPRE
N32 G00 G54 Z277.000
N33 G01 A124.0000 F10000
N34 TRAORI
N35 G54 D2
N36 STOPRE
N37 TRANS 
N38 G00 X-160.236 Y-41.593 Z-60.272 A124.0000 
N39 M342 ; chlodziwo woda
N40 X-160.236 Y-0.142 Z-32.313 
N41 G01 X-160.237 Y2.147 Z-30.179 F222 
N42 X-160.239 Y3.663 Z-27.442 
N43 X-160.241 Y4.260 Z-24.371 
N44 X-160.245 Y3.879 Z-21.266 
N45 ;NGA_2_1
N46 G01 G41 X-160.248 Y2.557 Z-18.430 F222
N47 X-160.248 Y2.557 Z-18.430 
N48 X-160.249 Y2.526 Z-18.384 F111 
N49 X-160.249 Y2.495 Z-18.338 
N50 X-160.249 Y2.464 Z-18.292 
N51 X-160.249 Y2.433 Z-18.246 
N52 X-160.249 Y2.402 Z-18.200 
N53 X-160.249 Y2.371 Z-18.154 
N54 X-160.249 Y2.339 Z-18.108 
N55 X-160.249 Y2.308 Z-18.062 
N56 X-160.249 Y2.277 Z-18.016 
N57 X-160.249 Y2.246 Z-17.970 
N58 X-160.249 Y2.215 Z-17.924 
N59 X-160.249 Y2.184 Z-17.878 
N60 X-160.249 Y2.153 Z-17.832 
N61 X-160.249 Y2.122 Z-17.786 
N62 X-160.249 Y2.091 Z-17.739 
N63 X-160.250 Y2.060 Z-17.693 
N64 X-160.250 Y2.029 Z-17.647 
N65 X-160.250 Y1.998 Z-17.601 
N66 X-160.250 Y1.967 Z-17.555 
N67 X-160.250 Y1.936 Z-17.509 
N68 X-160.250 Y1.905 Z-17.463 
N69 X-160.250 Y1.873 Z-17.417 
N70 X-160.250 Y1.842 Z-17.371 
N71 X-160.250 Y1.811 Z-17.325 
N72 X-160.250 Y1.780 Z-17.279 
N73 X-160.250 Y1.749 Z-17.233 
N74 X-160.250 Y1.718 Z-17.187 
N75 X-160.250 Y1.687 Z-17.141 
N76 X-160.250 Y1.656 Z-17.095 
N77 X-160.250 Y1.625 Z-17.049 
N78 X-160.251 Y1.594 Z-17.003 
N79 X-160.251 Y1.563 Z-16.956 
N80 X-160.251 Y1.532 Z-16.910 
N81 X-160.251 Y1.501 Z-16.864 
N82 X-160.251 Y1.470 Z-16.818 
N83 X-160.251 Y1.439 Z-16.772 
N84 X-160.251 Y1.407 Z-16.726 
N85 X-160.251 Y1.376 Z-16.680 
N86 X-160.251 Y1.345 Z-16.634 
N87 X-160.251 Y1.314 Z-16.588 
N88 X-160.251 Y1.283 Z-16.542 
N89 X-160.251 Y1.252 Z-16.496 
N90 X-160.251 Y1.221 Z-16.450 
N91 X-160.251 Y1.190 Z-16.404 
N92 X-160.252 Y1.159 Z-16.358 
N93 X-160.252 Y1.128 Z-16.312 
N94 X-160.252 Y1.097 Z-16.266 
N95 X-160.252 Y1.066 Z-16.220 
N96 X-160.252 Y1.035 Z-16.173 
N97 X-160.252 Y1.004 Z-16.127 
N98 X-160.252 Y0.973 Z-16.081 
N99 X-160.252 Y0.941 Z-16.035 
N100 X-160.252 Y0.910 Z-15.989 
N101 X-160.252 Y0.879 Z-15.943 
N102 X-160.252 Y0.848 Z-15.897 
N103 X-160.252 Y0.817 Z-15.851 
N104 X-160.252 Y0.786 Z-15.805 
N105 X-160.252 Y0.755 Z-15.759 
N106 X-160.252 Y0.724 Z-15.713 
N107 X-160.253 Y0.693 Z-15.667 
N108 X-160.253 Y0.662 Z-15.621 
N109 X-160.253 Y0.631 Z-15.575 
N110 X-160.253 Y0.600 Z-15.529 
N111 X-160.253 Y0.569 Z-15.483 
N112 X-160.253 Y0.538 Z-15.437 
N113 X-160.253 Y0.507 Z-15.391 
N114 X-160.253 Y0.475 Z-15.344 
N115 X-160.253 Y0.444 Z-15.298 
N116 X-160.253 Y0.413 Z-15.252 
N117 X-160.253 Y0.382 Z-15.206 
N118 X-160.253 Y0.351 Z-15.160 
N119 X-160.253 Y0.320 Z-15.114 
N120 X-160.253 Y0.289 Z-15.068 
N121 X-160.253 Y0.258 Z-15.022 
N122 X-160.254 Y0.227 Z-14.976 
N123 X-160.254 Y0.196 Z-14.930 
N124 X-160.254 Y0.165 Z-14.884 
N125 X-160.254 Y0.134 Z-14.838 
N126 X-160.254 Y0.103 Z-14.792 
N127 X-160.254 Y0.072 Z-14.746 
N128 X-160.254 Y0.041 Z-14.700 
N129 X-160.254 Y0.009 Z-14.654 
N130 X-160.254 Y-0.022 Z-14.608 
N131 X-160.254 Y-0.053 Z-14.561 
N132 X-160.254 Y-0.084 Z-14.515 
N133 X-160.254 Y-0.115 Z-14.469 
N134 X-160.254 Y-0.146 Z-14.423 
N135 X-160.254 Y-0.177 Z-14.377 
N136 X-160.255 Y-0.208 Z-14.331 
N137 X-160.255 Y-0.239 Z-14.285 
N138 X-160.255 Y-0.270 Z-14.239 
N139 X-160.255 Y-0.301 Z-14.193 
N140 X-160.255 Y-0.332 Z-14.147 
N141 X-160.255 Y-0.363 Z-14.101 
N142 X-160.255 Y-0.394 Z-14.055 
N143 X-160.255 Y-0.425 Z-14.009 
N144 X-160.255 Y-0.457 Z-13.963 
N145 X-160.255 Y-0.488 Z-13.917 
N146 X-160.255 Y-0.519 Z-13.871 
N147 X-160.255 Y-0.550 Z-13.825 
N148 X-160.255 Y-0.581 Z-13.778 
N149 X-160.255 Y-0.612 Z-13.732 
N150 X-160.255 Y-0.643 Z-13.686 
N151 X-160.256 Y-0.674 Z-13.640 
N152 X-160.256 Y-0.705 Z-13.594 
N153 X-160.256 Y-0.736 Z-13.548 
N154 X-160.256 Y-0.767 Z-13.502 
N155 X-160.256 Y-0.798 Z-13.456 
N156 X-160.256 Y-0.829 Z-13.410 
N157 X-160.256 Y-0.860 Z-13.364 
N158 X-160.256 Y-0.891 Z-13.318 
N159 X-160.256 Y-0.923 Z-13.272 
N160 X-160.256 Y-0.954 Z-13.226 
N161 X-160.256 Y-0.985 Z-13.180 
N162 X-160.256 Y-1.016 Z-13.134 
N163 X-160.256 Y-1.047 Z-13.088 
N164 X-160.256 Y-1.078 Z-13.042 
N165 X-160.256 Y-1.109 Z-12.996 
N166 X-160.257 Y-1.140 Z-12.949 
N167 X-160.257 Y-1.171 Z-12.903 
N168 X-160.257 Y-1.202 Z-12.857 
N169 X-160.257 Y-1.233 Z-12.811 
N170 X-160.257 Y-1.264 Z-12.765 
N171 X-160.257 Y-1.295 Z-12.719 
N172 X-160.257 Y-1.326 Z-12.673 
N173 X-160.257 Y-1.357 Z-12.627 
N174 X-160.257 Y-1.388 Z-12.581 
N175 X-160.257 Y-1.420 Z-12.535 
N176 X-160.257 Y-1.451 Z-12.489 
N177 X-160.257 Y-1.482 Z-12.443 
N178 X-160.257 Y-1.513 Z-12.397 
N179 X-160.257 Y-1.544 Z-12.351 
N180 X-160.258 Y-1.575 Z-12.305 
N181 X-160.258 Y-1.606 Z-12.259 
N182 X-160.258 Y-1.637 Z-12.213 
N183 X-160.258 Y-1.668 Z-12.166 
N184 X-160.258 Y-1.699 Z-12.120 
N185 X-160.258 Y-1.730 Z-12.074 
N186 X-160.258 Y-1.761 Z-12.028 
N187 X-160.258 Y-1.792 Z-11.982 
N188 X-160.258 Y-1.823 Z-11.936 
N189 X-160.258 Y-1.854 Z-11.890 
N190 X-160.258 Y-1.886 Z-11.844 
N191 X-160.258 Y-1.917 Z-11.798 
N192 X-160.258 Y-1.948 Z-11.752 
N193 X-160.258 Y-1.979 Z-11.706 
N194 X-160.258 Y-2.010 Z-11.660 
N195 X-160.259 Y-2.041 Z-11.614 
N196 X-160.259 Y-2.072 Z-11.568 
N197 X-160.259 Y-2.103 Z-11.522 
N198 X-160.259 Y-2.134 Z-11.476 
N199 X-160.259 Y-2.165 Z-11.430 
N200 X-160.259 Y-2.196 Z-11.383 
N201 X-160.259 Y-2.227 Z-11.337 
N202 X-160.259 Y-2.258 Z-11.291 
N203 X-160.259 Y-2.289 Z-11.245 
N204 X-160.259 Y-2.320 Z-11.199 
N205 X-160.259 Y-2.352 Z-11.153 
N206 X-160.259 Y-2.383 Z-11.107 
N207 X-160.259 Y-2.414 Z-11.061 
N208 X-160.259 Y-2.445 Z-11.015 
N209 X-160.259 Y-2.476 Z-10.969 
N210 X-160.260 Y-2.507 Z-10.923 
N211 X-160.260 Y-2.538 Z-10.877 
N212 X-160.260 Y-2.569 Z-10.831 
N213 X-160.260 Y-2.600 Z-10.785 
N214 X-160.260 Y-2.631 Z-10.739 
N215 X-160.260 Y-2.662 Z-10.693 
N216 X-160.260 Y-2.693 Z-10.647 
N217 X-160.260 Y-2.724 Z-10.601 
N218 X-160.260 Y-2.755 Z-10.554 
N219 X-160.260 Y-2.786 Z-10.508 
N220 X-160.260 Y-2.818 Z-10.462 
N221 X-160.260 Y-2.849 Z-10.416 
N222 X-160.260 Y-2.880 Z-10.370 
N223 X-160.260 Y-2.911 Z-10.324 
N224 X-160.261 Y-2.942 Z-10.278 
N225 X-160.261 Y-2.973 Z-10.232 
N226 X-160.261 Y-3.004 Z-10.186 
N227 X-160.261 Y-3.035 Z-10.140 
N228 X-160.261 Y-3.066 Z-10.094 F112 
N229 X-160.261 Y-3.098 Z-10.047 F114 
N230 X-160.261 Y-3.130 Z-9.999 F115 
N231 X-160.261 Y-3.163 Z-9.951 F117 
N232 X-160.261 Y-3.196 Z-9.902 F118 
N233 X-160.261 Y-3.229 Z-9.852 F120 
N234 X-160.261 Y-3.263 Z-9.802 F121 
N235 X-160.261 Y-3.297 Z-9.751 F123 
N236 X-160.261 Y-3.332 Z-9.700 F124 
N237 X-160.261 Y-3.367 Z-9.647 F126 
N238 X-160.262 Y-3.403 Z-9.595 F127 
N239 X-160.262 Y-3.439 Z-9.541 F129 
N240 X-160.262 Y-3.475 Z-9.487 F131 
N241 X-160.262 Y-3.512 Z-9.432 F132 
N242 X-160.262 Y-3.550 Z-9.377 F134 
N243 X-160.262 Y-3.587 Z-9.321 F135 
N244 X-160.262 Y-3.625 Z-9.265 F137 
N245 X-160.262 Y-3.664 Z-9.207 F138 
N246 X-160.262 Y-3.703 Z-9.149 F140 
N247 X-160.262 Y-3.743 Z-9.091 F141 
N248 X-160.262 Y-3.783 Z-9.032 F143 
N249 X-160.262 Y-3.823 Z-8.972 F144 
N250 X-160.263 Y-3.864 Z-8.911 F146 
N251 X-160.263 Y-3.905 Z-8.850 F148 
N252 X-160.263 Y-3.946 Z-8.789 F149 
N253 X-160.263 Y-3.989 Z-8.726 F151 
N254 X-160.263 Y-4.031 Z-8.663 F152 
N255 X-160.263 Y-4.074 Z-8.600 F154 
N256 X-160.263 Y-4.117 Z-8.535 F155 
N257 X-160.263 Y-4.161 Z-8.470 F157 
N258 X-160.263 Y-4.205 Z-8.405 F158 
N259 X-160.263 Y-4.250 Z-8.339 F160 
N260 X-160.263 Y-4.295 Z-8.272 F161 
N261 X-160.264 Y-4.341 Z-8.204 F163 
N262 X-160.264 Y-4.387 Z-8.136 F164 
N263 X-160.264 Y-4.433 Z-8.067 F166 
N264 X-160.264 Y-4.480 Z-7.998 F168 
N265 X-160.264 Y-4.527 Z-7.928 F169 
N266 X-160.264 Y-4.575 Z-7.857 F171 
N267 X-160.264 Y-4.623 Z-7.786 F172 
N268 X-160.264 Y-4.671 Z-7.714 F174 
N269 X-160.264 Y-4.720 Z-7.641 F175 
N270 X-160.265 Y-4.770 Z-7.568 F177 
N271 X-160.265 Y-4.820 Z-7.494 F178 
N272 X-160.265 Y-4.870 Z-7.420 F180 
N273 X-160.265 Y-4.921 Z-7.345 F181 
N274 X-160.265 Y-4.972 Z-7.269 F183 
N275 X-160.265 Y-5.023 Z-7.192 F185 
N276 X-160.265 Y-5.075 Z-7.115 F186 
N277 X-160.265 Y-5.128 Z-7.037 F188 
N278 X-160.265 Y-5.181 Z-6.959 F189 
N279 X-160.266 Y-5.234 Z-6.880 F191 
N280 X-160.266 Y-5.288 Z-6.800 F192 
N281 X-160.266 Y-5.342 Z-6.720 F194 
N282 X-160.266 Y-5.396 Z-6.639 F195 
N283 X-160.266 Y-5.451 Z-6.558 F197 
N284 X-160.266 Y-5.507 Z-6.475 F198 
N285 X-160.266 Y-5.563 Z-6.393 F200 
N286 X-160.266 Y-5.619 Z-6.309 F201 
N287 X-160.267 Y-5.676 Z-6.225 F203 
N288 X-160.267 Y-5.733 Z-6.140 F205 
N289 X-160.267 Y-5.790 Z-6.055 F206 
N290 X-160.267 Y-5.848 Z-5.969 F208 
N291 X-160.267 Y-5.907 Z-5.882 F209 
N292 X-160.267 Y-5.966 Z-5.795 F211 
N293 X-160.267 Y-6.025 Z-5.707 F212 
N294 X-160.267 Y-6.085 Z-5.618 F214 
N295 X-160.268 Y-6.145 Z-5.529 F215 
N296 X-160.268 Y-6.206 Z-5.439 F217 
N297 X-160.268 Y-6.267 Z-5.349 F218 
N298 X-160.268 Y-6.328 Z-5.258 F220 
N299 X-160.268 Y-6.390 Z-5.166 F222 
N300 X-160.268 Y-6.452 Z-5.074 
N301 X-160.268 Y-6.514 Z-4.982 
N302 X-160.268 Y-6.576 Z-4.890 
N303 X-160.268 Y-6.638 Z-4.798 
N304 X-160.269 Y-6.700 Z-4.706 
N305 X-160.268 Y-6.762 Z-4.614 
N306 X-160.268 Y-6.824 Z-4.523 
N307 X-160.268 Y-6.886 Z-4.431 
N308 X-160.268 Y-6.948 Z-4.339 
N309 X-160.268 Y-7.010 Z-4.247 
N310 X-160.268 Y-7.072 Z-4.155 
N311 X-160.268 Y-7.134 Z-4.063 
N312 X-160.267 Y-7.196 Z-3.971 
N313 X-160.267 Y-7.258 Z-3.879 
N314 X-160.267 Y-7.320 Z-3.787 
N315 X-160.266 Y-7.382 Z-3.696 
N316 X-160.266 Y-7.444 Z-3.604 
N317 X-160.265 Y-7.506 Z-3.512 
N318 X-160.265 Y-7.568 Z-3.420 
N319 X-160.264 Y-7.630 Z-3.328 
N320 X-160.264 Y-7.692 Z-3.236 
N321 X-160.263 Y-7.754 Z-3.144 
N322 X-160.262 Y-7.816 Z-3.052 
N323 X-160.262 Y-7.878 Z-2.960 
N324 X-160.261 Y-7.940 Z-2.869 
N325 X-160.260 Y-8.002 Z-2.777 
N326 X-160.259 Y-8.064 Z-2.685 
N327 X-160.258 Y-8.126 Z-2.593 
N328 X-160.258 Y-8.187 Z-2.501 
N329 X-160.257 Y-8.249 Z-2.409 
N330 X-160.256 Y-8.311 Z-2.317 
N331 X-160.255 Y-8.373 Z-2.225 
N332 X-160.254 Y-8.435 Z-2.134 
N333 X-160.253 Y-8.497 Z-2.042 
N334 X-160.251 Y-8.559 Z-1.950 
N335 X-160.250 Y-8.621 Z-1.858 
N336 X-160.249 Y-8.683 Z-1.766 
N337 X-160.248 Y-8.745 Z-1.674 
N338 X-160.247 Y-8.807 Z-1.582 
N339 X-160.245 Y-8.869 Z-1.490 
N340 X-160.244 Y-8.931 Z-1.399 
N341 X-160.243 Y-8.993 Z-1.307 
N342 X-160.241 Y-9.055 Z-1.215 
N343 X-160.240 Y-9.117 Z-1.123 
N344 X-160.238 Y-9.179 Z-1.031 
N345 X-160.237 Y-9.241 Z-0.939 
N346 X-160.235 Y-9.303 Z-0.847 
N347 X-160.234 Y-9.365 Z-0.755 
N348 X-160.232 Y-9.427 Z-0.663 
N349 X-160.230 Y-9.489 Z-0.572 
N350 X-160.229 Y-9.551 Z-0.480 
N351 X-160.227 Y-9.613 Z-0.388 
N352 X-160.225 Y-9.675 Z-0.296 
N353 X-160.223 Y-9.737 Z-0.204 
N354 X-160.221 Y-9.799 Z-0.112 
N355 X-160.219 Y-9.861 Z-0.020 
N356 X-160.218 Y-9.923 Z0.071 
N357 X-160.216 Y-9.985 Z0.163 
N358 X-160.214 Y-10.047 Z0.255 
N359 X-160.211 Y-10.109 Z0.347 
N360 X-160.209 Y-10.171 Z0.439 
N361 X-160.207 Y-10.233 Z0.531 
N362 X-160.205 Y-10.295 Z0.623 
N363 X-160.203 Y-10.356 Z0.715 
N364 X-160.201 Y-10.418 Z0.806 
N365 X-160.198 Y-10.480 Z0.898 
N366 X-160.196 Y-10.542 Z0.990 
N367 X-160.194 Y-10.604 Z1.082 
N368 X-160.191 Y-10.666 Z1.174 
N369 X-160.189 Y-10.728 Z1.266 
N370 X-160.187 Y-10.790 Z1.358 
N371 X-160.184 Y-10.852 Z1.449 
N372 X-160.181 Y-10.914 Z1.541 
N373 X-160.179 Y-10.976 Z1.633 
N374 X-160.176 Y-11.038 Z1.725 
N375 X-160.174 Y-11.100 Z1.817 
N376 X-160.171 Y-11.162 Z1.909 
N377 X-160.168 Y-11.224 Z2.001 
N378 X-160.165 Y-11.286 Z2.093 
N379 X-160.163 Y-11.348 Z2.184 
N380 X-160.160 Y-11.410 Z2.276 
N381 X-160.157 Y-11.472 Z2.368 
N382 X-160.154 Y-11.534 Z2.460 
N383 X-160.151 Y-11.596 Z2.552 
N384 X-160.148 Y-11.658 Z2.644 
N385 X-160.145 Y-11.720 Z2.735 
N386 X-160.142 Y-11.782 Z2.827 
N387 X-160.139 Y-11.844 Z2.919 
N388 X-160.136 Y-11.905 Z3.011 
N389 X-160.133 Y-11.967 Z3.103 
N390 X-160.129 Y-12.029 Z3.195 
N391 X-160.126 Y-12.091 Z3.287 
N392 X-160.123 Y-12.153 Z3.378 
N393 X-160.120 Y-12.215 Z3.470 
N394 X-160.116 Y-12.277 Z3.562 
N395 X-160.113 Y-12.339 Z3.654 
N396 X-160.109 Y-12.401 Z3.746 
N397 X-160.106 Y-12.463 Z3.838 
N398 X-160.102 Y-12.525 Z3.929 
N399 X-160.099 Y-12.587 Z4.021 
N400 X-160.095 Y-12.649 Z4.113 
N401 X-160.092 Y-12.711 Z4.205 
N402 X-160.088 Y-12.773 Z4.297 
N403 X-160.084 Y-12.835 Z4.389 
N404 X-160.081 Y-12.897 Z4.480 
N405 X-160.077 Y-12.959 Z4.572 
N406 X-160.073 Y-13.020 Z4.664 
N407 X-160.069 Y-13.082 Z4.756 
N408 X-160.065 Y-13.144 Z4.848 
N409 X-160.061 Y-13.206 Z4.940 
N410 X-160.057 Y-13.268 Z5.031 
N411 X-160.053 Y-13.330 Z5.123 
N412 X-160.049 Y-13.392 Z5.215 
N413 X-160.045 Y-13.454 Z5.307 
N414 X-160.041 Y-13.516 Z5.399 
N415 X-160.037 Y-13.578 Z5.491 
N416 X-160.033 Y-13.640 Z5.582 
N417 X-160.029 Y-13.702 Z5.674 
N418 X-160.024 Y-13.764 Z5.766 
N419 X-160.020 Y-13.826 Z5.858 
N420 X-160.016 Y-13.888 Z5.950 
N421 X-160.011 Y-13.950 Z6.041 
N422 X-160.007 Y-14.011 Z6.133 
N423 X-160.002 Y-14.073 Z6.225 
N424 X-159.998 Y-14.135 Z6.317 
N425 X-159.993 Y-14.197 Z6.409 
N426 X-159.989 Y-14.259 Z6.501 
N427 X-159.984 Y-14.321 Z6.592 
N428 X-159.980 Y-14.383 Z6.684 
N429 X-159.975 Y-14.445 Z6.776 
N430 X-159.970 Y-14.507 Z6.868 
N431 X-159.966 Y-14.569 Z6.960 
N432 X-159.961 Y-14.631 Z7.051 
N433 X-159.956 Y-14.693 Z7.143 
N434 X-159.951 Y-14.755 Z7.235 
N435 X-159.946 Y-14.816 Z7.327 
N436 X-159.941 Y-14.878 Z7.419 
N437 X-159.936 Y-14.940 Z7.510 
N438 X-159.931 Y-15.002 Z7.602 
N439 X-159.926 Y-15.064 Z7.694 
N440 X-159.921 Y-15.126 Z7.786 
N441 X-159.916 Y-15.188 Z7.877 
N442 X-159.911 Y-15.250 Z7.969 
N443 X-159.906 Y-15.312 Z8.061 
N444 X-159.900 Y-15.374 Z8.153 
N445 X-159.895 Y-15.436 Z8.245 
N446 X-159.890 Y-15.497 Z8.336 
N447 X-159.885 Y-15.559 Z8.428 
N448 X-159.879 Y-15.621 Z8.520 
N449 X-159.874 Y-15.683 Z8.612 
N450 X-159.868 Y-15.745 Z8.704 
N451 X-159.863 Y-15.807 Z8.795 
N452 X-159.857 Y-15.869 Z8.887 
N453 X-159.852 Y-15.931 Z8.979 
N454 X-159.846 Y-15.993 Z9.071 
N455 X-159.840 Y-16.055 Z9.162 
N456 X-159.835 Y-16.116 Z9.254 
N457 X-159.829 Y-16.178 Z9.346 
N458 X-159.823 Y-16.240 Z9.438 
N459 X-159.817 Y-16.302 Z9.529 
N460 X-159.812 Y-16.364 Z9.621 
N461 X-159.806 Y-16.426 Z9.713 
N462 X-159.800 Y-16.488 Z9.805 
N463 X-159.794 Y-16.550 Z9.896 
N464 X-159.788 Y-16.612 Z9.988 
N465 X-159.782 Y-16.673 Z10.080 
N466 X-159.776 Y-16.735 Z10.172 
N467 X-159.770 Y-16.797 Z10.263 
N468 X-159.764 Y-16.859 Z10.355 
N469 X-159.757 Y-16.921 Z10.447 
N470 X-159.751 Y-16.983 Z10.539 
N471 X-159.745 Y-17.045 Z10.630 
N472 X-159.739 Y-17.107 Z10.722 
N473 X-159.732 Y-17.169 Z10.814 
N474 X-159.726 Y-17.230 Z10.906 
N475 X-159.720 Y-17.292 Z10.997 
N476 X-159.713 Y-17.354 Z11.089 
N477 X-159.707 Y-17.416 Z11.181 
N478 X-159.700 Y-17.478 Z11.273 
N479 X-159.694 Y-17.540 Z11.364 
N480 X-159.687 Y-17.602 Z11.456 
N481 X-159.681 Y-17.663 Z11.548 
N482 X-159.674 Y-17.725 Z11.639 
N483 X-159.667 Y-17.787 Z11.731 
N484 X-159.660 Y-17.849 Z11.823 
N485 X-159.654 Y-17.911 Z11.915 
N486 X-159.647 Y-17.973 Z12.006 
N487 X-159.640 Y-18.035 Z12.098 
N488 X-159.633 Y-18.097 Z12.190 
N489 X-159.626 Y-18.158 Z12.281 
N490 X-159.619 Y-18.220 Z12.373 
N491 X-159.612 Y-18.282 Z12.465 
N492 X-159.605 Y-18.344 Z12.556 
N493 X-159.598 Y-18.406 Z12.648 
N494 X-159.591 Y-18.468 Z12.740 
N495 X-159.584 Y-18.529 Z12.832 
N496 X-159.577 Y-18.591 Z12.923 
N497 X-159.570 Y-18.653 Z13.015 
N498 X-159.562 Y-18.715 Z13.107 
N499 X-159.555 Y-18.777 Z13.198 
N500 X-159.548 Y-18.839 Z13.290 
N501 X-159.540 Y-18.901 Z13.382 
N502 X-159.533 Y-18.962 Z13.473 
N503 X-159.525 Y-19.024 Z13.565 
N504 X-159.518 Y-19.086 Z13.657 
N505 X-159.510 Y-19.148 Z13.748 
N506 X-159.503 Y-19.210 Z13.840 
N507 X-159.495 Y-19.272 Z13.932 
N508 X-159.488 Y-19.333 Z14.023 
N509 X-159.480 Y-19.395 Z14.115 
N510 X-159.472 Y-19.457 Z14.207 
N511 X-159.465 Y-19.519 Z14.298 
N512 X-159.457 Y-19.581 Z14.390 
N513 X-159.449 Y-19.643 Z14.482 
N514 X-159.441 Y-19.704 Z14.573 
N515 X-159.433 Y-19.766 Z14.665 
N516 X-159.425 Y-19.828 Z14.757 
N517 X-159.417 Y-19.890 Z14.848 
N518 X-159.409 Y-19.952 Z14.940 
N519 X-159.401 Y-20.013 Z15.032 
N520 X-159.393 Y-20.075 Z15.123 
N521 X-159.385 Y-20.137 Z15.215 
N522 X-159.377 Y-20.199 Z15.307 
N523 X-159.369 Y-20.261 Z15.398 
N524 X-159.361 Y-20.322 Z15.490 
N525 X-159.352 Y-20.384 Z15.582 
N526 X-159.344 Y-20.446 Z15.674 
N527 X-159.336 Y-20.508 Z15.765 
N528 X-159.328 Y-20.570 Z15.857 
N529 X-159.319 Y-20.632 Z15.949 
N530 X-159.311 Y-20.694 Z16.041 
N531 X-159.303 Y-20.756 Z16.133 
N532 X-159.295 Y-20.818 Z16.225 
N533 X-159.287 Y-20.880 Z16.317 
N534 X-159.278 Y-20.942 Z16.408 
N535 X-159.270 Y-21.004 Z16.500 
N536 X-159.262 Y-21.066 Z16.592 
N537 X-159.254 Y-21.128 Z16.684 
N538 X-159.245 Y-21.190 Z16.776 
N539 X-159.237 Y-21.252 Z16.868 
N540 X-159.229 Y-21.314 Z16.960 
N541 X-159.221 Y-21.376 Z17.051 
N542 X-159.213 Y-21.438 Z17.143 
N543 X-159.204 Y-21.500 Z17.235 
N544 X-159.196 Y-21.562 Z17.327 
N545 X-159.188 Y-21.624 Z17.419 
N546 X-159.180 Y-21.686 Z17.511 
N547 X-159.172 Y-21.748 Z17.603 
N548 X-159.163 Y-21.810 Z17.695 
N549 X-159.155 Y-21.872 Z17.786 
N550 X-159.147 Y-21.934 Z17.878 
N551 X-159.139 Y-21.995 Z17.970 
N552 X-159.130 Y-22.057 Z18.062 
N553 X-159.122 Y-22.119 Z18.154 
N554 X-159.114 Y-22.181 Z18.246 
N555 X-159.106 Y-22.243 Z18.338 
N556 X-159.098 Y-22.305 Z18.429 
N557 X-159.089 Y-22.367 Z18.521 
N558 X-159.081 Y-22.429 Z18.613 
N559 X-159.073 Y-22.491 Z18.705 
N560 X-159.065 Y-22.553 Z18.797 
N561 X-159.056 Y-22.615 Z18.889 
N562 X-159.048 Y-22.677 Z18.981 
N563 X-159.040 Y-22.739 Z19.072 
N564 X-159.032 Y-22.801 Z19.164 
N565 X-159.024 Y-22.863 Z19.256 
N566 X-159.015 Y-22.925 Z19.348 
N567 X-159.007 Y-22.987 Z19.440 
N568 X-158.999 Y-23.049 Z19.532 
N569 X-158.991 Y-23.111 Z19.624 
N570 X-158.982 Y-23.173 Z19.716 
N571 X-158.974 Y-23.235 Z19.807 
N572 X-158.966 Y-23.297 Z19.899 
N573 X-158.958 Y-23.359 Z19.991 
N574 X-158.950 Y-23.421 Z20.083 
N575 X-158.941 Y-23.483 Z20.175 
N576 X-158.933 Y-23.545 Z20.267 
N577 X-158.925 Y-23.606 Z20.359 
N578 X-158.917 Y-23.668 Z20.450 
N579 G40 X-158.177 Y-29.245 Z28.718 F222
N580 X-158.177 Y-29.245 Z28.718 
N581 G00 X-158.177 Y-70.697 Z0.758 
RAPORT("TA000001","Side Milling:114 End")
;trailer : concat=None
; points cnt = 537
N583 M9 ; chlodziwo wyl.
N584 MSG (" --- KONIEC PODPROGRAMU --- ")
N585 FGROUP()
N586 TRAFOOF
N587 STOPRE
N588 G0 G53 D0 Z550.0 M9 M5
N589 G0 G53 Y150 A0 B0
N590 M17
