; PROGRAM NAME: A00000111
; ORDER       : A000001
; OPER. NAME  : Spiral Rough Rhombic:101
; OPER. DESCR.: spiral roughing rhombic/nozka zgr
; OPER. TYPE  : rouRoot
; GEO. OPTION : 4
; MACHINE     : HSTM_300_SIM840D_Py
;             : HSTM300/500 - HAMUEL: 5-axis milling machine-SIM840D Traori PP_Script
; CONTROL     : SINUMERIK 840D
; created:   2021-11-15 09:08:57.220036
;-------DODATKOWE DANE-------------------
; PROGRAMISTA : Mariusz Malec
; PARTID      : 138T005360P1002_-
;  ap         : 2.5
;  ae         : 30.0
;  lean_angle : 1.0
;  fin_offset : 0.6
;----------------------------------------
RAPORT("TA000001","Spiral Rough Rhombic:101")
N10 TRAFOOF
N11 D0
N12 G90 G94
N13 G0 G53 D0 Z550
N14 STOPRE
M9 ; chlodziwo wyl
; --- Spiral Rough Rhombic:101 - spiral roughing rhombic/nozka zgr ---
N16 ;ToolChange : concat=None ,current_tdmid=None, PP.tdmId=958058
N17 TRAFOOF
N18 G0 G53 D0 X-200 Y150 Z550 B0
N19 T="7758058"
RAPORT("TA000001","ToolChangeStart 7758058")
N20 M6
RAPORT("TA000001","ToolChangeEnd")
N21 STOPRE
N22 MSG(" TLID=958058 D=50.0 R=6.0 Ang=0.0 Len=90.0 ")
;---> in saveDoc :0:00:00.104694
;---> in saveDoc :0:00:00.127658
N23 S2005 M03
N24 STOPRE
N25 TOL(0.1,1,1)
N26 G0 G53 A271.2621 B0.0177
N27 TRAORI
N28 G54 D1
N29 D2 
;---> in saveDoc :0:00:00.048869
N30 ; DELTA A > 40.1
N31 TRAFOOF
N32 D2
N33 STOPRE
N34 G00 G54 Z296.000
N35 G01 A271.2621 F10000
N36 TRAORI
N37 G54 D2
N38 STOPRE
N39 TRANS 
N40 G00 X-151.979 Y97.727 Z-45.453 A271.2621 B0.0177 
N41 M346 ; chlodziwo mgla
N42 X-151.995 Y47.739 Z-46.554 
N43 G01 X-151.996 Y44.647 Z-46.079 F2807 
N44 X-151.997 Y41.853 Z-44.671 
N45 X-151.997 Y39.630 Z-42.469 
N46 X-151.998 Y38.197 Z-39.688 
N47 X-151.998 Y37.693 Z-36.600 
N48 X-151.998 Y37.678 Z-33.229 B0.0371 
N49 X-151.998 Y37.663 Z-29.918 B0.0619 
N50 X-151.998 Y37.648 Z-26.720 B0.0779 
N51 X-151.998 Y37.634 Z-23.684 B0.0823 
N52 X-151.998 Y37.621 Z-20.851 B0.0738 
N53 X-151.998 Y37.610 Z-18.252 B0.0604 
N54 X-151.998 Y37.599 Z-15.906 B0.0474 
N55 X-151.998 Y37.589 Z-13.823 B0.0361 
N56 X-151.998 Y37.581 Z-12.002 B0.0264 
N57 X-151.998 Y37.585 Z-10.431 A271.2955 B0.0186 
N58 X-151.998 Y37.698 Z-9.094 A271.6662 B0.0128 
N59 X-151.998 Y38.087 Z-7.956 A272.9012 B0.0103 
N60 X-151.998 Y38.839 Z-6.968 A275.3085 B0.0116 
N61 X-151.998 Y39.934 Z-6.057 A278.8579 B0.0158 
N62 X-151.998 Y41.230 Z-5.162 A283.1496 B0.0208 
N63 X-151.998 Y42.556 Z-4.259 A287.6743 B0.0239 
N64 X-151.998 Y43.817 Z-3.348 A292.1390 B0.0235 
N65 X-151.998 Y44.976 Z-2.436 A296.4128 B0.0193 
N66 X-151.998 Y46.005 Z-1.539 A300.3935 B0.0119 
N67 X-151.998 Y46.899 Z-0.670 A304.0369 B0.0027 
N68 X-151.998 Y47.672 Z0.167 A307.3726 B-0.0071 
N69 X-151.998 Y48.351 Z0.984 A310.4844 B-0.0169 
N70 X-151.998 Y48.962 Z1.798 A313.4721 B-0.0260 
N71 X-151.998 Y49.528 Z2.632 A316.4312 B-0.0338 
N72 X-151.998 Y50.061 Z3.509 A319.4434 B-0.0399 
N73 X-151.998 Y50.565 Z4.447 A322.5726 B-0.0435 
N74 X-151.998 Y51.035 Z5.466 A325.8649 B-0.0438 
N75 X-151.998 Y51.460 Z6.577 A329.3491 B-0.0401 
N76 X-151.998 Y51.819 Z7.793 A333.0491 B-0.0325 
N77 X-151.998 Y52.089 Z9.120 A336.9851 B-0.0221 
N78 X-151.998 Y52.234 Z10.553 A341.1362 B-0.0115 
N79 X-151.998 Y52.212 Z12.059 A345.4207 B-0.0040 
N80 X-151.998 Y51.981 Z13.579 A349.6978 B-0.0007 
N81 X-151.998 Y51.509 Z15.035 A353.7856 B-0.0000 
N82 X-151.998 Y50.779 Z16.286 A357.3185 B0.0000 
N83 X-151.998 Y49.800 Z17.114 A359.6779 
N84 X-151.998 Y48.595 Z17.472 A0.7103 
N85 X-151.998 Y47.160 Z17.571 A0.9993 
N86 X-151.998 Y45.473 Z17.587 A1.0498 
N87 X-151.998 Y43.515 Z17.586 A1.0514 
N88 X-151.998 Y41.275 Z17.584 
N89 X-151.998 Y38.753 Z17.582 
N90 X-151.998 Y35.957 Z17.579 
N91 X-151.998 Y32.908 Z17.577 
N92 X-151.998 Y29.639 Z17.574 
N93 X-151.998 Y26.192 Z17.571 
N94 X-151.998 Y22.621 Z17.567 
N95 X-151.998 Y18.984 Z17.564 
N96 X-151.998 Y15.343 Z17.561 
N97 X-151.998 Y11.762 Z17.558 
N98 X-151.998 Y8.299 Z17.554 
N99 X-151.998 Y5.009 Z17.552 
N100 X-151.998 Y1.937 Z17.549 
N101 X-151.998 Y-0.884 Z17.546 
N102 X-151.998 Y-3.432 Z17.544 
N103 X-151.998 Y-5.694 Z17.542 
N104 X-151.998 Y-7.672 Z17.540 
N105 X-151.998 Y-9.374 Z17.539 A1.0529 
N106 X-151.998 Y-10.819 Z17.570 A1.1513 
N107 X-151.998 Y-12.032 Z17.754 A1.7265 
N108 X-151.998 Y-13.052 Z18.225 A3.2135 
N109 X-151.998 Y-13.939 Z19.064 A5.8812 
N110 X-151.998 Y-14.766 Z20.220 A9.6133 
N111 X-151.998 Y-15.588 Z21.531 A13.9357 
N112 X-151.998 Y-16.424 Z22.856 A18.4280 
N113 X-151.998 Y-17.275 Z24.114 A22.8391 
N114 X-151.998 Y-18.133 Z25.273 A27.0613 
N115 X-151.998 Y-18.997 Z26.330 A31.0765 
N116 X-151.998 Y-19.863 Z27.286 A34.8855 
N117 X-151.998 Y-20.724 Z28.139 A38.4722 
N118 X-151.998 Y-21.577 Z28.894 A41.8444 
N119 X-151.998 Y-22.428 Z29.567 A45.0565 
N120 X-151.998 Y-23.294 Z30.177 A48.1921 
N121 X-151.998 Y-24.193 Z30.738 A51.3302 
N122 X-151.998 Y-25.146 Z31.256 A54.5397 
N123 X-151.998 Y-26.171 Z31.733 A57.8810 
N124 X-151.998 Y-27.285 Z32.162 A61.4044 
N125 X-151.998 Y-28.501 Z32.527 A65.1439 
N126 X-151.998 Y-29.821 Z32.806 A69.1032 
N127 X-151.998 Y-31.227 Z32.968 A73.2385 
N128 X-151.998 Y-32.679 Z32.978 A77.4424 
N129 X-151.998 Y-34.103 Z32.810 A81.5277 
N130 X-151.998 Y-35.384 Z32.451 A85.1980 
N131 X-151.998 Y-36.373 Z31.912 A88.0345 
N132 X-151.998 Y-36.969 Z31.224 A89.7521 
N133 X-151.998 Y-37.229 Z30.413 A90.4967 
N134 X-151.998 Y-37.313 Z29.483 A90.7298 
N135 X-151.998 Y-37.335 Z28.433 A90.7843 
N136 X-151.998 Y-37.341 Z27.264 A90.7896 
N137 X-151.998 Y-37.346 Z25.984 
N138 X-151.998 Y-37.351 Z24.603 
N139 X-151.998 Y-37.356 Z23.139 
N140 X-151.998 Y-37.362 Z21.613 
N141 X-151.998 Y-37.368 Z20.049 
N142 X-151.998 Y-37.373 Z18.474 
N143 X-151.998 Y-37.379 Z16.915 
N144 X-151.998 Y-37.385 Z15.397 
N145 X-151.998 Y-37.390 Z13.945 
N146 X-151.998 Y-37.395 Z12.579 
N147 X-151.998 Y-37.400 Z11.314 A90.7913 
N148 X-151.998 Y-37.426 Z10.160 A90.8569 B-0.0001 
N149 X-151.998 Y-37.550 Z9.121 A91.2274 B-0.0006 
N150 X-151.998 Y-37.875 Z8.192 A92.2347 B-0.0025 
N151 X-151.998 Y-38.452 Z7.355 A94.0553 B-0.0072 
N152 X-151.998 Y-39.269 Z6.579 A96.6738 B-0.0159 
N153 X-151.998 Y-40.276 Z5.827 A99.9520 B-0.0275 
N154 X-151.998 Y-41.384 Z5.073 A103.6407 B-0.0385 
N155 X-151.998 Y-42.509 Z4.308 A107.4833 B-0.0448 
N156 X-151.998 Y-43.594 Z3.531 A111.3069 B-0.0448 
N157 X-151.998 Y-44.614 Z2.748 A115.0253 B-0.0390 
N158 X-151.998 Y-45.555 Z1.962 A118.5930 B-0.0287 
N159 X-151.998 Y-46.415 Z1.178 A121.9922 B-0.0149 
N160 X-151.998 Y-47.196 Z0.397 A125.2298 B0.0012 
N161 X-151.998 Y-47.907 Z-0.384 A128.3299 B0.0191 
N162 X-151.998 Y-48.556 Z-1.171 A131.3273 B0.0379 
N163 X-151.998 Y-49.154 Z-1.971 A134.2657 B0.0569 
N164 X-151.998 Y-49.710 Z-2.799 A137.1957 B0.0754 
N165 X-151.998 Y-50.229 Z-3.669 A140.1746 B0.0928 
N166 X-151.997 Y-50.718 Z-4.600 A143.2650 B0.1083 
N167 X-151.997 Y-51.174 Z-5.615 A146.5324 B0.1212 
N168 X-151.997 Y-51.590 Z-6.737 A150.0378 B0.1306 
N169 X-151.997 Y-51.947 Z-7.981 A153.8204 B0.1351 
N170 X-151.997 Y-52.212 Z-9.349 A157.8750 B0.1329 
N171 X-151.997 Y-52.343 Z-10.825 A162.1513 B0.1223 
N172 X-151.997 Y-52.295 Z-12.371 A166.5563 B0.1027 
N173 X-151.998 Y-52.026 Z-13.917 A170.9205 B0.0761 
N174 X-151.998 Y-51.507 Z-15.357 A174.9819 B0.0478 
N175 X-151.998 Y-50.729 Z-16.521 A178.2931 B0.0248 
N176 X-151.998 Y-49.711 Z-17.212 A180.2805 B0.0117 
N177 X-151.998 Y-48.474 Z-17.449 A180.9733 B0.0071 
N178 X-151.998 Y-47.005 Z-17.488 A181.0953 B0.0066 
N179 X-151.998 Y-45.279 Z-17.489 A181.1086 B0.0074 
N180 X-151.998 Y-43.279 Z-17.485 A181.1087 B0.0085 
N181 X-151.998 Y-40.996 Z-17.481 B0.0098 
N182 X-151.998 Y-38.431 Z-17.476 B0.0113 
N183 X-151.998 Y-35.593 Z-17.471 B0.0130 
N184 X-151.998 Y-32.507 Z-17.465 B0.0149 
N185 X-151.998 Y-29.207 Z-17.459 B0.0170 
N186 X-151.998 Y-25.736 Z-17.452 B0.0193 
N187 X-151.998 Y-22.150 Z-17.445 B0.0217 
N188 X-151.998 Y-18.507 Z-17.438 B0.0243 
N189 X-151.998 Y-14.871 Z-17.431 B0.0269 
N190 X-151.998 Y-11.303 Z-17.425 B0.0295 
N191 X-151.998 Y-7.864 Z-17.418 B0.0321 
N192 X-151.998 Y-4.605 Z-17.412 B0.0347 
N193 X-151.998 Y-1.569 Z-17.406 B0.0371 
N194 X-151.998 Y1.211 Z-17.401 B0.0394 
N195 X-151.998 Y3.716 Z-17.396 B0.0415 
N196 X-151.998 Y5.936 Z-17.392 B0.0433 
N197 X-151.998 Y7.873 Z-17.388 B0.0450 
N198 X-151.998 Y9.538 Z-17.387 A181.1132 B0.0465 
N199 X-151.998 Y10.951 Z-17.439 A181.2813 B0.0489 
N200 X-151.998 Y12.139 Z-17.703 A182.1132 B0.0571 
N201 X-151.998 Y13.150 Z-18.309 A184.0314 B0.0770 
N202 X-151.997 Y14.049 Z-19.274 A187.1251 B0.1092 
N203 X-151.997 Y14.907 Z-20.499 A191.1255 B0.1496 
N204 X-151.997 Y15.768 Z-21.829 A195.5706 B0.1934 
N205 X-151.997 Y16.647 Z-23.148 A200.1233 B0.2370 
N206 X-151.996 Y17.547 Z-24.402 A204.6094 B0.2781 
N207 X-151.996 Y18.456 Z-25.552 A208.8997 B0.3159 
N208 X-151.996 Y19.352 Z-26.563 A212.8689 B0.3497 
N209 X-151.996 Y20.213 Z-27.429 A216.4628 B0.3795 
N210 X-151.996 Y21.032 Z-28.161 A219.6960 B0.4055 
N211 X-151.996 Y21.811 Z-28.783 A222.6297 B0.4279 
N212 X-151.995 Y22.567 Z-29.324 A225.3630 B0.4468 
N213 X-151.995 Y23.324 Z-29.812 A228.0122 B0.4618 
N214 X-151.995 Y24.117 Z-30.274 A230.7090 B0.4720 
N215 X-151.995 Y24.990 Z-30.734 A233.6146 B0.4753 
N216 X-151.995 Y26.005 Z-31.213 A236.9253 B0.4684 
N217 X-151.995 Y27.213 Z-31.707 A240.7805 B0.4472 
N218 X-151.996 Y28.573 Z-32.147 A245.0032 B0.4097 
N219 X-151.996 Y29.920 Z-32.435 A249.0493 B0.3609 
N220 X-151.996 Y31.204 Z-32.558 A252.7930 B0.3086 
N221 X-151.997 Y32.521 Z-32.549 A256.5772 B0.2574 
N222 X-151.997 Y33.891 Z-32.397 A260.4947 B0.2105 
N223 X-151.997 Y35.194 Z-32.071 A264.2144 B0.1718 
N224 X-151.997 Y36.262 Z-31.565 A267.2687 B0.1438 
N225 X-151.997 Y36.998 Z-30.903 A269.3852 B0.1263 
N226 X-151.997 Y37.428 Z-30.114 A270.6389 B0.1170 
N227 X-151.997 Y37.634 Z-29.207 A271.2565 B0.1132 
N228 X-151.997 Y37.699 Z-28.186 A271.4723 B0.1123 
N229 X-151.997 Y37.702 Z-27.050 A271.5091 B0.1125 
N230 X-151.997 Y37.691 Z-25.806 A271.5098 B0.1130 
N231 X-151.997 Y37.679 Z-24.464 B0.1135 
N232 X-151.997 Y37.666 Z-23.039 A271.5099 B0.1140 
N233 X-151.997 Y37.654 Z-21.552 A271.5127 B0.1145 
N234 X-151.997 Y37.645 Z-20.026 A271.5266 B0.1142 
N235 X-151.997 Y37.638 Z-18.485 A271.5490 B0.1121 
N236 X-151.997 Y37.629 Z-16.957 A271.5661 B0.1080 
N237 X-151.997 Y37.617 Z-15.467 A271.5741 B0.1015 
N238 X-151.998 Y37.603 Z-14.039 A271.5764 B0.0919 
N239 X-151.998 Y37.589 Z-12.691 A271.5766 B0.0801 
N240 X-151.998 Y37.577 Z-11.439 A271.5782 B0.0681 
N241 X-151.998 Y37.586 Z-10.294 A271.6390 B0.0572 
N242 X-151.998 Y37.687 Z-9.260 A271.9835 B0.0481 
N243 X-151.998 Y37.980 Z-8.330 A272.9306 B0.0418 
N244 X-151.998 Y38.524 Z-7.487 A274.6814 B0.0390 
N245 X-151.998 Y39.323 Z-6.700 A277.2680 B0.0394 
N246 X-151.998 Y40.327 Z-5.931 A280.5658 B0.0411 
N247 X-151.998 Y41.441 Z-5.156 A284.3007 B0.0419 
N248 X-151.998 Y42.571 Z-4.365 A288.1960 B0.0402 
N249 X-151.998 Y43.663 Z-3.560 A292.0818 B0.0352 
N250 X-151.998 Y44.690 Z-2.744 A295.8736 B0.0275 
N251 X-151.998 Y45.632 Z-1.927 A299.4983 B0.0178 
N252 X-151.998 Y46.477 Z-1.120 A302.9073 B0.0071 
N253 X-151.998 Y47.227 Z-0.327 A306.0952 B-0.0039 
N254 X-151.998 Y47.896 Z0.453 A309.1012 B-0.0147 
N255 X-151.998 Y48.502 Z1.233 A311.9927 B-0.0251 
N256 X-151.998 Y49.062 Z2.029 A314.8451 B-0.0346 
N257 X-151.998 Y49.590 Z2.860 A317.7308 B-0.0430 
N258 X-151.998 Y50.092 Z3.744 A320.7110 B-0.0495 
N259 X-151.998 Y50.566 Z4.697 A323.8326 B-0.0534 
N260 X-151.998 Y51.004 Z5.734 A327.1282 B-0.0536 
N261 X-151.998 Y51.391 Z6.866 A330.6210 B-0.0491 
N262 X-151.998 Y51.708 Z8.105 A334.3413 B-0.0399 
N263 X-151.998 Y51.928 Z9.458 A338.3059 B-0.0270 
N264 X-151.998 Y52.012 Z10.914 A342.4837 B-0.0142 
N265 X-151.998 Y51.917 Z12.433 A346.7777 B-0.0054 
N266 X-151.998 Y51.601 Z13.946 A351.0217 B-0.0014 
N267 X-151.998 Y51.036 Z15.353 A354.9685 B-0.0002 
N268 X-151.998 Y50.212 Z16.474 A358.1358 B-0.0000 
N269 X-151.998 Y49.147 Z17.138 A0.0280 B-0.0000 
N270 X-151.998 Y47.858 Z17.409 A0.8074 
N271 X-151.998 Y46.332 Z17.484 A1.0272 
N272 X-151.998 Y44.548 Z17.492 A1.0543 
N273 X-151.998 Y42.491 Z17.493 A1.0655 
N274 X-151.998 Y40.154 Z17.501 A1.0975 
N275 X-151.998 Y37.538 Z17.505 A1.1273 
N276 X-151.998 Y34.658 Z17.501 A1.1340 
N277 X-151.998 Y31.538 Z17.494 A1.1341 
N278 X-151.998 Y28.216 Z17.486 
N279 X-151.998 Y24.737 Z17.478 
N280 X-151.998 Y21.156 Z17.469 
N281 X-151.998 Y17.534 Z17.461 
N282 X-151.998 Y13.933 Z17.452 
N283 X-151.998 Y10.415 Z17.444 
N284 X-151.998 Y7.036 Z17.436 
N285 X-151.998 Y3.847 Z17.429 
N286 X-151.998 Y0.888 Z17.422 
N287 X-151.998 Y-1.810 Z17.416 
N288 X-151.998 Y-4.231 Z17.410 
N289 X-151.998 Y-6.368 Z17.405 
N290 X-151.998 Y-8.224 Z17.401 
N291 X-151.998 Y-9.812 Z17.400 A1.1445 
N292 X-151.998 Y-11.152 Z17.463 A1.3459 
N293 X-151.998 Y-12.275 Z17.725 A2.1723 
N294 X-151.998 Y-13.225 Z18.308 A4.0183 
N295 X-151.998 Y-14.068 Z19.257 A7.0516 
N296 X-151.998 Y-14.875 Z20.481 A11.0201 
N297 X-151.998 Y-15.690 Z21.816 A15.4507 
N298 X-151.998 Y-16.528 Z23.144 A19.9871 
N299 X-151.998 Y-17.383 Z24.392 A24.4048 
N300 X-151.998 Y-18.245 Z25.530 A28.6017 
N301 X-151.998 Y-19.108 Z26.558 A32.5595 
N302 X-151.998 Y-19.968 Z27.477 A36.2837 
N303 X-151.998 Y-20.819 Z28.293 A39.7741 
N304 X-151.998 Y-21.659 Z29.014 A43.0553 
N305 X-151.998 Y-22.498 Z29.657 A46.1878 
N306 X-151.998 Y-23.350 Z30.241 A49.2495 
N307 X-151.998 Y-24.234 Z30.776 A52.3101 
N308 X-151.998 Y-25.165 Z31.269 A55.4301 
N309 X-151.998 Y-26.161 Z31.721 A58.6653 
N310 X-151.998 Y-27.239 Z32.126 A62.0673 
N311 X-151.998 Y-28.412 Z32.474 A65.6764 
N312 X-151.998 Y-29.686 Z32.743 A69.5059 
N313 X-151.998 Y-31.050 Z32.906 A73.5257 
N314 X-151.998 Y-32.468 Z32.931 A77.6491 
N315 X-151.998 Y-33.881 Z32.791 A81.7231 
N316 X-151.998 Y-35.193 Z32.471 A85.5061 
N317 X-151.998 Y-36.269 Z31.977 A88.6289 
N318 X-151.998 Y-36.990 Z31.337 A90.7519 
N319 X-151.998 Y-37.357 Z30.579 A91.8658 
N320 X-151.998 Y-37.489 Z29.714 A92.3143 B-0.0000 
N321 X-151.998 Y-37.509 Z28.736 A92.4471 B-0.0003 
N322 X-151.998 Y-37.488 Z27.646 A92.4665 B-0.0018 
N323 X-151.998 Y-37.457 Z26.447 A92.4667 B-0.0064 
N324 X-151.998 Y-37.425 Z25.148 A92.4678 B-0.0155 
N325 X-151.998 Y-37.392 Z23.764 A92.4751 B-0.0294 
N326 X-151.998 Y-37.360 Z22.315 A92.4938 B-0.0473 
N327 X-151.998 Y-37.331 Z20.823 A92.5226 B-0.0672 
N328 X-151.999 Y-37.301 Z19.312 A92.5560 B-0.0861 
N329 X-151.999 Y-37.270 Z17.809 A92.5866 B-0.1016 
N330 X-151.999 Y-37.236 Z16.340 A92.6070 B-0.1133 
N331 X-151.999 Y-37.199 Z14.927 A92.6150 B-0.1226 
N332 X-151.999 Y-37.162 Z13.591 A92.6163 B-0.1308 
N333 X-151.999 Y-37.127 Z12.349 A92.6165 B-0.1384 
N334 X-151.999 Y-37.104 Z11.210 A92.6456 B-0.1452 
N335 X-151.999 Y-37.153 Z10.178 A92.8871 B-0.1507 
N336 X-151.999 Y-37.382 Z9.249 A93.6818 B-0.1541 
N337 X-151.999 Y-37.863 Z8.405 A95.2693 B-0.1546 
N338 X-151.999 Y-38.595 Z7.618 A97.6779 B-0.1518 
N339 X-151.999 Y-39.538 Z6.855 A100.8029 B-0.1450 
N340 X-151.999 Y-40.618 Z6.084 A104.4389 B-0.1335 
N341 X-151.999 Y-41.747 Z5.293 A108.3331 B-0.1174 
N342 X-151.999 Y-42.856 Z4.480 A112.2783 B-0.0968 
N343 X-151.998 Y-43.902 Z3.654 A116.1388 B-0.0725 
N344 X-151.998 Y-44.864 Z2.825 A119.8389 B-0.0451 
N345 X-151.998 Y-45.734 Z1.998 A123.3493 B-0.0153 
N346 X-151.998 Y-46.518 Z1.177 A126.6764 B0.0163 
N347 X-151.998 Y-47.224 Z0.360 A129.8441 B0.0490 
N348 X-151.998 Y-47.859 Z-0.456 A132.8831 B0.0821 
N349 X-151.997 Y-48.435 Z-1.280 A135.8333 B0.1149 
N350 X-151.997 Y-48.959 Z-2.122 A138.7459 B0.1468 
N351 X-151.997 Y-49.441 Z-3.000 A141.6863 B0.1774 
N352 X-151.997 Y-49.889 Z-3.938 A144.7335 B0.2064 
N353 X-151.997 Y-50.305 Z-4.964 A147.9751 B0.2334 
N354 X-151.997 Y-50.682 Z-6.107 A151.4939 B0.2578 
N355 X-151.996 Y-51.000 Z-7.387 A155.3387 B0.2788 
N356 X-151.996 Y-51.220 Z-8.806 A159.5059 B0.2954 
N357 X-151.996 Y-51.298 Z-10.350 A163.9575 B0.3075 
N358 X-151.996 Y-51.182 Z-11.972 A168.5760 B0.3155 
N359 X-151.996 Y-50.822 Z-13.557 A173.0690 B0.3201 
N360 X-151.996 Y-50.197 Z-14.934 A176.9865 B0.3227 
N361 X-151.996 Y-49.320 Z-15.902 A179.7758 B0.3244 
N362 X-151.996 Y-48.225 Z-16.357 A181.1172 B0.3258 
N363 X-151.996 Y-46.915 Z-16.470 A181.4794 B0.3277 
N364 X-151.996 Y-45.368 Z-16.475 A181.5370 B0.3308 
N365 X-151.996 Y-43.563 Z-16.459 A181.5403 B0.3346 
N366 X-151.996 Y-41.485 Z-16.440 B0.3389 
N367 X-151.996 Y-39.129 Z-16.417 B0.3439 
N368 X-151.996 Y-36.501 Z-16.393 B0.3494 
N369 X-151.996 Y-33.615 Z-16.365 B0.3554 
N370 X-151.996 Y-30.500 Z-16.336 B0.3620 
N371 X-151.996 Y-27.194 Z-16.305 B0.3689 
N372 X-151.996 Y-23.745 Z-16.272 B0.3761 
N373 X-151.996 Y-20.208 Z-16.239 A181.5403 B0.3835 
N374 X-151.996 Y-16.644 Z-16.205 B0.3910 
N375 X-151.996 Y-13.115 Z-16.172 B0.3984 
N376 X-151.996 Y-9.680 Z-16.140 B0.4056 
N377 X-151.996 Y-6.394 Z-16.109 B0.4125 
N378 X-151.996 Y-3.305 Z-16.080 B0.4190 
N379 X-151.996 Y-0.449 Z-16.053 A181.5403 B0.4250 
N380 X-151.996 Y2.147 Z-16.028 B0.4304 
N381 X-151.996 Y4.469 Z-16.006 B0.4353 
N382 X-151.995 Y6.512 Z-15.987 B0.4396 
N383 X-151.995 Y8.283 Z-15.970 A181.5403 B0.4433 
N384 X-151.995 Y9.796 Z-15.970 A181.5822 B0.4468 
N385 X-151.995 Y11.077 Z-16.097 A182.0113 B0.4529 
N386 X-151.995 Y12.161 Z-16.526 A183.3882 B0.4675 
N387 X-151.995 Y13.110 Z-17.363 A186.0713 B0.4948 
N388 X-151.995 Y14.003 Z-18.555 A189.9435 B0.5340 
N389 X-151.995 Y14.893 Z-19.904 A194.4278 B0.5801 
N390 X-151.994 Y15.795 Z-21.242 A199.0252 B0.6280 
N391 X-151.994 Y16.705 Z-22.502 A203.5142 B0.6742 
N392 X-151.994 Y17.613 Z-23.645 A207.7668 B0.7164 
N393 X-151.994 Y18.494 Z-24.640 A211.6539 B0.7534 
N394 X-151.993 Y19.328 Z-25.480 A215.1231 B0.7847 
N395 X-151.993 Y20.108 Z-26.186 A218.2074 B0.8103 
N396 X-151.993 Y20.848 Z-26.790 A221.0087 B0.8303 
N397 X-151.993 Y21.574 Z-27.331 A223.6640 B0.8446 
N398 X-151.993 Y22.319 Z-27.843 A226.3206 B0.8525 
N399 X-151.993 Y23.125 Z-28.356 A229.1356 B0.8524 
N400 X-151.993 Y24.038 Z-28.890 A232.2636 B0.8421 
N401 X-151.993 Y25.092 Z-29.442 A235.7836 B0.8187 
N402 X-151.994 Y26.261 Z-29.964 A239.5744 B0.7816 
N403 X-151.994 Y27.454 Z-30.382 A243.3068 B0.7339 
N404 X-151.994 Y28.624 Z-30.674 A246.8486 B0.6806 
N405 X-151.994 Y29.834 Z-30.868 A250.4261 B0.6239 
N406 X-151.995 Y31.140 Z-30.967 A254.2344 B0.5653 
N407 X-151.995 Y32.510 Z-30.940 A258.1872 B0.5072 
N408 X-151.995 Y33.835 Z-30.753 A261.9865 B0.4543 
N409 X-151.996 Y34.994 Z-30.395 A265.3011 B0.4107 
N410 X-151.996 Y35.904 Z-29.884 A267.9072 B0.3781 
N411 X-151.996 Y36.537 Z-29.244 A269.7342 B0.3560 
N412 X-151.996 Y36.901 Z-28.492 A270.7994 B0.3427 
N413 X-151.996 Y37.048 Z-27.640 A271.2436 B0.3361 
N414 X-151.996 Y37.076 Z-26.687 A271.3437 B0.3329 
N415 X-151.996 Y37.078 Z-25.636 A271.3677 B0.3302 
N416 X-151.996 Y37.098 Z-24.491 A271.4522 B0.3264 
N417 X-151.996 Y37.163 Z-23.263 A271.6847 B0.3202 
N418 X-151.996 Y37.294 Z-21.965 A272.1366 B0.3114 
N419 X-151.996 Y37.445 Z-20.615 A272.6901 B0.3019 
N420 X-151.996 Y37.543 Z-19.238 A273.1219 B0.2936 
N421 X-151.996 Y37.579 Z-17.857 A273.3946 B0.2861 
N422 X-151.996 Y37.576 Z-16.493 A273.5619 B0.2783 
N423 X-151.996 Y37.550 Z-15.168 A273.6655 B0.2691 
N424 X-151.997 Y37.509 Z-13.900 A273.7236 B0.2587 
N425 X-151.997 Y37.464 Z-12.705 A273.7583 B0.2478 
N426 X-151.997 Y37.433 Z-11.593 A273.8289 B0.2369 
N427 X-151.997 Y37.474 Z-10.569 A274.1076 B0.2250 
N428 X-151.997 Y37.686 Z-9.628 A274.9144 B0.2108 
N429 X-151.997 Y38.146 Z-8.754 A276.5010 B0.1934 
N430 X-151.997 Y38.849 Z-7.922 A278.8820 B0.1733 
N431 X-151.997 Y39.740 Z-7.106 A281.9155 B0.1512 
N432 X-151.997 Y40.745 Z-6.283 A285.3973 B0.1277 
N433 X-151.997 Y41.787 Z-5.446 A289.0991 B0.1034 
N434 X-151.998 Y42.806 Z-4.597 A292.8408 B0.0790 
N435 X-151.998 Y43.766 Z-3.740 A296.5097 B0.0551 
N436 X-151.998 Y44.644 Z-2.888 A300.0236 B0.0322 
N437 X-151.998 Y45.428 Z-2.051 A303.3255 B0.0108 
N438 X-151.998 Y46.117 Z-1.236 A306.4043 B-0.0090 
N439 X-151.998 Y46.725 Z-0.440 A309.2975 B-0.0271 
N440 X-151.998 Y47.272 Z0.350 A312.0716 B-0.0436 
N441 X-151.998 Y47.773 Z1.149 A314.7970 B-0.0585 
N442 X-151.998 Y48.238 Z1.972 A317.5322 B-0.0716 
N443 X-151.999 Y48.672 Z2.832 A320.3204 B-0.0826 
N444 X-151.999 Y49.073 Z3.743 A323.1977 B-0.0910 
N445 X-151.999 Y49.437 Z4.720 A326.2067 B-0.0965 
N446 X-151.999 Y49.761 Z5.786 A329.4138 B-0.0981 
N447 X-151.999 Y50.034 Z6.967 A332.8959 B-0.0946 
N448 X-151.999 Y50.235 Z8.286 A336.7134 B-0.0836 
N449 X-151.998 Y50.323 Z9.748 A340.8732 B-0.0644 
N450 X-151.998 Y50.244 Z11.307 A345.2522 B-0.0406 
N451 X-151.998 Y49.941 Z12.860 A349.5704 B-0.0198 
N452 X-151.998 Y49.379 Z14.254 A353.4215 B-0.0069 
N453 X-151.998 Y48.556 Z15.331 A356.3790 B-0.0014 
N454 X-151.998 Y47.493 Z16.035 A358.2899 B-0.0001 
N455 X-151.998 Y46.201 Z16.439 A359.3583 B-0.0000 
N456 X-151.998 Y44.674 Z16.654 A359.8964 
N457 X-151.998 Y42.897 Z16.788 A0.2106 
N458 X-151.998 Y40.857 Z16.932 A0.5770 
N459 X-151.998 Y38.549 Z17.065 A0.9479 
N460 X-151.998 Y35.977 Z17.115 A1.1050 
N461 X-151.998 Y33.155 Z17.113 A1.1160 
N462 X-151.998 Y30.109 Z17.107 
N463 X-151.998 Y26.873 Z17.100 
N464 X-151.998 Y23.493 Z17.093 
N465 X-151.998 Y20.021 Z17.086 
N466 X-151.998 Y16.517 Z17.079 
N467 X-151.998 Y13.039 Z17.072 
N468 X-151.998 Y9.646 Z17.065 
N469 X-151.998 Y6.394 Z17.059 
N470 X-151.998 Y3.329 Z17.053 
N471 X-151.998 Y0.490 Z17.047 
N472 X-151.998 Y-2.096 Z17.042 
N473 X-151.998 Y-4.412 Z17.037 
N474 X-151.998 Y-6.454 Z17.033 
N475 X-151.998 Y-8.224 Z17.029 
N476 X-151.998 Y-9.737 Z17.030 A1.1289 
N477 X-151.998 Y-11.012 Z17.096 A1.3401 
N478 X-151.998 Y-12.079 Z17.360 A2.1693 
N479 X-151.998 Y-12.980 Z17.944 A4.0125 
N480 X-151.998 Y-13.782 Z18.895 A7.0410 
N481 X-151.998 Y-14.554 Z20.121 A11.0030 
N482 X-151.998 Y-15.342 Z21.467 A15.4474 
N483 X-151.998 Y-16.163 Z22.819 A20.0382 
N484 X-151.998 Y-17.010 Z24.097 A24.5334 
N485 X-151.998 Y-17.868 Z25.258 A28.7877 
N486 X-151.998 Y-18.723 Z26.293 A32.7542 
N487 X-151.998 Y-19.568 Z27.210 A36.4477 
N488 X-151.998 Y-20.401 Z28.020 A39.8948 
N489 X-151.998 Y-21.222 Z28.737 A43.1314 
N490 X-151.998 Y-22.038 Z29.377 A46.2107 
N491 X-151.998 Y-22.862 Z29.956 A49.1994 
N492 X-151.998 Y-23.707 Z30.484 A52.1574 
N493 X-151.998 Y-24.585 Z30.969 A55.1338 
N494 X-151.998 Y-25.509 Z31.413 A58.1747 
N495 X-151.998 Y-26.495 Z31.815 A61.3296 
N496 X-151.998 Y-27.561 Z32.171 A64.6522 
N497 X-151.998 Y-28.718 Z32.469 A68.1832 
N498 X-151.998 Y-29.972 Z32.690 A71.9330 
N499 X-151.998 Y-31.309 Z32.807 A75.8710 
N500 X-151.998 Y-32.697 Z32.791 A79.9173 
N501 X-151.998 Y-34.082 Z32.620 A83.9406 B-0.0000 
N502 X-151.998 Y-35.378 Z32.282 A87.7233 B-0.0001 
N503 X-151.998 Y-36.454 Z31.783 A90.9088 B-0.0006 
N504 X-151.998 Y-37.194 Z31.157 A93.1641 B-0.0021 
N505 X-151.998 Y-37.585 Z30.431 A94.4453 B-0.0059 
N506 X-151.998 Y-37.723 Z29.615 A95.0218 B-0.0143 
N507 X-151.998 Y-37.719 Z28.702 A95.2053 B-0.0301 
N508 X-151.998 Y-37.653 Z27.686 A95.2323 B-0.0532 
N509 X-151.999 Y-37.570 Z26.569 A95.2326 B-0.0792 
N510 X-151.999 Y-37.481 Z25.358 A95.2337 B-0.1038 
N511 X-151.999 Y-37.388 Z24.067 A95.2411 B-0.1253 
N512 X-151.999 Y-37.294 Z22.713 A95.2603 B-0.1449 
N513 X-151.999 Y-37.200 Z21.318 A95.2911 B-0.1639 
N514 X-151.999 Y-37.106 Z19.904 A95.3290 B-0.1830 
N515 X-151.999 Y-37.012 Z18.497 A95.3677 B-0.2018 
N516 X-151.999 Y-36.916 Z17.119 A95.3980 B-0.2203 
N517 X-151.999 Y-36.819 Z15.794 A95.4140 B-0.2381 
N518 X-152.000 Y-36.724 Z14.540 A95.4199 B-0.2552 
N519 X-152.000 Y-36.635 Z13.372 A95.4217 B-0.2712 
N520 X-152.000 Y-36.561 Z12.300 A95.4499 B-0.2857 
N521 X-152.000 Y-36.564 Z11.325 A95.6891 B-0.2970 
N522 X-152.000 Y-36.752 Z10.434 A96.4847 B-0.3022 
N523 X-152.000 Y-37.199 Z9.609 A98.0859 B-0.2988 
N524 X-152.000 Y-37.912 Z8.820 A100.5422 B-0.2855 
N525 X-152.000 Y-38.852 Z8.031 A103.7610 B-0.2613 
N526 X-151.999 Y-39.934 Z7.217 A107.5184 B-0.2269 
N527 X-151.999 Y-41.063 Z6.368 A111.5391 B-0.1841 
N528 X-151.999 Y-42.164 Z5.491 A115.5968 B-0.1351 
N529 X-151.999 Y-43.189 Z4.602 A119.5404 B-0.0821 
N530 X-151.998 Y-44.118 Z3.712 A123.2952 B-0.0267 
N531 X-151.998 Y-44.950 Z2.828 A126.8473 B0.0300 
N532 X-151.998 Y-45.693 Z1.952 A130.2166 B0.0873 
N533 X-151.997 Y-46.354 Z1.082 A133.4224 B0.1443 
N534 X-151.997 Y-46.939 Z0.216 A136.4887 B0.2000 
N535 X-151.997 Y-47.457 Z-0.655 A139.4601 B0.2538 
N536 X-151.996 Y-47.923 Z-1.549 A142.4123 B0.3057 
N537 X-151.996 Y-48.349 Z-2.498 A145.4540 B0.3562 
N538 X-151.996 Y-48.745 Z-3.541 A148.7136 B0.4059 
N539 X-151.995 Y-49.106 Z-4.718 A152.3068 B0.4548 
N540 X-151.995 Y-49.408 Z-6.051 A156.2848 B0.5019 
N541 X-151.995 Y-49.605 Z-7.537 A160.6295 B0.5454 
N542 X-151.995 Y-49.647 Z-9.160 A165.3017 B0.5848 
N543 X-151.994 Y-49.474 Z-10.848 A170.1126 B0.6192 
N544 X-151.994 Y-49.037 Z-12.429 A174.6108 B0.6467 
N545 X-151.994 Y-48.330 Z-13.687 A178.2079 B0.6660 
N546 X-151.994 Y-47.387 Z-14.434 A180.3729 B0.6768 
N547 X-151.994 Y-46.238 Z-14.712 A181.1981 B0.6811 
N548 X-151.994 Y-44.873 Z-14.769 A181.3938 B0.6833 
N549 X-151.994 Y-43.268 Z-14.776 A181.4482 B0.6857 
N550 X-151.994 Y-41.405 Z-14.778 A181.5018 B0.6890 
N551 X-151.994 Y-39.273 Z-14.767 A181.5282 B0.6934 
N552 X-151.994 Y-36.873 Z-14.747 A181.5326 B0.6985 
N553 X-151.994 Y-34.214 Z-14.722 A181.5327 B0.7041 
N554 X-151.994 Y-31.314 Z-14.695 B0.7103 
N555 X-151.994 Y-28.206 Z-14.666 B0.7169 
N556 X-151.994 Y-24.932 Z-14.636 B0.7238 
N557 X-151.994 Y-21.541 Z-14.604 A181.5327 B0.7310 
N558 X-151.994 Y-18.090 Z-14.572 B0.7384 
N559 X-151.994 Y-14.639 Z-14.540 B0.7457 
N560 X-151.994 Y-11.248 Z-14.508 B0.7529 
N561 X-151.994 Y-7.973 Z-14.478 A181.5327 B0.7598 
N562 X-151.994 Y-4.864 Z-14.449 B0.7664 
N563 X-151.994 Y-1.963 Z-14.422 B0.7726 
N564 X-151.994 Y0.698 Z-14.397 B0.7782 
N565 X-151.993 Y3.100 Z-14.375 A181.5328 B0.7833 
N566 X-151.993 Y5.231 Z-14.355 B0.7879 
N567 X-151.993 Y7.094 Z-14.338 B0.7918 
N568 X-151.993 Y8.699 Z-14.325 A181.5400 B0.7953 
N569 X-151.993 Y10.063 Z-14.381 A181.7492 B0.8006 
N570 X-151.993 Y11.218 Z-14.680 A182.7138 B0.8151 
N571 X-151.993 Y12.213 Z-15.364 A184.9043 B0.8457 
N572 X-151.993 Y13.122 Z-16.436 A188.3641 B0.8927 
N573 X-151.993 Y14.008 Z-17.720 A192.5989 B0.9492 
N574 X-151.992 Y14.895 Z-19.039 A197.0746 B1.0075 
N575 X-151.992 Y15.792 Z-20.313 A201.5481 B1.0631 
N576 X-151.992 Y16.692 Z-21.493 A205.8562 B1.1130 
N577 X-151.991 Y17.567 Z-22.526 A209.8060 B1.1549 
N578 X-151.991 Y18.389 Z-23.393 A213.2996 B1.1883 
N579 X-151.991 Y19.152 Z-24.116 A216.3740 B1.2133 
N580 X-151.991 Y19.874 Z-24.739 A219.1693 B1.2302 
N581 X-151.991 Y20.588 Z-25.310 A221.8527 B1.2388 
N582 X-151.991 Y21.333 Z-25.866 A224.5891 B1.2383 
N583 X-151.991 Y22.146 Z-26.434 A227.5194 B1.2273 
N584 X-151.991 Y23.052 Z-27.015 A230.7064 B1.2047 
N585 X-151.991 Y24.042 Z-27.579 A234.0830 B1.1705 
N586 X-151.992 Y25.073 Z-28.082 A237.4798 B1.1270 
N587 X-151.992 Y26.119 Z-28.502 A240.8095 B1.0774 
N588 X-151.992 Y27.201 Z-28.849 A244.1597 B1.0232 
N589 X-151.992 Y28.359 Z-29.131 A247.6642 B0.9644 
N590 X-151.993 Y29.611 Z-29.338 A251.3869 B0.9012 
N591 X-151.993 Y30.932 Z-29.440 A255.2559 B0.8352 
N592 X-151.994 Y32.255 Z-29.407 A259.0879 B0.7702 
N593 X-151.994 Y33.495 Z-29.222 A262.6540 B0.7102 
N594 X-151.994 Y34.572 Z-28.888 A265.7449 B0.6585 
N595 X-151.994 Y35.423 Z-28.421 A268.1945 B0.6169 
N596 X-151.995 Y35.996 Z-27.842 A269.8577 B0.5870 
N597 X-151.995 Y36.292 Z-27.169 A270.7210 B0.5686 
N598 X-151.995 Y36.385 Z-26.410 A270.9975 B0.5587 
N599 X-151.995 Y36.403 Z-25.564 A271.0516 B0.5515 
N600 X-151.995 Y36.439 Z-24.633 A271.1653 B0.5426 
N601 X-151.995 Y36.550 Z-23.620 A271.5143 B0.5294 
N602 X-151.995 Y36.781 Z-22.530 A272.2561 B0.5099 
N603 X-151.995 Y37.117 Z-21.373 A273.3717 B0.4858 
N604 X-151.995 Y37.418 Z-20.166 A274.4586 B0.4639 
N605 X-151.995 Y37.584 Z-18.938 A275.2054 B0.4476 
N606 X-151.996 Y37.642 Z-17.708 A275.6642 B0.4344 
N607 X-151.996 Y37.632 Z-16.494 A275.9407 B0.4218 
N608 X-151.996 Y37.582 Z-15.312 A276.1008 B0.4079 
N609 X-151.996 Y37.508 Z-14.176 A276.1853 B0.3926 
N610 X-151.996 Y37.436 Z-13.098 A276.2648 B0.3766 
N611 X-151.996 Y37.410 Z-12.082 A276.4723 B0.3592 
N612 X-151.996 Y37.500 Z-11.127 A277.0260 B0.3383 
N613 X-151.996 Y37.794 Z-10.222 A278.2107 B0.3117 
N614 X-151.996 Y38.333 Z-9.346 A280.1803 B0.2787 
N615 X-151.997 Y39.079 Z-8.479 A282.8548 B0.2412 
N616 X-151.997 Y39.962 Z-7.604 A286.0389 B0.2011 
N617 X-151.997 Y40.901 Z-6.715 A289.5046 B0.1605 
N618 X-151.997 Y41.827 Z-5.818 A293.0401 B0.1211 
N619 X-151.998 Y42.696 Z-4.924 A296.5070 B0.0841 
N620 X-151.998 Y43.489 Z-4.041 A299.8319 B0.0500 
N621 X-151.998 Y44.194 Z-3.181 A302.9624 B0.0193 
N622 X-151.998 Y44.811 Z-2.349 A305.8820 B-0.0081 
N623 X-151.998 Y45.352 Z-1.542 A308.6242 B-0.0323 
N624 X-151.998 Y45.837 Z-0.746 A311.2557 B-0.0537 
N625 X-151.998 Y46.282 Z0.054 A313.8444 B-0.0724 
N626 X-151.999 Y46.695 Z0.870 A316.4391 B-0.0883 
N627 X-151.999 Y47.078 Z1.716 A319.0750 B-0.1012 
N628 X-151.999 Y47.433 Z2.604 A321.7903 B-0.1109 
N629 X-151.999 Y47.760 Z3.554 A324.6430 B-0.1176 
N630 X-151.999 Y48.058 Z4.591 A327.7084 B-0.1213 
N631 X-151.999 Y48.319 Z5.743 A331.0615 B-0.1216 
N632 X-151.999 Y48.521 Z7.032 A334.7582 B-0.1171 
N633 X-151.999 Y48.624 Z8.457 A338.7859 B-0.1045 
N634 X-151.999 Y48.575 Z9.978 A343.0233 B-0.0811 
N635 X-151.998 Y48.319 Z11.508 A347.2288 B-0.0503 
N636 X-151.998 Y47.815 Z12.915 A351.0540 B-0.0231 
N637 X-151.998 Y47.055 Z14.075 A354.1699 B-0.0074 
N638 X-151.998 Y46.052 Z14.936 A356.4472 B-0.0015 
N639 X-151.998 Y44.817 Z15.529 A357.9802 B-0.0001 
N640 X-151.998 Y43.349 Z15.906 A358.9193 B-0.0000 
N641 X-151.998 Y41.640 Z16.174 A359.5661 
N642 X-151.998 Y39.680 Z16.465 A0.3331 
N643 X-151.998 Y37.462 Z16.675 A0.9235 
N644 X-151.998 Y34.992 Z16.730 A1.0932 
N645 X-151.998 Y32.282 Z16.727 A1.0980 
N646 X-151.998 Y29.354 Z16.722 
N647 X-151.998 Y26.240 Z16.717 
N648 X-151.998 Y22.983 Z16.711 
N649 X-151.998 Y19.632 Z16.705 
N650 X-151.998 Y16.243 Z16.700 
N651 X-151.998 Y12.874 Z16.694 
N652 X-151.998 Y9.581 Z16.688 
N653 X-151.998 Y6.418 Z16.683 
N654 X-151.998 Y3.430 Z16.678 
N655 X-151.998 Y0.657 Z16.673 
N656 X-151.998 Y-1.874 Z16.669 
N657 X-151.998 Y-4.145 Z16.665 
N658 X-151.998 Y-6.150 Z16.661 
N659 X-151.998 Y-7.892 Z16.658 
N660 X-151.998 Y-9.382 Z16.658 A1.1043 
N661 X-151.998 Y-10.639 Z16.704 A1.2511 
N662 X-151.998 Y-11.689 Z16.915 A1.9137 
N663 X-151.998 Y-12.571 Z17.426 A3.5186 
N664 X-151.998 Y-13.347 Z18.314 A6.3307 
N665 X-151.998 Y-14.088 Z19.511 A10.1709 
N666 X-151.998 Y-14.845 Z20.857 A14.5749 
N667 X-151.998 Y-15.640 Z22.230 A19.1871 
N668 X-151.998 Y-16.471 Z23.547 A23.7600 
N669 X-151.998 Y-17.320 Z24.752 A28.1111 
N670 X-151.998 Y-18.168 Z25.821 A32.1494 
N671 X-151.998 Y-19.001 Z26.758 A35.8698 
N672 X-151.998 Y-19.817 Z27.583 A39.3147 
N673 X-151.998 Y-20.619 Z28.311 A42.5358 
N674 X-151.998 Y-21.414 Z28.962 A45.5897 
N675 X-151.998 Y-22.212 Z29.550 A48.5363 
N676 X-151.998 Y-23.024 Z30.087 A51.4326 
N677 X-151.998 Y-23.860 Z30.581 A54.3191 
N678 X-151.998 Y-24.727 Z31.032 A57.2266 
N679 X-151.998 Y-25.636 Z31.442 A60.1876 
N680 X-151.998 Y-26.598 Z31.810 A63.2456 
N681 X-151.998 Y-27.632 Z32.133 A66.4554 
N682 X-151.998 Y-28.750 Z32.401 A69.8592 
N683 X-151.998 Y-29.957 Z32.598 A73.4731 B-0.0000 
N684 X-151.998 Y-31.246 Z32.701 A77.2805 B-0.0000 
N685 X-151.998 Y-32.593 Z32.685 A81.2276 B-0.0001 
N686 X-151.998 Y-33.959 Z32.528 A85.2248 B-0.0003 
N687 X-151.998 Y-35.278 Z32.215 A89.1128 B-0.0009 
N688 X-151.998 Y-36.438 Z31.750 A92.5905 B-0.0029 
N689 X-151.998 Y-37.307 Z31.161 A95.2878 B-0.0081 
N690 X-151.998 Y-37.827 Z30.485 A97.0270 B-0.0192 
N691 X-151.998 Y-38.046 Z29.738 A97.9363 B-0.0375 
N692 X-151.998 Y-38.062 Z28.915 A98.2886 B-0.0617 
N693 X-151.999 Y-37.969 Z28.005 A98.3633 B-0.0881 
N694 X-151.999 Y-37.841 Z27.001 A98.3666 B-0.1138 
N695 X-151.999 Y-37.699 Z25.906 A98.3670 B-0.1383 
N696 X-151.999 Y-37.549 Z24.731 A98.3713 B-0.1627 
N697 X-151.999 Y-37.393 Z23.490 A98.3862 B-0.1879 
N698 X-151.999 Y-37.235 Z22.202 A98.4145 B-0.2141 
N699 X-151.999 Y-37.077 Z20.888 A98.4531 B-0.2408 
N700 X-152.000 Y-36.918 Z19.570 A98.4960 B-0.2675 
N701 X-152.000 Y-36.760 Z18.272 A98.5342 B-0.2937 
N702 X-152.000 Y-36.602 Z17.014 A98.5585 B-0.3193 
N703 X-152.000 Y-36.446 Z15.817 A98.5692 B-0.3438 
N704 X-152.000 Y-36.298 Z14.694 A98.5727 B-0.3670 
N705 X-152.000 Y-36.163 Z13.658 A98.5818 B-0.3884 
N706 X-152.000 Y-36.082 Z12.709 A98.7188 B-0.4060 
N707 X-152.000 Y-36.160 Z11.833 A99.3142 B-0.4152 
N708 X-152.000 Y-36.496 Z11.007 A100.6942 B-0.4106 
N709 X-152.000 Y-37.119 Z10.200 A102.9800 B-0.3889 
N710 X-152.000 Y-37.996 Z9.378 A106.1128 B-0.3491 
N711 X-152.000 Y-39.043 Z8.516 A109.8681 B-0.2925 
N712 X-151.999 Y-40.146 Z7.611 A113.9289 B-0.2234 
N713 X-151.999 Y-41.220 Z6.676 A118.0329 B-0.1463 
N714 X-151.998 Y-42.214 Z5.731 A122.0154 B-0.0650 
N715 X-151.998 Y-43.110 Z4.787 A125.8116 B0.0183 
N716 X-151.997 Y-43.914 Z3.847 A129.4272 B0.1024 
N717 X-151.997 Y-44.632 Z2.911 A132.8858 B0.1866 
N718 X-151.996 Y-45.265 Z1.980 A136.1856 B0.2692 
N719 X-151.996 Y-45.816 Z1.057 A139.3354 B0.3488 
N720 X-151.996 Y-46.295 Z0.127 A142.3948 B0.4251 
N721 X-151.995 Y-46.723 Z-0.844 A145.4924 B0.4995 
N722 X-151.995 Y-47.119 Z-1.907 A148.8039 B0.5744 
N723 X-151.994 Y-47.486 Z-3.117 A152.4925 B0.6508 
N724 X-151.994 Y-47.794 Z-4.497 A156.6096 B0.7271 
N725 X-151.993 Y-47.988 Z-6.030 A161.0923 B0.8001 
N726 X-151.993 Y-48.016 Z-7.693 A165.8771 B0.8682 
N727 X-151.993 Y-47.818 Z-9.399 A170.7408 B0.9290 
N728 X-151.992 Y-47.349 Z-10.956 A175.1735 B0.9779 
N729 X-151.992 Y-46.614 Z-12.133 A178.5446 B1.0113 
N730 X-151.992 Y-45.655 Z-12.780 A180.4158 B1.0284 
N731 X-151.992 Y-44.494 Z-13.012 A181.1010 B1.0347 
N732 X-151.992 Y-43.118 Z-13.066 A181.2787 B1.0372 
N733 X-151.992 Y-41.504 Z-13.094 A181.3922 B1.0400 
N734 X-151.992 Y-39.638 Z-13.114 A181.4950 B1.0441 
N735 X-151.992 Y-37.512 Z-13.106 A181.5278 B1.0488 
N736 X-151.992 Y-35.127 Z-13.085 A181.5309 B1.0539 
N737 X-151.992 Y-32.493 Z-13.060 B1.0595 
N738 X-151.992 Y-29.633 Z-13.034 B1.0655 
N739 X-151.992 Y-26.581 Z-13.005 A181.5309 B1.0720 
N740 X-151.992 Y-23.377 Z-12.976 B1.0788 
N741 X-151.992 Y-20.073 Z-12.945 B1.0858 
N742 X-151.992 Y-16.725 Z-12.914 A181.5309 B1.0929 
N743 X-151.992 Y-13.390 Z-12.883 B1.1000 
N744 X-151.992 Y-10.126 Z-12.853 B1.1070 
N745 X-151.992 Y-6.986 Z-12.824 A181.5309 B1.1136 
N746 X-151.992 Y-4.019 Z-12.796 B1.1199 
N747 X-151.992 Y-1.261 Z-12.771 B1.1258 
N748 X-151.991 Y1.260 Z-12.748 A181.5309 B1.1311 
N749 X-151.991 Y3.525 Z-12.727 B1.1359 
N750 X-151.991 Y5.529 Z-12.708 B1.1402 
N751 X-151.991 Y7.274 Z-12.692 A181.5309 B1.1439 
N752 X-151.991 Y8.773 Z-12.691 A181.5707 B1.1477 
N753 X-151.991 Y10.047 Z-12.821 A182.0085 B1.1573 
N754 X-151.991 Y11.131 Z-13.268 A183.4407 B1.1835 
N755 X-151.991 Y12.086 Z-14.134 A186.2166 B1.2318 
N756 X-151.991 Y12.984 Z-15.318 A190.0713 B1.2964 
N757 X-151.990 Y13.867 Z-16.603 A194.3662 B1.3658 
N758 X-151.990 Y14.745 Z-17.871 A198.7359 B1.4327 
N759 X-151.989 Y15.620 Z-19.061 A202.9852 B1.4928 
N760 X-151.989 Y16.466 Z-20.111 A206.8912 B1.5429 
N761 X-151.989 Y17.258 Z-20.997 A210.3494 B1.5814 
N762 X-151.989 Y18.001 Z-21.756 A213.4479 B1.6083 
N763 X-151.989 Y18.726 Z-22.447 A216.3786 B1.6236 
N764 X-151.989 Y19.470 Z-23.117 A219.3275 B1.6272 
N765 X-151.989 Y20.266 Z-23.791 A222.4091 B1.6187 
N766 X-151.989 Y21.119 Z-24.457 A225.6151 B1.5984 
N767 X-151.989 Y22.006 Z-25.081 A228.8300 B1.5681 
N768 X-151.989 Y22.895 Z-25.632 A231.9305 B1.5308 
N769 X-151.989 Y23.783 Z-26.110 A234.9179 B1.4887 
N770 X-151.990 Y24.695 Z-26.536 A237.8968 B1.4423 
N771 X-151.990 Y25.666 Z-26.924 A240.9885 B1.3911 
N772 X-151.990 Y26.725 Z-27.277 A244.2866 B1.3338 
N773 X-151.991 Y27.885 Z-27.582 A247.8272 B1.2698 
N774 X-151.991 Y29.133 Z-27.814 A251.5691 B1.1999 
N775 X-151.992 Y30.432 Z-27.942 A255.4013 B1.1260 
N776 X-151.992 Y31.724 Z-27.944 A259.1671 B1.0513 
N777 X-151.992 Y32.939 Z-27.808 A262.6868 B0.9795 
N778 X-151.993 Y34.003 Z-27.537 A265.7615 B0.9143 
N779 X-151.993 Y34.831 Z-27.147 A268.1597 B0.8602 
N780 X-151.993 Y35.362 Z-26.660 A269.6997 B0.8215 
N781 X-151.993 Y35.608 Z-26.095 A270.4140 B0.7983 
N782 X-151.993 Y35.678 Z-25.458 A270.6064 B0.7849 
N783 X-151.994 Y35.709 Z-24.748 A270.6853 B0.7729 
N784 X-151.994 Y35.803 Z-23.964 A270.9596 B0.7558 
N785 X-151.994 Y36.032 Z-23.107 A271.6592 B0.7291 
N786 X-151.994 Y36.452 Z-22.174 A272.9802 B0.6903 
N787 X-151.994 Y37.004 Z-21.165 A274.7874 B0.6441 
N788 X-151.995 Y37.476 Z-20.100 A276.4561 B0.6034 
N789 X-151.995 Y37.741 Z-19.015 A277.5927 B0.5744 
N790 X-151.995 Y37.844 Z-17.929 A278.2931 B0.5531 
N791 X-151.995 Y37.844 Z-16.852 A278.7157 B0.5349 
N792 X-151.995 Y37.781 Z-15.796 A278.9628 B0.5169 
N793 X-151.995 Y37.681 Z-14.771 A279.0953 B0.4979 
N794 X-151.995 Y37.578 Z-13.783 A279.2093 B0.4779 
N795 X-151.995 Y37.532 Z-12.833 A279.4857 B0.4550 
N796 X-151.996 Y37.615 Z-11.915 A280.1502 B0.4260 
N797 X-151.996 Y37.897 Z-11.015 A281.4400 B0.3881 
N798 X-151.996 Y38.408 Z-10.114 A283.4779 B0.3409 
N799 X-151.996 Y39.107 Z-9.196 A286.1685 B0.2873 
N800 X-151.997 Y39.914 Z-8.257 A289.2953 B0.2310 
N801 X-151.997 Y40.746 Z-7.304 A292.6157 B0.1758 
N802 X-151.997 Y41.535 Z-6.354 A295.9172 B0.1243 
N803 X-151.998 Y42.249 Z-5.424 A299.0786 B0.0781 
N804 X-151.998 Y42.877 Z-4.523 A302.0496 B0.0374 
N805 X-151.998 Y43.418 Z-3.660 A304.8085 B0.0023 
N806 X-151.998 Y43.883 Z-2.831 A307.3803 B-0.0278 
N807 X-151.998 Y44.295 Z-2.024 A309.8348 B-0.0536 
N808 X-151.998 Y44.672 Z-1.223 A312.2469 B-0.0756 
N809 X-151.999 Y45.024 Z-0.412 A314.6675 B-0.0939 
N810 X-151.999 Y45.354 Z0.420 A317.1325 B-0.1085 
N811 X-151.999 Y45.667 Z1.289 A319.6843 B-0.1196 
N812 X-151.999 Y45.964 Z2.213 A322.3825 B-0.1275 
N813 X-151.999 Y46.246 Z3.218 A325.2951 B-0.1322 
N814 X-151.999 Y46.504 Z4.329 A328.4887 B-0.1334 
N815 X-151.999 Y46.719 Z5.566 A332.0083 B-0.1296 
N816 X-151.999 Y46.858 Z6.933 A335.8486 B-0.1185 
N817 X-151.999 Y46.873 Z8.409 A339.9398 B-0.0985 
N818 X-151.998 Y46.711 Z9.934 A344.1113 B-0.0706 
N819 X-151.998 Y46.326 Z11.412 A348.1043 B-0.0402 
N820 X-151.998 Y45.692 Z12.728 A351.6128 B-0.0157 
N821 X-151.998 Y44.810 Z13.795 A354.4219 B-0.0031 
N822 X-151.998 Y43.690 Z14.607 A356.5278 B-0.0001 
N823 X-151.998 Y42.338 Z15.152 A357.8951 B-0.0000 
N824 X-151.998 Y40.754 Z15.575 A358.9490 
N825 X-151.998 Y38.929 Z16.011 A0.1187 
N826 X-151.998 Y36.856 Z16.284 A0.8897 
N827 X-151.998 Y34.541 Z16.345 A1.0767 
N828 X-151.998 Y31.991 Z16.343 A1.0804 
N829 X-151.998 Y29.222 Z16.339 
N830 X-151.998 Y26.265 Z16.335 
N831 X-151.998 Y23.154 Z16.330 
N832 X-151.998 Y19.937 Z16.326 
N833 X-151.998 Y16.666 Z16.321 
N834 X-151.998 Y13.394 Z16.317 
N835 X-151.998 Y10.178 Z16.312 
N836 X-151.998 Y7.071 Z16.308 
N837 X-151.998 Y4.120 Z16.304 
N838 X-151.998 Y1.365 Z16.300 
N839 X-151.998 Y-1.163 Z16.296 
N840 X-151.998 Y-3.444 Z16.293 
N841 X-151.998 Y-5.467 Z16.290 
N842 X-151.998 Y-7.234 Z16.288 
N843 X-151.998 Y-8.751 Z16.286 A1.0811 
N844 X-151.998 Y-10.035 Z16.304 A1.1406 
N845 X-151.998 Y-11.109 Z16.430 A1.5347 
N846 X-151.998 Y-12.005 Z16.798 A2.6886 
N847 X-151.998 Y-12.773 Z17.534 A5.0008 
N848 X-151.998 Y-13.486 Z18.634 A8.4930 
N849 X-151.998 Y-14.204 Z19.950 A12.7424 
N850 X-151.998 Y-14.959 Z21.333 A17.3163 
N851 X-151.998 Y-15.759 Z22.694 A21.9503 
N852 X-151.998 Y-16.592 Z23.965 A26.4413 
N853 X-151.998 Y-17.435 Z25.106 A30.6452 
N854 X-151.998 Y-18.266 Z26.105 A34.5020 
N855 X-151.998 Y-19.075 Z26.973 A38.0304 
N856 X-151.998 Y-19.863 Z27.734 A41.2904 
N857 X-151.998 Y-20.638 Z28.409 A44.3496 
N858 X-151.998 Y-21.410 Z29.017 A47.2745 
N859 X-151.998 Y-22.190 Z29.572 A50.1257 
N860 X-151.998 Y-22.988 Z30.084 A52.9519 
N861 X-151.998 Y-23.812 Z30.557 A55.7801 
N862 X-151.998 Y-24.663 Z30.988 A58.6230 
N863 X-151.998 Y-25.547 Z31.377 A61.4961 
N864 X-151.998 Y-26.470 Z31.724 A64.4299 
N865 X-151.998 Y-27.450 Z32.026 A67.4757 
N866 X-151.998 Y-28.499 Z32.280 A70.6821 B-0.0000 
N867 X-151.998 Y-29.628 Z32.474 A74.0776 B-0.0000 
N868 X-151.998 Y-30.837 Z32.590 A77.6672 B-0.0002 
N869 X-151.998 Y-32.113 Z32.606 A81.4295 B-0.0006 
N870 X-151.998 Y-33.435 Z32.503 A85.3199 B-0.0015 
N871 X-151.998 Y-34.766 Z32.262 A89.2603 B-0.0035 
N872 X-151.998 Y-36.037 Z31.875 A93.0792 B-0.0073 
N873 X-151.998 Y-37.128 Z31.353 A96.4475 B-0.0139 
N874 X-151.998 Y-37.920 Z30.736 A99.0286 B-0.0251 
N875 X-151.998 Y-38.374 Z30.059 A100.6891 B-0.0422 
N876 X-151.998 Y-38.537 Z29.335 A101.5548 B-0.0650 
N877 X-151.999 Y-38.495 Z28.554 A101.8696 B-0.0906 
N878 X-151.999 Y-38.349 Z27.697 A101.9251 B-0.1160 
N879 X-151.999 Y-38.168 Z26.754 A101.9264 B-0.1411 
N880 X-151.999 Y-37.970 Z25.728 A101.9271 B-0.1674 
N881 X-151.999 Y-37.760 Z24.629 A101.9333 B-0.1956 
N882 X-151.999 Y-37.542 Z23.471 A101.9521 B-0.2253 
N883 X-152.000 Y-37.321 Z22.272 A101.9853 B-0.2562 
N884 X-152.000 Y-37.098 Z21.051 A102.0287 B-0.2878 
N885 X-152.000 Y-36.876 Z19.829 A102.0757 B-0.3194 
N886 X-152.000 Y-36.654 Z18.628 A102.1170 B-0.3504 
N887 X-152.000 Y-36.435 Z17.468 A102.1440 B-0.3806 
N888 X-152.000 Y-36.222 Z16.365 A102.1571 B-0.4096 
N889 X-152.001 Y-36.020 Z15.332 A102.1617 B-0.4369 
N890 X-152.001 Y-35.838 Z14.379 A102.1810 B-0.4618 
N891 X-152.001 Y-35.736 Z13.500 A102.3940 B-0.4807 
N892 X-152.001 Y-35.834 Z12.667 A103.1912 B-0.4851 
N893 X-152.001 Y-36.224 Z11.847 A104.8799 B-0.4673 
N894 X-152.001 Y-36.911 Z11.006 A107.5289 B-0.4235 
N895 X-152.000 Y-37.839 Z10.114 A111.0076 B-0.3537 
N896 X-152.000 Y-38.890 Z9.163 A114.9976 B-0.2631 
N897 X-151.999 Y-39.947 Z8.169 A119.1555 B-0.1595 
N898 X-151.998 Y-40.936 Z7.158 A123.2447 B-0.0495 
N899 X-151.998 Y-41.830 Z6.147 A127.1704 B0.0630 
N900 X-151.997 Y-42.637 Z5.134 A130.9474 B0.1772 
N901 X-151.996 Y-43.363 Z4.115 A134.6094 B0.2923 
N902 X-151.996 Y-43.998 Z3.099 A138.1179 B0.4052 
N903 X-151.995 Y-44.537 Z2.097 A141.4431 B0.5128 
N904 X-151.994 Y-44.993 Z1.090 A144.6663 B0.6154 
N905 X-151.994 Y-45.401 Z0.021 A147.9995 B0.7171 
N906 X-151.993 Y-45.781 Z-1.191 A151.7014 B0.8227 
N907 X-151.993 Y-46.117 Z-2.590 A155.8970 B0.9316 
N908 X-151.992 Y-46.343 Z-4.151 A160.4778 B1.0374 
N909 X-151.991 Y-46.400 Z-5.833 A165.3268 B1.1366 
N910 X-151.991 Y-46.230 Z-7.558 A170.2517 B1.2261 
N911 X-151.991 Y-45.790 Z-9.137 A174.7468 B1.2990 
N912 X-151.990 Y-45.084 Z-10.339 A178.1808 B1.3491 
N913 X-151.990 Y-44.153 Z-11.025 A180.1573 B1.3758 
N914 X-151.990 Y-43.023 Z-11.294 A180.9415 B1.3861 
N915 X-151.990 Y-41.684 Z-11.368 A181.1677 B1.3893 
N916 X-151.990 Y-40.115 Z-11.427 A181.3675 B1.3936 
N917 X-151.990 Y-38.302 Z-11.457 A181.5005 B1.3986 
N918 X-151.990 Y-36.237 Z-11.448 A181.5288 B1.4033 
N919 X-151.990 Y-33.921 Z-11.427 A181.5302 B1.4083 
N920 X-151.990 Y-31.365 Z-11.403 B1.4137 
N921 X-151.990 Y-28.590 Z-11.378 B1.4196 
N922 X-151.990 Y-25.629 Z-11.350 A181.5303 B1.4259 
N923 X-151.990 Y-22.523 Z-11.321 B1.4325 
N924 X-151.990 Y-19.320 Z-11.292 A181.5303 B1.4393 
N925 X-151.990 Y-16.075 Z-11.262 B1.4462 
N926 X-151.990 Y-12.844 Z-11.232 A181.5303 B1.4531 
N927 X-151.990 Y-9.683 Z-11.203 B1.4598 
N928 X-151.990 Y-6.644 Z-11.175 A181.5303 B1.4663 
N929 X-151.989 Y-3.772 Z-11.148 B1.4724 
N930 X-151.989 Y-1.104 Z-11.123 A181.5303 B1.4781 
N931 X-151.989 Y1.333 Z-11.101 B1.4833 
N932 X-151.989 Y3.523 Z-11.080 B1.4879 
N933 X-151.989 Y5.460 Z-11.063 A181.5303 B1.4921 
N934 X-151.989 Y7.146 Z-11.047 A181.5306 B1.4957 
N935 X-151.989 Y8.593 Z-11.060 A181.6122 B1.5003 
N936 X-151.989 Y9.824 Z-11.249 A182.2314 B1.5154 
N937 X-151.989 Y10.879 Z-11.789 A183.9608 B1.5532 
N938 X-151.989 Y11.819 Z-12.726 A186.9762 B1.6161 
N939 X-151.988 Y12.704 Z-13.886 A190.7836 B1.6925 
N940 X-151.988 Y13.561 Z-15.095 A194.8555 B1.7703 
N941 X-151.987 Y14.405 Z-16.282 A198.9740 B1.8433 
N942 X-151.987 Y15.225 Z-17.372 A202.8867 B1.9059 
N943 X-151.987 Y15.999 Z-18.318 A206.4168 B1.9542 
N944 X-151.987 Y16.737 Z-19.156 A209.6612 B1.9871 
N945 X-151.986 Y17.476 Z-19.956 A212.8511 B2.0044 
N946 X-151.986 Y18.252 Z-20.757 A216.1413 B2.0066 
N947 X-151.986 Y19.070 Z-21.543 A219.4982 B1.9950 
N948 X-151.987 Y19.900 Z-22.269 A222.7676 B1.9726 
N949 X-151.987 Y20.717 Z-22.909 A225.8458 B1.9432 
N950 X-151.987 Y21.524 Z-23.476 A228.7705 B1.9092 
N951 X-151.987 Y22.342 Z-23.992 A231.6402 B1.8711 
N952 X-151.987 Y23.197 Z-24.474 A234.5525 B1.8285 
N953 X-151.988 Y24.112 Z-24.931 A237.5875 B1.7803 
N954 X-151.988 Y25.104 Z-25.362 A240.7989 B1.7254 
N955 X-151.988 Y26.183 Z-25.756 A244.2053 B1.6630 
N956 X-151.989 Y27.343 Z-26.095 A247.7898 B1.5930 
N957 X-151.989 Y28.570 Z-26.357 A251.5049 B1.5159 
N958 X-151.990 Y29.836 Z-26.522 A255.2767 B1.4329 
N959 X-151.990 Y31.099 Z-26.573 A258.9910 B1.3463 
N960 X-151.991 Y32.292 Z-26.500 A262.4754 B1.2599 
N961 X-151.991 Y33.329 Z-26.305 A265.4915 B1.1799 
N962 X-151.992 Y34.112 Z-26.005 A267.7671 B1.1140 
N963 X-151.992 Y34.595 Z-25.623 A269.1642 B1.0678 
N964 X-151.992 Y34.806 Z-25.177 A269.7646 B1.0405 
N965 X-151.992 Y34.869 Z-24.674 A269.9228 B1.0235 
N966 X-151.992 Y34.927 Z-24.111 A270.0662 B1.0054 
N967 X-151.992 Y35.091 Z-23.488 A270.5351 B0.9777 
N968 X-151.993 Y35.445 Z-22.801 A271.5972 B0.9342 
N969 X-151.993 Y36.050 Z-22.037 A273.4691 B0.8710 
N970 X-151.993 Y36.835 Z-21.182 A275.9857 B0.7944 
N971 X-151.994 Y37.545 Z-20.252 A278.4059 B0.7236 
N972 X-151.994 Y37.992 Z-19.296 A280.1505 B0.6718 
N973 X-151.994 Y38.199 Z-18.342 A281.2454 B0.6366 
N974 X-151.994 Y38.244 Z-17.396 A281.9009 B0.6108 
N975 X-151.995 Y38.192 Z-16.460 A282.2891 B0.5892 
N976 X-151.995 Y38.083 Z-15.538 A282.5141 B0.5686 
N977 X-151.995 Y37.947 Z-14.636 A282.6600 B0.5473 
N978 X-151.995 Y37.845 Z-13.747 A282.9045 B0.5217 
N979 X-151.995 Y37.855 Z-12.862 A283.4924 B0.4876 
N980 X-151.995 Y38.040 Z-11.967 A284.6372 B0.4425 
N981 X-151.996 Y38.432 Z-11.045 A286.4672 B0.3856 
N982 X-151.996 Y39.004 Z-10.085 A288.9340 B0.3200 
N983 X-151.997 Y39.678 Z-9.092 A291.8306 B0.2508 
N984 X-151.997 Y40.371 Z-8.082 A294.9050 B0.1836 
N985 X-151.997 Y41.011 Z-7.083 A297.9245 B0.1226 
N986 X-151.998 Y41.563 Z-6.119 A300.7557 B0.0699 
N987 X-151.998 Y42.023 Z-5.201 A303.3588 B0.0256 
N988 X-151.998 Y42.400 Z-4.332 A305.7405 B-0.0109 
N989 X-151.998 Y42.715 Z-3.503 A307.9635 B-0.0411 
N990 X-151.998 Y42.997 Z-2.696 A310.1205 B-0.0662 
N991 X-151.999 Y43.261 Z-1.892 A312.2839 B-0.0867 
N992 X-151.999 Y43.518 Z-1.076 A314.5026 B-0.1030 
N993 X-151.999 Y43.773 Z-0.232 A316.8246 B-0.1156 
N994 X-151.999 Y44.030 Z0.660 A319.3082 B-0.1249 
N995 X-151.999 Y44.291 Z1.622 A322.0153 B-0.1312 
N996 X-151.999 Y44.549 Z2.680 A325.0048 B-0.1344 
N997 X-151.999 Y44.790 Z3.853 A328.3180 B-0.1338 
N998 X-151.999 Y44.987 Z5.155 A331.9736 B-0.1277 
N999 X-151.999 Y45.101 Z6.584 A335.9499 B-0.1131 
N1000 X-151.999 Y45.082 Z8.116 A340.1591 B-0.0869 
N1001 X-151.998 Y44.876 Z9.683 A344.4180 B-0.0522 
N1002 X-151.998 Y44.435 Z11.166 A348.3927 B-0.0207 
N1003 X-151.998 Y43.741 Z12.459 A351.8116 B-0.0040 
N1004 X-151.998 Y42.805 Z13.532 A354.6254 B-0.0001 
N1005 X-151.998 Y41.630 Z14.296 A356.5830 B0.0000 
N1006 X-151.998 Y40.231 Z14.899 A358.1221 
N1007 X-151.998 Y38.602 Z15.489 A359.7148 
N1008 X-151.998 Y36.733 Z15.860 A0.7608 
N1009 X-151.998 Y34.630 Z15.959 A1.0527 
N1010 X-151.998 Y32.296 Z15.960 A1.0634 
N1011 X-151.998 Y29.740 Z15.957 
N1012 X-151.998 Y26.985 Z15.954 
N1013 X-151.998 Y24.060 Z15.951 
N1014 X-151.998 Y21.004 Z15.947 
N1015 X-151.998 Y17.865 Z15.944 
N1016 X-151.998 Y14.694 Z15.940 
N1017 X-151.998 Y11.545 Z15.937 
N1018 X-151.998 Y8.471 Z15.933 
N1019 X-151.998 Y5.521 Z15.930 
N1020 X-151.998 Y2.740 Z15.927 
N1021 X-151.998 Y0.162 Z15.924 
N1022 X-151.998 Y-2.187 Z15.922 
N1023 X-151.998 Y-4.291 Z15.919 
N1024 X-151.998 Y-6.144 Z15.917 
N1025 X-151.998 Y-7.750 Z15.915 
N1026 X-151.998 Y-9.120 Z15.916 A1.0700 
N1027 X-151.998 Y-10.272 Z15.957 A1.2004 
N1028 X-151.998 Y-11.230 Z16.144 A1.7826 
N1029 X-151.998 Y-12.031 Z16.619 A3.2648 
N1030 X-151.998 Y-12.734 Z17.487 A5.9936 
N1031 X-151.998 Y-13.411 Z18.689 A9.8128 
N1032 X-151.998 Y-14.113 Z20.050 A14.2216 
N1033 X-151.998 Y-14.860 Z21.443 A18.8470 
N1034 X-151.998 Y-15.657 Z22.793 A23.4708 
N1035 X-151.998 Y-16.486 Z24.042 A27.9153 
N1036 X-151.998 Y-17.322 Z25.155 A32.0519 
N1037 X-151.998 Y-18.143 Z26.124 A35.8277 
N1038 X-151.998 Y-18.937 Z26.961 A39.2633 
N1039 X-151.998 Y-19.706 Z27.691 A42.4234 
N1040 X-151.998 Y-20.460 Z28.337 A45.3836 
N1041 X-151.998 Y-21.210 Z28.921 A48.2174 
N1042 X-151.998 Y-21.970 Z29.457 A50.9902 
N1043 X-151.998 Y-22.751 Z29.956 A53.7544 
N1044 X-151.998 Y-23.560 Z30.420 A56.5391 
N1045 X-151.998 Y-24.399 Z30.847 A59.3467 
N1046 X-151.998 Y-25.264 Z31.233 A62.1708 
N1047 X-151.998 Y-26.155 Z31.574 A65.0163 
N1048 X-151.998 Y-27.082 Z31.870 A67.9140 
N1049 X-151.998 Y-28.059 Z32.122 A70.9167 
N1050 X-151.998 Y-29.100 Z32.322 A74.0674 B-0.0000 
N1051 X-151.998 Y-30.210 Z32.460 A77.3904 B-0.0001 
N1052 X-151.998 Y-31.390 Z32.521 A80.8919 B-0.0005 
N1053 X-151.998 Y-32.630 Z32.486 A84.5601 B-0.0014 
N1054 X-151.998 Y-33.916 Z32.338 A88.3706 B-0.0035 
N1055 X-151.998 Y-35.219 Z32.059 A92.2718 B-0.0075 
N1056 X-151.998 Y-36.481 Z31.641 A96.1231 B-0.0141 
N1057 X-151.998 Y-37.591 Z31.099 A99.6233 B-0.0236 
N1058 X-151.998 Y-38.430 Z30.473 A102.4314 B-0.0363 
N1059 X-151.998 Y-38.939 Z29.804 A104.3580 B-0.0521 
N1060 X-151.998 Y-39.141 Z29.114 A105.4443 B-0.0713 
N1061 X-151.999 Y-39.103 Z28.394 A105.8833 B-0.0933 
N1062 X-151.999 Y-38.929 Z27.619 A105.9767 B-0.1171 
N1063 X-151.999 Y-38.703 Z26.769 A105.9809 B-0.1423 
N1064 X-151.999 Y-38.454 Z25.841 A105.9813 B-0.1692 
N1065 X-151.999 Y-38.189 Z24.843 A105.9864 B-0.1980 
N1066 X-151.999 Y-37.912 Z23.786 A106.0046 B-0.2285 
N1067 X-152.000 Y-37.629 Z22.687 A106.0391 B-0.2605 
N1068 X-152.000 Y-37.342 Z21.562 A106.0853 B-0.2934 
N1069 X-152.000 Y-37.055 Z20.432 A106.1369 B-0.3265 
N1070 X-152.000 Y-36.770 Z19.316 A106.1863 B-0.3591 
N1071 X-152.000 Y-36.489 Z18.233 A106.2256 B-0.3909 
N1072 X-152.000 Y-36.216 Z17.199 A106.2504 B-0.4215 
N1073 X-152.001 Y-35.954 Z16.227 A106.2611 B-0.4507 
N1074 X-152.001 Y-35.713 Z15.327 A106.2734 B-0.4777 
N1075 X-152.001 Y-35.542 Z14.490 A106.4430 B-0.4984 
N1076 X-152.001 Y-35.569 Z13.680 A107.1813 B-0.5011 
N1077 X-152.001 Y-35.900 Z12.853 A108.8515 B-0.4743 
N1078 X-152.000 Y-36.541 Z11.973 A111.5325 B-0.4124 
N1079 X-152.000 Y-37.424 Z11.015 A115.0710 B-0.3163 
N1080 X-151.999 Y-38.420 Z9.985 A119.1116 B-0.1946 
N1081 X-151.998 Y-39.406 Z8.913 A123.2837 B-0.0587 
N1082 X-151.998 Y-40.313 Z7.831 A127.3605 B0.0831 
N1083 X-151.997 Y-41.134 Z6.744 A131.3157 B0.2282 
N1084 X-151.996 Y-41.887 Z5.634 A135.2273 B0.3776 
N1085 X-151.995 Y-42.557 Z4.508 A139.0554 B0.5277 
N1086 X-151.994 Y-43.112 Z3.401 A142.6675 B0.6704 
N1087 X-151.993 Y-43.564 Z2.305 A146.1170 B0.8049 
N1088 X-151.993 Y-43.961 Z1.130 A149.7207 B0.9394 
N1089 X-151.992 Y-44.334 Z-0.235 A153.8401 B1.0820 
N1090 X-151.991 Y-44.634 Z-1.803 A158.4878 B1.2271 
N1091 X-151.990 Y-44.772 Z-3.491 A163.3898 B1.3628 
N1092 X-151.989 Y-44.695 Z-5.244 A168.4079 B1.4865 
N1093 X-151.989 Y-44.354 Z-6.907 A173.1410 B1.5909 
N1094 X-151.988 Y-43.740 Z-8.251 A176.9675 B1.6668 
N1095 X-151.988 Y-42.888 Z-9.111 A179.4260 B1.7113 
N1096 X-151.988 Y-41.836 Z-9.525 A180.6196 B1.7316 
N1097 X-151.988 Y-40.584 Z-9.681 A181.0818 B1.7398 
N1098 X-151.988 Y-39.114 Z-9.770 A181.3664 B1.7467 
N1099 X-151.988 Y-37.411 Z-9.803 A181.5049 B1.7523 
N1100 X-151.988 Y-35.466 Z-9.793 A181.5291 B1.7568 
N1101 X-151.988 Y-33.277 Z-9.773 A181.5302 B1.7615 
N1102 X-151.988 Y-30.852 Z-9.751 B1.7667 
N1103 X-151.988 Y-28.209 Z-9.727 A181.5302 B1.7723 
N1104 X-151.988 Y-25.377 Z-9.700 B1.7784 
N1105 X-151.988 Y-22.395 Z-9.673 A181.5302 B1.7848 
N1106 X-151.988 Y-19.308 Z-9.644 B1.7914 
N1107 X-151.988 Y-16.167 Z-9.615 A181.5302 B1.7981 
N1108 X-151.988 Y-13.028 Z-9.586 B1.8048 
N1109 X-151.988 Y-9.944 Z-9.558 A181.5302 B1.8114 
N1110 X-151.987 Y-6.967 Z-9.530 B1.8177 
N1111 X-151.987 Y-4.142 Z-9.504 A181.5302 B1.8237 
N1112 X-151.987 Y-1.509 Z-9.480 B1.8294 
N1113 X-151.987 Y0.906 Z-9.457 A181.5302 B1.8345 
N1114 X-151.987 Y3.083 Z-9.437 B1.8392 
N1115 X-151.987 Y5.015 Z-9.419 B1.8433 
N1116 X-151.987 Y6.702 Z-9.404 A181.5307 B1.8469 
N1117 X-151.987 Y8.154 Z-9.418 A181.6154 B1.8520 
N1118 X-151.987 Y9.391 Z-9.608 A182.2389 B1.8697 
N1119 X-151.987 Y10.452 Z-10.142 A183.9494 B1.9137 
N1120 X-151.987 Y11.392 Z-11.030 A186.8166 B1.9844 
N1121 X-151.986 Y12.256 Z-12.075 A190.2607 B2.0662 
N1122 X-151.986 Y13.068 Z-13.153 A193.9017 B2.1485 
N1123 X-151.985 Y13.846 Z-14.213 A197.5670 B2.2250 
N1124 X-151.985 Y14.584 Z-15.191 A201.0465 B2.2884 
N1125 X-151.984 Y15.299 Z-16.113 A204.4115 B2.3348 
N1126 X-151.984 Y16.038 Z-17.054 A207.9091 B2.3632 
N1127 X-151.984 Y16.825 Z-18.016 A211.5739 B2.3738 
N1128 X-151.984 Y17.634 Z-18.927 A215.1801 B2.3693 
N1129 X-151.984 Y18.430 Z-19.738 A218.5513 B2.3544 
N1130 X-151.985 Y19.213 Z-20.461 A221.7141 B2.3328 
N1131 X-151.985 Y19.998 Z-21.120 A224.7615 B2.3057 
N1132 X-151.985 Y20.804 Z-21.734 A227.7762 B2.2734 
N1133 X-151.985 Y21.645 Z-22.315 A230.8195 B2.2355 
N1134 X-151.985 Y22.534 Z-22.865 A233.9313 B2.1913 
N1135 X-151.986 Y23.477 Z-23.380 A237.1330 B2.1403 
N1136 X-151.986 Y24.478 Z-23.856 A240.4333 B2.0818 
N1137 X-151.986 Y25.537 Z-24.281 A243.8319 B2.0157 
N1138 X-151.987 Y26.651 Z-24.645 A247.3196 B1.9419 
N1139 X-151.987 Y27.810 Z-24.937 A250.8710 B1.8609 
N1140 X-151.988 Y28.990 Z-25.141 A254.4239 B1.7743 
N1141 X-151.988 Y30.151 Z-25.247 A257.8737 B1.6852 
N1142 X-151.989 Y31.239 Z-25.247 A261.0710 B1.5983 
N1143 X-151.989 Y32.183 Z-25.145 A263.8260 B1.5200 
N1144 X-151.990 Y32.928 Z-24.956 A265.9900 B1.4549 
N1145 X-151.990 Y33.451 Z-24.697 A267.4974 B1.4044 
N1146 X-151.990 Y33.767 Z-24.383 A268.3937 B1.3653 
N1147 X-151.990 Y33.941 Z-24.021 A268.8722 B1.3298 
N1148 X-151.991 Y34.076 Z-23.614 A269.2357 B1.2898 
N1149 X-151.991 Y34.296 Z-23.162 A269.8605 B1.2380 
N1150 X-151.991 Y34.713 Z-22.658 A271.0948 B1.1690 
N1151 X-151.992 Y35.404 Z-22.084 A273.2001 B1.0787 
N1152 X-151.992 Y36.350 Z-21.410 A276.1613 B0.9687 
N1153 X-151.993 Y37.350 Z-20.627 A279.4191 B0.8547 
N1154 X-151.994 Y38.140 Z-19.781 A282.1873 B0.7591 
N1155 X-151.994 Y38.620 Z-18.927 A284.1373 B0.6904 
N1156 X-151.994 Y38.833 Z-18.088 A285.3584 B0.6445 
N1157 X-151.994 Y38.855 Z-17.266 A286.0514 B0.6135 
N1158 X-151.995 Y38.767 Z-16.450 A286.4389 B0.5896 
N1159 X-151.995 Y38.622 Z-15.635 A286.6788 B0.5674 
N1160 X-151.995 Y38.466 Z-14.814 A286.8957 B0.5431 
N1161 X-151.995 Y38.357 Z-13.979 A287.2748 B0.5123 
N1162 X-151.995 Y38.364 Z-13.113 A288.0382 B0.4702 
N1163 X-151.996 Y38.536 Z-12.199 A289.3610 B0.4143 
N1164 X-151.996 Y38.883 Z-11.228 A291.3067 B0.3456 
N1165 X-151.996 Y39.355 Z-10.202 A293.7508 B0.2696 
N1166 X-151.997 Y39.868 Z-9.147 A296.4460 B0.1940 
N1167 X-151.997 Y40.340 Z-8.098 A299.1293 B0.1255 
N1168 X-151.998 Y40.724 Z-7.091 A301.6150 B0.0679 
N1169 X-151.998 Y41.011 Z-6.142 A303.8454 B0.0216 
N1170 X-151.998 Y41.217 Z-5.256 A305.8383 B-0.0146 
N1171 X-151.998 Y41.369 Z-4.419 A307.6748 B-0.0430 
N1172 X-151.998 Y41.499 Z-3.612 A309.4610 B-0.0655 
N1173 X-151.999 Y41.630 Z-2.813 A311.2824 B-0.0832 
N1174 X-151.999 Y41.776 Z-2.003 A313.2149 B-0.0970 
N1175 X-151.999 Y41.952 Z-1.157 A315.3387 B-0.1079 
N1176 X-151.999 Y42.165 Z-0.247 A317.7329 B-0.1163 
N1177 X-151.999 Y42.414 Z0.753 A320.4641 B-0.1221 
N1178 X-151.999 Y42.687 Z1.865 A323.5732 B-0.1244 
N1179 X-151.999 Y42.960 Z3.109 A327.0800 B-0.1213 
N1180 X-151.999 Y43.197 Z4.494 A330.9816 B-0.1093 
N1181 X-151.999 Y43.354 Z6.020 A335.2497 B-0.0859 
N1182 X-151.998 Y43.370 Z7.647 A339.7441 B-0.0540 
N1183 X-151.998 Y43.174 Z9.258 A344.1235 B-0.0240 
N1184 X-151.998 Y42.735 Z10.755 A348.1296 B-0.0062 
N1185 X-151.998 Y42.057 Z12.125 A351.7774 B-0.0007 
N1186 X-151.998 Y41.126 Z13.211 A354.6335 B-0.0000 
N1187 X-151.998 Y39.963 Z14.040 A356.7911 B-0.0000 
N1188 X-151.998 Y38.580 Z14.819 A358.8992 
N1189 X-151.998 Y36.963 Z15.358 A0.4075 
N1190 X-151.998 Y35.119 Z15.559 A0.9899 
N1191 X-151.998 Y33.051 Z15.577 A1.0473 
N1192 X-151.998 Y30.759 Z15.575 A1.0473 
N1193 X-151.998 Y28.255 Z15.573 
N1194 X-151.998 Y25.559 Z15.571 
N1195 X-151.998 Y22.704 Z15.568 
N1196 X-151.998 Y19.728 Z15.566 
N1197 X-151.998 Y16.678 Z15.563 
N1198 X-151.998 Y13.605 Z15.561 
N1199 X-151.998 Y10.561 Z15.558 
N1200 X-151.998 Y7.598 Z15.556 
N1201 X-151.998 Y4.763 Z15.554 
N1202 X-151.998 Y2.098 Z15.551 
N1203 X-151.998 Y-0.364 Z15.549 
N1204 X-151.998 Y-2.599 Z15.547 
N1205 X-151.998 Y-4.595 Z15.546 
N1206 X-151.998 Y-6.346 Z15.544 
N1207 X-151.998 Y-7.858 Z15.543 
N1208 X-151.998 Y-9.143 Z15.546 A1.0588 
N1209 X-151.998 Y-10.219 Z15.596 A1.2150 
N1210 X-151.998 Y-11.111 Z15.798 A1.8437 
N1211 X-151.998 Y-11.857 Z16.300 A3.4062 
N1212 X-151.998 Y-12.516 Z17.202 A6.2349 
N1213 X-151.998 Y-13.161 Z18.429 A10.1235 
N1214 X-151.998 Y-13.837 Z19.801 A14.5560 
N1215 X-151.998 Y-14.564 Z21.196 A19.1777 
N1216 X-151.998 Y-15.344 Z22.547 A23.7923 
N1217 X-151.998 Y-16.162 Z23.801 A28.2384 
N1218 X-151.998 Y-16.991 Z24.922 A32.3890 
N1219 X-151.998 Y-17.807 Z25.899 A36.1819 
N1220 X-151.998 Y-18.596 Z26.740 A39.6223 
N1221 X-151.998 Y-19.356 Z27.469 A42.7642 
N1222 X-151.998 Y-20.095 Z28.110 A45.6810 
N1223 X-151.998 Y-20.823 Z28.683 A48.4477 
N1224 X-151.998 Y-21.554 Z29.208 A51.1342 
N1225 X-151.998 Y-22.303 Z29.696 A53.8026 
N1226 X-151.998 Y-23.081 Z30.155 A56.5027 
N1227 X-151.998 Y-23.897 Z30.586 A59.2583 
N1228 X-151.998 Y-24.746 Z30.984 A62.0596 
N1229 X-151.998 Y-25.621 Z31.340 A64.8804 
N1230 X-151.998 Y-26.515 Z31.649 A67.7041 
N1231 X-151.998 Y-27.430 Z31.911 A70.5448 
N1232 X-151.998 Y-28.380 Z32.126 A73.4499 
N1233 X-151.998 Y-29.378 Z32.291 A76.4653 B-0.0000 
N1234 X-151.998 Y-30.433 Z32.399 A79.6199 B-0.0001 
N1235 X-151.998 Y-31.545 Z32.437 A82.9283 B-0.0005 
N1236 X-151.998 Y-32.712 Z32.391 A86.3928 B-0.0014 
N1237 X-151.998 Y-33.925 Z32.247 A90.0069 B-0.0035 
N1238 X-151.998 Y-35.172 Z31.989 A93.7590 B-0.0077 
N1239 X-151.998 Y-36.423 Z31.603 A97.5950 B-0.0147 
N1240 X-151.998 Y-37.610 Z31.090 A101.3467 B-0.0246 
N1241 X-151.998 Y-38.622 Z30.476 A104.7012 B-0.0365 
N1242 X-151.998 Y-39.360 Z29.810 A107.3591 B-0.0491 
N1243 X-151.998 Y-39.780 Z29.134 A109.1656 B-0.0619 
N1244 X-151.998 Y-39.901 Z28.464 A110.1541 B-0.0760 
N1245 X-151.999 Y-39.791 Z27.787 A110.5180 B-0.0930 
N1246 X-151.999 Y-39.558 Z27.067 A110.5819 B-0.1133 
N1247 X-151.999 Y-39.277 Z26.277 A110.5834 B-0.1361 
N1248 X-151.999 Y-38.971 Z25.416 A110.5846 B-0.1610 
N1249 X-151.999 Y-38.646 Z24.491 A110.5948 B-0.1876 
N1250 X-151.999 Y-38.308 Z23.513 A110.6257 B-0.2157 
N1251 X-151.999 Y-37.963 Z22.497 A110.6756 B-0.2450 
N1252 X-152.000 Y-37.612 Z21.461 A110.7324 B-0.2750 
N1253 X-152.000 Y-37.259 Z20.422 A110.7900 B-0.3052 
N1254 X-152.000 Y-36.910 Z19.398 A110.8459 B-0.3349 
N1255 X-152.000 Y-36.569 Z18.405 A110.8960 B-0.3636 
N1256 X-152.000 Y-36.239 Z17.459 A110.9312 B-0.3914 
N1257 X-152.000 Y-35.922 Z16.572 A110.9458 B-0.4180 
N1258 X-152.001 Y-35.634 Z15.749 A110.9755 B-0.4422 
N1259 X-152.001 Y-35.454 Z14.963 A111.2789 B-0.4553 
N1260 X-152.001 Y-35.534 Z14.156 A112.3590 B-0.4393 
N1261 X-152.000 Y-35.947 Z13.276 A114.5086 B-0.3806 
N1262 X-152.000 Y-36.654 Z12.293 A117.6770 B-0.2766 
N1263 X-151.999 Y-37.542 Z11.207 A121.5715 B-0.1344 
N1264 X-151.998 Y-38.464 Z10.056 A125.7638 B0.0310 
N1265 X-151.997 Y-39.323 Z8.883 A129.9357 B0.2061 
N1266 X-151.996 Y-40.109 Z7.690 A134.0644 B0.3885 
N1267 X-151.995 Y-40.849 Z6.437 A138.2950 B0.5821 
N1268 X-151.994 Y-41.492 Z5.161 A142.4559 B0.7762 
N1269 X-151.992 Y-41.986 Z3.928 A146.3099 B0.9560 
N1270 X-151.991 Y-42.388 Z2.653 A150.1780 B1.1302 
N1271 X-151.990 Y-42.766 Z1.160 A154.6551 B1.3164 
N1272 X-151.989 Y-43.052 Z-0.553 A159.7044 B1.5041 
N1273 X-151.988 Y-43.135 Z-2.337 A164.8564 B1.6729 
N1274 X-151.987 Y-42.972 Z-4.119 A169.9412 B1.8215 
N1275 X-151.987 Y-42.529 Z-5.706 A174.4465 B1.9398 
N1276 X-151.986 Y-41.822 Z-6.887 A177.8030 B2.0196 
N1277 X-151.986 Y-40.896 Z-7.603 A179.8505 B2.0649 
N1278 X-151.986 Y-39.774 Z-7.954 A180.8711 B2.0872 
N1279 X-151.986 Y-38.450 Z-8.108 A181.3447 B2.0989 
N1280 X-151.986 Y-36.908 Z-8.152 A181.5114 B2.1054 
N1281 X-151.986 Y-35.137 Z-8.142 A181.5302 B2.1095 
N1282 X-151.986 Y-33.128 Z-8.124 A181.5308 B2.1138 
N1283 X-151.986 Y-30.885 Z-8.103 B2.1186 
N1284 X-151.986 Y-28.421 Z-8.080 A181.5308 B2.1239 
N1285 X-151.986 Y-25.759 Z-8.055 B2.1296 
N1286 X-151.986 Y-22.931 Z-8.029 A181.5309 B2.1357 
N1287 X-151.986 Y-19.979 Z-8.002 B2.1420 
N1288 X-151.986 Y-16.949 Z-7.974 A181.5309 B2.1485 
N1289 X-151.986 Y-13.895 Z-7.946 B2.1551 
N1290 X-151.986 Y-10.869 Z-7.918 A181.5309 B2.1616 
N1291 X-151.985 Y-7.923 Z-7.890 B2.1679 
N1292 X-151.985 Y-5.105 Z-7.864 A181.5309 B2.1740 
N1293 X-151.985 Y-2.456 Z-7.840 B2.1797 
N1294 X-151.985 Y-0.008 Z-7.817 A181.5309 B2.1849 
N1295 X-151.985 Y2.215 Z-7.797 B2.1897 
N1296 X-151.985 Y4.200 Z-7.778 A181.5309 B2.1940 
N1297 X-151.985 Y5.945 Z-7.762 A181.5309 B2.1977 
N1298 X-151.985 Y7.455 Z-7.762 A181.5748 B2.2021 
N1299 X-151.985 Y8.744 Z-7.891 A182.0083 B2.2171 
N1300 X-151.985 Y9.844 Z-8.302 A183.3328 B2.2571 
N1301 X-151.985 Y10.796 Z-9.008 A185.6133 B2.3232 
N1302 X-151.984 Y11.633 Z-9.827 A188.3178 B2.3999 
N1303 X-151.984 Y12.385 Z-10.697 A191.2376 B2.4793 
N1304 X-151.983 Y13.077 Z-11.592 A194.2868 B2.5555 
N1305 X-151.983 Y13.730 Z-12.494 A197.4037 B2.6203 
N1306 X-151.983 Y14.397 Z-13.483 A200.8435 B2.6708 
N1307 X-151.982 Y15.123 Z-14.579 A204.7053 B2.7064 
N1308 X-151.982 Y15.903 Z-15.686 A208.7121 B2.7264 
N1309 X-151.982 Y16.712 Z-16.730 A212.6341 B2.7329 
N1310 X-151.982 Y17.542 Z-17.695 A216.4237 B2.7280 
N1311 X-151.982 Y18.391 Z-18.582 A220.0822 B2.7130 
N1312 X-151.982 Y19.257 Z-19.391 A223.6168 B2.6891 
N1313 X-151.983 Y20.136 Z-20.126 A227.0366 B2.6572 
N1314 X-151.983 Y21.028 Z-20.790 A230.3582 B2.6180 
N1315 X-151.983 Y21.937 Z-21.389 A233.6052 B2.5719 
N1316 X-151.983 Y22.864 Z-21.926 A236.8036 B2.5193 
N1317 X-151.984 Y23.813 Z-22.405 A239.9776 B2.4601 
N1318 X-151.984 Y24.787 Z-22.826 A243.1403 B2.3944 
N1319 X-151.985 Y25.778 Z-23.184 A246.2836 B2.3227 
N1320 X-151.985 Y26.776 Z-23.474 A249.3795 B2.2459 
N1321 X-151.985 Y27.763 Z-23.692 A252.3835 B2.1657 
N1322 X-151.986 Y28.715 Z-23.834 A255.2365 B2.0841 
N1323 X-151.986 Y29.606 Z-23.901 A257.8752 B2.0033 
N1324 X-151.987 Y30.420 Z-23.898 A260.2643 B1.9245 
N1325 X-151.987 Y31.150 Z-23.832 A262.3897 B1.8475 
N1326 X-151.988 Y31.787 Z-23.711 A264.2340 B1.7716 
N1327 X-151.988 Y32.314 Z-23.540 A265.7537 B1.6978 
N1328 X-151.989 Y32.721 Z-23.325 A266.9184 B1.6282 
N1329 X-151.989 Y33.052 Z-23.073 A267.8618 B1.5617 
N1330 X-151.989 Y33.429 Z-22.787 A268.9531 B1.4893 
N1331 X-151.990 Y33.969 Z-22.461 A270.5492 B1.4019 
N1332 X-151.991 Y34.726 Z-22.076 A272.8338 B1.2941 
N1333 X-151.991 Y35.698 Z-21.601 A275.8275 B1.1650 
N1334 X-151.992 Y36.801 Z-21.011 A279.3172 B1.0212 
N1335 X-151.993 Y37.869 Z-20.311 A282.8393 B0.8785 
N1336 X-151.994 Y38.742 Z-19.545 A285.9199 B0.7540 
N1337 X-151.994 Y39.346 Z-18.763 A288.3133 B0.6564 
N1338 X-151.995 Y39.670 Z-18.000 A289.9530 B0.5876 
N1339 X-151.995 Y39.750 Z-17.269 A290.9094 B0.5439 
N1340 X-151.995 Y39.663 Z-16.553 A291.4054 B0.5159 
N1341 X-151.995 Y39.489 Z-15.830 A291.6774 B0.4939 
N1342 X-151.995 Y39.288 Z-15.083 A291.9126 B0.4707 
N1343 X-151.995 Y39.119 Z-14.293 A292.2910 B0.4405 
N1344 X-151.996 Y39.036 Z-13.444 A292.9970 B0.3984 
N1345 X-151.996 Y39.078 Z-12.524 A294.1711 B0.3422 
N1346 X-151.996 Y39.246 Z-11.528 A295.8448 B0.2738 
N1347 X-151.997 Y39.489 Z-10.477 A297.8759 B0.2005 
N1348 X-151.997 Y39.732 Z-9.410 A300.0192 B0.1310 
N1349 X-151.998 Y39.910 Z-8.371 A302.0420 B0.0723 
N1350 X-151.998 Y40.000 Z-7.390 A303.8273 B0.0264 
N1351 X-151.998 Y40.012 Z-6.477 A305.3747 B-0.0077 
N1352 X-151.998 Y39.972 Z-5.625 A306.7423 B-0.0327 
N1353 X-151.998 Y39.909 Z-4.820 A308.0234 B-0.0508 
N1354 X-151.998 Y39.854 Z-4.042 A309.3191 B-0.0643 
N1355 X-151.998 Y39.841 Z-3.260 A310.7670 B-0.0751 
N1356 X-151.999 Y39.906 Z-2.432 A312.5304 B-0.0848 
N1357 X-151.999 Y40.072 Z-1.515 A314.7583 B-0.0940 
N1358 X-151.999 Y40.338 Z-0.475 A317.5312 B-0.1016 
N1359 X-151.999 Y40.676 Z0.705 A320.8449 B-0.1051 
N1360 X-151.999 Y41.042 Z2.037 A324.6606 B-0.1010 
N1361 X-151.999 Y41.389 Z3.530 A328.9493 B-0.0862 
N1362 X-151.998 Y41.652 Z5.161 A333.5919 B-0.0621 
N1363 X-151.998 Y41.744 Z6.834 A338.2581 B-0.0353 
N1364 X-151.998 Y41.619 Z8.463 A342.7052 B-0.0146 
N1365 X-151.998 Y41.281 Z10.091 A347.1172 B-0.0039 
N1366 X-151.998 Y40.699 Z11.623 A351.2645 B-0.0005 
N1367 X-151.998 Y39.845 Z12.806 A354.4202 B-0.0000 
N1368 X-151.998 Y38.766 Z13.844 A357.2327 B0.0000 
N1369 X-151.998 Y37.456 Z14.654 A359.4844 
N1370 X-151.998 Y35.923 Z15.081 A0.7021 
N1371 X-151.998 Y34.177 Z15.189 A1.0185 
N1372 X-151.998 Y32.211 Z15.193 A1.0325 
N1373 X-151.998 Y30.025 Z15.192 
N1374 X-151.998 Y27.630 Z15.190 
N1375 X-151.998 Y25.044 Z15.189 
N1376 X-151.998 Y22.296 Z15.187 
N1377 X-151.998 Y19.423 Z15.186 
N1378 X-151.998 Y16.471 Z15.184 
N1379 X-151.998 Y13.489 Z15.182 
N1380 X-151.998 Y10.527 Z15.181 
N1381 X-151.998 Y7.637 Z15.179 
N1382 X-151.998 Y4.866 Z15.177 
N1383 X-151.998 Y2.256 Z15.176 
N1384 X-151.998 Y-0.160 Z15.175 
N1385 X-151.998 Y-2.358 Z15.173 
N1386 X-151.998 Y-4.322 Z15.172 
N1387 X-151.998 Y-6.049 Z15.171 
N1388 X-151.998 Y-7.540 Z15.170 
N1389 X-151.998 Y-8.809 Z15.172 A1.0383 
N1390 X-151.998 Y-9.871 Z15.206 A1.1463 
N1391 X-151.998 Y-10.750 Z15.363 A1.6335 
N1392 X-151.998 Y-11.479 Z15.782 A2.9340 
N1393 X-151.998 Y-12.112 Z16.591 A5.4564 
N1394 X-151.998 Y-12.719 Z17.754 A9.1213 
N1395 X-151.998 Y-13.355 Z19.103 A13.4433 
N1396 X-151.998 Y-14.042 Z20.500 A18.0193 
N1397 X-151.998 Y-14.788 Z21.871 A22.6391 
N1398 X-151.998 Y-15.582 Z23.164 A27.1502 
N1399 X-151.998 Y-16.403 Z24.337 A31.4166 
N1400 X-151.998 Y-17.222 Z25.371 A35.3514 
N1401 X-151.998 Y-18.020 Z26.265 A38.9310 
N1402 X-151.998 Y-18.789 Z27.036 A42.1826 
N1403 X-151.998 Y-19.529 Z27.706 A45.1640 
N1404 X-151.998 Y-20.248 Z28.296 A47.9434 
N1405 X-151.998 Y-20.957 Z28.825 A50.5877 
N1406 X-151.998 Y-21.668 Z29.310 A53.1596 
N1407 X-151.998 Y-22.396 Z29.760 A55.7179 
N1408 X-151.998 Y-23.154 Z30.186 A58.3176 
N1409 X-151.998 Y-23.955 Z30.591 A61.0023 
N1410 X-151.998 Y-24.804 Z30.972 A63.7849 
N1411 X-151.998 Y-25.693 Z31.319 A66.6391 
N1412 X-151.998 Y-26.607 Z31.621 A69.5178 
N1413 X-151.998 Y-27.533 Z31.873 A72.3860 
N1414 X-151.998 Y-28.471 Z32.073 A75.2504 
N1415 X-151.998 Y-29.433 Z32.222 A78.1587 
N1416 X-151.998 Y-30.433 Z32.318 A81.1555 B-0.0000 
N1417 X-151.998 Y-31.476 Z32.353 A84.2676 B-0.0001 
N1418 X-151.998 Y-32.564 Z32.318 A87.5085 B-0.0005 
N1419 X-151.998 Y-33.692 Z32.200 A90.8800 B-0.0014 
N1420 X-151.998 Y-34.852 Z31.988 A94.3783 B-0.0034 
N1421 X-151.998 Y-36.036 Z31.668 A98.0018 B-0.0072 
N1422 X-151.998 Y-37.223 Z31.229 A101.7233 B-0.0134 
N1423 X-151.998 Y-38.363 Z30.671 A105.4267 B-0.0218 
N1424 X-151.998 Y-39.364 Z30.019 A108.8572 B-0.0312 
N1425 X-151.998 Y-40.132 Z29.320 A111.7257 B-0.0400 
N1426 X-151.998 Y-40.606 Z28.624 A113.8228 B-0.0478 
N1427 X-151.998 Y-40.777 Z27.963 A115.0846 B-0.0559 
N1428 X-151.998 Y-40.687 Z27.331 A115.6242 B-0.0665 
N1429 X-151.999 Y-40.437 Z26.687 A115.7493 B-0.0804 
N1430 X-151.999 Y-40.119 Z25.989 A115.7601 B-0.0967 
N1431 X-151.999 Y-39.771 Z25.223 A115.7748 B-0.1146 
N1432 X-151.999 Y-39.400 Z24.395 A115.8071 B-0.1340 
N1433 X-151.999 Y-39.011 Z23.514 A115.8561 B-0.1547 
N1434 X-151.999 Y-38.606 Z22.594 A115.9162 B-0.1763 
N1435 X-151.999 Y-38.190 Z21.650 A115.9800 B-0.1983 
N1436 X-151.999 Y-37.769 Z20.698 A116.0435 B-0.2204 
N1437 X-151.999 Y-37.351 Z19.753 A116.1065 B-0.2421 
N1438 X-152.000 Y-36.941 Z18.831 A116.1694 B-0.2631 
N1439 X-152.000 Y-36.545 Z17.946 A116.2244 B-0.2832 
N1440 X-152.000 Y-36.164 Z17.111 A116.2579 B-0.3027 
N1441 X-152.000 Y-35.807 Z16.332 A116.2872 B-0.3209 
N1442 X-152.000 Y-35.543 Z15.582 A116.5360 B-0.3291 
N1443 X-152.000 Y-35.533 Z14.780 A117.5613 B-0.3037 
N1444 X-151.999 Y-35.865 Z13.859 A119.7225 B-0.2253 
N1445 X-151.999 Y-36.487 Z12.798 A122.9370 B-0.0917 
N1446 X-151.998 Y-37.273 Z11.611 A126.8786 B0.0867 
N1447 X-151.996 Y-38.077 Z10.354 A131.0976 B0.2906 
N1448 X-151.995 Y-38.822 Z9.062 A135.3586 B0.5082 
N1449 X-151.994 Y-39.551 Z7.666 A139.9043 B0.7492 
N1450 X-151.992 Y-40.201 Z6.196 A144.5656 B1.0011 
N1451 X-151.991 Y-40.660 Z4.790 A148.8254 B1.2310 
N1452 X-151.990 Y-41.042 Z3.260 A153.3775 B1.4626 
N1453 X-151.988 Y-41.376 Z1.418 A158.8127 B1.7085 
N1454 X-151.987 Y-41.484 Z-0.478 A164.2868 B1.9238 
N1455 X-151.986 Y-41.323 Z-2.332 A169.5690 B2.1079 
N1456 X-151.985 Y-40.870 Z-3.967 A174.2030 B2.2533 
N1457 X-151.984 Y-40.150 Z-5.203 A177.7133 B2.3535 
N1458 X-151.984 Y-39.208 Z-5.993 A179.9802 B2.4145 
N1459 X-151.984 Y-38.071 Z-6.380 A181.1202 B2.4454 
N1460 X-151.984 Y-36.738 Z-6.493 A181.4829 B2.4572 
N1461 X-151.984 Y-35.194 Z-6.496 A181.5342 B2.4618 
N1462 X-151.984 Y-33.424 Z-6.479 A181.5347 B2.4656 
N1463 X-151.984 Y-31.424 Z-6.461 B2.4699 
N1464 X-151.984 Y-29.199 Z-6.440 A181.5347 B2.4747 
N1465 X-151.984 Y-26.763 Z-6.417 B2.4800 
N1466 X-151.984 Y-24.140 Z-6.393 A181.5347 B2.4856 
N1467 X-151.984 Y-21.363 Z-6.367 B2.4916 
N1468 X-151.984 Y-18.474 Z-6.340 A181.5347 B2.4978 
N1469 X-151.984 Y-15.520 Z-6.313 B2.5042 
N1470 X-151.983 Y-12.553 Z-6.285 A181.5347 B2.5106 
N1471 X-151.983 Y-9.625 Z-6.258 B2.5169 
N1472 X-151.983 Y-6.787 Z-6.231 A181.5347 B2.5230 
N1473 X-151.983 Y-4.083 Z-6.206 B2.5288 
N1474 X-151.983 Y-1.554 Z-6.183 A181.5347 B2.5342 
N1475 X-151.983 Y0.772 Z-6.161 B2.5393 
N1476 X-151.983 Y2.873 Z-6.141 A181.5348 B2.5438 
N1477 X-151.983 Y4.739 Z-6.124 B2.5478 
N1478 X-151.983 Y6.369 Z-6.110 A181.5397 B2.5515 
N1479 X-151.983 Y7.769 Z-6.142 A181.6785 B2.5589 
N1480 X-151.983 Y8.959 Z-6.324 A182.2812 B2.5810 
N1481 X-151.983 Y9.963 Z-6.698 A183.4976 B2.6230 
N1482 X-151.983 Y10.808 Z-7.164 A185.0356 B2.6756 
N1483 X-151.982 Y11.524 Z-7.724 A186.8940 B2.7371 
N1484 X-151.982 Y12.150 Z-8.405 A189.1467 B2.8057 
N1485 X-151.981 Y12.721 Z-9.204 A191.7918 B2.8733 
N1486 X-151.981 Y13.312 Z-10.257 A195.2578 B2.9425 
N1487 X-151.981 Y14.000 Z-11.580 A199.6457 B3.0109 
N1488 X-151.980 Y14.803 Z-13.014 A204.5277 B3.0672 
N1489 X-151.980 Y15.705 Z-14.420 A209.5059 B3.1034 
N1490 X-151.980 Y16.662 Z-15.705 A214.2872 B3.1178 
N1491 X-151.980 Y17.624 Z-16.816 A218.6766 B3.1133 
N1492 X-151.980 Y18.555 Z-17.752 A222.6213 B3.0947 
N1493 X-151.980 Y19.445 Z-18.539 A226.1715 B3.0663 
N1494 X-151.980 Y20.301 Z-19.208 A229.4181 B3.0308 
N1495 X-151.981 Y21.133 Z-19.786 A232.4420 B2.9896 
N1496 X-151.981 Y21.945 Z-20.288 A235.2937 B2.9436 
N1497 X-151.981 Y22.741 Z-20.724 A238.0021 B2.8935 
N1498 X-151.982 Y23.519 Z-21.100 A240.5810 B2.8398 
N1499 X-151.982 Y24.277 Z-21.420 A243.0349 B2.7832 
N1500 X-151.982 Y25.013 Z-21.687 A245.3645 B2.7239 
N1501 X-151.983 Y25.726 Z-21.907 A247.5873 B2.6616 
N1502 X-151.983 Y26.430 Z-22.088 A249.7446 B2.5946 
N1503 X-151.983 Y27.139 Z-22.238 A251.8964 B2.5202 
N1504 X-151.984 Y27.876 Z-22.361 A254.1139 B2.4347 
N1505 X-151.984 Y28.659 Z-22.459 A256.4534 B2.3349 
N1506 X-151.985 Y29.481 Z-22.524 A258.8975 B2.2210 
N1507 X-151.986 Y30.305 Z-22.545 A261.3384 B2.0991 
N1508 X-151.987 Y31.096 Z-22.517 A263.6731 B1.9766 
N1509 X-151.987 Y31.861 Z-22.443 A265.9285 B1.8561 
N1510 X-151.988 Y32.637 Z-22.325 A268.2263 B1.7352 
N1511 X-151.989 Y33.454 Z-22.158 A270.6621 B1.6106 
N1512 X-151.989 Y34.327 Z-21.932 A273.2920 B1.4800 
N1513 X-151.990 Y35.260 Z-21.634 A276.1426 B1.3418 
N1514 X-151.991 Y36.245 Z-21.250 A279.2132 B1.1955 
N1515 X-151.992 Y37.260 Z-20.767 A282.4611 B1.0424 
N1516 X-151.993 Y38.257 Z-20.184 A285.7703 B0.8872 
N1517 X-151.994 Y39.170 Z-19.514 A288.9676 B0.7375 
N1518 X-151.995 Y39.942 Z-18.782 A291.8813 B0.6010 
N1519 X-151.995 Y40.514 Z-18.028 A294.3248 B0.4861 
N1520 X-151.996 Y40.839 Z-17.292 A296.1206 B0.4007 
N1521 X-151.996 Y40.911 Z-16.600 A297.2173 B0.3466 
N1522 X-151.996 Y40.782 Z-15.939 A297.7558 B0.3165 
N1523 X-151.996 Y40.531 Z-15.275 A297.9851 B0.2985 
N1524 X-151.996 Y40.247 Z-14.566 A298.1941 B0.2798 
N1525 X-151.997 Y39.993 Z-13.785 A298.5946 B0.2523 
N1526 X-151.997 Y39.799 Z-12.922 A299.2936 B0.2136 
N1527 X-151.997 Y39.665 Z-11.983 A300.2965 B0.1658 
N1528 X-151.997 Y39.560 Z-10.995 A301.5008 B0.1152 
N1529 X-151.998 Y39.439 Z-9.995 A302.7420 B0.0688 
N1530 X-151.998 Y39.268 Z-9.021 A303.8701 B0.0315 
N1531 X-151.998 Y39.041 Z-8.094 A304.8284 B0.0043 
N1532 X-151.998 Y38.772 Z-7.220 A305.6371 B-0.0145 
N1533 X-151.998 Y38.479 Z-6.401 A306.3268 B-0.0268 
N1534 X-151.998 Y38.179 Z-5.635 A306.9329 B-0.0342 
N1535 X-151.998 Y37.908 Z-4.898 A307.5839 B-0.0394 
N1536 X-151.998 Y37.741 Z-4.135 A308.5628 B-0.0461 
N1537 X-151.998 Y37.764 Z-3.264 A310.2369 B-0.0567 
N1538 X-151.998 Y38.007 Z-2.224 A312.8166 B-0.0694 
N1539 X-151.999 Y38.417 Z-1.001 A316.2321 B-0.0788 
N1540 X-151.999 Y38.920 Z0.405 A320.3523 B-0.0795 
N1541 X-151.998 Y39.440 Z1.995 A325.0630 B-0.0689 
N1542 X-151.998 Y39.863 Z3.692 A330.0101 B-0.0497 
N1543 X-151.998 Y40.096 Z5.383 A334.8020 B-0.0285 
N1544 X-151.998 Y40.149 Z7.106 A339.5955 B-0.0121 
N1545 X-151.998 Y40.041 Z9.019 A344.9261 B-0.0030 
N1546 X-151.998 Y39.650 Z10.825 A349.9255 B-0.0003 
N1547 X-151.998 Y38.958 Z12.278 A353.9073 B-0.0000 
N1548 X-151.998 Y38.019 Z13.502 A357.3044 
N1549 X-151.998 Y36.847 Z14.324 A359.6204 
N1550 X-151.998 Y35.466 Z14.713 A0.7340 
N1551 X-151.998 Y33.883 Z14.805 A1.0040 
N1552 X-151.998 Y32.087 Z14.809 A1.0160 
N1553 X-151.998 Y30.074 Z14.808 
N1554 X-151.998 Y27.849 Z14.808 
N1555 X-151.998 Y25.425 Z14.807 
N1556 X-151.998 Y22.827 Z14.806 
N1557 X-151.998 Y20.088 Z14.805 
N1558 X-151.998 Y17.248 Z14.805 
N1559 X-151.998 Y14.354 Z14.804 
N1560 X-151.998 Y11.457 Z14.803 
N1561 X-151.998 Y8.607 Z14.802 
N1562 X-151.998 Y5.852 Z14.801 
N1563 X-151.998 Y3.236 Z14.801 
N1564 X-151.998 Y0.797 Z14.800 
N1565 X-151.998 Y-1.438 Z14.799 
N1566 X-151.998 Y-3.451 Z14.799 
N1567 X-151.998 Y-5.231 Z14.798 
N1568 X-151.998 Y-6.780 Z14.798 
N1569 X-151.998 Y-8.104 Z14.798 A1.0163 
N1570 X-151.998 Y-9.218 Z14.811 A1.0575 
N1571 X-151.998 Y-10.142 Z14.904 A1.3459 
N1572 X-151.998 Y-10.904 Z15.187 A2.2214 
N1573 X-151.998 Y-11.543 Z15.771 A4.0403 
N1574 X-151.998 Y-12.118 Z16.706 A6.9683 
N1575 X-151.998 Y-12.692 Z17.916 A10.7960 
N1576 X-151.998 Y-13.307 Z19.263 A15.1319 
N1577 X-151.998 Y-13.985 Z20.647 A19.6882 
N1578 X-151.998 Y-14.727 Z22.000 A24.2748 
N1579 X-151.998 Y-15.520 Z23.270 A28.7378 
N1580 X-151.998 Y-16.339 Z24.419 A32.9494 
N1581 X-151.998 Y-17.157 Z25.430 A36.8349 
N1582 X-151.998 Y-17.956 Z26.306 A40.3792 
N1583 X-151.998 Y-18.726 Z27.062 A43.6088 
N1584 X-151.998 Y-19.468 Z27.719 A46.5717 
N1585 X-151.998 Y-20.185 Z28.295 A49.3249 
N1586 X-151.998 Y-20.887 Z28.808 A51.9253 
N1587 X-151.998 Y-21.583 Z29.271 A54.4257 
N1588 X-151.998 Y-22.283 Z29.695 A56.8744 
N1589 X-151.998 Y-22.999 Z30.090 A59.3195 
N1590 X-151.998 Y-23.744 Z30.461 A61.8107 
N1591 X-151.998 Y-24.534 Z30.813 A64.3999 
N1592 X-151.998 Y-25.383 Z31.147 A67.1297 
N1593 X-151.998 Y-26.294 Z31.456 A70.0087 
N1594 X-151.998 Y-27.255 Z31.727 A72.9999 
N1595 X-151.998 Y-28.243 Z31.949 A76.0305 B-0.0000 
N1596 X-151.998 Y-29.233 Z32.113 A79.0316 B-0.0000 
N1597 X-151.998 Y-30.215 Z32.217 A81.9862 B-0.0001 
N1598 X-151.998 Y-31.202 Z32.264 A84.9409 B-0.0002 
N1599 X-151.998 Y-32.210 Z32.251 A87.9521 B-0.0004 
N1600 X-151.998 Y-33.248 Z32.173 A91.0576 B-0.0008 
N1601 X-151.998 Y-34.316 Z32.020 A94.2732 B-0.0015 
N1602 X-151.998 Y-35.406 Z31.783 A97.5930 B-0.0028 
N1603 X-151.998 Y-36.504 Z31.454 A100.9954 B-0.0051 
N1604 X-151.998 Y-37.595 Z31.025 A104.4625 B-0.0089 
N1605 X-151.998 Y-38.658 Z30.492 A107.9588 B-0.0142 
N1606 X-151.998 Y-39.650 Z29.863 A111.3834 B-0.0202 
N1607 X-151.998 Y-40.504 Z29.163 A114.5453 B-0.0254 
N1608 X-151.998 Y-41.154 Z28.436 A117.2355 B-0.0282 
N1609 X-151.998 Y-41.557 Z27.726 A119.2870 B-0.0286 
N1610 X-151.998 Y-41.697 Z27.062 A120.6207 B-0.0284 
N1611 X-151.998 Y-41.602 Z26.441 A121.3045 B-0.0300 
N1612 X-151.998 Y-41.344 Z25.829 A121.5683 B-0.0341 
N1613 X-151.998 Y-40.994 Z25.185 A121.6513 B-0.0403 
N1614 X-151.998 Y-40.595 Z24.487 A121.6865 B-0.0475 
N1615 X-151.998 Y-40.164 Z23.735 A121.7283 B-0.0551 
N1616 X-151.998 Y-39.709 Z22.933 A121.7868 B-0.0629 
N1617 X-151.998 Y-39.236 Z22.095 A121.8545 B-0.0707 
N1618 X-151.998 Y-38.748 Z21.235 A121.9250 B-0.0784 
N1619 X-151.999 Y-38.255 Z20.366 A121.9950 B-0.0859 
N1620 X-151.999 Y-37.762 Z19.503 A122.0638 B-0.0929 
N1621 X-151.999 Y-37.280 Z18.660 A122.1317 B-0.0995 
N1622 X-151.999 Y-36.812 Z17.848 A122.1906 B-0.1057 
N1623 X-151.999 Y-36.362 Z17.080 A122.2287 B-0.1120 
N1624 X-151.999 Y-35.947 Z16.355 A122.2933 B-0.1165 
N1625 X-151.999 Y-35.671 Z15.613 A122.7480 B-0.1025 
N1626 X-151.998 Y-35.709 Z14.735 A124.2555 B-0.0356 
N1627 X-151.997 Y-36.073 Z13.672 A126.9614 B0.0982 
N1628 X-151.996 Y-36.649 Z12.444 A130.5836 B0.2912 
N1629 X-151.995 Y-37.298 Z11.098 A134.7181 B0.5254 
N1630 X-151.993 Y-37.936 Z9.660 A139.1485 B0.7899 
N1631 X-151.992 Y-38.628 Z7.982 A144.3605 B1.1093 
N1632 X-151.990 Y-39.140 Z6.296 A149.4138 B1.4227 
N1633 X-151.988 Y-39.506 Z4.526 A154.5885 B1.7259 
N1634 X-151.986 Y-39.789 Z2.404 A160.7735 B2.0370 
N1635 X-151.985 Y-39.755 Z0.366 A166.5833 B2.2858 
N1636 X-151.984 Y-39.412 Z-1.535 A171.9640 B2.4915 
N1637 X-151.983 Y-38.767 Z-3.128 A176.4874 B2.6485 
N1638 X-151.982 Y-37.863 Z-4.269 A179.7808 B2.7552 
N1639 X-151.982 Y-36.756 Z-4.771 A181.2695 B2.8024 
N1640 X-151.982 Y-35.467 Z-4.845 A181.5193 B2.8124 
N1641 X-151.982 Y-33.975 Z-4.836 A181.5348 B2.8161 
N1642 X-151.982 Y-32.268 Z-4.820 A181.5348 B2.8199 
N1643 X-151.982 Y-30.338 Z-4.802 B2.8241 
N1644 X-151.982 Y-28.188 Z-4.782 A181.5348 B2.8288 
N1645 X-151.982 Y-25.832 Z-4.760 B2.8339 
N1646 X-151.982 Y-23.291 Z-4.737 A181.5348 B2.8395 
N1647 X-151.982 Y-20.598 Z-4.711 A181.5348 B2.8454 
N1648 X-151.982 Y-17.791 Z-4.685 A181.5348 B2.8515 
N1649 X-151.981 Y-14.917 Z-4.659 A181.5348 B2.8578 
N1650 X-151.981 Y-12.027 Z-4.632 A181.5348 B2.8641 
N1651 X-151.981 Y-9.172 Z-4.605 A181.5348 B2.8704 
N1652 X-151.981 Y-6.403 Z-4.579 A181.5348 B2.8765 
N1653 X-151.981 Y-3.764 Z-4.555 A181.5348 B2.8822 
N1654 X-151.981 Y-1.295 Z-4.532 B2.8876 
N1655 X-151.981 Y0.975 Z-4.511 A181.5348 B2.8926 
N1656 X-151.981 Y3.024 Z-4.491 B2.8971 
N1657 X-151.981 Y4.841 Z-4.475 A181.5348 B2.9011 
N1658 X-151.981 Y6.424 Z-4.460 B2.9045 
N1659 X-151.981 Y7.781 Z-4.447 A181.5348 B2.9075 
N1660 X-151.981 Y8.924 Z-4.437 B2.9100 
N1661 X-151.981 Y9.872 Z-4.435 A181.5584 B2.9129 
N1662 X-151.981 Y10.649 Z-4.565 A181.9745 B2.9290 
N1663 X-151.981 Y11.293 Z-5.008 A183.3552 B2.9772 
N1664 X-151.980 Y11.854 Z-5.810 A185.8597 B3.0572 
N1665 X-151.980 Y12.403 Z-6.972 A189.5106 B3.1610 
N1666 X-151.979 Y12.995 Z-8.334 A193.8517 B3.2695 
N1667 X-151.979 Y13.657 Z-9.769 A198.5282 B3.3682 
N1668 X-151.978 Y14.408 Z-11.219 A203.3849 B3.4495 
N1669 X-151.978 Y15.234 Z-12.600 A208.1866 B3.5074 
N1670 X-151.978 Y16.108 Z-13.863 A212.7734 B3.5407 
N1671 X-151.977 Y16.986 Z-14.962 A216.9788 B3.5516 
N1672 X-151.977 Y17.821 Z-15.879 A220.6888 B3.5451 
N1673 X-151.978 Y18.587 Z-16.627 A223.8902 B3.5267 
N1674 X-151.978 Y19.278 Z-17.234 A226.6433 B3.5007 
N1675 X-151.978 Y19.914 Z-17.742 A229.0757 B3.4688 
N1676 X-151.978 Y20.522 Z-18.189 A231.3327 B3.4307 
N1677 X-151.978 Y21.138 Z-18.609 A233.5629 B3.3842 
N1678 X-151.979 Y21.807 Z-19.031 A235.9293 B3.3253 
N1679 X-151.979 Y22.578 Z-19.480 A238.6012 B3.2484 
N1680 X-151.980 Y23.484 Z-19.954 A241.6637 B3.1489 
N1681 X-151.980 Y24.493 Z-20.417 A244.9883 B3.0287 
N1682 X-151.981 Y25.517 Z-20.816 A248.2785 B2.8977 
N1683 X-151.982 Y26.479 Z-21.126 A251.3065 B2.7670 
N1684 X-151.983 Y27.366 Z-21.358 A254.0503 B2.6412 
N1685 X-151.983 Y28.209 Z-21.532 A256.6258 B2.5185 
N1686 X-151.984 Y29.042 Z-21.662 A259.1500 B2.3954 
N1687 X-151.985 Y29.889 Z-21.752 A261.6953 B2.2692 
N1688 X-151.986 Y30.762 Z-21.801 A264.3097 B2.1380 
N1689 X-151.986 Y31.672 Z-21.806 A267.0285 B1.9999 
N1690 X-151.987 Y32.624 Z-21.759 A269.8760 B1.8536 
N1691 X-151.988 Y33.619 Z-21.651 A272.8627 B1.6987 
N1692 X-151.989 Y34.651 Z-21.472 A275.9836 B1.5352 
N1693 X-151.990 Y35.711 Z-21.212 A279.2325 B1.3636 
N1694 X-151.991 Y36.789 Z-20.861 A282.6013 B1.1847 
N1695 X-151.992 Y37.870 Z-20.410 A286.0673 B1.0000 
N1696 X-151.993 Y38.922 Z-19.858 A289.5695 B0.8131 
N1697 X-151.994 Y39.899 Z-19.215 A292.9882 B0.6307 
N1698 X-151.995 Y40.748 Z-18.503 A296.1772 B0.4610 
N1699 X-151.996 Y41.425 Z-17.755 A298.9990 B0.3115 
N1700 X-151.997 Y41.901 Z-17.001 A301.3485 B0.1879 
N1701 X-151.997 Y42.151 Z-16.275 A303.1221 B0.0954 
N1702 X-151.998 Y42.161 Z-15.604 A304.2357 B0.0381 
N1703 X-151.998 Y41.947 Z-14.988 A304.7199 B0.0134 
N1704 X-151.998 Y41.582 Z-14.386 A304.8165 B0.0083 
N1705 X-151.998 Y41.152 Z-13.742 A304.8190 B0.0078 
N1706 X-151.998 Y40.685 Z-13.044 B0.0073 
N1707 X-151.998 Y40.186 Z-12.300 B0.0069 
N1708 X-151.998 Y39.663 Z-11.519 B0.0063 
N1709 X-151.998 Y39.122 Z-10.712 B0.0058 
N1710 X-151.998 Y38.574 Z-9.893 B0.0053 
N1711 X-151.998 Y38.025 Z-9.074 B0.0048 
N1712 X-151.998 Y37.485 Z-8.269 B0.0042 
N1713 X-151.998 Y36.962 Z-7.487 B0.0037 
N1714 X-151.998 Y36.461 Z-6.740 B0.0032 
N1715 X-151.998 Y35.992 Z-6.032 A304.8319 B0.0026 
N1716 X-151.998 Y35.643 Z-5.306 A305.1779 B-0.0025 
N1717 X-151.998 Y35.617 Z-4.412 A306.6444 B-0.0179 
N1718 X-151.998 Y35.948 Z-3.283 A309.4743 B-0.0382 
N1719 X-151.998 Y36.515 Z-1.930 A313.3976 B-0.0530 
N1720 X-151.998 Y37.219 Z-0.342 A318.2506 B-0.0559 
N1721 X-151.998 Y37.891 Z1.403 A323.5563 B-0.0462 
N1722 X-151.998 Y38.377 Z3.154 A328.7011 B-0.0296 
N1723 X-151.998 Y38.712 Z4.992 A333.9894 B-0.0138 
N1724 X-151.998 Y38.981 Z7.245 A340.5009 B-0.0036 
N1725 X-151.998 Y38.937 Z9.543 A347.0548 B-0.0003 
N1726 X-151.998 Y38.489 Z11.382 A352.2069 B-0.0000 
N1727 X-151.998 Y37.746 Z12.853 A356.3344 
N1728 X-151.998 Y36.757 Z13.812 A359.0445 
N1729 X-151.998 Y35.568 Z14.287 A0.3966 
N1730 X-151.998 Y34.189 Z14.436 A0.8179 
N1731 X-151.998 Y32.608 Z14.454 A0.8598 
N1732 X-151.998 Y30.813 Z14.458 A0.8599 
N1733 X-151.998 Y28.804 Z14.463 
N1734 X-151.998 Y26.585 Z14.469 
N1735 X-151.998 Y24.174 Z14.475 
N1736 X-151.998 Y21.596 Z14.481 
N1737 X-151.998 Y18.886 Z14.488 
N1738 X-151.998 Y16.087 Z14.494 
N1739 X-151.998 Y13.244 Z14.501 
N1740 X-151.998 Y10.410 Z14.508 
N1741 X-151.998 Y7.632 Z14.515 
N1742 X-151.998 Y4.960 Z14.522 
N1743 X-151.998 Y2.434 Z14.528 
N1744 X-151.998 Y0.089 Z14.534 
N1745 X-151.998 Y-2.049 Z14.539 
N1746 X-151.998 Y-3.965 Z14.543 
N1747 X-151.998 Y-5.652 Z14.548 
N1748 X-151.998 Y-7.111 Z14.551 
N1749 X-151.998 Y-8.353 Z14.555 A0.8628 
N1750 X-151.998 Y-9.393 Z14.588 A0.9539 
N1751 X-151.998 Y-10.253 Z14.738 A1.4117 
N1752 X-151.998 Y-10.962 Z15.107 A2.5523 
N1753 X-151.998 Y-11.561 Z15.765 A4.5988 
N1754 X-151.998 Y-12.107 Z16.723 A7.6053 
N1755 X-151.998 Y-12.659 Z17.921 A11.4026 
N1756 X-151.998 Y-13.258 Z19.257 A15.7024 
N1757 X-151.998 Y-13.927 Z20.638 A20.2514 
N1758 X-151.998 Y-14.667 Z21.993 A24.8466 
N1759 X-151.998 Y-15.461 Z23.265 A29.3210 
N1760 X-151.998 Y-16.282 Z24.413 A33.5387 
N1761 X-151.998 Y-17.103 Z25.420 A37.4240 
N1762 X-151.998 Y-17.903 Z26.292 A40.9633 
N1763 X-151.998 Y-18.674 Z27.044 A44.1847 
N1764 X-151.998 Y-19.414 Z27.695 A47.1350 
N1765 X-151.998 Y-20.129 Z28.264 A49.8694 
N1766 X-151.998 Y-20.825 Z28.769 A52.4430 
N1767 X-151.998 Y-21.511 Z29.223 A54.9053 
N1768 X-151.998 Y-22.197 Z29.636 A57.3007 
N1769 X-151.998 Y-22.891 Z30.017 A59.6718 
N1770 X-151.998 Y-23.607 Z30.372 A62.0625 
N1771 X-151.998 Y-24.357 Z30.707 A64.5212 
N1772 X-151.998 Y-25.157 Z31.025 A67.1012 
N1773 X-151.998 Y-26.026 Z31.326 A69.8522 
N1774 X-151.998 Y-26.969 Z31.602 A72.7958 
N1775 X-151.998 Y-27.980 Z31.842 A75.9078 
N1776 X-151.998 Y-29.033 Z32.029 A79.1112 B-0.0000 
N1777 X-151.998 Y-30.093 Z32.152 A82.3048 B-0.0000 
N1778 X-151.998 Y-31.134 Z32.209 A85.4262 B-0.0001 
N1779 X-151.998 Y-32.162 Z32.202 A88.5018 B-0.0002 
N1780 X-151.998 Y-33.198 Z32.129 A91.6031 B-0.0004 
N1781 X-151.998 Y-34.254 Z31.985 A94.7866 B-0.0009 
N1782 X-151.998 Y-35.334 Z31.762 A98.0745 B-0.0016 
N1783 X-151.998 Y-36.423 Z31.452 A101.4467 B-0.0030 
N1784 X-151.998 Y-37.497 Z31.050 A104.8493 B-0.0054 
N1785 X-151.998 Y-38.531 Z30.556 A108.2356 B-0.0090 
N1786 X-151.998 Y-39.501 Z29.973 A111.5578 B-0.0136 
N1787 X-151.998 Y-40.374 Z29.313 A114.7302 B-0.0182 
N1788 X-151.998 Y-41.102 Z28.602 A117.6147 B-0.0210 
N1789 X-151.998 Y-41.639 Z27.876 A120.0580 B-0.0205 
N1790 X-151.998 Y-41.949 Z27.172 A121.9206 B-0.0173 
N1791 X-151.998 Y-42.020 Z26.514 A123.1359 B-0.0135 
N1792 X-151.998 Y-41.882 Z25.898 A123.7788 B-0.0111 
N1793 X-151.998 Y-41.594 Z25.287 A124.0506 B-0.0106 
N1794 X-151.998 Y-41.213 Z24.649 A124.1369 B-0.0118 
N1795 X-151.998 Y-40.773 Z23.967 A124.1513 B-0.0138 
N1796 X-151.998 Y-40.295 Z23.236 A124.1515 B-0.0162 
N1797 X-151.998 Y-39.789 Z22.461 B-0.0188 
N1798 X-151.998 Y-39.263 Z21.655 B-0.0214 
N1799 X-151.998 Y-38.724 Z20.830 B-0.0241 
N1800 X-151.998 Y-38.180 Z19.998 B-0.0269 
N1801 X-151.998 Y-37.642 Z19.174 B-0.0296 
N1802 X-151.998 Y-37.116 Z18.369 B-0.0323 
N1803 X-151.998 Y-36.611 Z17.595 B-0.0348 
N1804 X-151.998 Y-36.131 Z16.859 A124.1529 B-0.0372 
N1805 X-151.998 Y-35.714 Z16.147 A124.2742 B-0.0338 
N1806 X-151.998 Y-35.525 Z15.347 A125.1323 B0.0064 
N1807 X-151.997 Y-35.693 Z14.346 A127.2721 B0.1171 
N1808 X-151.996 Y-36.134 Z13.149 A130.5168 B0.2972 
N1809 X-151.995 Y-36.712 Z11.791 A134.5134 B0.5333 
N1810 X-151.993 Y-37.321 Z10.303 A138.9847 B0.8125 
N1811 X-151.991 Y-38.038 Z8.492 A144.5502 B1.1691 
N1812 X-151.989 Y-38.553 Z6.658 A149.9876 B1.5214 
N1813 X-151.987 Y-38.957 Z4.586 A156.0434 B1.8803 
N1814 X-151.985 Y-39.144 Z2.315 A162.5887 B2.2039 
N1815 X-151.984 Y-38.970 Z0.171 A168.6588 B2.4625 
N1816 X-151.983 Y-38.450 Z-1.774 A174.1581 B2.6730 
N1817 X-151.982 Y-37.605 Z-3.297 A178.5162 B2.8252 
N1818 X-151.981 Y-36.503 Z-4.013 A180.5950 B2.8929 
N1819 X-151.981 Y-35.193 Z-4.116 A180.8904 B2.9018 
N1820 X-151.981 Y-33.654 Z-4.123 A180.9029 B2.9019 
N1821 X-151.981 Y-31.855 Z-4.126 B2.9016 
N1822 X-151.981 Y-29.771 Z-4.129 B2.9012 
N1823 X-151.981 Y-27.384 Z-4.133 B2.9008 
N1824 X-151.981 Y-24.682 Z-4.138 B2.9004 
N1825 X-151.981 Y-21.661 Z-4.143 B2.8999 
N1826 X-151.981 Y-18.325 Z-4.149 B2.8993 
N1827 X-151.981 Y-14.689 Z-4.155 B2.8987 
N1828 X-151.981 Y-10.775 Z-4.162 B2.8981 
N1829 X-151.981 Y-6.615 Z-4.169 B2.8974 
N1830 X-151.981 Y-2.248 Z-4.176 B2.8966 
N1831 X-151.981 Y2.280 Z-4.184 B2.8959 
N1832 X-151.981 Y6.918 Z-4.192 A180.9029 B2.8951 
N1833 X-151.981 Y11.671 Z-5.397 A184.5838 B3.0196 
N1834 X-151.454 Y12.469 Z-15.351 
N1835 G00 X-148.820 Y16.459 Z-65.122 
N1836 ; DELTA A > 40.1
N1837 TRAFOOF
N1838 D2
N1839 STOPRE
N1840 G00 G54 Z296.000
N1841 G01 A271.2547 F10000
N1842 TRAORI
N1843 G54 D2
N1844 STOPRE
N1845 TRANS 
N1846 X-169.033 Y97.682 Z-35.286 A271.2547 B0.0363 F15000 
N1847 X-169.065 Y47.694 Z-36.381 
N1848 X-169.071 Y37.696 Z-36.600 F2807 
N1849 X-169.071 Y37.681 Z-33.231 B0.0570 
N1850 X-169.071 Y37.667 Z-29.921 B0.0845 
N1851 X-169.071 Y37.652 Z-26.724 B0.0953 
N1852 X-169.071 Y37.639 Z-23.689 B0.0911 
N1853 X-169.071 Y37.626 Z-20.857 B0.0837 
N1854 X-169.071 Y37.615 Z-18.259 B0.0702 
N1855 X-169.071 Y37.604 Z-15.913 B0.0536 
N1856 X-169.071 Y37.595 Z-13.830 B0.0393 
N1857 X-169.071 Y37.587 Z-12.008 A271.2547 B0.0277 
N1858 X-169.071 Y37.592 Z-10.437 A271.2910 B0.0186 
N1859 X-169.071 Y37.711 Z-9.099 A271.6791 B0.0121 
N1860 X-169.071 Y38.112 Z-7.960 A272.9525 B0.0091 
N1861 X-169.071 Y38.874 Z-6.969 A275.3914 B0.0101 
N1862 X-169.071 Y39.963 Z-6.056 A278.9288 B0.0141 
N1863 X-169.071 Y41.240 Z-5.163 A283.1665 B0.0187 
N1864 X-169.071 Y42.544 Z-4.265 A287.6229 B0.0217 
N1865 X-169.071 Y43.786 Z-3.363 A292.0222 B0.0216 
N1866 X-169.071 Y44.929 Z-2.461 A296.2367 B0.0180 
N1867 X-169.071 Y45.946 Z-1.575 A300.1652 B0.0115 
N1868 X-169.071 Y46.831 Z-0.718 A303.7655 B0.0032 
N1869 X-169.071 Y47.599 Z0.109 A307.0679 B-0.0058 
N1870 X-169.071 Y48.276 Z0.916 A310.1527 B-0.0148 
N1871 X-169.071 Y48.887 Z1.720 A313.1136 B-0.0231 
N1872 X-169.071 Y49.451 Z2.541 A316.0386 B-0.0304 
N1873 X-169.071 Y49.981 Z3.400 A319.0021 B-0.0358 
N1874 X-169.071 Y50.481 Z4.314 A322.0640 B-0.0388 
N1875 X-169.071 Y50.949 Z5.303 A325.2718 B-0.0388 
N1876 X-169.071 Y51.375 Z6.379 A328.6623 B-0.0352 
N1877 X-169.071 Y51.743 Z7.557 A332.2695 B-0.0285 
N1878 X-169.071 Y52.032 Z8.850 A336.1211 B-0.0196 
N1879 X-169.071 Y52.207 Z10.253 A340.2054 B-0.0106 
N1880 X-169.071 Y52.227 Z11.741 A344.4549 B-0.0039 
N1881 X-169.071 Y52.049 Z13.261 A348.7435 B-0.0008 
N1882 X-169.071 Y51.638 Z14.743 A352.9028 B-0.0000 
N1883 X-169.071 Y50.972 Z16.060 A356.6200 B-0.0000 
N1884 X-169.071 Y50.052 Z16.997 A359.2877 
N1885 X-169.071 Y48.904 Z17.448 A0.5819 
N1886 X-169.071 Y47.530 Z17.586 A0.9833 
N1887 X-169.071 Y45.909 Z17.612 A1.0653 
N1888 X-169.071 Y44.023 Z17.611 A1.0705 
N1889 X-169.071 Y41.857 Z17.609 
N1890 X-169.071 Y39.408 Z17.606 
N1891 X-169.071 Y36.682 Z17.602 
N1892 X-169.071 Y33.697 Z17.599 
N1893 X-169.071 Y30.483 Z17.595 
N1894 X-169.071 Y27.079 Z17.590 
N1895 X-169.071 Y23.537 Z17.586 
N1896 X-169.071 Y19.913 Z17.582 
N1897 X-169.071 Y16.270 Z17.577 
N1898 X-169.071 Y12.670 Z17.573 
N1899 X-169.071 Y9.173 Z17.568 
N1900 X-169.071 Y5.837 Z17.564 
N1901 X-169.071 Y2.706 Z17.560 
N1902 X-169.071 Y-0.181 Z17.557 
N1903 X-169.071 Y-2.799 Z17.554 
N1904 X-169.071 Y-5.134 Z17.551 
N1905 X-169.071 Y-7.184 Z17.548 
N1906 X-169.071 Y-8.956 Z17.546 A1.0706 
N1907 X-169.071 Y-10.464 Z17.559 A1.1170 
N1908 X-169.071 Y-11.734 Z17.685 A1.5103 
N1909 X-169.071 Y-12.799 Z18.062 A2.6980 
N1910 X-169.071 Y-13.711 Z18.793 A5.0185 
N1911 X-169.071 Y-14.545 Z19.872 A8.4833 
N1912 X-169.071 Y-15.361 Z21.152 A12.6753 
N1913 X-169.071 Y-16.188 Z22.479 A17.1326 
N1914 X-169.071 Y-17.030 Z23.756 A21.5642 
N1915 X-169.071 Y-17.881 Z24.940 A25.8252 
N1916 X-169.071 Y-18.736 Z26.019 A29.8713 
N1917 X-169.071 Y-19.592 Z26.995 A33.7018 
N1918 X-169.071 Y-20.444 Z27.869 A37.3091 
N1919 X-169.071 Y-21.286 Z28.644 A40.6975 
N1920 X-169.071 Y-22.124 Z29.334 A43.9100 
N1921 X-169.071 Y-22.970 Z29.957 A47.0226 
N1922 X-169.071 Y-23.843 Z30.529 A50.1130 
N1923 X-169.071 Y-24.761 Z31.057 A53.2487 
N1924 X-169.071 Y-25.742 Z31.546 A56.4894 
N1925 X-169.071 Y-26.803 Z31.991 A59.8875 
N1926 X-169.071 Y-27.960 Z32.381 A63.4859 
N1927 X-169.071 Y-29.219 Z32.698 A67.3063 
N1928 X-169.071 Y-30.577 Z32.915 A71.3326 
N1929 X-169.071 Y-32.005 Z32.999 A75.4922 
N1930 X-169.071 Y-33.445 Z32.918 A79.6400 
N1931 X-169.071 Y-34.806 Z32.652 A83.5387 
N1932 X-169.071 Y-35.952 Z32.197 A86.8242 
N1933 X-169.071 Y-36.742 Z31.579 A89.0957 
N1934 X-169.071 Y-37.148 Z30.827 A90.2680 
N1935 X-169.071 Y-37.298 Z29.957 A90.6964 
N1936 X-169.071 Y-37.341 Z28.967 A90.8127 
N1937 X-169.071 Y-37.351 Z27.857 A90.8332 
N1938 X-169.071 Y-37.355 Z26.632 A90.8338 
N1939 X-169.071 Y-37.359 Z25.299 
N1940 X-169.071 Y-37.363 Z23.874 
N1941 X-169.071 Y-37.368 Z22.375 
N1942 X-169.071 Y-37.372 Z20.826 
N1943 X-169.071 Y-37.377 Z19.252 
N1944 X-169.071 Y-37.381 Z17.681 
N1945 X-169.071 Y-37.386 Z16.138 
N1946 X-169.071 Y-37.390 Z14.650 
N1947 X-169.071 Y-37.394 Z13.238 
N1948 X-169.071 Y-37.398 Z11.920 A90.8338 
N1949 X-169.071 Y-37.407 Z10.708 A90.8501 B-0.0000 
N1950 X-169.071 Y-37.466 Z9.612 A91.0234 B-0.0002 
N1951 X-169.071 Y-37.674 Z8.629 A91.6627 B-0.0011 
N1952 X-169.071 Y-38.113 Z7.750 A93.0355 B-0.0040 
N1953 X-169.071 Y-38.801 Z6.949 A95.2248 B-0.0100 
N1954 X-169.071 Y-39.711 Z6.192 A98.1617 B-0.0196 
N1955 X-169.071 Y-40.771 Z5.446 A101.6493 B-0.0306 
N1956 X-169.071 Y-41.890 Z4.692 A105.4149 B-0.0393 
N1957 X-169.071 Y-42.997 Z3.927 A109.2454 B-0.0428 
N1958 X-169.071 Y-44.053 Z3.151 A113.0215 B-0.0405 
N1959 X-169.071 Y-45.039 Z2.369 A116.6747 B-0.0331 
N1960 X-169.071 Y-45.941 Z1.588 A120.1552 B-0.0218 
N1961 X-169.071 Y-46.756 Z0.814 A123.4431 B-0.0077 
N1962 X-169.071 Y-47.490 Z0.049 A126.5526 B0.0083 
N1963 X-169.071 Y-48.156 Z-0.715 A129.5271 B0.0257 
N1964 X-169.071 Y-48.769 Z-1.487 A132.4245 B0.0439 
N1965 X-169.071 Y-49.341 Z-2.283 A135.3070 B0.0624 
N1966 X-169.071 Y-49.883 Z-3.118 A138.2345 B0.0806 
N1967 X-169.071 Y-50.397 Z-4.008 A141.2592 B0.0979 
N1968 X-169.071 Y-50.881 Z-4.970 A144.4249 B0.1134 
N1969 X-169.070 Y-51.327 Z-6.018 A147.7694 B0.1264 
N1970 X-169.070 Y-51.722 Z-7.168 A151.3321 B0.1357 
N1971 X-169.070 Y-52.048 Z-8.436 A155.1530 B0.1400 
N1972 X-169.070 Y-52.272 Z-9.828 A159.2471 B0.1376 
N1973 X-169.070 Y-52.355 Z-11.329 A163.5742 B0.1265 
N1974 X-169.071 Y-52.247 Z-12.886 A167.9987 B0.1061 
N1975 X-169.071 Y-51.905 Z-14.407 A172.2900 B0.0785 
N1976 X-169.071 Y-51.309 Z-15.771 A176.1465 B0.0496 
N1977 X-169.071 Y-50.460 Z-16.798 A179.0810 B0.0273 
N1978 X-169.071 Y-49.382 Z-17.330 A180.6179 B0.0159 
N1979 X-169.071 Y-48.085 Z-17.475 A181.0450 B0.0125 
N1980 X-169.071 Y-46.548 Z-17.491 A181.1020 B0.0126 
N1981 X-169.071 Y-44.749 Z-17.490 A181.1067 B0.0137 
N1982 X-169.071 Y-42.673 Z-17.486 B0.0151 
N1983 X-169.071 Y-40.313 Z-17.481 B0.0167 
N1984 X-169.071 Y-37.672 Z-17.476 B0.0185 
N1985 X-169.071 Y-34.765 Z-17.471 B0.0205 
N1986 X-169.071 Y-31.618 Z-17.465 B0.0228 
N1987 X-169.071 Y-28.267 Z-17.459 B0.0253 
N1988 X-169.071 Y-24.761 Z-17.452 B0.0280 
N1989 X-169.071 Y-21.154 Z-17.446 B0.0308 
N1990 X-169.071 Y-17.509 Z-17.439 B0.0338 
N1991 X-169.071 Y-13.887 Z-17.432 B0.0368 
N1992 X-169.071 Y-10.351 Z-17.426 B0.0398 
N1993 X-169.071 Y-6.957 Z-17.419 B0.0428 
N1994 X-169.071 Y-3.756 Z-17.413 B0.0457 
N1995 X-169.071 Y-0.788 Z-17.408 B0.0484 
N1996 X-169.071 Y1.918 Z-17.403 B0.0510 
N1997 X-169.071 Y4.345 Z-17.398 B0.0533 
N1998 X-169.071 Y6.487 Z-17.394 B0.0554 
N1999 X-169.071 Y8.348 Z-17.391 B0.0572 
N2000 X-169.071 Y9.942 Z-17.393 A181.1239 B0.0590 
N2001 X-169.071 Y11.290 Z-17.482 A181.4050 B0.0627 
N2002 X-169.071 Y12.424 Z-17.820 A182.4680 B0.0749 
N2003 X-169.071 Y13.395 Z-18.511 A184.6638 B0.1005 
N2004 X-169.070 Y14.272 Z-19.551 A188.0069 B0.1370 
N2005 X-169.070 Y15.123 Z-20.815 A192.1507 B0.1789 
N2006 X-169.070 Y15.983 Z-22.147 A196.6348 B0.2225 
N2007 X-169.070 Y16.862 Z-23.451 A201.1672 B0.2655 
N2008 X-169.069 Y17.759 Z-24.679 A205.5984 B0.3064 
N2009 X-169.069 Y18.660 Z-25.793 A209.7957 B0.3444 
N2010 X-169.069 Y19.541 Z-26.764 A213.6500 B0.3786 
N2011 X-169.069 Y20.384 Z-27.592 A217.1286 B0.4089 
N2012 X-169.069 Y21.184 Z-28.292 A220.2597 B0.4354 
N2013 X-169.069 Y21.948 Z-28.891 A223.1140 B0.4583 
N2014 X-169.068 Y22.693 Z-29.415 A225.7932 B0.4775 
N2015 X-169.068 Y23.445 Z-29.893 A228.4120 B0.4926 
N2016 X-169.068 Y24.237 Z-30.348 A231.0998 B0.5025 
N2017 X-169.068 Y25.115 Z-30.805 A234.0146 B0.5051 
N2018 X-169.068 Y26.137 Z-31.281 A237.3415 B0.4968 
N2019 X-169.068 Y27.347 Z-31.764 A241.1898 B0.4736 
N2020 X-169.069 Y28.692 Z-32.187 A245.3538 B0.4340 
N2021 X-169.069 Y30.019 Z-32.457 A249.3250 B0.3834 
N2022 X-169.069 Y31.290 Z-32.568 A253.0280 B0.3291 
N2023 X-169.070 Y32.599 Z-32.550 A256.7859 B0.2757 
N2024 X-169.070 Y33.957 Z-32.389 A260.6650 B0.2266 
N2025 X-169.070 Y35.241 Z-32.055 A264.3293 B0.1860 
N2026 X-169.070 Y36.289 Z-31.543 A267.3261 B0.1566 
N2027 X-169.070 Y37.013 Z-30.877 A269.4053 B0.1381 
N2028 X-169.070 Y37.438 Z-30.084 A270.6426 B0.1282 
N2029 X-169.070 Y37.640 Z-29.174 A271.2504 B0.1238 
N2030 X-169.070 Y37.702 Z-28.150 A271.4569 B0.1224 
N2031 X-169.070 Y37.704 Z-27.011 A271.4891 B0.1221 
N2032 X-169.070 Y37.693 Z-25.765 A271.4896 B0.1220 
N2033 X-169.070 Y37.682 Z-24.420 B0.1219 
N2034 X-169.070 Y37.669 Z-22.994 A271.4897 B0.1218 
N2035 X-169.070 Y37.658 Z-21.506 A271.4941 B0.1215 
N2036 X-169.071 Y37.651 Z-19.980 A271.5122 B0.1202 
N2037 X-169.071 Y37.646 Z-18.441 A271.5392 B0.1168 
N2038 X-169.071 Y37.638 Z-16.915 A271.5600 B0.1114 
N2039 X-169.071 Y37.627 Z-15.427 A271.5702 B0.1038 
N2040 X-169.071 Y37.613 Z-14.001 A271.5730 B0.0934 
N2041 X-169.071 Y37.600 Z-12.657 A271.5733 B0.0808 
N2042 X-169.071 Y37.588 Z-11.409 A271.5756 B0.0679 
N2043 X-169.071 Y37.600 Z-10.268 A271.6459 B0.0559 
N2044 X-169.071 Y37.711 Z-9.237 A272.0221 B0.0460 
N2045 X-169.071 Y38.022 Z-8.309 A273.0252 B0.0392 
N2046 X-169.071 Y38.585 Z-7.466 A274.8379 B0.0362 
N2047 X-169.071 Y39.393 Z-6.678 A277.4612 B0.0363 
N2048 X-169.071 Y40.393 Z-5.909 A280.7524 B0.0379 
N2049 X-169.071 Y41.491 Z-5.135 A284.4444 B0.0388 
N2050 X-169.071 Y42.602 Z-4.349 A288.2806 B0.0375 
N2051 X-169.071 Y43.674 Z-3.550 A292.1053 B0.0332 
N2052 X-169.071 Y44.683 Z-2.744 A295.8373 B0.0263 
N2053 X-169.071 Y45.609 Z-1.937 A299.4047 B0.0174 
N2054 X-169.071 Y46.441 Z-1.141 A302.7618 B0.0073 
N2055 X-169.071 Y47.182 Z-0.359 A305.9058 B-0.0031 
N2056 X-169.071 Y47.844 Z0.411 A308.8764 B-0.0133 
N2057 X-169.071 Y48.446 Z1.182 A311.7376 B-0.0231 
N2058 X-169.071 Y49.004 Z1.967 A314.5586 B-0.0319 
N2059 X-169.071 Y49.529 Z2.784 A317.4046 B-0.0393 
N2060 X-169.071 Y50.026 Z3.649 A320.3304 B-0.0448 
N2061 X-169.071 Y50.496 Z4.578 A323.3807 B-0.0477 
N2062 X-169.071 Y50.931 Z5.585 A326.5921 B-0.0472 
N2063 X-169.071 Y51.320 Z6.684 A329.9969 B-0.0426 
N2064 X-169.071 Y51.647 Z7.889 A333.6330 B-0.0340 
N2065 X-169.071 Y51.886 Z9.211 A337.5233 B-0.0228 
N2066 X-169.071 Y52.000 Z10.642 A341.6457 B-0.0117 
N2067 X-169.071 Y51.947 Z12.149 A345.9185 B-0.0041 
N2068 X-169.071 Y51.681 Z13.670 A350.1896 B-0.0009 
N2069 X-169.071 Y51.172 Z15.112 A354.2351 B-0.0001 
N2070 X-169.071 Y50.403 Z16.308 A357.6120 B-0.0000 
N2071 X-169.071 Y49.390 Z17.066 A359.7675 B-0.0000 
N2072 X-169.071 Y48.151 Z17.400 A0.7256 
N2073 X-169.071 Y46.681 Z17.501 A1.0226 
N2074 X-169.071 Y44.957 Z17.515 A1.0698 
N2075 X-169.071 Y42.962 Z17.515 A1.0780 
N2076 X-169.071 Y40.687 Z17.521 A1.1070 
N2077 X-169.071 Y38.132 Z17.527 A1.1408 
N2078 X-169.071 Y35.309 Z17.523 A1.1520 
N2079 X-169.071 Y32.239 Z17.515 A1.1523 
N2080 X-169.071 Y28.957 Z17.506 
N2081 X-169.071 Y25.508 Z17.497 
N2082 X-169.071 Y21.943 Z17.488 
N2083 X-169.071 Y18.324 Z17.478 
N2084 X-169.071 Y14.712 Z17.469 
N2085 X-169.071 Y11.169 Z17.459 
N2086 X-169.071 Y7.754 Z17.450 
N2087 X-169.071 Y4.519 Z17.441 
N2088 X-169.071 Y1.506 Z17.433 
N2089 X-169.071 Y-1.252 Z17.426 
N2090 X-169.071 Y-3.734 Z17.420 
N2091 X-169.071 Y-5.933 Z17.414 
N2092 X-169.071 Y-7.848 Z17.409 
N2093 X-169.071 Y-9.493 Z17.405 A1.1555 
N2094 X-169.071 Y-10.884 Z17.442 A1.2804 
N2095 X-169.071 Y-12.050 Z17.644 A1.9190 
N2096 X-169.071 Y-13.031 Z18.142 A3.4934 
N2097 X-169.071 Y-13.888 Z19.007 A6.2503 
N2098 X-169.071 Y-14.694 Z20.178 A10.0325 
N2099 X-169.071 Y-15.501 Z21.495 A14.3735 
N2100 X-169.071 Y-16.328 Z22.826 A18.8869 
N2101 X-169.071 Y-17.174 Z24.092 A23.3239 
N2102 X-169.071 Y-18.028 Z25.252 A27.5519 
N2103 X-169.071 Y-18.882 Z26.297 A31.5304 
N2104 X-169.071 Y-19.731 Z27.232 A35.2638 
N2105 X-169.071 Y-20.571 Z28.062 A38.7593 
N2106 X-169.071 Y-21.399 Z28.798 A42.0408 
N2107 X-169.071 Y-22.223 Z29.453 A45.1614 
N2108 X-169.071 Y-23.056 Z30.047 A48.1946 
N2109 X-169.071 Y-23.915 Z30.592 A51.2082 
N2110 X-169.071 Y-24.815 Z31.094 A54.2599 
N2111 X-169.071 Y-25.771 Z31.556 A57.4023 
N2112 X-169.071 Y-26.799 Z31.975 A60.6861 
N2113 X-169.071 Y-27.917 Z32.343 A64.1585 
N2114 X-169.071 Y-29.133 Z32.645 A67.8485 
N2115 X-169.071 Y-30.446 Z32.855 A71.7505 
N2116 X-169.071 Y-31.834 Z32.945 A75.8080 
N2117 X-169.071 Y-33.249 Z32.883 A79.9013 
N2118 X-169.071 Y-34.615 Z32.647 A83.8373 
N2119 X-169.071 Y-35.817 Z32.233 A87.3119 
N2120 X-169.071 Y-36.714 Z31.658 A89.9325 
N2121 X-169.071 Y-37.241 Z30.954 A91.5057 
N2122 X-169.071 Y-37.468 Z30.140 A92.2261 
N2123 X-169.071 Y-37.530 Z29.217 A92.4790 B-0.0001 
N2124 X-169.071 Y-37.521 Z28.180 A92.5362 B-0.0006 
N2125 X-169.071 Y-37.492 Z27.031 A92.5396 B-0.0027 
N2126 X-169.071 Y-37.458 Z25.776 A92.5399 B-0.0080 
N2127 X-169.071 Y-37.423 Z24.429 A92.5437 B-0.0177 
N2128 X-169.071 Y-37.389 Z23.005 A92.5579 B-0.0320 
N2129 X-169.071 Y-37.358 Z21.527 A92.5841 B-0.0499 
N2130 X-169.072 Y-37.327 Z20.018 A92.6179 B-0.0697 
N2131 X-169.072 Y-37.295 Z18.504 A92.6530 B-0.0885 
N2132 X-169.072 Y-37.261 Z17.010 A92.6818 B-0.1034 
N2133 X-169.072 Y-37.224 Z15.563 A92.6970 B-0.1142 
N2134 X-169.072 Y-37.184 Z14.183 A92.7011 B-0.1228 
N2135 X-169.072 Y-37.146 Z12.890 A92.7014 B-0.1306 
N2136 X-169.072 Y-37.112 Z11.696 A92.7068 B-0.1378 
N2137 X-169.072 Y-37.114 Z10.609 A92.8117 B-0.1440 
N2138 X-169.072 Y-37.242 Z9.628 A93.2968 B-0.1485 
N2139 X-169.072 Y-37.590 Z8.743 A94.4715 B-0.1504 
N2140 X-169.072 Y-38.193 Z7.931 A96.4614 B-0.1495 
N2141 X-169.072 Y-39.030 Z7.160 A99.2243 B-0.1449 
