; PROGRAM NAME: A00000160
; ORDER       : A000001
; OPER. NAME  : Contact Milling:121
; OPER. DESCR.: Contact Milling/podciecie pod ceche
; OPER. TYPE  : contactMill
; GEO. OPTION : 1
; MACHINE     : HSTM_300_SIM840D_Py
;             : HSTM300/500 - HAMUEL: 5-axis milling machine-SIM840D Traori PP_Script
; CONTROL     : SINUMERIK 840D
; created:   2021-11-15 09:10:17.257967
;-------DODATKOWE DANE-------------------
; PROGRAMISTA : Mariusz Malec
; PARTID      : 138T005360P1002_-
;  ap         : 1.0
;  ae         : 5.0
;  lean_angle : 0.01
;  tilt_angle : 0.0
;  fin_offset : -0.15
;----------------------------------------
RAPORT("TA000001","Contact Milling:121")
N10 TRAFOOF
N11 D0
N12 G90 G94
N13 G0 G53 D0 Z550
N14 STOPRE
M9 ; chlodziwo wyl
; --- Contact Milling:121 - Contact Milling/podciecie pod ceche ---
N16 ;ToolChange : concat=None ,current_tdmid=None, PP.tdmId=957453
N17 TRAFOOF
N18 G0 G53 D0 X-200 Y150 Z550 B0
N19 T="7757453"
RAPORT("TA000001","ToolChangeStart 7757453")
N20 M6
RAPORT("TA000001","ToolChangeEnd")
N21 STOPRE
N22 MSG(" TLID=957453 D=5.0 R=0.0 Ang=0.0 Len=109.0 ")
;---> in saveDoc :0:00:00.258712
;---> in saveDoc :0:00:00.271274
N23 S5092 M03
N24 STOPRE
N25 TOL(0.01,1,1)
N26 G0 G53 A0.0000 B-0.0100
N27 TRAORI
N28 G54 D1
N29 D3 
;---> in saveDoc :0:00:00.281247
N30 X-138.505 Y-5.229 Z49.653 A0.0001 B-0.0100 
N31 M342 ; chlodziwo woda
N32 X-138.499 Y-5.229 Z19.653 
N33 G01 X-138.498 Y-5.229 Z13.653 F198 
N34 X-138.547 Y-5.229 Z13.344 
N35 X-138.689 Y-5.229 Z13.065 
N36 X-138.910 Y-5.229 Z12.844 
N37 X-139.189 Y-5.229 Z12.702 
N38 X-139.498 Y-5.229 Z12.653 
N39 X-139.548 Y-5.229 Z12.653 
N40 X-139.597 Y-5.229 Z12.653 
N41 X-139.647 Y-5.229 Z12.653 
N42 X-139.696 Y-5.229 Z12.653 
N43 X-139.746 Y-5.229 Z12.653 
N44 X-139.795 Y-5.229 Z12.653 F197 
N45 X-139.845 Y-5.229 Z12.653 F198 
N46 X-139.894 Y-5.229 Z12.653 
N47 X-139.944 Y-5.229 Z12.653 
N48 X-139.993 Y-5.229 Z12.653 
N49 X-140.043 Y-5.229 Z12.653 
N50 X-140.092 Y-5.229 Z12.653 
N51 X-140.142 Y-5.229 Z12.653 
N52 X-140.191 Y-5.229 Z12.653 
N53 X-140.241 Y-5.229 Z12.653 
N54 X-140.290 Y-5.229 Z12.653 
N55 X-140.340 Y-5.229 Z12.653 
N56 X-140.389 Y-5.229 Z12.653 
N57 X-140.439 Y-5.229 Z12.653 
N58 X-140.488 Y-5.229 Z12.653 
N59 X-140.538 Y-5.229 Z12.653 
N60 X-140.587 Y-5.229 Z12.653 
N61 X-140.637 Y-5.229 Z12.653 
N62 X-140.686 Y-5.229 Z12.653 
N63 X-140.736 Y-5.229 Z12.653 
N64 X-140.785 Y-5.229 Z12.653 
N65 X-140.835 Y-5.229 Z12.653 
N66 X-140.884 Y-5.229 Z12.653 
N67 X-140.934 Y-5.229 Z12.653 
N68 X-140.983 Y-5.229 Z12.653 F197 
N69 X-141.033 Y-5.229 Z12.653 F198 
N70 X-141.082 Y-5.229 Z12.653 
N71 X-141.132 Y-5.229 Z12.653 
N72 X-141.181 Y-5.229 Z12.653 
N73 X-141.231 Y-5.229 Z12.653 
N74 X-141.280 Y-5.229 Z12.653 
N75 X-141.330 Y-5.229 Z12.653 
N76 X-141.379 Y-5.229 Z12.653 
N77 X-141.429 Y-5.229 Z12.653 
N78 X-141.478 Y-5.229 Z12.653 
N79 X-141.528 Y-5.229 Z12.653 
N80 X-141.577 Y-5.229 Z12.653 
N81 X-141.627 Y-5.229 Z12.653 
N82 X-141.676 Y-5.229 Z12.653 
N83 X-141.726 Y-5.229 Z12.653 
N84 X-141.775 Y-5.229 Z12.653 
N85 X-141.825 Y-5.229 Z12.653 
N86 X-141.874 Y-5.229 Z12.653 
N87 X-141.924 Y-5.229 Z12.653 
N88 X-141.973 Y-5.229 Z12.653 
N89 X-142.023 Y-5.229 Z12.653 
N90 X-142.072 Y-5.229 Z12.653 
N91 X-142.122 Y-5.229 Z12.653 
N92 X-142.171 Y-5.229 Z12.653 
N93 X-142.221 Y-5.229 Z12.653 
N94 X-142.270 Y-5.229 Z12.653 
N95 X-142.320 Y-5.229 Z12.653 
N96 X-142.369 Y-5.229 Z12.653 
N97 X-142.419 Y-5.229 Z12.653 
N98 X-142.468 Y-5.229 Z12.653 
N99 X-142.518 Y-5.229 Z12.653 
N100 X-142.567 Y-5.229 Z12.653 
N101 X-142.617 Y-5.229 Z12.653 
N102 X-142.666 Y-5.229 Z12.653 
N103 X-142.716 Y-5.229 Z12.653 
N104 X-142.765 Y-5.229 Z12.653 
N105 X-142.815 Y-5.229 Z12.653 
N106 X-142.864 Y-5.229 Z12.653 
N107 X-142.914 Y-5.229 Z12.653 
N108 X-142.963 Y-5.229 Z12.653 
N109 X-143.013 Y-5.229 Z12.653 
N110 X-143.062 Y-5.229 Z12.653 
N111 X-143.112 Y-5.229 Z12.653 
N112 X-143.161 Y-5.229 Z12.653 
N113 X-143.211 Y-5.229 Z12.653 
N114 X-143.260 Y-5.229 Z12.653 
N115 X-143.310 Y-5.229 Z12.653 
N116 X-143.359 Y-5.229 Z12.653 
N117 X-143.409 Y-5.229 Z12.653 
N118 X-143.458 Y-5.229 Z12.653 
N119 X-143.508 Y-5.229 Z12.653 
N120 X-143.557 Y-5.229 Z12.653 
N121 X-143.607 Y-5.229 Z12.653 
N122 X-143.656 Y-5.229 Z12.653 
N123 X-143.706 Y-5.229 Z12.653 
N124 X-143.755 Y-5.229 Z12.653 
N125 X-143.805 Y-5.229 Z12.653 
N126 X-143.854 Y-5.229 Z12.653 
N127 X-143.904 Y-5.229 Z12.653 
N128 X-143.953 Y-5.229 Z12.653 
N129 X-144.003 Y-5.229 Z12.653 
N130 X-144.052 Y-5.229 Z12.653 
N131 X-144.102 Y-5.229 Z12.653 
N132 X-144.152 Y-5.229 Z12.653 
N133 X-144.201 Y-5.229 Z12.653 
N134 X-144.251 Y-5.229 Z12.653 
N135 X-144.300 Y-5.229 Z12.653 
N136 X-144.350 Y-5.229 Z12.653 
N137 X-144.399 Y-5.229 Z12.653 
N138 X-144.449 Y-5.229 Z12.653 
N139 X-144.498 Y-5.229 Z12.653 
N140 X-144.548 Y-5.229 Z12.653 
N141 X-144.598 Y-5.229 Z12.653 F197 
N142 X-144.648 Y-5.229 Z12.653 
N143 X-144.698 Y-5.229 Z12.653 F198 
N144 X-144.748 Y-5.229 Z12.653 
N145 X-144.798 Y-5.229 Z12.653 
N146 X-144.848 Y-5.229 Z12.653 
N147 X-144.898 Y-5.229 Z12.653 
N148 X-144.948 Y-5.229 Z12.653 
N149 X-144.998 Y-5.229 Z12.653 
N150 X-145.048 Y-5.229 Z12.653 
N151 X-145.098 Y-5.229 Z12.653 
N152 X-145.148 Y-5.229 Z12.653 
N153 X-145.198 Y-5.229 Z12.653 
N154 X-145.248 Y-5.229 Z12.653 
N155 X-145.298 Y-5.229 Z12.653 
N156 X-145.348 Y-5.229 Z12.653 
N157 X-145.398 Y-5.229 Z12.653 
N158 X-145.448 Y-5.229 Z12.653 
N159 X-145.498 Y-5.229 Z12.653 
N160 X-145.548 Y-5.229 Z12.653 
N161 X-145.598 Y-5.229 Z12.653 
N162 X-145.648 Y-5.229 Z12.653 
N163 X-145.698 Y-5.229 Z12.653 
N164 X-145.748 Y-5.229 Z12.653 
N165 X-145.798 Y-5.229 Z12.653 
N166 X-145.848 Y-5.229 Z12.653 
N167 X-145.898 Y-5.229 Z12.653 
N168 X-145.948 Y-5.229 Z12.653 
N169 X-145.998 Y-5.229 Z12.653 
N170 X-146.048 Y-5.229 Z12.653 
N171 X-146.098 Y-5.229 Z12.653 
N172 X-146.148 Y-5.229 Z12.653 
N173 X-146.198 Y-5.229 Z12.653 
N174 X-146.248 Y-5.229 Z12.653 
N175 X-146.298 Y-5.229 Z12.653 
N176 X-146.348 Y-5.229 Z12.653 
N177 X-146.398 Y-5.229 Z12.653 
N178 X-146.448 Y-5.229 Z12.653 
N179 X-146.498 Y-5.229 Z12.653 
N180 X-146.548 Y-5.229 Z12.653 
N181 X-146.598 Y-5.229 Z12.653 
N182 X-146.648 Y-5.229 Z12.653 
N183 X-146.698 Y-5.229 Z12.653 
N184 X-146.748 Y-5.229 Z12.653 
N185 X-146.798 Y-5.229 Z12.653 
N186 X-146.848 Y-5.229 Z12.653 
N187 X-146.898 Y-5.229 Z12.653 
N188 X-146.948 Y-5.229 Z12.653 
N189 X-146.998 Y-5.229 Z12.653 
N190 X-147.048 Y-5.229 Z12.653 
N191 X-147.097 Y-5.229 Z12.653 
N192 X-147.147 Y-5.229 Z12.653 
N193 X-147.196 Y-5.229 Z12.653 
N194 X-147.246 Y-5.229 Z12.653 
N195 X-147.295 Y-5.229 Z12.653 F197 
N196 X-147.345 Y-5.229 Z12.653 F198 
N197 X-147.394 Y-5.229 Z12.653 
N198 X-147.444 Y-5.229 Z12.653 
N199 X-147.493 Y-5.229 Z12.653 
N200 X-147.543 Y-5.229 Z12.653 
N201 X-147.592 Y-5.229 Z12.653 
N202 X-147.642 Y-5.229 Z12.653 
N203 X-147.691 Y-5.229 Z12.653 
N204 X-147.741 Y-5.229 Z12.653 
N205 X-147.790 Y-5.229 Z12.653 
N206 X-147.840 Y-5.229 Z12.653 
N207 X-147.889 Y-5.229 Z12.653 
N208 X-147.939 Y-5.229 Z12.653 
N209 X-147.988 Y-5.229 Z12.653 
N210 X-148.038 Y-5.229 Z12.653 
N211 X-148.087 Y-5.229 Z12.653 
N212 X-148.137 Y-5.229 Z12.653 
N213 X-148.186 Y-5.229 Z12.653 
N214 X-148.236 Y-5.229 Z12.653 
N215 X-148.285 Y-5.229 Z12.653 
N216 X-148.335 Y-5.229 Z12.653 
N217 X-148.384 Y-5.229 Z12.653 
N218 X-148.434 Y-5.229 Z12.653 
N219 X-148.483 Y-5.229 Z12.653 F197 
N220 X-148.533 Y-5.229 Z12.653 F198 
N221 X-148.582 Y-5.229 Z12.653 
N222 X-148.632 Y-5.229 Z12.653 
N223 X-148.681 Y-5.229 Z12.653 
N224 X-148.731 Y-5.229 Z12.653 
N225 X-148.780 Y-5.229 Z12.653 
N226 X-148.830 Y-5.229 Z12.653 
N227 X-148.879 Y-5.229 Z12.653 
N228 X-148.929 Y-5.229 Z12.653 
N229 X-148.978 Y-5.229 Z12.653 
N230 X-149.028 Y-5.229 Z12.653 
N231 X-149.077 Y-5.229 Z12.653 
N232 X-149.127 Y-5.229 Z12.653 
N233 X-149.176 Y-5.229 Z12.653 
N234 X-149.226 Y-5.229 Z12.653 
N235 X-149.275 Y-5.229 Z12.653 
N236 X-149.325 Y-5.229 Z12.653 
N237 X-149.374 Y-5.229 Z12.653 
N238 X-149.424 Y-5.229 Z12.653 
N239 X-149.473 Y-5.229 Z12.653 
N240 X-149.523 Y-5.229 Z12.653 
N241 X-149.572 Y-5.229 Z12.653 
N242 X-149.622 Y-5.229 Z12.653 
N243 X-149.671 Y-5.229 Z12.653 
N244 X-149.721 Y-5.229 Z12.653 
N245 X-149.770 Y-5.229 Z12.653 
N246 X-149.820 Y-5.229 Z12.653 
N247 X-149.869 Y-5.229 Z12.653 
N248 X-149.919 Y-5.229 Z12.653 
N249 X-149.968 Y-5.229 Z12.653 
N250 X-150.018 Y-5.229 Z12.653 
N251 X-150.067 Y-5.229 Z12.653 
N252 X-150.117 Y-5.229 Z12.653 
N253 X-150.166 Y-5.229 Z12.653 
N254 X-150.216 Y-5.229 Z12.653 
N255 X-150.265 Y-5.229 Z12.653 
N256 X-150.315 Y-5.229 Z12.653 
N257 X-150.364 Y-5.229 Z12.653 
N258 X-150.414 Y-5.229 Z12.653 
N259 X-150.463 Y-5.229 Z12.653 
N260 X-150.513 Y-5.229 Z12.653 
N261 X-150.562 Y-5.229 Z12.653 
N262 X-150.612 Y-5.229 Z12.653 
N263 X-150.661 Y-5.229 Z12.653 
N264 X-150.711 Y-5.229 Z12.653 
N265 X-150.760 Y-5.229 Z12.653 
N266 X-150.810 Y-5.229 Z12.653 
N267 X-150.859 Y-5.229 Z12.653 
N268 X-150.909 Y-5.229 Z12.653 
N269 X-150.958 Y-5.229 Z12.653 
N270 X-151.008 Y-5.229 Z12.653 
N271 X-151.057 Y-5.229 Z12.653 
N272 X-151.107 Y-5.229 Z12.653 
N273 X-151.156 Y-5.229 Z12.653 
N274 X-151.206 Y-5.229 Z12.653 
N275 X-151.255 Y-5.229 Z12.653 
N276 X-151.305 Y-5.229 Z12.653 
N277 X-151.354 Y-5.229 Z12.653 
N278 X-151.404 Y-5.229 Z12.653 
N279 X-151.453 Y-5.229 Z12.653 
N280 X-151.503 Y-5.229 Z12.653 
N281 X-151.552 Y-5.229 Z12.653 
N282 X-151.602 Y-5.229 Z12.653 
N283 X-151.652 Y-5.229 Z12.653 
N284 X-151.701 Y-5.229 Z12.653 
N285 X-151.751 Y-5.229 Z12.653 
N286 X-151.800 Y-5.229 Z12.653 
N287 X-151.850 Y-5.229 Z12.653 
N288 X-151.899 Y-5.229 Z12.653 
N289 X-151.949 Y-5.229 Z12.653 
N290 X-151.998 Y-5.229 Z12.653 
N291 X-152.048 Y-5.229 Z12.653 
N292 X-152.098 Y-5.229 Z12.653 F197 
N293 X-152.148 Y-5.229 Z12.653 
N294 X-152.198 Y-5.229 Z12.653 F198 
N295 X-152.248 Y-5.229 Z12.653 
N296 X-152.298 Y-5.229 Z12.653 
N297 X-152.348 Y-5.229 Z12.653 
N298 X-152.398 Y-5.229 Z12.653 
N299 X-152.448 Y-5.229 Z12.653 
N300 X-152.498 Y-5.229 Z12.653 
N301 X-152.548 Y-5.229 Z12.653 
N302 X-152.598 Y-5.229 Z12.653 
N303 X-152.648 Y-5.229 Z12.653 
N304 X-152.698 Y-5.229 Z12.653 
N305 X-152.748 Y-5.229 Z12.653 
N306 X-152.798 Y-5.229 Z12.653 
N307 X-152.848 Y-5.229 Z12.653 
N308 X-152.898 Y-5.229 Z12.653 
N309 X-152.948 Y-5.229 Z12.653 
N310 X-152.998 Y-5.229 Z12.653 
N311 X-153.048 Y-5.229 Z12.653 
N312 X-153.098 Y-5.229 Z12.653 
N313 X-153.148 Y-5.229 Z12.653 
N314 X-153.198 Y-5.229 Z12.653 
N315 X-153.248 Y-5.229 Z12.653 
N316 X-153.298 Y-5.229 Z12.653 
N317 X-153.348 Y-5.229 Z12.653 
N318 X-153.398 Y-5.229 Z12.653 
N319 X-153.448 Y-5.229 Z12.653 
N320 X-153.498 Y-5.229 Z12.653 
N321 X-153.548 Y-5.229 Z12.653 
N322 X-153.598 Y-5.229 Z12.653 
N323 X-153.648 Y-5.229 Z12.653 
N324 X-153.698 Y-5.229 Z12.653 
N325 X-153.748 Y-5.229 Z12.653 
N326 X-153.798 Y-5.229 Z12.653 
N327 X-153.848 Y-5.229 Z12.653 
N328 X-153.898 Y-5.229 Z12.653 
N329 X-153.948 Y-5.229 Z12.653 
N330 X-153.998 Y-5.229 Z12.653 
N331 X-154.048 Y-5.229 Z12.653 
N332 X-154.098 Y-5.229 Z12.653 
N333 X-154.148 Y-5.229 Z12.653 
N334 X-154.198 Y-5.229 Z12.653 
N335 X-154.248 Y-5.229 Z12.653 
N336 X-154.298 Y-5.229 Z12.653 
N337 X-154.348 Y-5.229 Z12.653 
N338 X-154.398 Y-5.229 Z12.653 
N339 X-154.448 Y-5.229 Z12.653 
N340 X-154.498 Y-5.229 Z12.653 
N341 X-154.807 Y-5.229 Z12.702 
N342 X-155.086 Y-5.229 Z12.844 
N343 X-155.307 Y-5.229 Z13.065 
N344 X-155.449 Y-5.229 Z13.344 
N345 X-155.498 Y-5.229 Z13.653 
N346 G00 X-155.507 Y-5.229 Z63.653 
RAPORT("TA000001","Contact Milling:121 End")
;trailer : concat=None
; points cnt = 313
N348 M9 ; chlodziwo wyl.
N349 MSG (" --- KONIEC PODPROGRAMU --- ")
N350 FGROUP()
N351 TRAFOOF
N352 STOPRE
N353 G0 G53 D0 Z550.0 M9 M5
N354 G0 G53 Y150 A0 B0
N355 M17
