; PROGRAM NAME: A00000140
; ORDER       : A000001
; OPER. NAME  : Slot Roughing:107
; OPER. DESCR.: roughig slot/BH zgr
; OPER. TYPE  : slotMillRough
; GEO. OPTION : 1
; MACHINE     : HSTM_300_SIM840D_Py
;             : HSTM300/500 - HAMUEL: 5-axis milling machine-SIM840D Traori PP_Script
; CONTROL     : SINUMERIK 840D
; created:   2021-11-03 14:18:22.699978
;-------DODATKOWE DANE-------------------
; PROGRAMISTA : Mariusz Malec
; PARTID      : 138T005360P1002_-
;  ae         : 16.0
;  ap         : 1.5
;  fin_offset : 0.5
;  lean_angle : 0.0
;----------------------------------------
RAPORT("TA000001","Slot Roughing:107")
N10 TRAFOOF
N11 D0
N12 G90 G94
N13 G0 G53 D0 Z550
N14 STOPRE
M9 ; chlodziwo wyl
; --- Slot Roughing:107 - roughig slot/BH zgr ---
N16 ;ToolChange : concat=None ,current_tdmid=None, PP.tdmId=940672
N17 TRAFOOF
N18 G0 G53 D0 X-200 Y150 Z550 B0
N19 T="7740672"
RAPORT("TA000001","ToolChangeStart 7740672")
N20 M6
RAPORT("TA000001","ToolChangeEnd")
N21 STOPRE
N22 MSG(" TLID=940672 D=25.0 R=4.0 Ang=0.0 Len=90.0 ")
;---> in saveDoc :0:00:00.059974
;---> in saveDoc :0:00:00.072990
N23 S2037 M03
N24 STOPRE
N25 TOL(0.1,1,1)
N26 G0 G53 A304.0000 B-0.0000
N27 TRAORI
N28 G54 D1
N29 FFWON
N30 COMPOF
N31 STOPRE
N32 D1 
;---> in saveDoc :0:00:00.071172
N33 ; DELTA A > 40.1
N34 TRAFOOF
N35 D1
N36 STOPRE
N37 G00 G54 Z296.000
N38 G01 A304.0000 F10000
N39 TRAORI
N40 G54 D1
N41 STOPRE
N42 TRANS 
N43 G00 X-170.663 Y80.039 Z2.933 A304.0000 
N44 M342 ; chlodziwo woda
N45 X-170.663 Y38.588 Z-25.027 
N46 G01 X-171.448 Y33.013 Z-16.762 F488 
N47 X-171.645 Y31.619 Z-14.696 F243 
N48 X-171.650 Y31.585 Z-14.645 F261 
N49 X-171.655 Y31.548 Z-14.590 F278 
N50 X-171.660 Y31.509 Z-14.532 F296 
N51 X-171.666 Y31.468 Z-14.471 F313 
N52 X-171.672 Y31.424 Z-14.406 F331 
N53 X-171.679 Y31.377 Z-14.337 F348 
N54 X-171.686 Y31.329 Z-14.265 F365 
N55 X-171.693 Y31.278 Z-14.190 F383 
N56 X-171.700 Y31.225 Z-14.111 F400 
N57 X-171.708 Y31.169 Z-14.028 F418 
N58 X-171.716 Y31.111 Z-13.942 F435 
N59 X-171.725 Y31.050 Z-13.852 F453 
N60 X-171.734 Y30.988 Z-13.759 F470 
N61 X-171.743 Y30.922 Z-13.663 F487 
N62 X-171.879 Y29.960 Z-12.235 F487 
N63 X-172.035 Y28.804 Z-10.522 F487 
N64 X-172.299 Y26.592 Z-7.243 F487 
N65 X-172.523 Y24.317 Z-3.869 F487 
N66 X-172.740 Y21.351 Z0.527 F487 
N67 X-172.882 Y18.176 Z5.235 F487 
N68 X-172.928 Y14.420 Z10.804 F487 
N69 X-172.844 Y10.738 Z16.263 F487 
N70 X-172.693 Y7.919 Z20.441 F487 
N71 X-172.665 Y7.501 Z21.061 F487 
N72 X-172.660 Y7.429 Z21.168 F518 
N73 X-172.655 Y7.353 Z21.281 F548 
N74 X-172.650 Y7.272 Z21.401 F579 
N75 X-172.644 Y7.187 Z21.527 F610 
N76 X-172.638 Y7.097 Z21.660 F640 
N77 X-172.632 Y7.003 Z21.799 F670 
N78 X-172.625 Y6.905 Z21.944 F701 
N79 X-172.618 Y6.803 Z22.097 F731 
N80 X-172.612 Y6.700 Z22.249 F796 
N81 X-172.604 Y6.579 Z22.428 F990 
N82 X-172.593 Y6.423 Z22.659 F1312 
N83 X-172.578 Y6.215 Z22.968 F1764 
N84 X-172.555 Y5.936 Z23.381 F2344 
N85 X-172.518 Y5.570 Z23.924 F3021 
N86 X-172.456 Y5.117 Z24.596 F3602 
N87 X-172.352 Y4.596 Z25.368 F4054 
N88 X-172.166 Y4.028 Z26.210 F4376 
N89 X-171.843 Y3.443 Z27.078 F4570 
N90 X-171.338 Y2.880 Z27.912 F4634 
N91 X-170.630 Y2.371 Z28.667 F4634 
N92 X-169.658 Y1.993 Z29.227 F4561 
N93 X-168.790 Y2.288 Z28.790 F4344 
N94 X-168.613 Y2.883 Z27.908 F3981 
N95 X-168.580 Y3.425 Z27.104 F3473 
N96 X-168.585 Y3.883 Z26.425 F2820 
N97 X-168.599 Y4.236 Z25.902 F2058 
N98 X-168.612 Y4.485 Z25.533 F1405 
N99 X-168.621 Y4.650 Z25.288 F897 
N100 X-168.627 Y4.752 Z25.137 F534 
N101 X-168.631 Y4.812 Z25.048 F316 
N102 X-168.634 Y4.851 Z24.990 F243 
N103 X-168.717 Y6.248 Z22.918 F243 
N104 X-168.719 Y6.283 Z22.867 F261 
N105 X-168.722 Y6.319 Z22.813 F278 
N106 X-168.724 Y6.359 Z22.755 F296 
N107 X-168.726 Y6.400 Z22.693 F313 
N108 X-168.729 Y6.444 Z22.628 F331 
N109 X-168.732 Y6.491 Z22.559 F348 
N110 X-168.735 Y6.539 Z22.487 F365 
N111 X-168.738 Y6.590 Z22.411 F383 
N112 X-168.741 Y6.644 Z22.332 F400 
N113 X-168.744 Y6.700 Z22.249 F418 
N114 X-168.748 Y6.758 Z22.163 F435 
N115 X-168.751 Y6.818 Z22.073 F453 
N116 X-168.755 Y6.881 Z21.980 F470 
N117 X-168.759 Y6.947 Z21.883 F487 
N118 X-168.970 Y10.472 Z16.657 F487 
N119 X-169.065 Y14.248 Z11.058 F487 
N120 X-169.019 Y18.213 Z5.180 F487 
N121 X-168.851 Y21.768 Z-0.090 F487 
N122 X-168.640 Y24.501 Z-4.143 F487 
N123 X-168.365 Y27.173 Z-8.105 F487 
N124 X-168.087 Y29.373 Z-11.365 F487 
N125 X-167.659 Y32.216 Z-15.581 F487 
N126 X-167.649 Y32.288 Z-15.687 F518 
N127 X-167.637 Y32.364 Z-15.800 F548 
N128 X-167.625 Y32.445 Z-15.920 F579 
N129 X-167.612 Y32.530 Z-16.046 F610 
N130 X-167.599 Y32.619 Z-16.178 F640 
N131 X-167.585 Y32.713 Z-16.317 F670 
N132 X-167.570 Y32.811 Z-16.462 F701 
N133 X-167.555 Y32.913 Z-16.614 F731 
N134 X-167.538 Y33.022 Z-16.776 F804 
N135 X-167.519 Y33.153 Z-16.969 F1023 
N136 X-167.494 Y33.325 Z-17.225 F1387 
N137 X-167.462 Y33.561 Z-17.576 F1896 
N138 X-167.421 Y33.879 Z-18.052 F2552 
N139 X-167.376 Y34.294 Z-18.676 F3207 
N140 X-167.342 Y34.787 Z-19.431 F3717 
N141 X-167.356 Y35.328 Z-20.290 F4081 
N142 X-167.521 Y35.859 Z-21.226 F4299 
N143 X-168.127 Y36.171 Z-22.092 F4372 
N144 X-169.102 Y35.856 Z-22.203 F4372 
N145 X-169.705 Y35.219 Z-21.574 F4304 
N146 X-169.992 Y34.595 Z-20.770 F4099 
N147 X-170.153 Y34.026 Z-19.976 F3758 
N148 X-170.259 Y33.524 Z-19.252 F3280 
N149 X-170.334 Y33.103 Z-18.635 F2666 
N150 X-170.386 Y32.779 Z-18.157 F1949 
N151 X-170.420 Y32.550 Z-17.819 F1335 
N152 X-170.443 Y32.398 Z-17.593 F858 
N153 X-170.456 Y32.303 Z-17.453 F516 
N154 X-170.465 Y32.246 Z-17.369 F312 
N155 X-170.470 Y32.209 Z-17.314 F243 
N156 X-170.666 Y30.815 Z-15.247 F243 
N157 X-170.671 Y30.781 Z-15.196 F261 
N158 X-170.676 Y30.744 Z-15.142 F278 
N159 X-170.682 Y30.705 Z-15.084 F296 
N160 X-170.687 Y30.664 Z-15.022 F313 
N161 X-170.694 Y30.620 Z-14.957 F331 
N162 X-170.700 Y30.574 Z-14.889 F348 
N163 X-170.707 Y30.525 Z-14.817 F365 
N164 X-170.714 Y30.474 Z-14.741 F383 
N165 X-170.722 Y30.421 Z-14.662 F400 
N166 X-170.730 Y30.365 Z-14.580 F418 
N167 X-170.738 Y30.307 Z-14.494 F435 
N168 X-170.746 Y30.246 Z-14.404 F453 
N169 X-170.755 Y30.184 Z-14.311 F470 
N170 X-170.764 Y30.118 Z-14.214 F487 
N171 X-170.907 Y29.108 Z-12.717 F487 
N172 X-171.059 Y27.986 Z-11.053 F487 
N173 X-171.323 Y25.777 Z-7.778 F487 
N174 X-171.548 Y23.493 Z-4.391 F487 
N175 X-171.765 Y20.534 Z-0.005 F487 
N176 X-171.907 Y17.362 Z4.698 F487 
N177 X-171.953 Y13.616 Z10.252 F487 
N178 X-171.869 Y9.939 Z15.703 F487 
N179 X-171.719 Y7.131 Z19.866 F487 
N180 X-171.689 Y6.693 Z20.516 F487 
N181 X-171.685 Y6.621 Z20.623 F518 
N182 X-171.679 Y6.544 Z20.736 F548 
N183 X-171.674 Y6.463 Z20.856 F579 
N184 X-171.668 Y6.378 Z20.982 F610 
N185 X-171.662 Y6.289 Z21.115 F640 
N186 X-171.656 Y6.195 Z21.254 F670 
N187 X-171.650 Y6.097 Z21.399 F701 
N188 X-171.643 Y5.994 Z21.552 F731 
N189 X-171.636 Y5.893 Z21.702 F794 
N190 X-171.628 Y5.775 Z21.877 F982 
N191 X-171.618 Y5.623 Z22.102 F1295 
N192 X-171.604 Y5.421 Z22.402 F1733 
N193 X-171.583 Y5.151 Z22.801 F2296 
N194 X-171.551 Y4.798 Z23.324 F2953 
N195 X-171.502 Y4.362 Z23.971 F3516 
N196 X-171.422 Y3.860 Z24.715 F3954 
N197 X-171.289 Y3.311 Z25.530 F4267 
N198 X-171.063 Y2.736 Z26.382 F4455 
N199 X-170.701 Y2.166 Z27.226 F4517 
N200 X-170.156 Y1.617 Z28.041 F4517 
N201 X-169.332 Y1.180 Z28.689 F4447 
N202 X-168.677 Y1.565 Z28.119 F4235 
N203 X-168.582 Y2.144 Z27.260 F3881 
N204 X-168.571 Y2.665 Z26.486 F3387 
N205 X-168.583 Y3.105 Z25.834 F2751 
N206 X-168.599 Y3.445 Z25.330 F2009 
N207 X-168.612 Y3.686 Z24.974 F1374 
N208 X-168.622 Y3.846 Z24.737 F879 
N209 X-168.628 Y3.945 Z24.589 F526 
N210 X-168.631 Y4.004 Z24.502 F314 
N211 X-168.634 Y4.043 Z24.445 F243 
N212 X-168.717 Y5.440 Z22.373 F243 
N213 X-168.719 Y5.474 Z22.322 F261 
N214 X-168.722 Y5.511 Z22.268 F278 
N215 X-168.724 Y5.550 Z22.209 F296 
N216 X-168.726 Y5.592 Z22.148 F313 
N217 X-168.729 Y5.636 Z22.083 F331 
N218 X-168.732 Y5.682 Z22.014 F348 
N219 X-168.735 Y5.731 Z21.942 F365 
N220 X-168.738 Y5.782 Z21.866 F383 
N221 X-168.741 Y5.835 Z21.787 F400 
N222 X-168.744 Y5.891 Z21.704 F418 
N223 X-168.748 Y5.950 Z21.618 F435 
N224 X-168.751 Y6.010 Z21.528 F453 
N225 X-168.755 Y6.073 Z21.434 F470 
N226 X-168.759 Y6.138 Z21.338 F487 
N227 X-168.970 Y9.665 Z16.109 F487 
N228 X-169.065 Y13.438 Z10.515 F487 
N229 X-169.019 Y17.402 Z4.639 F487 
N230 X-168.851 Y20.951 Z-0.623 F487 
N231 X-168.641 Y23.683 Z-4.674 F487 
N232 X-168.368 Y26.340 Z-8.613 F487 
N233 X-168.091 Y28.536 Z-11.869 F487 
N234 X-167.659 Y31.408 Z-16.126 F487 
N235 X-167.649 Y31.480 Z-16.233 F518 
N236 X-167.637 Y31.556 Z-16.346 F548 
N237 X-167.625 Y31.637 Z-16.465 F579 
N238 X-167.612 Y31.721 Z-16.591 F610 
N239 X-167.599 Y31.811 Z-16.723 F640 
N240 X-167.585 Y31.904 Z-16.862 F670 
N241 X-167.570 Y32.002 Z-17.007 F701 
N242 X-167.555 Y32.105 Z-17.159 F731 
N243 F488 
N244 G00 X-167.555 Y73.556 Z10.801 
RAPORT("TA000001","Slot Roughing:107 End")
;trailer : concat=None
; points cnt = 198
N246 MSG (" --- GROUPED OF SUBPROGRAM --- ")
N247 FGROUP()
N248 TRAFOOF
; PROGRAM NAME: A00000140
; ORDER       : A000001
; OPER. NAME  : Slot Roughing:108
; OPER. DESCR.: roughig slot
; OPER. TYPE  : slotMillRough
; GEO. OPTION : 1
; MACHINE     : HSTM_300_SIM840D_Py
;             : HSTM300/500 - HAMUEL: 5-axis milling machine-SIM840D Traori PP_Script
; CONTROL     : SINUMERIK 840D
; created:   2021-11-03 14:18:24.329161
;-------DODATKOWE DANE-------------------
; PROGRAMISTA : Mariusz Malec
; PARTID      : 138T005360P1002_-
;  ae         : 16.0
;  ap         : 1.5
;  fin_offset : 0.5
;  lean_angle : 0.0
;----------------------------------------
RAPORT("TA000001","Slot Roughing:108")
N10 TRAFOOF
N11 D0
N12 G90 G94
N13 G0 G53 D0 Z550
N14 STOPRE
M9 ; chlodziwo wyl
; --- Slot Roughing:108 - roughig slot ---
N16 ;ToolChange : concat=None ,current_tdmid=None, PP.tdmId=940672
N17 TRAFOOF
N18 G0 G53 D0 Z550 B0
N19 STOPRE
N20 MSG(" TLID=940672 D=25.0 R=4.0 Ang=0.0 Len=90.0 ")
N21 S2037 M03
N22 STOPRE
N23 TOL(0.1,1,1)
N24 G0 G53 A124.0000 B0.0000
N25 TRAORI
N26 G54 D1
N27 FFWON
N28 COMPOF
N29 STOPRE
N30 ; DELTA A > 40.1
N31 TRAFOOF
N32 D1
N33 STOPRE
N34 G00 G54 Z296.000
N35 G01 A124.0000 F10000
N36 TRAORI
N37 G54 D1
N38 STOPRE
N39 TRANS 
N40 G00 X-169.668 Y-79.446 Z6.286 A124.0000 
N41 M342 ; chlodziwo woda
N42 X-169.668 Y-37.994 Z34.246 
N43 G01 X-170.650 Y-32.429 Z25.996 F488 
N44 X-170.895 Y-31.038 Z23.933 F243 
N45 X-170.901 Y-31.004 Z23.882 F261 
N46 X-170.908 Y-30.967 Z23.828 F278 
N47 X-170.915 Y-30.928 Z23.770 F296 
N48 X-170.922 Y-30.887 Z23.709 F313 
N49 X-170.930 Y-30.843 Z23.644 F331 
N50 X-170.938 Y-30.797 Z23.575 F348 
N51 X-170.946 Y-30.748 Z23.503 F365 
N52 X-170.955 Y-30.697 Z23.428 F383 
N53 X-170.965 Y-30.644 Z23.349 F400 
N54 X-170.975 Y-30.588 Z23.267 F418 
N55 X-170.985 Y-30.530 Z23.181 F435 
N56 X-170.995 Y-30.470 Z23.091 F453 
N57 X-171.007 Y-30.407 Z22.998 F470 
N58 X-171.018 Y-30.342 Z22.902 F487 
N59 X-171.286 Y-28.824 Z20.650 F487 
N60 X-171.417 Y-28.062 Z19.521 F487 
N61 X-171.791 Y-25.697 Z16.014 F487 
N62 X-172.100 Y-23.418 Z12.637 F487 
N63 X-172.436 Y-20.386 Z8.141 F487 
N64 X-172.666 Y-17.631 Z4.056 F487 
N65 X-172.850 Y-14.237 Z-0.975 F487 
N66 X-172.928 Y-10.625 Z-6.330 F487 
N67 X-172.878 Y-6.816 Z-11.978 F487 
N68 X-172.877 Y-6.744 Z-12.085 F518 
N69 X-172.876 Y-6.667 Z-12.198 F548 
N70 X-172.875 Y-6.586 Z-12.318 F579 
N71 X-172.873 Y-6.501 Z-12.444 F610 
N72 X-172.872 Y-6.412 Z-12.577 F640 
N73 X-172.871 Y-6.318 Z-12.716 F670 
N74 X-172.870 Y-6.219 Z-12.862 F701 
N75 X-172.868 Y-6.117 Z-13.014 F731 
N76 X-172.867 Y-6.015 Z-13.165 F794 
N77 X-172.864 Y-5.897 Z-13.341 F983 
N78 X-172.861 Y-5.744 Z-13.567 F1298 
N79 X-172.855 Y-5.541 Z-13.868 F1738 
N80 X-172.845 Y-5.269 Z-14.270 F2304 
N81 X-172.824 Y-4.914 Z-14.797 F2964 
N82 X-172.784 Y-4.475 Z-15.448 F3530 
N83 X-172.704 Y-3.969 Z-16.198 F3971 
N84 X-172.542 Y-3.418 Z-17.014 F4285 
N85 X-172.222 Y-2.855 Z-17.850 F4474 
N86 X-171.657 Y-2.336 Z-18.619 F4537 
N87 X-170.787 Y-1.939 Z-19.208 F4537 
N88 X-169.686 Y-1.928 Z-19.225 F4466 
N89 X-169.161 Y-2.466 Z-18.427 F4253 
N90 X-169.014 Y-3.045 Z-17.568 F3898 
N91 X-168.967 Y-3.569 Z-16.791 F3401 
N92 X-168.954 Y-4.013 Z-16.133 F2763 
N93 X-168.954 Y-4.356 Z-15.625 F2018 
N94 X-168.957 Y-4.597 Z-15.267 F1379 
N95 X-168.960 Y-4.758 Z-15.029 F882 
N96 X-168.962 Y-4.857 Z-14.881 F527 
N97 X-168.963 Y-4.916 Z-14.794 F314 
N98 X-168.964 Y-4.954 Z-14.738 F243 
N99 X-169.004 Y-6.352 Z-12.665 F243 
N100 X-169.005 Y-6.387 Z-12.614 F261 
N101 X-169.006 Y-6.423 Z-12.559 F278 
N102 X-169.007 Y-6.463 Z-12.501 F296 
N103 X-169.008 Y-6.504 Z-12.440 F313 
N104 X-169.009 Y-6.548 Z-12.374 F331 
N105 X-169.010 Y-6.595 Z-12.306 F348 
N106 X-169.012 Y-6.643 Z-12.233 F365 
N107 X-169.013 Y-6.694 Z-12.158 F383 
N108 X-169.015 Y-6.748 Z-12.078 F400 
N109 X-169.016 Y-6.804 Z-11.996 F418 
N110 X-169.018 Y-6.862 Z-11.909 F435 
N111 X-169.020 Y-6.923 Z-11.819 F453 
N112 X-169.021 Y-6.986 Z-11.726 F470 
N113 X-169.023 Y-7.051 Z-11.629 F487 
N114 X-169.027 Y-7.196 Z-11.415 F487 
N115 X-169.066 Y-10.775 Z-6.107 F487 
N116 X-168.979 Y-14.468 Z-0.632 F487 
N117 X-168.786 Y-17.836 Z4.360 F487 
N118 X-168.486 Y-21.198 Z9.344 F487 
N119 X-168.191 Y-23.716 Z13.079 F487 
N120 X-167.792 Y-26.513 Z17.224 F487 
N121 X-167.402 Y-28.843 Z20.678 F487 
N122 X-166.697 Y-32.444 Z26.018 F487 
N123 X-166.683 Y-32.516 Z26.124 F518 
N124 X-166.668 Y-32.592 Z26.237 F548 
N125 X-166.652 Y-32.672 Z26.356 F579 
N126 X-166.635 Y-32.757 Z26.481 F610 
N127 X-166.618 Y-32.846 Z26.613 F640 
N128 X-166.600 Y-32.939 Z26.752 F670 
N129 X-166.580 Y-33.037 Z26.897 F701 
N130 X-166.560 Y-33.139 Z27.048 F731 
N131 X-166.539 Y-33.249 Z27.211 F805 
N132 X-166.514 Y-33.380 Z27.405 F1026 
N133 X-166.482 Y-33.554 Z27.663 F1394 
N134 X-166.440 Y-33.791 Z28.016 F1909 
N135 X-166.386 Y-34.113 Z28.497 F2571 
N136 X-166.324 Y-34.532 Z29.129 F3233 
N137 X-166.273 Y-35.031 Z29.893 F3748 
N138 X-166.282 Y-35.575 Z30.767 F4115 
N139 X-166.548 Y-36.063 Z31.710 F4336 
N140 X-167.513 Y-35.920 Z32.079 F4410 
N141 X-168.304 Y-35.330 Z31.623 F4410 
N142 X-168.798 Y-34.676 Z30.883 F4341 
N143 X-169.089 Y-34.050 Z30.062 F4134 
N144 X-169.273 Y-33.477 Z29.260 F3790 
N145 X-169.401 Y-32.970 Z28.528 F3308 
N146 X-169.494 Y-32.544 Z27.906 F2688 
N147 X-169.560 Y-32.216 Z27.423 F1965 
N148 X-169.604 Y-31.985 Z27.081 F1345 
N149 X-169.632 Y-31.831 Z26.853 F863 
N150 X-169.650 Y-31.736 Z26.711 F519 
N151 X-169.660 Y-31.679 Z26.627 F312 
N152 X-169.667 Y-31.642 Z26.572 F243 
N153 X-169.912 Y-30.250 Z24.509 F243 
N154 X-169.918 Y-30.216 Z24.458 F261 
N155 X-169.924 Y-30.179 Z24.404 F278 
N156 X-169.931 Y-30.140 Z24.346 F296 
N157 X-169.939 Y-30.099 Z24.284 F313 
N158 X-169.946 Y-30.055 Z24.220 F331 
N159 X-169.955 Y-30.009 Z24.151 F348 
N160 X-169.963 Y-29.960 Z24.079 F365 
N161 X-169.972 Y-29.910 Z24.004 F383 
N162 X-169.981 Y-29.856 Z23.925 F400 
N163 X-169.991 Y-29.801 Z23.842 F418 
N164 X-170.001 Y-29.743 Z23.757 F435 
N165 X-170.012 Y-29.682 Z23.667 F453 
N166 X-170.023 Y-29.620 Z23.574 F470 
N167 X-170.035 Y-29.555 Z23.478 F487 
N168 X-170.316 Y-27.962 Z21.116 F487 
N169 X-170.339 Y-27.831 Z20.923 F487 
N170 X-170.361 Y-27.700 Z20.728 F487 
N171 X-170.810 Y-24.905 Z16.584 F487 
N172 X-171.124 Y-22.602 Z13.170 F487 
N173 X-171.458 Y-19.596 Z8.713 F487 
N174 X-171.690 Y-16.819 Z4.596 F487 
N175 X-171.875 Y-13.433 Z-0.423 F487 
N176 X-171.953 Y-9.821 Z-5.779 F487 
N177 X-171.903 Y-6.017 Z-11.419 F487 
N178 X-171.902 Y-5.945 Z-11.525 F518 
N179 X-171.901 Y-5.868 Z-11.639 F548 
N180 X-171.900 Y-5.788 Z-11.759 F579 
N181 X-171.899 Y-5.702 Z-11.885 F610 
N182 X-171.897 Y-5.613 Z-12.018 F640 
N183 X-171.896 Y-5.519 Z-12.157 F670 
N184 X-171.895 Y-5.421 Z-12.303 F701 
N185 X-171.893 Y-5.318 Z-12.455 F731 
N186 X-171.892 Y-5.208 Z-12.619 F805 
N187 X-171.889 Y-5.076 Z-12.814 F1026 
N188 X-171.885 Y-4.901 Z-13.073 F1394 
N189 X-171.879 Y-4.661 Z-13.428 F1909 
N190 X-171.866 Y-4.336 Z-13.911 F2572 
N191 X-171.841 Y-3.910 Z-14.542 F3235 
N192 X-171.792 Y-3.399 Z-15.299 F3750 
N193 X-171.691 Y-2.826 Z-16.149 F4118 
N194 X-171.481 Y-2.219 Z-17.050 F4339 
N195 X-171.063 Y-1.624 Z-17.932 F4413 
N196 X-170.368 Y-1.153 Z-18.630 F4413 
N197 X-169.393 Y-1.177 Z-18.594 F4344 
N198 X-169.072 Y-1.745 Z-17.752 F4137 
N199 X-168.984 Y-2.304 Z-16.923 F3792 
N200 X-168.957 Y-2.807 Z-16.177 F3310 
N201 X-168.951 Y-3.233 Z-15.547 F2690 
N202 X-168.953 Y-3.562 Z-15.059 F1966 
N203 X-168.956 Y-3.794 Z-14.714 F1346 
N204 X-168.960 Y-3.949 Z-14.485 F864 
N205 X-168.962 Y-4.045 Z-14.343 F519 
N206 X-168.963 Y-4.102 Z-14.258 F312 
N207 X-168.964 Y-4.139 Z-14.202 F243 
N208 X-169.003 Y-5.537 Z-12.130 F243 
N209 X-169.004 Y-5.572 Z-12.079 F261 
N210 X-169.005 Y-5.608 Z-12.024 F278 
N211 X-169.007 Y-5.648 Z-11.966 F296 
N212 X-169.008 Y-5.689 Z-11.904 F313 
N213 X-169.009 Y-5.733 Z-11.839 F331 
N214 X-169.010 Y-5.780 Z-11.770 F348 
N215 X-169.012 Y-5.828 Z-11.698 F365 
N216 X-169.013 Y-5.879 Z-11.622 F383 
N217 X-169.015 Y-5.933 Z-11.543 F400 
N218 X-169.016 Y-5.989 Z-11.460 F418 
N219 X-169.018 Y-6.047 Z-11.374 F435 
N220 X-169.019 Y-6.108 Z-11.284 F453 
N221 X-169.021 Y-6.171 Z-11.191 F470 
N222 X-169.023 Y-6.236 Z-11.094 F487 
N223 X-169.027 Y-6.387 Z-10.870 F487 
N224 X-169.066 Y-9.964 Z-5.567 F487 
N225 X-168.980 Y-13.646 Z-0.108 F487 
N226 X-168.788 Y-17.011 Z4.881 F487 
N227 X-168.491 Y-20.343 Z9.820 F487 
N228 X-168.195 Y-22.881 Z13.583 F487 
N229 X-167.801 Y-25.646 Z17.683 F487 
N230 X-167.489 Y-27.544 Z20.497 F487 
N231 X-167.101 Y-29.649 Z23.618 F487 
N232 X-166.697 Y-31.636 Z26.563 F487 
N233 X-166.682 Y-31.707 Z26.669 F518 
N234 X-166.666 Y-31.783 Z26.782 F548 
N235 X-166.650 Y-31.864 Z26.901 F579 
N236 X-166.633 Y-31.948 Z27.026 F610 
N237 X-166.615 Y-32.037 Z27.158 F640 
N238 X-166.596 Y-32.131 Z27.297 F670 
N239 X-166.576 Y-32.228 Z27.441 F701 
N240 X-166.555 Y-32.330 Z27.593 F731 
N241 F488 
N242 G00 X-166.555 Y-73.782 Z-0.367 
RAPORT("TA000001","Slot Roughing:108 End")
;trailer : concat=None
; points cnt = 199
N244 M9 ; chlodziwo wyl.
N245 MSG (" --- KONIEC PODPROGRAMU --- ")
N246 FGROUP()
N247 TRAFOOF
N248 STOPRE
N249 G0 G53 D0 Z550.0 M9 M5
N250 G0 G53 Y150 A0 B0
N251 M17
