; PROGRAM NAME: A00000147
; ORDER       : A000001
; OPER. NAME  : Side Milling:109
; OPER. DESCR.: Side Milling/HHU wk
; OPER. TYPE  : sideMill
; GEO. OPTION : 3
; MACHINE     : HSTM_300_SIM840D_Py
;             : HSTM300/500 - HAMUEL: 5-axis milling machine-SIM840D Traori PP_Script
; CONTROL     : SINUMERIK 840D
; created:   2021-11-15 09:09:22.032588
;-------DODATKOWE DANE-------------------
; PROGRAMISTA : Mariusz Malec
; PARTID      : 138T005360P1002_-
;  ap         : 26.0
;  ae         : 9.6
;  lean_angle : 0.02
;  fin_offset : 0.0
;----------------------------------------
RAPORT("TA000001","Side Milling:109")
N10 TRAFOOF
N11 D0
N12 G90 G94
N13 G0 G53 D0 Z550
N14 STOPRE
M9 ; chlodziwo wyl
; --- Side Milling:109 - Side Milling/HHU wk ---
N16 ;ToolChange : concat=None ,current_tdmid=None, PP.tdmId=940680
N17 TRAFOOF
N18 G0 G53 D0 X-200 Y150 Z550 B0
N19 T="7740680"
RAPORT("TA000001","ToolChangeStart 7740680")
N20 M6
RAPORT("TA000001","ToolChangeEnd")
N21 STOPRE
N22 MSG(" TLID=940680 D=12.0 R=3.2 Ang=0.0 Len=123.0 ")
;---> in saveDoc :0:00:00.060811
;---> in saveDoc :0:00:00.070996
N23 S2652 M03
N24 STOPRE
N25 TOL(0.1,1,1)
N26 G0 G53 A303.9800 B-0.0001
N27 TRAORI
N28 G54 D1
;tol5=0.03
N29 D1 
;---> in saveDoc :0:00:00.082810
STOPRE
E_ZDARZ=300010
;ACS_FINISH_SLOT=7740680
STOPRE
;UWAGA : ZMIENIONA TOLERANCJA OSI A i B, ruchy osi A i B beda usuniete : TOL5=0.03
N30 ; DELTA A > 40.1
N31 TRAFOOF
N32 D1
N33 STOPRE
N34 G00 G54 Z263.000
N35 G01 A303.9800 F10000
N36 TRAORI
N37 G54 D1
N38 STOPRE
N39 TRANS 
N40 G00 X-162.003 Y50.660 Z56.932 A303.9800 
N41 M342 ; chlodziwo woda
N42 X-162.003 Y9.198 Z28.986 
N43 G01 X-162.006 Y6.910 Z26.853 F318 
N44 X-162.014 Y5.393 Z24.116 
N45 X-162.027 Y4.796 Z21.045 
N46 X-162.043 Y5.178 Z17.940 
N47 ;NTE SemiFinishing
N48 D1 
;---> in saveDoc :0:00:00.070832
N49 G01 G41 X-162.061 Y6.500 Z15.104 F318
N50 X-162.061 Y6.500 Z15.104 
N51 X-162.062 Y6.593 Z14.966 
N52 X-162.063 Y6.686 Z14.828 
N53 X-162.064 Y6.779 Z14.690 
N54 X-162.065 Y6.873 Z14.551 
N55 X-162.066 Y6.966 Z14.413 
N56 X-162.067 Y7.059 Z14.275 
N57 X-162.068 Y7.147 Z14.144 
N58 X-162.069 Y7.235 Z14.013 
N59 X-162.070 Y7.324 Z13.882 
N60 X-162.071 Y7.412 Z13.752 
N61 X-162.072 Y7.500 Z13.621 
N62 X-162.073 Y7.589 Z13.490 
N63 X-162.074 Y7.677 Z13.359 
N64 X-162.075 Y7.765 Z13.228 
N65 X-162.075 Y7.854 Z13.097 
N66 X-162.076 Y7.942 Z12.966 
N67 X-162.077 Y8.030 Z12.835 
N68 X-162.078 Y8.118 Z12.704 
N69 X-162.079 Y8.207 Z12.573 
N70 X-162.080 Y8.295 Z12.443 
N71 X-162.081 Y8.383 Z12.312 
N72 X-162.082 Y8.472 Z12.181 
N73 X-162.083 Y8.560 Z12.050 
N74 X-162.084 Y8.648 Z11.919 
N75 X-162.085 Y8.736 Z11.788 
N76 X-162.086 Y8.825 Z11.657 
N77 X-162.086 Y8.913 Z11.526 
N78 X-162.087 Y9.001 Z11.395 
N79 X-162.088 Y9.090 Z11.264 
N80 X-162.089 Y9.178 Z11.134 
N81 X-162.090 Y9.266 Z11.003 
N82 X-162.091 Y9.355 Z10.872 
N83 X-162.092 Y9.443 Z10.741 
N84 X-162.093 Y9.531 Z10.610 
N85 X-162.094 Y9.619 Z10.479 
N86 X-162.095 Y9.708 Z10.348 
N87 X-162.096 Y9.796 Z10.217 
N88 X-162.097 Y9.884 Z10.086 
N89 X-162.098 Y9.973 Z9.955 
N90 X-162.098 Y10.061 Z9.825 
N91 X-162.099 Y10.149 Z9.694 
N92 X-162.100 Y10.237 Z9.563 
N93 X-162.101 Y10.326 Z9.432 
N94 X-162.102 Y10.414 Z9.301 
N95 X-162.103 Y10.503 Z9.169 
N96 X-162.104 Y10.592 Z9.038 
N97 X-162.105 Y10.680 Z8.906 
N98 X-162.105 Y10.769 Z8.774 
N99 X-162.106 Y10.858 Z8.643 
N100 X-162.107 Y10.947 Z8.511 
N101 X-162.107 Y11.036 Z8.379 
N102 X-162.108 Y11.124 Z8.248 
N103 X-162.108 Y11.213 Z8.116 
N104 X-162.108 Y11.302 Z7.984 
N105 X-162.108 Y11.391 Z7.853 
N106 X-162.108 Y11.480 Z7.721 
N107 X-162.109 Y11.569 Z7.589 
N108 X-162.108 Y11.657 Z7.458 
N109 X-162.108 Y11.746 Z7.326 
N110 X-162.108 Y11.835 Z7.194 
N111 X-162.108 Y11.924 Z7.063 
N112 X-162.108 Y12.013 Z6.931 
N113 X-162.107 Y12.101 Z6.799 
N114 X-162.107 Y12.190 Z6.668 
N115 X-162.106 Y12.279 Z6.536 
N116 X-162.105 Y12.368 Z6.404 
N117 X-162.105 Y12.457 Z6.273 
N118 X-162.104 Y12.545 Z6.141 
N119 X-162.103 Y12.634 Z6.009 
N120 X-162.102 Y12.723 Z5.878 
N121 X-162.101 Y12.812 Z5.746 
N122 X-162.100 Y12.901 Z5.614 
N123 X-162.099 Y12.989 Z5.483 
N124 X-162.097 Y13.078 Z5.351 
N125 X-162.096 Y13.167 Z5.219 
N126 X-162.095 Y13.256 Z5.088 
N127 X-162.093 Y13.345 Z4.956 
N128 X-162.092 Y13.433 Z4.824 
N129 X-162.090 Y13.522 Z4.693 
N130 X-162.088 Y13.611 Z4.561 
N131 X-162.086 Y13.700 Z4.429 
N132 X-162.085 Y13.789 Z4.298 
N133 X-162.083 Y13.877 Z4.166 
N134 X-162.081 Y13.966 Z4.035 
N135 X-162.078 Y14.055 Z3.903 
N136 X-162.076 Y14.144 Z3.771 
N137 X-162.074 Y14.233 Z3.640 
N138 X-162.072 Y14.321 Z3.508 
N139 X-162.069 Y14.410 Z3.376 
N140 X-162.067 Y14.499 Z3.245 
N141 X-162.064 Y14.588 Z3.113 
N142 X-162.061 Y14.677 Z2.981 
N143 X-162.059 Y14.765 Z2.850 
N144 X-162.056 Y14.854 Z2.718 
N145 X-162.053 Y14.943 Z2.586 
N146 X-162.050 Y15.032 Z2.455 
N147 X-162.047 Y15.121 Z2.323 
N148 X-162.044 Y15.209 Z2.191 
N149 X-162.041 Y15.298 Z2.060 
N150 X-162.038 Y15.387 Z1.928 
N151 X-162.034 Y15.476 Z1.797 
N152 X-162.031 Y15.565 Z1.665 
N153 X-162.027 Y15.653 Z1.533 
N154 X-162.024 Y15.742 Z1.402 
N155 X-162.020 Y15.831 Z1.270 
N156 X-162.016 Y15.920 Z1.138 
N157 X-162.013 Y16.009 Z1.007 
N158 X-162.009 Y16.097 Z0.875 
N159 X-162.005 Y16.186 Z0.744 
N160 X-162.001 Y16.275 Z0.612 
N161 X-161.997 Y16.364 Z0.480 
N162 X-161.993 Y16.452 Z0.349 
N163 X-161.988 Y16.541 Z0.217 
N164 X-161.984 Y16.630 Z0.085 
N165 X-161.980 Y16.719 Z-0.046 
N166 X-161.975 Y16.808 Z-0.178 
N167 X-161.971 Y16.896 Z-0.309 
N168 X-161.966 Y16.985 Z-0.441 
N169 X-161.961 Y17.074 Z-0.573 
N170 X-161.956 Y17.163 Z-0.704 
N171 X-161.952 Y17.251 Z-0.836 
N172 X-161.947 Y17.340 Z-0.967 
N173 X-161.942 Y17.429 Z-1.099 
N174 X-161.936 Y17.518 Z-1.231 
N175 X-161.931 Y17.606 Z-1.362 
N176 X-161.926 Y17.695 Z-1.494 
N177 X-161.921 Y17.784 Z-1.625 
N178 X-161.915 Y17.873 Z-1.757 
N179 X-161.910 Y17.961 Z-1.889 
N180 X-161.904 Y18.050 Z-2.020 
N181 X-161.899 Y18.139 Z-2.152 
N182 X-161.893 Y18.228 Z-2.283 
N183 X-161.887 Y18.316 Z-2.415 
N184 X-161.881 Y18.405 Z-2.546 
N185 X-161.875 Y18.494 Z-2.678 
N186 X-161.869 Y18.583 Z-2.810 
N187 X-161.863 Y18.671 Z-2.941 
N188 X-161.857 Y18.760 Z-3.073 
N189 X-161.851 Y18.849 Z-3.204 
N190 X-161.845 Y18.938 Z-3.336 
N191 X-161.838 Y19.026 Z-3.467 
N192 X-161.832 Y19.115 Z-3.599 
N193 X-161.825 Y19.204 Z-3.731 
N194 X-161.819 Y19.293 Z-3.862 
N195 X-161.812 Y19.381 Z-3.994 
N196 X-161.805 Y19.470 Z-4.125 
N197 X-161.798 Y19.559 Z-4.257 
N198 X-161.791 Y19.648 Z-4.388 
N199 X-161.784 Y19.736 Z-4.520 
N200 X-161.777 Y19.825 Z-4.651 
N201 X-161.770 Y19.914 Z-4.783 
N202 X-161.763 Y20.002 Z-4.914 
N203 X-161.756 Y20.091 Z-5.046 
N204 X-161.748 Y20.180 Z-5.177 
N205 X-161.741 Y20.269 Z-5.309 
N206 X-161.733 Y20.357 Z-5.440 
N207 X-161.726 Y20.446 Z-5.572 
N208 X-161.718 Y20.535 Z-5.703 
N209 X-161.710 Y20.623 Z-5.835 
N210 X-161.702 Y20.712 Z-5.966 
N211 X-161.694 Y20.801 Z-6.098 
N212 X-161.686 Y20.889 Z-6.229 
N213 X-161.678 Y20.978 Z-6.361 
N214 X-161.670 Y21.067 Z-6.492 
N215 X-161.662 Y21.156 Z-6.624 
N216 X-161.654 Y21.244 Z-6.755 
N217 X-161.645 Y21.333 Z-6.887 
N218 X-161.637 Y21.422 Z-7.018 
N219 X-161.628 Y21.510 Z-7.150 
N220 X-161.620 Y21.599 Z-7.281 
N221 X-161.611 Y21.688 Z-7.413 
N222 X-161.602 Y21.776 Z-7.544 
N223 X-161.593 Y21.865 Z-7.676 
N224 X-161.584 Y21.954 Z-7.807 
N225 X-161.575 Y22.042 Z-7.939 
N226 X-161.566 Y22.131 Z-8.070 
N227 X-161.557 Y22.220 Z-8.202 
N228 X-161.548 Y22.308 Z-8.333 
N229 X-161.539 Y22.397 Z-8.464 
N230 X-161.529 Y22.486 Z-8.596 
N231 X-161.520 Y22.574 Z-8.727 
N232 X-161.510 Y22.663 Z-8.859 
N233 X-161.501 Y22.752 Z-8.990 
N234 X-161.491 Y22.840 Z-9.122 
N235 X-161.481 Y22.929 Z-9.253 
N236 X-161.471 Y23.017 Z-9.384 
N237 X-161.461 Y23.106 Z-9.516 
N238 X-161.451 Y23.195 Z-9.647 
N239 X-161.441 Y23.283 Z-9.779 
N240 X-161.431 Y23.372 Z-9.910 
N241 X-161.421 Y23.461 Z-10.041 
N242 X-161.411 Y23.549 Z-10.173 
N243 X-161.400 Y23.638 Z-10.304 
N244 X-161.390 Y23.726 Z-10.436 
N245 X-161.379 Y23.815 Z-10.567 
N246 X-161.369 Y23.904 Z-10.698 
N247 X-161.358 Y23.992 Z-10.830 
N248 X-161.347 Y24.081 Z-10.961 
N249 X-161.337 Y24.170 Z-11.092 
N250 X-161.326 Y24.258 Z-11.224 
N251 X-161.315 Y24.347 Z-11.355 
N252 X-161.304 Y24.435 Z-11.486 
N253 X-161.293 Y24.523 Z-11.617 
N254 X-161.282 Y24.611 Z-11.748 
N255 X-161.271 Y24.700 Z-11.878 
N256 X-161.260 Y24.788 Z-12.009 
N257 X-161.249 Y24.876 Z-12.139 
N258 X-161.238 Y24.964 Z-12.270 
N259 X-161.227 Y25.052 Z-12.401 
N260 X-161.216 Y25.140 Z-12.531 
N261 X-161.206 Y25.228 Z-12.662 
N262 X-161.195 Y25.316 Z-12.792 
N263 X-161.184 Y25.404 Z-12.923 
N264 X-161.173 Y25.492 Z-13.053 
N265 X-161.162 Y25.580 Z-13.184 
N266 X-161.151 Y25.668 Z-13.315 
N267 X-161.140 Y25.757 Z-13.445 
N268 X-161.129 Y25.845 Z-13.576 
N269 X-161.118 Y25.933 Z-13.706 
N270 X-161.107 Y26.021 Z-13.837 
N271 X-161.096 Y26.109 Z-13.968 
N272 X-161.086 Y26.197 Z-14.098 
N273 X-161.075 Y26.285 Z-14.229 
N274 X-161.064 Y26.373 Z-14.359 
N275 X-161.053 Y26.461 Z-14.490 
N276 X-161.042 Y26.549 Z-14.621 
N277 X-161.031 Y26.637 Z-14.751 
N278 X-161.020 Y26.725 Z-14.882 
N279 X-161.009 Y26.814 Z-15.012 
N280 X-160.998 Y26.902 Z-15.143 
N281 X-160.987 Y26.990 Z-15.273 
N282 X-160.976 Y27.078 Z-15.404 
N283 X-160.966 Y27.166 Z-15.535 
N284 X-160.955 Y27.254 Z-15.665 
N285 X-160.944 Y27.342 Z-15.796 
N286 X-160.933 Y27.430 Z-15.926 
N287 X-160.922 Y27.518 Z-16.057 
N288 X-160.911 Y27.606 Z-16.188 
N289 X-160.900 Y27.694 Z-16.318 
N290 X-160.889 Y27.782 Z-16.449 
N291 G40 X-160.877 Y27.897 Z-16.619 F591
N292 X-160.877 Y27.897 Z-16.619 
N293 X-160.850 Y28.159 Z-17.007 F1274 
N294 X-160.813 Y28.568 Z-17.613 F1547 
N295 X-160.781 Y28.998 Z-18.251 
N296 X-160.758 Y29.428 Z-18.889 
N297 X-160.750 Y29.859 Z-19.527 
N298 X-160.771 Y30.289 Z-20.165 
N299 X-160.861 Y30.716 Z-20.799 
N300 X-161.314 Y30.973 Z-21.179 
N301 X-161.794 Y30.642 Z-20.688 
N302 X-162.122 Y30.253 Z-20.111 
N303 X-162.385 Y29.848 Z-19.511 
N304 X-162.603 Y29.435 Z-18.899 
N305 X-162.784 Y29.019 Z-18.281 
N306 X-162.937 Y28.595 Z-17.654 
N307 X-163.063 Y28.168 Z-17.020 
N308 X-163.169 Y27.741 Z-16.387 
N309 X-163.257 Y27.315 Z-15.756 A304.0111 
N310 X-163.333 Y26.889 Z-15.125 
N311 X-163.400 Y26.463 Z-14.492 
N312 X-163.459 Y26.034 Z-13.857 
N313 X-163.511 Y25.624 Z-13.249 F1274 
N314 X-163.542 Y25.360 Z-12.857 F591 
N315 ;NNTE SemiFinishing
N316 D2 
;---> in saveDoc :0:00:00.070834
N317 G01 G41 X-163.555 Y25.242 Z-12.682 F318
N318 X-163.555 Y25.242 Z-12.682 F318 
N319 X-163.563 Y25.149 Z-12.544 
N320 X-163.572 Y25.056 Z-12.406 
N321 X-163.581 Y24.962 Z-12.268 
N322 X-163.589 Y24.869 Z-12.130 
N323 X-163.598 Y24.776 Z-11.992 
N324 X-163.607 Y24.683 Z-11.854 
N325 X-163.615 Y24.595 Z-11.723 
N326 X-163.623 Y24.507 Z-11.593 
N327 X-163.631 Y24.419 Z-11.462 
N328 X-163.639 Y24.331 Z-11.331 
N329 X-163.648 Y24.242 Z-11.200 
N330 X-163.656 Y24.154 Z-11.070 
N331 X-163.664 Y24.066 Z-10.939 
N332 X-163.672 Y23.978 Z-10.808 
N333 X-163.680 Y23.890 Z-10.677 
N334 X-163.689 Y23.801 Z-10.547 
N335 X-163.697 Y23.713 Z-10.416 
N336 X-163.705 Y23.625 Z-10.285 
N337 X-163.713 Y23.537 Z-10.155 
N338 X-163.721 Y23.449 Z-10.024 
N339 X-163.730 Y23.361 Z-9.893 
N340 X-163.738 Y23.272 Z-9.762 
N341 X-163.746 Y23.184 Z-9.632 
N342 X-163.754 Y23.096 Z-9.501 
N343 X-163.762 Y23.008 Z-9.370 
N344 X-163.771 Y22.920 Z-9.239 
N345 X-163.779 Y22.832 Z-9.109 
N346 X-163.787 Y22.743 Z-8.978 
N347 X-163.795 Y22.655 Z-8.847 
N348 X-163.803 Y22.567 Z-8.717 
N349 X-163.812 Y22.479 Z-8.586 
N350 X-163.820 Y22.391 Z-8.455 
N351 X-163.828 Y22.303 Z-8.324 
N352 X-163.836 Y22.214 Z-8.194 
N353 X-163.845 Y22.126 Z-8.063 
N354 X-163.853 Y22.038 Z-7.932 
N355 X-163.861 Y21.950 Z-7.802 
N356 X-163.869 Y21.862 Z-7.671 
N357 X-163.877 Y21.773 Z-7.540 
N358 X-163.886 Y21.685 Z-7.409 
N359 X-163.894 Y21.597 Z-7.279 
N360 X-163.902 Y21.509 Z-7.148 
N361 X-163.910 Y21.421 Z-7.017 
N362 X-163.918 Y21.333 Z-6.886 
N363 X-163.927 Y21.244 Z-6.755 
N364 X-163.935 Y21.155 Z-6.623 
N365 X-163.943 Y21.066 Z-6.492 
N366 X-163.951 Y20.978 Z-6.360 
N367 X-163.959 Y20.889 Z-6.229 
N368 X-163.967 Y20.800 Z-6.097 
N369 X-163.975 Y20.711 Z-5.966 
N370 X-163.983 Y20.623 Z-5.834 
N371 X-163.991 Y20.534 Z-5.702 
N372 X-163.998 Y20.445 Z-5.571 
N373 X-164.006 Y20.356 Z-5.439 
N374 X-164.013 Y20.268 Z-5.308 
N375 X-164.021 Y20.179 Z-5.176 
N376 X-164.028 Y20.090 Z-5.044 
N377 X-164.035 Y20.001 Z-4.913 
N378 X-164.042 Y19.913 Z-4.781 
N379 X-164.050 Y19.824 Z-4.650 
N380 X-164.057 Y19.735 Z-4.518 
N381 X-164.064 Y19.646 Z-4.386 
N382 X-164.070 Y19.558 Z-4.255 
N383 X-164.077 Y19.469 Z-4.123 
N384 X-164.084 Y19.380 Z-3.992 
N385 X-164.091 Y19.291 Z-3.860 
N386 X-164.097 Y19.202 Z-3.728 
N387 X-164.104 Y19.114 Z-3.597 
N388 X-164.110 Y19.025 Z-3.465 
N389 X-164.117 Y18.936 Z-3.334 
N390 X-164.123 Y18.847 Z-3.202 
N391 X-164.129 Y18.759 Z-3.070 
N392 X-164.135 Y18.670 Z-2.939 
N393 X-164.141 Y18.581 Z-2.807 
N394 X-164.147 Y18.492 Z-2.675 
N395 X-164.153 Y18.403 Z-2.544 
N396 X-164.159 Y18.315 Z-2.412 
N397 X-164.165 Y18.226 Z-2.280 
N398 X-164.170 Y18.137 Z-2.149 
N399 X-164.176 Y18.048 Z-2.017 
N400 X-164.181 Y17.959 Z-1.885 
N401 X-164.187 Y17.871 Z-1.754 
N402 X-164.192 Y17.782 Z-1.622 
N403 X-164.197 Y17.693 Z-1.491 
N404 X-164.203 Y17.604 Z-1.359 
N405 X-164.208 Y17.515 Z-1.227 
N406 X-164.213 Y17.427 Z-1.096 
N407 X-164.218 Y17.338 Z-0.964 
N408 X-164.223 Y17.249 Z-0.832 
N409 X-164.228 Y17.160 Z-0.701 
N410 X-164.232 Y17.071 Z-0.569 
N411 X-164.237 Y16.983 Z-0.437 
N412 X-164.242 Y16.894 Z-0.306 
N413 X-164.246 Y16.805 Z-0.174 
N414 X-164.251 Y16.716 Z-0.042 
N415 X-164.255 Y16.627 Z0.090 
N416 X-164.259 Y16.538 Z0.221 
N417 X-164.263 Y16.450 Z0.353 
N418 X-164.268 Y16.361 Z0.485 
N419 X-164.272 Y16.272 Z0.616 
N420 X-164.276 Y16.183 Z0.748 
N421 X-164.280 Y16.094 Z0.880 
N422 X-164.283 Y16.005 Z1.011 
N423 X-164.287 Y15.917 Z1.143 
N424 X-164.291 Y15.828 Z1.275 
N425 X-164.294 Y15.739 Z1.406 
N426 X-164.298 Y15.650 Z1.538 
N427 X-164.301 Y15.561 Z1.670 
N428 X-164.305 Y15.472 Z1.802 
N429 X-164.308 Y15.384 Z1.933 
N430 X-164.311 Y15.295 Z2.065 
N431 X-164.315 Y15.206 Z2.197 
N432 X-164.318 Y15.117 Z2.328 
N433 X-164.321 Y15.028 Z2.460 
N434 X-164.324 Y14.939 Z2.592 
N435 X-164.326 Y14.851 Z2.723 
N436 X-164.329 Y14.762 Z2.855 
N437 X-164.332 Y14.673 Z2.987 
N438 X-164.335 Y14.584 Z3.119 
N439 X-164.337 Y14.495 Z3.250 
N440 X-164.340 Y14.406 Z3.382 
N441 X-164.342 Y14.318 Z3.514 
N442 X-164.344 Y14.229 Z3.645 
N443 X-164.347 Y14.140 Z3.777 
N444 X-164.349 Y14.051 Z3.909 
N445 X-164.351 Y13.962 Z4.041 
N446 X-164.353 Y13.873 Z4.172 
N447 X-164.355 Y13.784 Z4.304 
N448 X-164.357 Y13.696 Z4.436 
N449 X-164.358 Y13.607 Z4.568 
N450 X-164.360 Y13.518 Z4.699 
N451 X-164.362 Y13.429 Z4.831 
N452 X-164.363 Y13.340 Z4.963 
N453 X-164.365 Y13.251 Z5.094 
N454 X-164.366 Y13.163 Z5.226 
N455 X-164.368 Y13.074 Z5.358 
N456 X-164.369 Y12.985 Z5.490 
N457 X-164.370 Y12.896 Z5.621 
N458 X-164.371 Y12.807 Z5.753 
N459 X-164.372 Y12.718 Z5.885 
N460 X-164.373 Y12.629 Z6.016 
N461 X-164.374 Y12.541 Z6.148 
N462 X-164.375 Y12.452 Z6.280 
N463 X-164.375 Y12.363 Z6.412 
N464 X-164.376 Y12.274 Z6.543 
N465 X-164.377 Y12.185 Z6.675 
N466 X-164.377 Y12.096 Z6.807 
N467 X-164.378 Y12.007 Z6.939 
N468 X-164.378 Y11.919 Z7.070 
N469 X-164.378 Y11.830 Z7.202 
N470 X-164.378 Y11.741 Z7.334 
N471 X-164.378 Y11.652 Z7.466 
N472 X-164.379 Y11.563 Z7.597 
N473 X-164.378 Y11.474 Z7.729 
N474 X-164.378 Y11.385 Z7.861 
N475 X-164.378 Y11.297 Z7.992 
N476 X-164.378 Y11.208 Z8.124 
N477 X-164.378 Y11.119 Z8.256 
N478 X-164.377 Y11.030 Z8.388 
N479 X-164.377 Y10.941 Z8.519 
N480 X-164.376 Y10.852 Z8.651 
N481 X-164.375 Y10.764 Z8.783 
N482 X-164.375 Y10.675 Z8.915 
N483 X-164.374 Y10.586 Z9.046 
N484 X-164.373 Y10.497 Z9.178 
N485 X-164.372 Y10.408 Z9.310 
N486 X-164.371 Y10.319 Z9.441 
N487 X-164.370 Y10.230 Z9.573 
N488 X-164.369 Y10.142 Z9.705 
N489 X-164.367 Y10.053 Z9.837 
N490 X-164.366 Y9.964 Z9.968 
N491 X-164.365 Y9.875 Z10.100 
N492 X-164.363 Y9.786 Z10.232 
N493 X-164.362 Y9.697 Z10.364 
N494 X-164.360 Y9.608 Z10.495 
N495 X-164.358 Y9.520 Z10.627 
N496 X-164.357 Y9.431 Z10.759 
N497 X-164.355 Y9.342 Z10.890 
N498 X-164.353 Y9.253 Z11.022 
N499 X-164.351 Y9.164 Z11.154 
N500 X-164.349 Y9.075 Z11.286 
N501 X-164.346 Y8.987 Z11.417 
N502 X-164.344 Y8.898 Z11.549 
N503 X-164.342 Y8.809 Z11.681 
N504 X-164.339 Y8.720 Z11.812 
N505 X-164.337 Y8.631 Z11.944 
N506 X-164.334 Y8.542 Z12.076 
N507 X-164.332 Y8.453 Z12.208 
N508 X-164.329 Y8.365 Z12.339 
N509 X-164.326 Y8.276 Z12.471 
N510 X-164.323 Y8.187 Z12.603 
N511 X-164.321 Y8.098 Z12.734 
N512 X-164.318 Y8.009 Z12.866 
N513 X-164.314 Y7.920 Z12.998 
N514 X-164.311 Y7.832 Z13.130 
N515 X-164.308 Y7.743 Z13.261 
N516 X-164.305 Y7.654 Z13.393 
N517 X-164.301 Y7.565 Z13.525 
N518 X-164.298 Y7.476 Z13.656 
N519 X-164.294 Y7.387 Z13.788 
N520 X-164.291 Y7.299 Z13.920 
N521 X-164.287 Y7.210 Z14.051 
N522 X-164.284 Y7.122 Z14.182 
N523 X-164.280 Y7.034 Z14.312 
N524 X-164.277 Y6.946 Z14.443 
N525 X-164.273 Y6.857 Z14.574 
N526 X-164.270 Y6.769 Z14.705 
N527 X-164.266 Y6.681 Z14.836 
N528 X-164.263 Y6.592 Z14.967 
N529 X-164.259 Y6.504 Z15.098 
N530 X-164.255 Y6.416 Z15.228 
N531 X-164.252 Y6.328 Z15.359 
N532 X-164.248 Y6.239 Z15.490 
N533 X-164.245 Y6.151 Z15.621 
N534 X-164.241 Y6.063 Z15.752 
N535 X-164.238 Y5.975 Z15.883 
N536 X-164.234 Y5.886 Z16.014 
N537 X-164.231 Y5.798 Z16.145 
N538 X-164.227 Y5.710 Z16.275 
N539 X-164.224 Y5.621 Z16.406 
N540 X-164.220 Y5.533 Z16.537 
N541 X-164.217 Y5.445 Z16.668 
N542 X-164.213 Y5.357 Z16.799 
N543 X-164.210 Y5.268 Z16.930 
N544 X-164.206 Y5.180 Z17.061 
N545 X-164.202 Y5.092 Z17.191 
N546 X-164.199 Y5.004 Z17.322 
N547 X-164.195 Y4.915 Z17.453 
N548 X-164.192 Y4.827 Z17.584 
N549 X-164.188 Y4.739 Z17.715 
N550 X-164.185 Y4.650 Z17.846 
N551 X-164.181 Y4.562 Z17.977 
N552 X-164.178 Y4.474 Z18.108 
N553 X-164.174 Y4.386 Z18.238 
N554 X-164.171 Y4.297 Z18.369 
N555 X-164.167 Y4.209 Z18.500 
N556 X-164.164 Y4.121 Z18.631 
N557 X-164.160 Y4.033 Z18.762 
N558 X-164.157 Y3.944 Z18.893 
N559 G40 X-163.933 Y-1.646 Z27.181 F318
N560 X-163.933 Y-1.646 Z27.181 
N561 G00 X-163.932 Y39.796 Z55.155 
RAPORT("TA000001","Side Milling:109 End")
;trailer : concat=None
; points cnt = 510
N563 MSG (" --- GROUPED OF SUBPROGRAM --- ")
N564 FGROUP()
N565 TRAFOOF
; PROGRAM NAME: A00000147
; ORDER       : A000001
; OPER. NAME  : Side Milling:110
; OPER. DESCR.: HHU finish milling NGE
; OPER. TYPE  : sideMill
; GEO. OPTION : 3
; MACHINE     : HSTM_300_SIM840D_Py
;             : HSTM300/500 - HAMUEL: 5-axis milling machine-SIM840D Traori PP_Script
; CONTROL     : SINUMERIK 840D
; created:   2021-11-15 09:09:24.487154
;-------DODATKOWE DANE-------------------
; PROGRAMISTA : Mariusz Malec
; PARTID      : 138T005360P1002_-
;  ap         : 26.0
;  ae         : 9.6
;  lean_angle : 0.02
;  fin_offset : 0.03
;----------------------------------------
RAPORT("TA000001","Side Milling:110")
N10 TRAFOOF
N11 D0
N12 G90 G94
N13 G0 G53 D0 Z550
N14 STOPRE
M9 ; chlodziwo wyl
; --- Side Milling:110 - HHU finish milling NGE ---
N16 ;ToolChange : concat=None ,current_tdmid=None, PP.tdmId=940680
N17 TRAFOOF
N18 G0 G53 D0 Z550 B0
N19 STOPRE
N20 MSG(" TLID=940680 D=12.0 R=3.2 Ang=0.0 Len=123.0 ")
N21 S2652 M03
N22 STOPRE
N23 TOL(0.1,1,1)
N24 G0 G53 A303.9800 B-0.0001
N25 TRAORI
N26 G54 D1
;tol5=0.03
N27 D1 
;---> in saveDoc :0:00:00.072177
STOPRE
E_ZDARZ=300010
;ACS_FINISH_SLOT=7740680
STOPRE
;UWAGA : ZMIENIONA TOLERANCJA OSI A i B, ruchy osi A i B beda usuniete : TOL5=0.03
N28 ; DELTA A > 40.1
N29 TRAFOOF
N30 D1
N31 STOPRE
N32 G00 G54 Z263.000
N33 G01 A303.9800 F10000
N34 TRAORI
N35 G54 D1
N36 STOPRE
N37 TRANS 
N38 G00 X-161.963 Y50.685 Z56.948 A303.9800 
N39 M342 ; chlodziwo woda
N40 X-161.963 Y9.223 Z29.003 
N41 G01 X-161.966 Y6.935 Z26.869 F318 
N42 X-161.974 Y5.418 Z24.133 
N43 X-161.987 Y4.821 Z21.062 
N44 X-162.003 Y5.203 Z17.956 
N45 ;NTE Finishing
N46 D1 
;---> in saveDoc :0:00:00.070823
N47 G01 G41 X-162.021 Y6.525 Z15.121 F318
N48 X-162.021 Y6.525 Z15.121 
N49 X-162.022 Y6.618 Z14.983 
N50 X-162.023 Y6.711 Z14.844 
N51 X-162.024 Y6.804 Z14.706 
N52 X-162.025 Y6.898 Z14.568 
N53 X-162.026 Y6.991 Z14.430 
N54 X-162.027 Y7.084 Z14.292 
N55 X-162.028 Y7.172 Z14.161 
N56 X-162.029 Y7.261 Z14.030 
N57 X-162.030 Y7.349 Z13.899 
N58 X-162.031 Y7.437 Z13.768 
N59 X-162.032 Y7.525 Z13.637 
N60 X-162.033 Y7.614 Z13.506 
N61 X-162.034 Y7.702 Z13.375 
N62 X-162.035 Y7.790 Z13.245 
N63 X-162.035 Y7.879 Z13.114 
N64 X-162.036 Y7.967 Z12.983 
N65 X-162.037 Y8.055 Z12.852 
N66 X-162.038 Y8.143 Z12.721 
N67 X-162.039 Y8.232 Z12.590 
N68 X-162.040 Y8.320 Z12.459 
N69 X-162.041 Y8.408 Z12.328 
N70 X-162.042 Y8.497 Z12.197 
N71 X-162.043 Y8.585 Z12.066 
N72 X-162.044 Y8.673 Z11.936 
N73 X-162.045 Y8.761 Z11.805 
N74 X-162.046 Y8.850 Z11.674 
N75 X-162.046 Y8.938 Z11.543 
N76 X-162.047 Y9.026 Z11.412 
N77 X-162.048 Y9.115 Z11.281 
N78 X-162.049 Y9.203 Z11.150 
N79 X-162.050 Y9.291 Z11.019 
N80 X-162.051 Y9.380 Z10.888 
N81 X-162.052 Y9.468 Z10.757 
N82 X-162.053 Y9.556 Z10.627 
N83 X-162.054 Y9.644 Z10.496 
N84 X-162.055 Y9.733 Z10.365 
N85 X-162.056 Y9.821 Z10.234 
N86 X-162.057 Y9.909 Z10.103 
N87 X-162.058 Y9.998 Z9.972 
N88 X-162.058 Y10.086 Z9.841 
N89 X-162.059 Y10.174 Z9.710 
N90 X-162.060 Y10.262 Z9.579 
N91 X-162.061 Y10.351 Z9.448 
N92 X-162.062 Y10.439 Z9.318 
N93 X-162.063 Y10.528 Z9.186 
N94 X-162.064 Y10.617 Z9.054 
N95 X-162.065 Y10.705 Z8.923 
N96 X-162.065 Y10.794 Z8.791 
N97 X-162.066 Y10.883 Z8.659 
N98 X-162.067 Y10.972 Z8.528 
N99 X-162.067 Y11.061 Z8.396 
N100 X-162.068 Y11.149 Z8.264 
N101 X-162.068 Y11.238 Z8.133 
N102 X-162.068 Y11.327 Z8.001 
N103 X-162.068 Y11.416 Z7.869 
N104 X-162.068 Y11.505 Z7.738 
N105 X-162.069 Y11.593 Z7.606 
N106 X-162.068 Y11.682 Z7.475 
N107 X-162.068 Y11.771 Z7.343 
N108 X-162.068 Y11.860 Z7.211 
N109 X-162.068 Y11.949 Z7.080 
N110 X-162.068 Y12.037 Z6.948 
N111 X-162.067 Y12.126 Z6.816 
N112 X-162.067 Y12.215 Z6.685 
N113 X-162.066 Y12.304 Z6.553 
N114 X-162.065 Y12.393 Z6.421 
N115 X-162.065 Y12.481 Z6.290 
N116 X-162.064 Y12.570 Z6.158 
N117 X-162.063 Y12.659 Z6.026 
N118 X-162.062 Y12.748 Z5.895 
N119 X-162.061 Y12.837 Z5.763 
N120 X-162.060 Y12.925 Z5.631 
N121 X-162.059 Y13.014 Z5.500 
N122 X-162.057 Y13.103 Z5.368 
N123 X-162.056 Y13.192 Z5.237 
N124 X-162.055 Y13.281 Z5.105 
N125 X-162.053 Y13.369 Z4.973 
N126 X-162.052 Y13.458 Z4.842 
N127 X-162.050 Y13.547 Z4.710 
N128 X-162.048 Y13.636 Z4.578 
N129 X-162.046 Y13.724 Z4.447 
N130 X-162.045 Y13.813 Z4.315 
N131 X-162.043 Y13.902 Z4.183 
N132 X-162.041 Y13.991 Z4.052 
N133 X-162.038 Y14.080 Z3.920 
N134 X-162.036 Y14.168 Z3.788 
N135 X-162.034 Y14.257 Z3.657 
N136 X-162.032 Y14.346 Z3.525 
N137 X-162.029 Y14.435 Z3.394 
N138 X-162.027 Y14.524 Z3.262 
N139 X-162.024 Y14.612 Z3.130 
N140 X-162.021 Y14.701 Z2.999 
N141 X-162.019 Y14.790 Z2.867 
N142 X-162.016 Y14.879 Z2.735 
N143 X-162.013 Y14.968 Z2.604 
N144 X-162.010 Y15.056 Z2.472 
N145 X-162.007 Y15.145 Z2.341 
N146 X-162.004 Y15.234 Z2.209 
N147 X-162.001 Y15.323 Z2.077 
N148 X-161.998 Y15.411 Z1.946 
N149 X-161.994 Y15.500 Z1.814 
N150 X-161.991 Y15.589 Z1.682 
N151 X-161.987 Y15.678 Z1.551 
N152 X-161.984 Y15.767 Z1.419 
N153 X-161.980 Y15.855 Z1.288 
N154 X-161.976 Y15.944 Z1.156 
N155 X-161.973 Y16.033 Z1.024 
N156 X-161.969 Y16.122 Z0.893 
N157 X-161.965 Y16.210 Z0.761 
N158 X-161.961 Y16.299 Z0.630 
N159 X-161.957 Y16.388 Z0.498 
N160 X-161.953 Y16.477 Z0.366 
N161 X-161.948 Y16.565 Z0.235 
N162 X-161.944 Y16.654 Z0.103 
N163 X-161.940 Y16.743 Z-0.028 
N164 X-161.935 Y16.832 Z-0.160 
N165 X-161.931 Y16.921 Z-0.292 
N166 X-161.926 Y17.009 Z-0.423 
N167 X-161.921 Y17.098 Z-0.555 
N168 X-161.916 Y17.187 Z-0.686 
N169 X-161.912 Y17.276 Z-0.818 
N170 X-161.907 Y17.364 Z-0.950 
N171 X-161.902 Y17.453 Z-1.081 
N172 X-161.896 Y17.542 Z-1.213 
N173 X-161.891 Y17.631 Z-1.344 
N174 X-161.886 Y17.719 Z-1.476 
N175 X-161.881 Y17.808 Z-1.607 
N176 X-161.875 Y17.897 Z-1.739 
N177 X-161.870 Y17.986 Z-1.871 
N178 X-161.864 Y18.074 Z-2.002 
N179 X-161.859 Y18.163 Z-2.134 
N180 X-161.853 Y18.252 Z-2.265 
N181 X-161.847 Y18.341 Z-2.397 
N182 X-161.841 Y18.429 Z-2.528 
N183 X-161.835 Y18.518 Z-2.660 
N184 X-161.829 Y18.607 Z-2.792 
N185 X-161.823 Y18.695 Z-2.923 
N186 X-161.817 Y18.784 Z-3.055 
N187 X-161.811 Y18.873 Z-3.186 
N188 X-161.805 Y18.962 Z-3.318 
N189 X-161.798 Y19.050 Z-3.449 
N190 X-161.792 Y19.139 Z-3.581 
N191 X-161.785 Y19.228 Z-3.712 
N192 X-161.779 Y19.317 Z-3.844 
N193 X-161.772 Y19.405 Z-3.975 
N194 X-161.765 Y19.494 Z-4.107 
N195 X-161.758 Y19.583 Z-4.238 
N196 X-161.751 Y19.671 Z-4.370 
N197 X-161.744 Y19.760 Z-4.502 
N198 X-161.737 Y19.849 Z-4.633 
N199 X-161.730 Y19.938 Z-4.765 
N200 X-161.723 Y20.026 Z-4.896 
N201 X-161.716 Y20.115 Z-5.028 
N202 X-161.708 Y20.204 Z-5.159 
N203 X-161.701 Y20.292 Z-5.291 
N204 X-161.693 Y20.381 Z-5.422 
N205 X-161.686 Y20.470 Z-5.554 
N206 X-161.678 Y20.558 Z-5.685 
N207 X-161.670 Y20.647 Z-5.817 
N208 X-161.662 Y20.736 Z-5.948 
N209 X-161.654 Y20.825 Z-6.080 
N210 X-161.646 Y20.913 Z-6.211 
N211 X-161.638 Y21.002 Z-6.343 
N212 X-161.630 Y21.091 Z-6.474 
N213 X-161.622 Y21.179 Z-6.605 
N214 X-161.614 Y21.268 Z-6.737 
N215 X-161.605 Y21.357 Z-6.868 
N216 X-161.597 Y21.445 Z-7.000 
N217 X-161.588 Y21.534 Z-7.131 
N218 X-161.580 Y21.623 Z-7.263 
N219 X-161.571 Y21.711 Z-7.394 
N220 X-161.562 Y21.800 Z-7.526 
N221 X-161.553 Y21.889 Z-7.657 
N222 X-161.544 Y21.977 Z-7.789 
N223 X-161.535 Y22.066 Z-7.920 
N224 X-161.526 Y22.155 Z-8.051 
N225 X-161.517 Y22.243 Z-8.183 
N226 X-161.508 Y22.332 Z-8.314 
N227 X-161.499 Y22.421 Z-8.446 
N228 X-161.489 Y22.509 Z-8.577 
N229 X-161.480 Y22.598 Z-8.709 
N230 X-161.470 Y22.686 Z-8.840 
N231 X-161.461 Y22.775 Z-8.971 
N232 X-161.451 Y22.864 Z-9.103 
N233 X-161.441 Y22.952 Z-9.234 
N234 X-161.431 Y23.041 Z-9.366 
N235 X-161.422 Y23.130 Z-9.497 
N236 X-161.412 Y23.218 Z-9.628 
N237 X-161.402 Y23.307 Z-9.760 
N238 X-161.391 Y23.395 Z-9.891 
N239 X-161.381 Y23.484 Z-10.022 
N240 X-161.371 Y23.573 Z-10.154 
N241 X-161.361 Y23.661 Z-10.285 
N242 X-161.350 Y23.750 Z-10.417 
N243 X-161.340 Y23.838 Z-10.548 
N244 X-161.329 Y23.927 Z-10.679 
N245 X-161.318 Y24.016 Z-10.811 
N246 X-161.307 Y24.104 Z-10.942 
N247 X-161.297 Y24.193 Z-11.073 
N248 X-161.286 Y24.281 Z-11.205 
N249 X-161.275 Y24.370 Z-11.336 
N250 X-161.264 Y24.459 Z-11.467 
N251 X-161.253 Y24.547 Z-11.598 
N252 X-161.242 Y24.635 Z-11.729 
N253 X-161.231 Y24.723 Z-11.859 
N254 X-161.220 Y24.811 Z-11.990 
N255 X-161.209 Y24.899 Z-12.120 
N256 X-161.198 Y24.987 Z-12.251 
N257 X-161.187 Y25.075 Z-12.381 
N258 X-161.177 Y25.163 Z-12.512 
N259 X-161.166 Y25.251 Z-12.643 
N260 X-161.155 Y25.339 Z-12.773 
N261 X-161.144 Y25.428 Z-12.904 
N262 X-161.133 Y25.516 Z-13.034 
N263 X-161.122 Y25.604 Z-13.165 
N264 X-161.111 Y25.692 Z-13.296 
N265 X-161.100 Y25.780 Z-13.426 
N266 X-161.089 Y25.868 Z-13.557 
N267 X-161.078 Y25.956 Z-13.687 
N268 X-161.067 Y26.044 Z-13.818 
N269 X-161.057 Y26.132 Z-13.949 
N270 X-161.046 Y26.220 Z-14.079 
N271 X-161.035 Y26.308 Z-14.210 
N272 X-161.024 Y26.396 Z-14.340 
N273 X-161.013 Y26.485 Z-14.471 
N274 X-161.002 Y26.573 Z-14.601 
N275 X-160.991 Y26.661 Z-14.732 
N276 X-160.980 Y26.749 Z-14.863 
N277 X-160.969 Y26.837 Z-14.993 
N278 X-160.958 Y26.925 Z-15.124 
N279 X-160.947 Y27.013 Z-15.254 
N280 X-160.937 Y27.101 Z-15.385 
N281 X-160.926 Y27.189 Z-15.516 
N282 X-160.915 Y27.277 Z-15.646 
N283 X-160.904 Y27.365 Z-15.777 
N284 X-160.893 Y27.453 Z-15.907 
N285 X-160.882 Y27.542 Z-16.038 
N286 X-160.871 Y27.630 Z-16.169 
N287 X-160.860 Y27.718 Z-16.299 
N288 X-160.849 Y27.806 Z-16.430 
N289 G40 X-160.837 Y27.921 Z-16.600 F591
N290 X-160.837 Y27.921 Z-16.600 
N291 X-160.810 Y28.183 Z-16.989 F1276 
N292 X-160.773 Y28.593 Z-17.597 F1549 
N293 X-160.741 Y29.024 Z-18.236 
N294 X-160.719 Y29.455 Z-18.875 
N295 X-160.713 Y29.886 Z-19.514 
N296 X-160.736 Y30.318 Z-20.154 
N297 X-160.832 Y30.745 Z-20.787 
N298 X-161.298 Y30.998 Z-21.162 
N299 X-161.790 Y30.671 Z-20.678 
N300 X-162.128 Y30.284 Z-20.104 
N301 X-162.399 Y29.880 Z-19.505 
N302 X-162.624 Y29.467 Z-18.893 
N303 X-162.810 Y29.051 Z-18.275 
N304 X-162.967 Y28.627 Z-17.647 
N305 X-163.097 Y28.200 Z-17.014 
N306 X-163.204 Y27.772 Z-16.380 
N307 X-163.294 Y27.345 Z-15.747 A304.0111 
N308 X-163.372 Y26.919 Z-15.115 
N309 X-163.439 Y26.491 Z-14.481 
N310 X-163.499 Y26.062 Z-13.844 
N311 X-163.551 Y25.651 Z-13.235 F1276 
N312 X-163.582 Y25.386 Z-12.842 F591 
N313 ;NNTE Finishing
N314 D2 
;---> in saveDoc :0:00:00.082124
N315 G01 G41 X-163.595 Y25.268 Z-12.667 F318
N316 X-163.595 Y25.268 Z-12.667 F318 
N317 X-163.603 Y25.175 Z-12.529 
N318 X-163.612 Y25.082 Z-12.391 
N319 X-163.621 Y24.988 Z-12.253 
N320 X-163.629 Y24.895 Z-12.115 
N321 X-163.638 Y24.802 Z-11.977 
N322 X-163.646 Y24.709 Z-11.839 
N323 X-163.655 Y24.621 Z-11.708 
N324 X-163.663 Y24.533 Z-11.577 
N325 X-163.671 Y24.445 Z-11.447 
N326 X-163.679 Y24.357 Z-11.316 
N327 X-163.688 Y24.268 Z-11.185 
N328 X-163.696 Y24.180 Z-11.055 
N329 X-163.704 Y24.092 Z-10.924 
N330 X-163.712 Y24.004 Z-10.793 
N331 X-163.720 Y23.916 Z-10.662 
N332 X-163.729 Y23.828 Z-10.532 
N333 X-163.737 Y23.739 Z-10.401 
N334 X-163.745 Y23.651 Z-10.270 
N335 X-163.753 Y23.563 Z-10.140 
N336 X-163.761 Y23.475 Z-10.009 
N337 X-163.770 Y23.387 Z-9.878 
N338 X-163.778 Y23.298 Z-9.747 
N339 X-163.786 Y23.210 Z-9.617 
N340 X-163.794 Y23.122 Z-9.486 
N341 X-163.802 Y23.034 Z-9.355 
N342 X-163.811 Y22.946 Z-9.224 
N343 X-163.819 Y22.858 Z-9.094 
N344 X-163.827 Y22.769 Z-8.963 
N345 X-163.835 Y22.681 Z-8.832 
N346 X-163.843 Y22.593 Z-8.702 
N347 X-163.852 Y22.505 Z-8.571 
N348 X-163.860 Y22.417 Z-8.440 
N349 X-163.868 Y22.329 Z-8.309 
N350 X-163.876 Y22.240 Z-8.179 
N351 X-163.884 Y22.152 Z-8.048 
N352 X-163.893 Y22.064 Z-7.917 
N353 X-163.901 Y21.976 Z-7.786 
N354 X-163.909 Y21.888 Z-7.656 
N355 X-163.917 Y21.800 Z-7.525 
N356 X-163.926 Y21.711 Z-7.394 
N357 X-163.934 Y21.623 Z-7.264 
N358 X-163.942 Y21.535 Z-7.133 
N359 X-163.950 Y21.447 Z-7.002 
N360 X-163.958 Y21.359 Z-6.871 
N361 X-163.967 Y21.270 Z-6.740 
N362 X-163.975 Y21.181 Z-6.608 
N363 X-163.983 Y21.092 Z-6.477 
N364 X-163.991 Y21.004 Z-6.345 
N365 X-163.999 Y20.915 Z-6.214 
N366 X-164.007 Y20.826 Z-6.082 
N367 X-164.015 Y20.737 Z-5.950 
N368 X-164.023 Y20.649 Z-5.819 
N369 X-164.031 Y20.560 Z-5.687 
N370 X-164.038 Y20.471 Z-5.556 
N371 X-164.046 Y20.382 Z-5.424 
N372 X-164.053 Y20.294 Z-5.292 
N373 X-164.061 Y20.205 Z-5.161 
N374 X-164.068 Y20.116 Z-5.029 
N375 X-164.075 Y20.027 Z-4.898 
N376 X-164.082 Y19.939 Z-4.766 
N377 X-164.089 Y19.850 Z-4.634 
N378 X-164.097 Y19.761 Z-4.503 
N379 X-164.104 Y19.672 Z-4.371 
N380 X-164.110 Y19.583 Z-4.240 
N381 X-164.117 Y19.495 Z-4.108 
N382 X-164.124 Y19.406 Z-3.976 
N383 X-164.131 Y19.317 Z-3.845 
N384 X-164.137 Y19.228 Z-3.713 
N385 X-164.144 Y19.139 Z-3.581 
N386 X-164.150 Y19.051 Z-3.450 
N387 X-164.156 Y18.962 Z-3.318 
N388 X-164.163 Y18.873 Z-3.186 
N389 X-164.169 Y18.784 Z-3.055 
N390 X-164.175 Y18.695 Z-2.923 
N391 X-164.181 Y18.607 Z-2.791 
N392 X-164.187 Y18.518 Z-2.660 
N393 X-164.193 Y18.429 Z-2.528 
N394 X-164.199 Y18.340 Z-2.397 
N395 X-164.205 Y18.251 Z-2.265 
N396 X-164.210 Y18.163 Z-2.133 
N397 X-164.216 Y18.074 Z-2.002 
N398 X-164.221 Y17.985 Z-1.870 
N399 X-164.227 Y17.896 Z-1.738 
N400 X-164.232 Y17.807 Z-1.607 
N401 X-164.237 Y17.719 Z-1.475 
N402 X-164.243 Y17.630 Z-1.343 
N403 X-164.248 Y17.541 Z-1.211 
N404 X-164.253 Y17.452 Z-1.080 
N405 X-164.258 Y17.363 Z-0.948 
N406 X-164.263 Y17.275 Z-0.816 
N407 X-164.268 Y17.186 Z-0.685 
N408 X-164.272 Y17.097 Z-0.553 
N409 X-164.277 Y17.008 Z-0.421 
N410 X-164.282 Y16.919 Z-0.290 
N411 X-164.286 Y16.830 Z-0.158 
N412 X-164.291 Y16.742 Z-0.026 
N413 X-164.295 Y16.653 Z0.105 
N414 X-164.299 Y16.564 Z0.237 
N415 X-164.303 Y16.475 Z0.369 
N416 X-164.308 Y16.386 Z0.500 
N417 X-164.312 Y16.297 Z0.632 
N418 X-164.316 Y16.209 Z0.764 
N419 X-164.320 Y16.120 Z0.896 
N420 X-164.323 Y16.031 Z1.027 
N421 X-164.327 Y15.942 Z1.159 
N422 X-164.331 Y15.853 Z1.291 
N423 X-164.334 Y15.764 Z1.422 
N424 X-164.338 Y15.676 Z1.554 
N425 X-164.341 Y15.587 Z1.686 
N426 X-164.345 Y15.498 Z1.818 
N427 X-164.348 Y15.409 Z1.949 
N428 X-164.351 Y15.320 Z2.081 
N429 X-164.355 Y15.231 Z2.213 
N430 X-164.358 Y15.142 Z2.344 
N431 X-164.361 Y15.054 Z2.476 
N432 X-164.364 Y14.965 Z2.608 
N433 X-164.366 Y14.876 Z2.740 
N434 X-164.369 Y14.787 Z2.871 
N435 X-164.372 Y14.698 Z3.003 
N436 X-164.375 Y14.609 Z3.135 
N437 X-164.377 Y14.520 Z3.267 
N438 X-164.380 Y14.432 Z3.398 
N439 X-164.382 Y14.343 Z3.530 
N440 X-164.384 Y14.254 Z3.662 
N441 X-164.387 Y14.165 Z3.793 
N442 X-164.389 Y14.076 Z3.925 
N443 X-164.391 Y13.987 Z4.057 
N444 X-164.393 Y13.898 Z4.189 
N445 X-164.395 Y13.810 Z4.320 
N446 X-164.397 Y13.721 Z4.452 
N447 X-164.398 Y13.632 Z4.584 
N448 X-164.400 Y13.543 Z4.716 
N449 X-164.402 Y13.454 Z4.847 
N450 X-164.403 Y13.365 Z4.979 
N451 X-164.405 Y13.276 Z5.111 
N452 X-164.406 Y13.188 Z5.243 
N453 X-164.408 Y13.099 Z5.374 
N454 X-164.409 Y13.010 Z5.506 
N455 X-164.410 Y12.921 Z5.638 
N456 X-164.411 Y12.832 Z5.770 
N457 X-164.412 Y12.743 Z5.901 
N458 X-164.413 Y12.654 Z6.033 
N459 X-164.414 Y12.566 Z6.165 
N460 X-164.415 Y12.477 Z6.297 
N461 X-164.415 Y12.388 Z6.428 
N462 X-164.416 Y12.299 Z6.560 
N463 X-164.417 Y12.210 Z6.692 
N464 X-164.417 Y12.121 Z6.824 
N465 X-164.418 Y12.032 Z6.955 
N466 X-164.418 Y11.944 Z7.087 
N467 X-164.418 Y11.855 Z7.219 
N468 X-164.418 Y11.766 Z7.351 
N469 X-164.418 Y11.677 Z7.482 
N470 X-164.419 Y11.588 Z7.614 
N471 X-164.418 Y11.499 Z7.746 
N472 X-164.418 Y11.410 Z7.878 
N473 X-164.418 Y11.321 Z8.009 
N474 X-164.418 Y11.233 Z8.141 
N475 X-164.418 Y11.144 Z8.273 
N476 X-164.417 Y11.055 Z8.405 
N477 X-164.417 Y10.966 Z8.536 
N478 X-164.416 Y10.877 Z8.668 
N479 X-164.415 Y10.788 Z8.800 
N480 X-164.415 Y10.699 Z8.932 
N481 X-164.414 Y10.611 Z9.063 
N482 X-164.413 Y10.522 Z9.195 
N483 X-164.412 Y10.433 Z9.327 
N484 X-164.411 Y10.344 Z9.458 
N485 X-164.410 Y10.255 Z9.590 
N486 X-164.409 Y10.166 Z9.722 
N487 X-164.407 Y10.077 Z9.854 
N488 X-164.406 Y9.989 Z9.985 
N489 X-164.405 Y9.900 Z10.117 
N490 X-164.403 Y9.811 Z10.249 
N491 X-164.402 Y9.722 Z10.381 
N492 X-164.400 Y9.633 Z10.512 
N493 X-164.398 Y9.544 Z10.644 
N494 X-164.397 Y9.455 Z10.776 
N495 X-164.395 Y9.367 Z10.908 
N496 X-164.393 Y9.278 Z11.039 
N497 X-164.391 Y9.189 Z11.171 
N498 X-164.389 Y9.100 Z11.303 
N499 X-164.386 Y9.011 Z11.435 
N500 X-164.384 Y8.922 Z11.566 
N501 X-164.382 Y8.833 Z11.698 
N502 X-164.379 Y8.745 Z11.830 
N503 X-164.377 Y8.656 Z11.962 
N504 X-164.374 Y8.567 Z12.093 
N505 X-164.372 Y8.478 Z12.225 
N506 X-164.369 Y8.389 Z12.357 
N507 X-164.366 Y8.300 Z12.488 
N508 X-164.363 Y8.211 Z12.620 
N509 X-164.361 Y8.123 Z12.752 
N510 X-164.358 Y8.034 Z12.884 
N511 X-164.354 Y7.945 Z13.015 
N512 X-164.351 Y7.856 Z13.147 
N513 X-164.348 Y7.767 Z13.279 
N514 X-164.345 Y7.678 Z13.410 
N515 X-164.341 Y7.589 Z13.542 
N516 X-164.338 Y7.501 Z13.674 
N517 X-164.334 Y7.412 Z13.806 
N518 X-164.331 Y7.323 Z13.937 
N519 X-164.327 Y7.235 Z14.068 
N520 X-164.324 Y7.146 Z14.199 
N521 X-164.320 Y7.058 Z14.330 
N522 X-164.317 Y6.970 Z14.461 
N523 X-164.313 Y6.882 Z14.592 
N524 X-164.310 Y6.793 Z14.723 
N525 X-164.306 Y6.705 Z14.853 
N526 X-164.303 Y6.617 Z14.984 
N527 X-164.299 Y6.529 Z15.115 
N528 X-164.295 Y6.440 Z15.246 
N529 X-164.292 Y6.352 Z15.377 
N530 X-164.288 Y6.264 Z15.508 
N531 X-164.285 Y6.175 Z15.639 
N532 X-164.281 Y6.087 Z15.769 
N533 X-164.278 Y5.999 Z15.900 
N534 X-164.274 Y5.911 Z16.031 
N535 X-164.271 Y5.822 Z16.162 
N536 X-164.267 Y5.734 Z16.293 
N537 X-164.264 Y5.646 Z16.424 
N538 X-164.260 Y5.558 Z16.555 
N539 X-164.257 Y5.469 Z16.686 
N540 X-164.253 Y5.381 Z16.816 
N541 X-164.250 Y5.293 Z16.947 
N542 X-164.246 Y5.204 Z17.078 
N543 X-164.242 Y5.116 Z17.209 
N544 X-164.239 Y5.028 Z17.340 
N545 X-164.235 Y4.940 Z17.471 
N546 X-164.232 Y4.851 Z17.602 
N547 X-164.228 Y4.763 Z17.733 
N548 X-164.225 Y4.675 Z17.863 
N549 X-164.221 Y4.587 Z17.994 
N550 X-164.218 Y4.498 Z18.125 
N551 X-164.214 Y4.410 Z18.256 
N552 X-164.211 Y4.322 Z18.387 
N553 X-164.207 Y4.233 Z18.518 
N554 X-164.204 Y4.145 Z18.649 
N555 X-164.200 Y4.057 Z18.779 
N556 X-164.197 Y3.969 Z18.910 
N557 G40 X-163.973 Y-1.622 Z27.199 F318
N558 X-163.973 Y-1.622 Z27.199 
N559 G00 X-163.972 Y39.820 Z55.173 
RAPORT("TA000001","Side Milling:110 End")
;trailer : concat=None
; points cnt = 510
N561 MSG (" --- GROUPED OF SUBPROGRAM --- ")
N562 FGROUP()
N563 TRAFOOF
; PROGRAM NAME: A00000147
; ORDER       : A000001
; OPER. NAME  : Side Milling:111
; OPER. DESCR.: HHU SemiFinish milling NGA
; OPER. TYPE  : sideMill
; GEO. OPTION : 3
; MACHINE     : HSTM_300_SIM840D_Py
;             : HSTM300/500 - HAMUEL: 5-axis milling machine-SIM840D Traori PP_Script
; CONTROL     : SINUMERIK 840D
; created:   2021-11-15 09:09:26.770194
;-------DODATKOWE DANE-------------------
; PROGRAMISTA : Mariusz Malec
; PARTID      : 138T005360P1002_-
;  ap         : 26.0
;  ae         : 9.6
;  lean_angle : 0.02
;  fin_offset : 0.0
;----------------------------------------
RAPORT("TA000001","Side Milling:111")
N10 TRAFOOF
N11 D0
N12 G90 G94
N13 G0 G53 D0 Z550
N14 STOPRE
M9 ; chlodziwo wyl
; --- Side Milling:111 - HHU SemiFinish milling NGA ---
N16 ;ToolChange : concat=None ,current_tdmid=None, PP.tdmId=940680
N17 TRAFOOF
N18 G0 G53 D0 Z550 B0
N19 STOPRE
N20 MSG(" TLID=940680 D=12.0 R=3.2 Ang=0.0 Len=123.0 ")
N21 S2652 M03
N22 STOPRE
N23 TOL(0.1,1,1)
N24 G0 G53 A123.9800 B0.0004
N25 TRAORI
N26 G54 D3
;tol5=0.03
N27 D1 
;---> in saveDoc :0:00:00.081445
STOPRE
E_ZDARZ=300010
;ACS_FINISH_SLOT=7740680
STOPRE
;UWAGA : ZMIENIONA TOLERANCJA OSI A i B, ruchy osi A i B beda usuniete : TOL5=0.03
N28 ; DELTA A > 40.1
N29 TRAFOOF
N30 D1
N31 STOPRE
N32 G00 G54 Z263.000
N33 G01 A123.9800 F10000
N34 TRAORI
N35 G54 D1
N36 STOPRE
N37 TRANS 
N38 G00 X-162.400 Y-50.817 Z-46.599 A123.9800 
N39 M342 ; chlodziwo woda
N40 X-162.400 Y-9.356 Z-18.654 
N41 G01 X-162.389 Y-7.067 Z-16.520 F318 
N42 X-162.359 Y-5.550 Z-13.784 
N43 X-162.312 Y-4.953 Z-10.713 
N44 X-162.252 Y-5.334 Z-7.608 
N45 ;NTA SemiFinishing
N46 D3 
;---> in saveDoc :0:00:00.091075
N47 G01 G41 X-162.186 Y-6.656 Z-4.773 F318
N48 X-162.186 Y-6.656 Z-4.773 
N49 X-162.182 Y-6.749 Z-4.635 
N50 X-162.178 Y-6.842 Z-4.497 
N51 X-162.175 Y-6.935 Z-4.359 
N52 X-162.171 Y-7.029 Z-4.221 
N53 X-162.168 Y-7.122 Z-4.083 
N54 X-162.164 Y-7.215 Z-3.945 
N55 X-162.161 Y-7.303 Z-3.814 
N56 X-162.157 Y-7.392 Z-3.683 
N57 X-162.154 Y-7.480 Z-3.552 
N58 X-162.151 Y-7.568 Z-3.421 
N59 X-162.147 Y-7.656 Z-3.290 
N60 X-162.144 Y-7.745 Z-3.159 
N61 X-162.140 Y-7.833 Z-3.028 
N62 X-162.137 Y-7.921 Z-2.898 
N63 X-162.134 Y-8.009 Z-2.767 
N64 X-162.130 Y-8.098 Z-2.636 
N65 X-162.127 Y-8.186 Z-2.505 
N66 X-162.124 Y-8.274 Z-2.374 
N67 X-162.120 Y-8.363 Z-2.243 
N68 X-162.117 Y-8.451 Z-2.112 
N69 X-162.113 Y-8.539 Z-1.982 
N70 X-162.110 Y-8.627 Z-1.851 
N71 X-162.107 Y-8.716 Z-1.720 
N72 X-162.103 Y-8.804 Z-1.589 
N73 X-162.100 Y-8.892 Z-1.458 
N74 X-162.097 Y-8.980 Z-1.327 
N75 X-162.093 Y-9.069 Z-1.196 
N76 X-162.090 Y-9.157 Z-1.065 
N77 X-162.086 Y-9.245 Z-0.935 
N78 X-162.083 Y-9.334 Z-0.804 
N79 X-162.080 Y-9.422 Z-0.673 
N80 X-162.076 Y-9.510 Z-0.542 
N81 X-162.073 Y-9.598 Z-0.411 
N82 X-162.069 Y-9.687 Z-0.280 
N83 X-162.066 Y-9.775 Z-0.149 
N84 X-162.063 Y-9.863 Z-0.018 
N85 X-162.059 Y-9.951 Z0.112 
N86 X-162.056 Y-10.040 Z0.243 
N87 X-162.053 Y-10.128 Z0.374 
N88 X-162.049 Y-10.216 Z0.505 
N89 X-162.046 Y-10.305 Z0.636 
N90 X-162.042 Y-10.393 Z0.767 
N91 X-162.039 Y-10.481 Z0.898 
N92 X-162.036 Y-10.569 Z1.029 
N93 X-162.032 Y-10.658 Z1.160 
N94 X-162.029 Y-10.747 Z1.292 
N95 X-162.025 Y-10.836 Z1.423 
N96 X-162.022 Y-10.924 Z1.555 
N97 X-162.018 Y-11.013 Z1.686 
N98 X-162.014 Y-11.102 Z1.818 
N99 X-162.010 Y-11.191 Z1.950 
N100 X-162.006 Y-11.279 Z2.081 
N101 X-162.002 Y-11.368 Z2.213 
N102 X-161.998 Y-11.457 Z2.344 
N103 X-161.994 Y-11.546 Z2.476 
N104 X-161.990 Y-11.634 Z2.607 
N105 X-161.986 Y-11.723 Z2.739 
N106 X-161.981 Y-11.812 Z2.871 
N107 X-161.977 Y-11.901 Z3.002 
N108 X-161.972 Y-11.989 Z3.134 
N109 X-161.968 Y-12.078 Z3.265 
N110 X-161.963 Y-12.167 Z3.397 
N111 X-161.958 Y-12.256 Z3.528 
N112 X-161.953 Y-12.344 Z3.660 
N113 X-161.948 Y-12.433 Z3.791 
N114 X-161.944 Y-12.522 Z3.923 
N115 X-161.938 Y-12.610 Z4.055 
N116 X-161.933 Y-12.699 Z4.186 
N117 X-161.928 Y-12.788 Z4.318 
N118 X-161.923 Y-12.877 Z4.449 
N119 X-161.917 Y-12.965 Z4.581 
N120 X-161.912 Y-13.054 Z4.712 
N121 X-161.907 Y-13.143 Z4.844 
N122 X-161.901 Y-13.232 Z4.975 
N123 X-161.895 Y-13.320 Z5.107 
N124 X-161.890 Y-13.409 Z5.238 
N125 X-161.884 Y-13.498 Z5.370 
N126 X-161.878 Y-13.586 Z5.501 
N127 X-161.872 Y-13.675 Z5.633 
N128 X-161.866 Y-13.764 Z5.764 
N129 X-161.860 Y-13.853 Z5.896 
N130 X-161.853 Y-13.941 Z6.027 
N131 X-161.847 Y-14.030 Z6.159 
N132 X-161.841 Y-14.119 Z6.290 
N133 X-161.834 Y-14.207 Z6.422 
N134 X-161.828 Y-14.296 Z6.553 
N135 X-161.821 Y-14.385 Z6.685 
N136 X-161.815 Y-14.473 Z6.816 
N137 X-161.808 Y-14.562 Z6.948 
N138 X-161.801 Y-14.651 Z7.079 
N139 X-161.794 Y-14.739 Z7.211 
N140 X-161.787 Y-14.828 Z7.342 
N141 X-161.780 Y-14.917 Z7.474 
N142 X-161.773 Y-15.006 Z7.605 
N143 X-161.766 Y-15.094 Z7.737 
N144 X-161.759 Y-15.183 Z7.868 
N145 X-161.751 Y-15.272 Z8.000 
N146 X-161.744 Y-15.360 Z8.131 
N147 X-161.736 Y-15.449 Z8.263 
N148 X-161.729 Y-15.538 Z8.394 
N149 X-161.721 Y-15.626 Z8.526 
N150 X-161.713 Y-15.715 Z8.657 
N151 X-161.705 Y-15.804 Z8.789 
N152 X-161.698 Y-15.892 Z8.920 
N153 X-161.690 Y-15.981 Z9.051 
N154 X-161.682 Y-16.070 Z9.183 
N155 X-161.673 Y-16.158 Z9.314 
N156 X-161.665 Y-16.247 Z9.446 
N157 X-161.657 Y-16.336 Z9.577 
N158 X-161.649 Y-16.424 Z9.709 
N159 X-161.640 Y-16.513 Z9.840 
N160 X-161.632 Y-16.602 Z9.971 
N161 X-161.623 Y-16.690 Z10.103 
N162 X-161.614 Y-16.779 Z10.234 
N163 X-161.606 Y-16.867 Z10.366 
N164 X-161.597 Y-16.956 Z10.497 
N165 X-161.588 Y-17.045 Z10.629 
N166 X-161.579 Y-17.133 Z10.760 
N167 X-161.570 Y-17.222 Z10.891 
N168 X-161.561 Y-17.311 Z11.023 
N169 X-161.552 Y-17.399 Z11.154 
N170 X-161.543 Y-17.488 Z11.286 
N171 X-161.533 Y-17.576 Z11.417 
N172 X-161.524 Y-17.665 Z11.548 
N173 X-161.514 Y-17.754 Z11.680 
N174 X-161.505 Y-17.842 Z11.811 
N175 X-161.495 Y-17.931 Z11.942 
N176 X-161.485 Y-18.020 Z12.074 
N177 X-161.476 Y-18.108 Z12.205 
N178 X-161.466 Y-18.197 Z12.336 
N179 X-161.456 Y-18.285 Z12.468 
N180 X-161.446 Y-18.374 Z12.599 
N181 X-161.436 Y-18.463 Z12.731 
N182 X-161.425 Y-18.551 Z12.862 
N183 X-161.415 Y-18.640 Z12.993 
N184 X-161.405 Y-18.728 Z13.125 
N185 X-161.394 Y-18.817 Z13.256 
N186 X-161.384 Y-18.905 Z13.387 
N187 X-161.373 Y-18.994 Z13.519 
N188 X-161.363 Y-19.083 Z13.650 
N189 X-161.352 Y-19.171 Z13.781 
N190 X-161.341 Y-19.260 Z13.912 
N191 X-161.330 Y-19.348 Z14.044 
N192 X-161.319 Y-19.437 Z14.175 
N193 X-161.308 Y-19.525 Z14.306 
N194 X-161.297 Y-19.614 Z14.438 
N195 X-161.286 Y-19.703 Z14.569 
N196 X-161.275 Y-19.791 Z14.700 
N197 X-161.264 Y-19.880 Z14.832 
N198 X-161.252 Y-19.968 Z14.963 
N199 X-161.241 Y-20.057 Z15.094 
N200 X-161.229 Y-20.145 Z15.225 
N201 X-161.218 Y-20.234 Z15.357 
N202 X-161.206 Y-20.322 Z15.488 
N203 X-161.194 Y-20.411 Z15.619 
N204 X-161.182 Y-20.499 Z15.750 
N205 X-161.170 Y-20.588 Z15.882 
N206 X-161.158 Y-20.676 Z16.013 
N207 X-161.146 Y-20.765 Z16.144 
N208 X-161.134 Y-20.853 Z16.275 
N209 X-161.122 Y-20.942 Z16.406 
N210 X-161.109 Y-21.030 Z16.538 
N211 X-161.097 Y-21.119 Z16.669 
N212 X-161.085 Y-21.207 Z16.800 
N213 X-161.072 Y-21.296 Z16.931 
N214 X-161.059 Y-21.384 Z17.063 
N215 X-161.047 Y-21.473 Z17.194 
N216 X-161.034 Y-21.561 Z17.325 
N217 X-161.021 Y-21.650 Z17.456 
N218 X-161.008 Y-21.738 Z17.587 
N219 X-160.995 Y-21.827 Z17.718 
N220 X-160.982 Y-21.915 Z17.850 
N221 X-160.969 Y-22.004 Z17.981 
N222 X-160.956 Y-22.092 Z18.112 
N223 X-160.942 Y-22.181 Z18.243 
N224 X-160.929 Y-22.269 Z18.374 
N225 X-160.916 Y-22.358 Z18.505 
N226 X-160.902 Y-22.446 Z18.636 
N227 X-160.888 Y-22.535 Z18.768 
N228 X-160.875 Y-22.623 Z18.899 
N229 X-160.861 Y-22.711 Z19.030 
N230 X-160.847 Y-22.800 Z19.161 
N231 X-160.833 Y-22.888 Z19.292 
N232 X-160.819 Y-22.977 Z19.423 
N233 X-160.805 Y-23.065 Z19.554 
N234 X-160.791 Y-23.154 Z19.685 
N235 X-160.777 Y-23.242 Z19.816 
N236 X-160.762 Y-23.330 Z19.947 
N237 X-160.748 Y-23.419 Z20.079 
N238 X-160.734 Y-23.507 Z20.210 
N239 X-160.719 Y-23.596 Z20.341 
N240 X-160.705 Y-23.684 Z20.472 
N241 X-160.690 Y-23.772 Z20.603 
N242 X-160.675 Y-23.861 Z20.734 
N243 X-160.660 Y-23.949 Z20.865 
N244 X-160.645 Y-24.038 Z20.996 
N245 X-160.630 Y-24.126 Z21.127 
N246 X-160.615 Y-24.214 Z21.258 
N247 X-160.600 Y-24.303 Z21.389 
N248 X-160.585 Y-24.391 Z21.520 
N249 X-160.570 Y-24.479 Z21.651 
N250 X-160.554 Y-24.568 Z21.782 
N251 X-160.539 Y-24.656 Z21.912 
N252 X-160.524 Y-24.744 Z22.043 
N253 X-160.509 Y-24.831 Z22.173 
N254 X-160.493 Y-24.919 Z22.303 
N255 X-160.478 Y-25.007 Z22.433 
N256 X-160.463 Y-25.095 Z22.564 
N257 X-160.448 Y-25.183 Z22.694 
N258 X-160.432 Y-25.271 Z22.824 
N259 X-160.417 Y-25.359 Z22.955 
N260 X-160.402 Y-25.447 Z23.085 
N261 X-160.387 Y-25.534 Z23.215 
N262 X-160.371 Y-25.622 Z23.345 
N263 X-160.356 Y-25.710 Z23.476 
N264 X-160.341 Y-25.798 Z23.606 
N265 X-160.326 Y-25.886 Z23.736 
N266 X-160.310 Y-25.974 Z23.867 
N267 X-160.295 Y-26.062 Z23.997 
N268 X-160.280 Y-26.150 Z24.127 
N269 X-160.265 Y-26.238 Z24.257 
N270 X-160.249 Y-26.325 Z24.388 
N271 X-160.234 Y-26.413 Z24.518 
N272 X-160.219 Y-26.501 Z24.648 
N273 X-160.204 Y-26.589 Z24.779 
N274 X-160.188 Y-26.677 Z24.909 
N275 X-160.173 Y-26.765 Z25.039 
N276 X-160.158 Y-26.853 Z25.169 
N277 X-160.143 Y-26.941 Z25.300 
N278 X-160.127 Y-27.028 Z25.430 
N279 X-160.112 Y-27.116 Z25.560 
N280 X-160.097 Y-27.204 Z25.691 
N281 X-160.082 Y-27.292 Z25.821 
N282 X-160.066 Y-27.380 Z25.951 
N283 X-160.051 Y-27.468 Z26.081 
N284 X-160.036 Y-27.556 Z26.212 
N285 X-160.021 Y-27.644 Z26.342 
N286 X-160.005 Y-27.731 Z26.472 
N287 X-159.990 Y-27.819 Z26.603 
N288 X-159.975 Y-27.907 Z26.733 
N289 G40 X-159.957 Y-28.021 Z26.901 F588
N290 X-159.957 Y-28.021 Z26.901 
N291 X-159.920 Y-28.279 Z27.284 F1264 
N292 X-159.865 Y-28.682 Z27.881 F1534 
N293 X-159.815 Y-29.108 Z28.513 
N294 X-159.773 Y-29.534 Z29.145 
N295 X-159.749 Y-29.961 Z29.778 
N296 X-159.756 Y-30.388 Z30.411 
N297 X-159.859 Y-30.810 Z31.036 
N298 X-160.401 Y-30.806 Z31.031 
N299 X-160.791 Y-30.439 Z30.487 
N300 X-161.098 Y-30.050 Z29.909 
N301 X-161.364 Y-29.647 Z29.312 
N302 X-161.595 Y-29.243 Z28.713 
N303 X-161.799 Y-28.832 Z28.104 
N304 X-161.981 Y-28.413 Z27.483 
N305 X-162.139 Y-27.993 Z26.861 
N306 X-162.276 Y-27.576 Z26.242 
N307 X-162.395 Y-27.159 Z25.623 
N308 X-162.500 Y-26.739 Z25.001 A124.0115 
N309 X-162.595 Y-26.315 Z24.373 
N310 X-162.682 Y-25.888 Z23.740 
N311 X-162.762 Y-25.459 Z23.103 
N312 X-162.833 Y-25.051 Z22.499 F1264 
N313 X-162.876 Y-24.790 Z22.111 F588 
N314 ;NNTA SemiFinishing
N315 D4 
;---> in saveDoc :0:00:00.094443
N316 G01 G41 X-162.893 Y-24.676 Z21.942 F318
N317 X-162.893 Y-24.676 Z21.942 F318 
N318 X-162.906 Y-24.583 Z21.804 
N319 X-162.919 Y-24.490 Z21.666 
N320 X-162.931 Y-24.397 Z21.529 
N321 X-162.944 Y-24.304 Z21.391 
N322 X-162.956 Y-24.211 Z21.253 
N323 X-162.969 Y-24.118 Z21.115 
N324 X-162.981 Y-24.030 Z20.985 
N325 X-162.993 Y-23.942 Z20.854 
N326 X-163.005 Y-23.854 Z20.724 
N327 X-163.016 Y-23.766 Z20.593 
N328 X-163.028 Y-23.678 Z20.463 
N329 X-163.040 Y-23.590 Z20.332 
N330 X-163.052 Y-23.502 Z20.202 
N331 X-163.064 Y-23.414 Z20.071 
N332 X-163.076 Y-23.326 Z19.941 
N333 X-163.088 Y-23.238 Z19.810 
N334 X-163.100 Y-23.150 Z19.679 
N335 X-163.112 Y-23.062 Z19.549 
N336 X-163.124 Y-22.974 Z19.418 
N337 X-163.136 Y-22.886 Z19.288 
N338 X-163.148 Y-22.797 Z19.157 
N339 X-163.160 Y-22.709 Z19.027 
N340 X-163.171 Y-22.621 Z18.896 
N341 X-163.183 Y-22.533 Z18.766 
N342 X-163.195 Y-22.445 Z18.635 
N343 X-163.207 Y-22.357 Z18.505 
N344 X-163.219 Y-22.269 Z18.374 
N345 X-163.231 Y-22.181 Z18.244 
N346 X-163.243 Y-22.093 Z18.113 
N347 X-163.255 Y-22.005 Z17.983 
N348 X-163.267 Y-21.917 Z17.852 
N349 X-163.279 Y-21.829 Z17.722 
N350 X-163.291 Y-21.741 Z17.591 
N351 X-163.303 Y-21.653 Z17.461 
N352 X-163.314 Y-21.565 Z17.330 
N353 X-163.326 Y-21.477 Z17.199 
N354 X-163.338 Y-21.389 Z17.069 
N355 X-163.350 Y-21.301 Z16.938 
N356 X-163.362 Y-21.213 Z16.808 
N357 X-163.374 Y-21.125 Z16.677 
N358 X-163.386 Y-21.037 Z16.547 
N359 X-163.398 Y-20.949 Z16.416 
N360 X-163.410 Y-20.861 Z16.286 
N361 X-163.422 Y-20.773 Z16.155 
N362 X-163.434 Y-20.684 Z16.024 
N363 X-163.446 Y-20.595 Z15.893 
N364 X-163.458 Y-20.507 Z15.761 
N365 X-163.469 Y-20.418 Z15.630 
N366 X-163.481 Y-20.330 Z15.499 
N367 X-163.493 Y-20.241 Z15.367 
N368 X-163.504 Y-20.152 Z15.236 
N369 X-163.516 Y-20.064 Z15.105 
N370 X-163.527 Y-19.975 Z14.973 
N371 X-163.538 Y-19.887 Z14.842 
N372 X-163.550 Y-19.798 Z14.710 
N373 X-163.561 Y-19.709 Z14.579 
N374 X-163.572 Y-19.621 Z14.448 
N375 X-163.583 Y-19.532 Z14.316 
N376 X-163.594 Y-19.444 Z14.185 
N377 X-163.605 Y-19.355 Z14.054 
N378 X-163.616 Y-19.266 Z13.922 
N379 X-163.626 Y-19.178 Z13.791 
N380 X-163.637 Y-19.089 Z13.659 
N381 X-163.648 Y-19.000 Z13.528 
N382 X-163.658 Y-18.912 Z13.397 
N383 X-163.669 Y-18.823 Z13.265 
N384 X-163.679 Y-18.734 Z13.134 
N385 X-163.689 Y-18.646 Z13.002 
N386 X-163.699 Y-18.557 Z12.871 
N387 X-163.710 Y-18.468 Z12.739 
N388 X-163.720 Y-18.380 Z12.608 
N389 X-163.730 Y-18.291 Z12.476 
N390 X-163.739 Y-18.203 Z12.345 
N391 X-163.749 Y-18.114 Z12.214 
N392 X-163.759 Y-18.025 Z12.082 
N393 X-163.769 Y-17.937 Z11.951 
N394 X-163.778 Y-17.848 Z11.819 
N395 X-163.788 Y-17.759 Z11.688 
N396 X-163.797 Y-17.670 Z11.556 
N397 X-163.807 Y-17.582 Z11.425 
N398 X-163.816 Y-17.493 Z11.293 
N399 X-163.825 Y-17.404 Z11.162 
N400 X-163.834 Y-17.316 Z11.030 
N401 X-163.843 Y-17.227 Z10.899 
N402 X-163.852 Y-17.138 Z10.767 
N403 X-163.861 Y-17.050 Z10.636 
N404 X-163.870 Y-16.961 Z10.504 
N405 X-163.879 Y-16.872 Z10.373 
N406 X-163.887 Y-16.784 Z10.241 
N407 X-163.896 Y-16.695 Z10.110 
N408 X-163.905 Y-16.606 Z9.978 
N409 X-163.913 Y-16.517 Z9.847 
N410 X-163.921 Y-16.429 Z9.715 
N411 X-163.930 Y-16.340 Z9.584 
N412 X-163.938 Y-16.251 Z9.452 
N413 X-163.946 Y-16.163 Z9.321 
N414 X-163.954 Y-16.074 Z9.189 
N415 X-163.962 Y-15.985 Z9.058 
N416 X-163.970 Y-15.896 Z8.926 
N417 X-163.978 Y-15.808 Z8.795 
N418 X-163.986 Y-15.719 Z8.663 
N419 X-163.993 Y-15.630 Z8.532 
N420 X-164.001 Y-15.542 Z8.400 
N421 X-164.008 Y-15.453 Z8.268 
N422 X-164.016 Y-15.364 Z8.137 
N423 X-164.023 Y-15.275 Z8.005 
N424 X-164.031 Y-15.187 Z7.874 
N425 X-164.038 Y-15.098 Z7.742 
N426 X-164.045 Y-15.009 Z7.611 
N427 X-164.052 Y-14.920 Z7.479 
N428 X-164.059 Y-14.832 Z7.348 
N429 X-164.066 Y-14.743 Z7.216 
N430 X-164.073 Y-14.654 Z7.084 
N431 X-164.080 Y-14.565 Z6.953 
N432 X-164.086 Y-14.477 Z6.821 
N433 X-164.093 Y-14.388 Z6.690 
N434 X-164.100 Y-14.299 Z6.558 
N435 X-164.106 Y-14.210 Z6.426 
N436 X-164.112 Y-14.122 Z6.295 
N437 X-164.119 Y-14.033 Z6.163 
N438 X-164.125 Y-13.944 Z6.032 
N439 X-164.131 Y-13.855 Z5.900 
N440 X-164.137 Y-13.767 Z5.768 
N441 X-164.143 Y-13.678 Z5.637 
N442 X-164.149 Y-13.589 Z5.505 
N443 X-164.155 Y-13.500 Z5.374 
N444 X-164.161 Y-13.411 Z5.242 
N445 X-164.167 Y-13.323 Z5.110 
N446 X-164.172 Y-13.234 Z4.979 
N447 X-164.178 Y-13.145 Z4.847 
N448 X-164.183 Y-13.056 Z4.716 
N449 X-164.189 Y-12.968 Z4.584 
N450 X-164.194 Y-12.879 Z4.452 
N451 X-164.199 Y-12.790 Z4.321 
N452 X-164.204 Y-12.701 Z4.189 
N453 X-164.210 Y-12.612 Z4.057 
N454 X-164.215 Y-12.524 Z3.926 
N455 X-164.220 Y-12.435 Z3.794 
N456 X-164.224 Y-12.346 Z3.662 
N457 X-164.229 Y-12.257 Z3.531 
N458 X-164.234 Y-12.168 Z3.399 
N459 X-164.239 Y-12.080 Z3.268 
N460 X-164.243 Y-11.991 Z3.136 
N461 X-164.248 Y-11.902 Z3.004 
N462 X-164.252 Y-11.813 Z2.873 
N463 X-164.256 Y-11.724 Z2.741 
N464 X-164.261 Y-11.636 Z2.609 
N465 X-164.265 Y-11.547 Z2.478 
N466 X-164.269 Y-11.458 Z2.346 
N467 X-164.273 Y-11.369 Z2.214 
N468 X-164.277 Y-11.280 Z2.083 
N469 X-164.281 Y-11.192 Z1.951 
N470 X-164.285 Y-11.103 Z1.819 
N471 X-164.288 Y-11.014 Z1.688 
N472 X-164.292 Y-10.925 Z1.556 
N473 X-164.296 Y-10.836 Z1.424 
N474 X-164.299 Y-10.748 Z1.293 
N475 X-164.303 Y-10.659 Z1.161 
N476 X-164.306 Y-10.570 Z1.029 
N477 X-164.309 Y-10.481 Z0.898 
N478 X-164.312 Y-10.392 Z0.766 
N479 X-164.316 Y-10.304 Z0.634 
N480 X-164.319 Y-10.215 Z0.503 
N481 X-164.322 Y-10.126 Z0.371 
N482 X-164.325 Y-10.037 Z0.239 
N483 X-164.327 Y-9.948 Z0.108 
N484 X-164.330 Y-9.859 Z-0.024 
N485 X-164.333 Y-9.771 Z-0.156 
N486 X-164.335 Y-9.682 Z-0.287 
N487 X-164.338 Y-9.593 Z-0.419 
N488 X-164.340 Y-9.504 Z-0.551 
N489 X-164.343 Y-9.415 Z-0.682 
N490 X-164.345 Y-9.326 Z-0.814 
N491 X-164.347 Y-9.238 Z-0.946 
N492 X-164.349 Y-9.149 Z-1.078 
N493 X-164.352 Y-9.060 Z-1.209 
N494 X-164.353 Y-8.971 Z-1.341 
N495 X-164.355 Y-8.882 Z-1.473 
N496 X-164.357 Y-8.794 Z-1.604 
N497 X-164.359 Y-8.705 Z-1.736 
N498 X-164.361 Y-8.616 Z-1.868 
N499 X-164.362 Y-8.527 Z-1.999 
N500 X-164.364 Y-8.438 Z-2.131 
N501 X-164.365 Y-8.349 Z-2.263 
N502 X-164.367 Y-8.261 Z-2.394 
N503 X-164.368 Y-8.172 Z-2.526 
N504 X-164.369 Y-8.083 Z-2.658 
N505 X-164.370 Y-7.994 Z-2.790 
N506 X-164.371 Y-7.905 Z-2.921 
N507 X-164.372 Y-7.816 Z-3.053 
N508 X-164.373 Y-7.728 Z-3.185 
N509 X-164.374 Y-7.639 Z-3.316 
N510 X-164.375 Y-7.550 Z-3.448 
N511 X-164.376 Y-7.461 Z-3.580 
N512 X-164.376 Y-7.372 Z-3.711 
N513 X-164.377 Y-7.283 Z-3.843 
N514 X-164.377 Y-7.195 Z-3.975 
N515 X-164.378 Y-7.106 Z-4.107 
N516 X-164.378 Y-7.017 Z-4.238 
N517 X-164.378 Y-6.928 Z-4.370 
N518 X-164.378 Y-6.839 Z-4.502 
N519 X-164.379 Y-6.750 Z-4.633 
N520 X-164.379 Y-6.662 Z-4.764 
N521 X-164.379 Y-6.574 Z-4.895 
N522 X-164.379 Y-6.486 Z-5.026 
N523 X-164.379 Y-6.397 Z-5.157 
N524 X-164.379 Y-6.309 Z-5.288 
N525 X-164.379 Y-6.221 Z-5.419 
N526 X-164.379 Y-6.132 Z-5.550 
N527 X-164.379 Y-6.044 Z-5.681 
N528 X-164.380 Y-5.956 Z-5.811 
N529 X-164.380 Y-5.867 Z-5.942 
N530 X-164.380 Y-5.779 Z-6.073 
N531 X-164.380 Y-5.691 Z-6.204 
N532 X-164.380 Y-5.603 Z-6.335 
N533 X-164.380 Y-5.514 Z-6.466 
N534 X-164.380 Y-5.426 Z-6.597 
N535 X-164.380 Y-5.338 Z-6.728 
N536 X-164.380 Y-5.249 Z-6.859 
N537 X-164.381 Y-5.161 Z-6.990 
N538 X-164.381 Y-5.073 Z-7.120 
N539 X-164.381 Y-4.985 Z-7.251 
N540 X-164.381 Y-4.896 Z-7.382 
N541 X-164.381 Y-4.808 Z-7.513 
N542 X-164.381 Y-4.720 Z-7.644 
N543 X-164.381 Y-4.631 Z-7.775 
N544 X-164.381 Y-4.543 Z-7.906 
N545 X-164.381 Y-4.455 Z-8.037 
N546 X-164.382 Y-4.366 Z-8.168 
N547 X-164.382 Y-4.278 Z-8.299 
N548 X-164.382 Y-4.190 Z-8.429 
N549 X-164.382 Y-4.102 Z-8.560 
N550 X-164.382 Y-4.013 Z-8.691 
N551 X-164.382 Y-3.925 Z-8.822 
N552 X-164.382 Y-3.837 Z-8.953 
N553 X-164.382 Y-3.748 Z-9.084 
N554 X-164.383 Y-3.660 Z-9.215 
N555 X-164.383 Y-3.572 Z-9.346 
N556 X-164.383 Y-3.484 Z-9.477 
N557 X-164.383 Y-3.395 Z-9.608 
N558 G40 X-164.390 Y2.197 Z-17.898 F318
N559 X-164.390 Y2.197 Z-17.898 
N560 G00 X-164.390 Y-39.245 Z-45.872 
RAPORT("TA000001","Side Milling:111 End")
;trailer : concat=None
; points cnt = 511
N562 MSG (" --- GROUPED OF SUBPROGRAM --- ")
N563 FGROUP()
N564 TRAFOOF
; PROGRAM NAME: A00000147
; ORDER       : A000001
; OPER. NAME  : Side Milling:112
; OPER. DESCR.: HHU finish milling NGA
; OPER. TYPE  : sideMill
; GEO. OPTION : 3
; MACHINE     : HSTM_300_SIM840D_Py
;             : HSTM300/500 - HAMUEL: 5-axis milling machine-SIM840D Traori PP_Script
; CONTROL     : SINUMERIK 840D
; created:   2021-11-15 09:09:29.069431
;-------DODATKOWE DANE-------------------
; PROGRAMISTA : Mariusz Malec
; PARTID      : 138T005360P1002_-
;  ap         : 26.0
;  ae         : 9.6
;  lean_angle : 0.02
;  fin_offset : 0.03
;----------------------------------------
RAPORT("TA000001","Side Milling:112")
N10 TRAFOOF
N11 D0
N12 G90 G94
N13 G0 G53 D0 Z550
N14 STOPRE
M9 ; chlodziwo wyl
; --- Side Milling:112 - HHU finish milling NGA ---
N16 ;ToolChange : concat=None ,current_tdmid=None, PP.tdmId=940680
N17 TRAFOOF
N18 G0 G53 D0 Z550 B0
N19 STOPRE
N20 MSG(" TLID=940680 D=12.0 R=3.2 Ang=0.0 Len=123.0 ")
N21 S2652 M03
N22 STOPRE
N23 TOL(0.1,1,1)
N24 G0 G53 A123.9800 B0.0004
N25 TRAORI
N26 G54 D3
;tol5=0.03
N27 D3 
;---> in saveDoc :0:00:00.114986
STOPRE
E_ZDARZ=300010
;ACS_FINISH_SLOT=7740680
STOPRE
;UWAGA : ZMIENIONA TOLERANCJA OSI A i B, ruchy osi A i B beda usuniete : TOL5=0.03
N28 ; DELTA A > 40.1
N29 TRAFOOF
N30 D3
N31 STOPRE
N32 G00 G54 Z263.000
N33 G01 A123.9800 F10000
N34 TRAORI
N35 G54 D3
N36 STOPRE
N37 TRANS 
N38 G00 X-162.360 Y-50.842 Z-46.616 A123.9800 
N39 M342 ; chlodziwo woda
N40 X-162.360 Y-9.380 Z-18.671 
N41 G01 X-162.349 Y-7.092 Z-16.538 F318 
N42 X-162.319 Y-5.575 Z-13.801 
N43 X-162.272 Y-4.978 Z-10.731 
N44 X-162.212 Y-5.359 Z-7.626 
N45 ;NTA finishing
N46 D3 
;---> in saveDoc :0:00:00.094077
N47 G01 G41 X-162.146 Y-6.680 Z-4.791 F318
N48 X-162.146 Y-6.680 Z-4.791 
N49 X-162.142 Y-6.774 Z-4.653 
N50 X-162.138 Y-6.867 Z-4.515 
N51 X-162.135 Y-6.960 Z-4.376 
N52 X-162.131 Y-7.053 Z-4.238 
N53 X-162.128 Y-7.146 Z-4.100 
N54 X-162.124 Y-7.239 Z-3.962 
N55 X-162.121 Y-7.328 Z-3.831 
N56 X-162.117 Y-7.416 Z-3.700 
N57 X-162.114 Y-7.504 Z-3.569 
N58 X-162.111 Y-7.593 Z-3.439 
N59 X-162.107 Y-7.681 Z-3.308 
N60 X-162.104 Y-7.769 Z-3.177 
N61 X-162.101 Y-7.857 Z-3.046 
N62 X-162.097 Y-7.946 Z-2.915 
N63 X-162.094 Y-8.034 Z-2.784 
N64 X-162.090 Y-8.122 Z-2.653 
N65 X-162.087 Y-8.210 Z-2.522 
N66 X-162.084 Y-8.299 Z-2.392 
N67 X-162.080 Y-8.387 Z-2.261 
N68 X-162.077 Y-8.475 Z-2.130 
N69 X-162.073 Y-8.564 Z-1.999 
N70 X-162.070 Y-8.652 Z-1.868 
N71 X-162.067 Y-8.740 Z-1.737 
N72 X-162.063 Y-8.828 Z-1.606 
N73 X-162.060 Y-8.917 Z-1.476 
N74 X-162.057 Y-9.005 Z-1.345 
N75 X-162.053 Y-9.093 Z-1.214 
N76 X-162.050 Y-9.181 Z-1.083 
N77 X-162.046 Y-9.270 Z-0.952 
N78 X-162.043 Y-9.358 Z-0.821 
N79 X-162.040 Y-9.446 Z-0.690 
N80 X-162.036 Y-9.535 Z-0.559 
N81 X-162.033 Y-9.623 Z-0.429 
N82 X-162.029 Y-9.711 Z-0.298 
N83 X-162.026 Y-9.799 Z-0.167 
N84 X-162.023 Y-9.888 Z-0.036 
N85 X-162.019 Y-9.976 Z0.095 
N86 X-162.016 Y-10.064 Z0.226 
N87 X-162.013 Y-10.152 Z0.357 
N88 X-162.009 Y-10.241 Z0.488 
N89 X-162.006 Y-10.329 Z0.618 
N90 X-162.002 Y-10.417 Z0.749 
N91 X-161.999 Y-10.506 Z0.880 
N92 X-161.996 Y-10.594 Z1.011 
N93 X-161.992 Y-10.683 Z1.143 
N94 X-161.989 Y-10.771 Z1.274 
N95 X-161.985 Y-10.860 Z1.406 
N96 X-161.982 Y-10.949 Z1.537 
N97 X-161.978 Y-11.038 Z1.669 
N98 X-161.974 Y-11.126 Z1.800 
N99 X-161.970 Y-11.215 Z1.932 
N100 X-161.966 Y-11.304 Z2.064 
N101 X-161.962 Y-11.392 Z2.195 
N102 X-161.958 Y-11.481 Z2.327 
N103 X-161.954 Y-11.570 Z2.458 
N104 X-161.950 Y-11.659 Z2.590 
N105 X-161.946 Y-11.747 Z2.721 
N106 X-161.941 Y-11.836 Z2.853 
N107 X-161.937 Y-11.925 Z2.984 
N108 X-161.932 Y-12.014 Z3.116 
N109 X-161.928 Y-12.102 Z3.247 
N110 X-161.923 Y-12.191 Z3.379 
N111 X-161.918 Y-12.280 Z3.511 
N112 X-161.913 Y-12.368 Z3.642 
N113 X-161.909 Y-12.457 Z3.774 
N114 X-161.904 Y-12.546 Z3.905 
N115 X-161.898 Y-12.635 Z4.037 
N116 X-161.893 Y-12.723 Z4.168 
N117 X-161.888 Y-12.812 Z4.300 
N118 X-161.883 Y-12.901 Z4.431 
N119 X-161.877 Y-12.989 Z4.563 
N120 X-161.872 Y-13.078 Z4.694 
N121 X-161.867 Y-13.167 Z4.826 
N122 X-161.861 Y-13.256 Z4.957 
N123 X-161.855 Y-13.344 Z5.089 
N124 X-161.850 Y-13.433 Z5.220 
N125 X-161.844 Y-13.522 Z5.352 
N126 X-161.838 Y-13.610 Z5.483 
N127 X-161.832 Y-13.699 Z5.615 
N128 X-161.826 Y-13.788 Z5.746 
N129 X-161.820 Y-13.877 Z5.878 
N130 X-161.813 Y-13.965 Z6.009 
N131 X-161.807 Y-14.054 Z6.141 
N132 X-161.801 Y-14.143 Z6.272 
N133 X-161.794 Y-14.231 Z6.404 
N134 X-161.788 Y-14.320 Z6.535 
N135 X-161.781 Y-14.409 Z6.667 
N136 X-161.775 Y-14.497 Z6.798 
N137 X-161.768 Y-14.586 Z6.930 
N138 X-161.761 Y-14.675 Z7.061 
N139 X-161.754 Y-14.763 Z7.193 
N140 X-161.747 Y-14.852 Z7.324 
N141 X-161.740 Y-14.941 Z7.456 
N142 X-161.733 Y-15.029 Z7.587 
N143 X-161.726 Y-15.118 Z7.719 
N144 X-161.719 Y-15.207 Z7.850 
N145 X-161.711 Y-15.295 Z7.981 
N146 X-161.704 Y-15.384 Z8.113 
N147 X-161.696 Y-15.473 Z8.244 
N148 X-161.689 Y-15.561 Z8.376 
N149 X-161.681 Y-15.650 Z8.507 
N150 X-161.673 Y-15.739 Z8.639 
N151 X-161.665 Y-15.827 Z8.770 
N152 X-161.658 Y-15.916 Z8.902 
N153 X-161.650 Y-16.005 Z9.033 
N154 X-161.642 Y-16.093 Z9.164 
N155 X-161.633 Y-16.182 Z9.296 
N156 X-161.625 Y-16.271 Z9.427 
N157 X-161.617 Y-16.359 Z9.559 
N158 X-161.609 Y-16.448 Z9.690 
N159 X-161.600 Y-16.537 Z9.822 
N160 X-161.592 Y-16.625 Z9.953 
N161 X-161.583 Y-16.714 Z10.084 
N162 X-161.575 Y-16.802 Z10.216 
N163 X-161.566 Y-16.891 Z10.347 
N164 X-161.557 Y-16.980 Z10.479 
N165 X-161.548 Y-17.068 Z10.610 
N166 X-161.539 Y-17.157 Z10.741 
N167 X-161.530 Y-17.246 Z10.873 
N168 X-161.521 Y-17.334 Z11.004 
N169 X-161.512 Y-17.423 Z11.135 
N170 X-161.503 Y-17.511 Z11.267 
N171 X-161.493 Y-17.600 Z11.398 
N172 X-161.484 Y-17.689 Z11.530 
N173 X-161.474 Y-17.777 Z11.661 
N174 X-161.465 Y-17.866 Z11.792 
N175 X-161.455 Y-17.954 Z11.924 
N176 X-161.445 Y-18.043 Z12.055 
N177 X-161.436 Y-18.132 Z12.186 
N178 X-161.426 Y-18.220 Z12.318 
N179 X-161.416 Y-18.309 Z12.449 
N180 X-161.406 Y-18.397 Z12.580 
N181 X-161.396 Y-18.486 Z12.712 
N182 X-161.385 Y-18.575 Z12.843 
N183 X-161.375 Y-18.663 Z12.974 
N184 X-161.365 Y-18.752 Z13.106 
N185 X-161.354 Y-18.840 Z13.237 
N186 X-161.344 Y-18.929 Z13.368 
N187 X-161.333 Y-19.017 Z13.500 
N188 X-161.323 Y-19.106 Z13.631 
N189 X-161.312 Y-19.195 Z13.762 
N190 X-161.301 Y-19.283 Z13.893 
N191 X-161.290 Y-19.372 Z14.025 
N192 X-161.280 Y-19.460 Z14.156 
N193 X-161.268 Y-19.549 Z14.287 
N194 X-161.257 Y-19.637 Z14.419 
N195 X-161.246 Y-19.726 Z14.550 
N196 X-161.235 Y-19.814 Z14.681 
N197 X-161.224 Y-19.903 Z14.812 
N198 X-161.212 Y-19.991 Z14.944 
N199 X-161.201 Y-20.080 Z15.075 
N200 X-161.189 Y-20.168 Z15.206 
N201 X-161.178 Y-20.257 Z15.337 
N202 X-161.166 Y-20.346 Z15.469 
N203 X-161.154 Y-20.434 Z15.600 
N204 X-161.142 Y-20.523 Z15.731 
N205 X-161.130 Y-20.611 Z15.862 
N206 X-161.118 Y-20.700 Z15.993 
N207 X-161.106 Y-20.788 Z16.125 
N208 X-161.094 Y-20.877 Z16.256 
N209 X-161.082 Y-20.965 Z16.387 
N210 X-161.070 Y-21.054 Z16.518 
N211 X-161.057 Y-21.142 Z16.650 
N212 X-161.045 Y-21.231 Z16.781 
N213 X-161.032 Y-21.319 Z16.912 
N214 X-161.020 Y-21.408 Z17.043 
N215 X-161.007 Y-21.496 Z17.174 
N216 X-160.994 Y-21.585 Z17.305 
N217 X-160.981 Y-21.673 Z17.437 
N218 X-160.968 Y-21.761 Z17.568 
N219 X-160.955 Y-21.850 Z17.699 
N220 X-160.942 Y-21.938 Z17.830 
N221 X-160.929 Y-22.027 Z17.961 
N222 X-160.916 Y-22.115 Z18.092 
N223 X-160.903 Y-22.204 Z18.223 
N224 X-160.889 Y-22.292 Z18.355 
N225 X-160.876 Y-22.381 Z18.486 
N226 X-160.862 Y-22.469 Z18.617 
N227 X-160.849 Y-22.557 Z18.748 
N228 X-160.835 Y-22.646 Z18.879 
N229 X-160.821 Y-22.734 Z19.010 
N230 X-160.807 Y-22.823 Z19.141 
N231 X-160.793 Y-22.911 Z19.272 
N232 X-160.779 Y-23.000 Z19.403 
N233 X-160.765 Y-23.088 Z19.535 
N234 X-160.751 Y-23.176 Z19.666 
N235 X-160.737 Y-23.265 Z19.797 
N236 X-160.723 Y-23.353 Z19.928 
N237 X-160.708 Y-23.442 Z20.059 
N238 X-160.694 Y-23.530 Z20.190 
N239 X-160.679 Y-23.618 Z20.321 
N240 X-160.665 Y-23.707 Z20.452 
N241 X-160.650 Y-23.795 Z20.583 
N242 X-160.635 Y-23.884 Z20.714 
N243 X-160.620 Y-23.972 Z20.845 
N244 X-160.606 Y-24.060 Z20.976 
N245 X-160.591 Y-24.149 Z21.107 
N246 X-160.576 Y-24.237 Z21.238 
N247 X-160.560 Y-24.325 Z21.369 
N248 X-160.545 Y-24.414 Z21.500 
N249 X-160.530 Y-24.502 Z21.631 
N250 X-160.515 Y-24.590 Z21.762 
N251 X-160.499 Y-24.678 Z21.892 
N252 X-160.484 Y-24.766 Z22.023 
N253 X-160.469 Y-24.854 Z22.153 
N254 X-160.454 Y-24.942 Z22.283 
N255 X-160.438 Y-25.030 Z22.413 
N256 X-160.423 Y-25.118 Z22.544 
N257 X-160.408 Y-25.206 Z22.674 
N258 X-160.393 Y-25.294 Z22.804 
N259 X-160.377 Y-25.381 Z22.935 
N260 X-160.362 Y-25.469 Z23.065 
N261 X-160.347 Y-25.557 Z23.195 
N262 X-160.332 Y-25.645 Z23.325 
N263 X-160.316 Y-25.733 Z23.456 
N264 X-160.301 Y-25.821 Z23.586 
N265 X-160.286 Y-25.909 Z23.716 
N266 X-160.271 Y-25.997 Z23.847 
N267 X-160.255 Y-26.084 Z23.977 
N268 X-160.240 Y-26.172 Z24.107 
N269 X-160.225 Y-26.260 Z24.237 
N270 X-160.210 Y-26.348 Z24.368 
N271 X-160.194 Y-26.436 Z24.498 
N272 X-160.179 Y-26.524 Z24.628 
N273 X-160.164 Y-26.612 Z24.759 
N274 X-160.149 Y-26.700 Z24.889 
N275 X-160.133 Y-26.787 Z25.019 
N276 X-160.118 Y-26.875 Z25.149 
N277 X-160.103 Y-26.963 Z25.280 
N278 X-160.088 Y-27.051 Z25.410 
N279 X-160.072 Y-27.139 Z25.540 
N280 X-160.057 Y-27.227 Z25.671 
N281 X-160.042 Y-27.315 Z25.801 
N282 X-160.027 Y-27.403 Z25.931 
N283 X-160.011 Y-27.491 Z26.061 
N284 X-159.996 Y-27.578 Z26.192 
N285 X-159.981 Y-27.666 Z26.322 
N286 X-159.966 Y-27.754 Z26.452 
N287 X-159.950 Y-27.842 Z26.583 
N288 X-159.935 Y-27.930 Z26.713 
N289 G40 X-159.917 Y-28.044 Z26.882 F588
N290 X-159.917 Y-28.044 Z26.882 
N291 X-159.880 Y-28.303 Z27.265 F1266 
N292 X-159.826 Y-28.706 Z27.864 F1537 
N293 X-159.775 Y-29.133 Z28.497 
N294 X-159.735 Y-29.560 Z29.130 
N295 X-159.711 Y-29.988 Z29.764 
N296 X-159.721 Y-30.415 Z30.398 
N297 X-159.832 Y-30.837 Z31.023 
N298 X-160.387 Y-30.832 Z31.016 
N299 X-160.787 Y-30.468 Z30.476 
N300 X-161.103 Y-30.080 Z29.900 
N301 X-161.376 Y-29.678 Z29.305 
N302 X-161.613 Y-29.274 Z28.706 
N303 X-161.823 Y-28.863 Z28.097 
N304 X-162.008 Y-28.445 Z27.476 
N305 X-162.170 Y-28.025 Z26.854 
N306 X-162.309 Y-27.607 Z26.234 
N307 X-162.430 Y-27.189 Z25.614 
N308 X-162.538 Y-26.768 Z24.990 A124.0115 
N309 X-162.634 Y-26.344 Z24.361 
N310 X-162.721 Y-25.916 Z23.727 
N311 X-162.802 Y-25.486 Z23.090 
N312 X-162.873 Y-25.078 Z22.485 F1266 
N313 X-162.916 Y-24.816 Z22.097 F588 
N314 ;NNTA finishing
N315 D4 
;---> in saveDoc :0:00:00.127339
N316 G01 G41 X-162.933 Y-24.702 Z21.928 F318
N317 X-162.933 Y-24.702 Z21.928 F318 
N318 X-162.946 Y-24.609 Z21.790 
N319 X-162.958 Y-24.516 Z21.652 
N320 X-162.971 Y-24.423 Z21.514 
N321 X-162.984 Y-24.331 Z21.377 
N322 X-162.996 Y-24.238 Z21.239 
N323 X-163.009 Y-24.145 Z21.101 
N324 X-163.021 Y-24.057 Z20.970 
N325 X-163.033 Y-23.969 Z20.840 
N326 X-163.044 Y-23.881 Z20.709 
N327 X-163.056 Y-23.792 Z20.579 
N328 X-163.068 Y-23.704 Z20.448 
N329 X-163.080 Y-23.616 Z20.318 
N330 X-163.092 Y-23.528 Z20.187 
N331 X-163.104 Y-23.440 Z20.057 
N332 X-163.116 Y-23.352 Z19.926 
N333 X-163.128 Y-23.264 Z19.796 
N334 X-163.140 Y-23.176 Z19.665 
N335 X-163.152 Y-23.088 Z19.535 
N336 X-163.164 Y-23.000 Z19.404 
N337 X-163.176 Y-22.912 Z19.274 
N338 X-163.187 Y-22.824 Z19.143 
N339 X-163.199 Y-22.736 Z19.013 
N340 X-163.211 Y-22.648 Z18.882 
N341 X-163.223 Y-22.560 Z18.752 
N342 X-163.235 Y-22.472 Z18.621 
N343 X-163.247 Y-22.384 Z18.490 
N344 X-163.259 Y-22.296 Z18.360 
N345 X-163.271 Y-22.208 Z18.229 
N346 X-163.283 Y-22.120 Z18.099 
N347 X-163.295 Y-22.032 Z17.968 
N348 X-163.307 Y-21.944 Z17.838 
N349 X-163.319 Y-21.856 Z17.707 
N350 X-163.331 Y-21.768 Z17.577 
N351 X-163.342 Y-21.679 Z17.446 
N352 X-163.354 Y-21.591 Z17.316 
N353 X-163.366 Y-21.503 Z17.185 
N354 X-163.378 Y-21.415 Z17.055 
N355 X-163.390 Y-21.327 Z16.924 
N356 X-163.402 Y-21.239 Z16.794 
N357 X-163.414 Y-21.151 Z16.663 
N358 X-163.426 Y-21.063 Z16.533 
N359 X-163.438 Y-20.975 Z16.402 
N360 X-163.450 Y-20.887 Z16.272 
N361 X-163.462 Y-20.799 Z16.141 
N362 X-163.474 Y-20.710 Z16.010 
N363 X-163.486 Y-20.622 Z15.878 
N364 X-163.497 Y-20.533 Z15.747 
N365 X-163.509 Y-20.445 Z15.616 
N366 X-163.521 Y-20.356 Z15.484 
N367 X-163.533 Y-20.267 Z15.353 
N368 X-163.544 Y-20.179 Z15.222 
N369 X-163.556 Y-20.090 Z15.090 
N370 X-163.567 Y-20.002 Z14.959 
N371 X-163.578 Y-19.913 Z14.827 
N372 X-163.590 Y-19.824 Z14.696 
N373 X-163.601 Y-19.736 Z14.565 
N374 X-163.612 Y-19.647 Z14.433 
N375 X-163.623 Y-19.559 Z14.302 
N376 X-163.634 Y-19.470 Z14.170 
N377 X-163.645 Y-19.381 Z14.039 
N378 X-163.656 Y-19.293 Z13.908 
N379 X-163.666 Y-19.204 Z13.776 
N380 X-163.677 Y-19.115 Z13.645 
N381 X-163.688 Y-19.027 Z13.513 
N382 X-163.698 Y-18.938 Z13.382 
N383 X-163.708 Y-18.849 Z13.250 
N384 X-163.719 Y-18.761 Z13.119 
N385 X-163.729 Y-18.672 Z12.988 
N386 X-163.739 Y-18.583 Z12.856 
N387 X-163.749 Y-18.495 Z12.725 
N388 X-163.759 Y-18.406 Z12.593 
N389 X-163.769 Y-18.317 Z12.462 
N390 X-163.779 Y-18.229 Z12.330 
N391 X-163.789 Y-18.140 Z12.199 
N392 X-163.799 Y-18.051 Z12.067 
N393 X-163.809 Y-17.963 Z11.936 
N394 X-163.818 Y-17.874 Z11.804 
N395 X-163.828 Y-17.785 Z11.673 
N396 X-163.837 Y-17.697 Z11.541 
N397 X-163.846 Y-17.608 Z11.410 
N398 X-163.856 Y-17.519 Z11.279 
N399 X-163.865 Y-17.431 Z11.147 
N400 X-163.874 Y-17.342 Z11.016 
N401 X-163.883 Y-17.253 Z10.884 
N402 X-163.892 Y-17.165 Z10.753 
N403 X-163.901 Y-17.076 Z10.621 
N404 X-163.910 Y-16.987 Z10.489 
N405 X-163.919 Y-16.898 Z10.358 
N406 X-163.927 Y-16.810 Z10.226 
N407 X-163.936 Y-16.721 Z10.095 
N408 X-163.944 Y-16.632 Z9.963 
N409 X-163.953 Y-16.544 Z9.832 
N410 X-163.961 Y-16.455 Z9.700 
N411 X-163.970 Y-16.366 Z9.569 
N412 X-163.978 Y-16.277 Z9.437 
N413 X-163.986 Y-16.189 Z9.306 
N414 X-163.994 Y-16.100 Z9.174 
N415 X-164.002 Y-16.011 Z9.043 
N416 X-164.010 Y-15.922 Z8.911 
N417 X-164.018 Y-15.834 Z8.780 
N418 X-164.026 Y-15.745 Z8.648 
N419 X-164.033 Y-15.656 Z8.516 
N420 X-164.041 Y-15.567 Z8.385 
N421 X-164.048 Y-15.479 Z8.253 
N422 X-164.056 Y-15.390 Z8.122 
N423 X-164.063 Y-15.301 Z7.990 
N424 X-164.071 Y-15.212 Z7.859 
N425 X-164.078 Y-15.124 Z7.727 
N426 X-164.085 Y-15.035 Z7.595 
N427 X-164.092 Y-14.946 Z7.464 
N428 X-164.099 Y-14.857 Z7.332 
N429 X-164.106 Y-14.769 Z7.201 
N430 X-164.113 Y-14.680 Z7.069 
N431 X-164.120 Y-14.591 Z6.937 
N432 X-164.126 Y-14.502 Z6.806 
N433 X-164.133 Y-14.414 Z6.674 
N434 X-164.140 Y-14.325 Z6.543 
N435 X-164.146 Y-14.236 Z6.411 
N436 X-164.152 Y-14.147 Z6.279 
N437 X-164.159 Y-14.059 Z6.148 
N438 X-164.165 Y-13.970 Z6.016 
N439 X-164.171 Y-13.881 Z5.885 
N440 X-164.177 Y-13.792 Z5.753 
N441 X-164.183 Y-13.703 Z5.621 
N442 X-164.189 Y-13.615 Z5.490 
N443 X-164.195 Y-13.526 Z5.358 
N444 X-164.201 Y-13.437 Z5.226 
N445 X-164.207 Y-13.348 Z5.095 
N446 X-164.212 Y-13.260 Z4.963 
N447 X-164.218 Y-13.171 Z4.832 
N448 X-164.223 Y-13.082 Z4.700 
N449 X-164.229 Y-12.993 Z4.568 
N450 X-164.234 Y-12.904 Z4.437 
N451 X-164.239 Y-12.816 Z4.305 
N452 X-164.244 Y-12.727 Z4.173 
N453 X-164.250 Y-12.638 Z4.042 
N454 X-164.255 Y-12.549 Z3.910 
N455 X-164.260 Y-12.460 Z3.778 
N456 X-164.264 Y-12.372 Z3.647 
N457 X-164.269 Y-12.283 Z3.515 
N458 X-164.274 Y-12.194 Z3.383 
N459 X-164.279 Y-12.105 Z3.252 
N460 X-164.283 Y-12.016 Z3.120 
N461 X-164.288 Y-11.928 Z2.988 
N462 X-164.292 Y-11.839 Z2.857 
N463 X-164.296 Y-11.750 Z2.725 
N464 X-164.301 Y-11.661 Z2.593 
N465 X-164.305 Y-11.572 Z2.462 
N466 X-164.309 Y-11.484 Z2.330 
N467 X-164.313 Y-11.395 Z2.198 
N468 X-164.317 Y-11.306 Z2.067 
N469 X-164.321 Y-11.217 Z1.935 
N470 X-164.325 Y-11.128 Z1.803 
N471 X-164.328 Y-11.039 Z1.672 
N472 X-164.332 Y-10.951 Z1.540 
N473 X-164.336 Y-10.862 Z1.408 
N474 X-164.339 Y-10.773 Z1.277 
N475 X-164.343 Y-10.684 Z1.145 
N476 X-164.346 Y-10.595 Z1.013 
N477 X-164.349 Y-10.506 Z0.882 
N478 X-164.352 Y-10.418 Z0.750 
N479 X-164.356 Y-10.329 Z0.618 
N480 X-164.359 Y-10.240 Z0.487 
N481 X-164.362 Y-10.151 Z0.355 
N482 X-164.365 Y-10.062 Z0.223 
N483 X-164.367 Y-9.974 Z0.091 
N484 X-164.370 Y-9.885 Z-0.040 
N485 X-164.373 Y-9.796 Z-0.172 
N486 X-164.375 Y-9.707 Z-0.304 
N487 X-164.378 Y-9.618 Z-0.435 
N488 X-164.380 Y-9.529 Z-0.567 
N489 X-164.383 Y-9.441 Z-0.699 
N490 X-164.385 Y-9.352 Z-0.830 
N491 X-164.387 Y-9.263 Z-0.962 
N492 X-164.389 Y-9.174 Z-1.094 
N493 X-164.391 Y-9.085 Z-1.226 
N494 X-164.393 Y-8.996 Z-1.357 
N495 X-164.395 Y-8.908 Z-1.489 
N496 X-164.397 Y-8.819 Z-1.621 
N497 X-164.399 Y-8.730 Z-1.752 
N498 X-164.401 Y-8.641 Z-1.884 
N499 X-164.402 Y-8.552 Z-2.016 
N500 X-164.404 Y-8.463 Z-2.148 
N501 X-164.405 Y-8.374 Z-2.279 
N502 X-164.407 Y-8.286 Z-2.411 
N503 X-164.408 Y-8.197 Z-2.543 
N504 X-164.409 Y-8.108 Z-2.674 
N505 X-164.410 Y-8.019 Z-2.806 
N506 X-164.411 Y-7.930 Z-2.938 
N507 X-164.412 Y-7.841 Z-3.070 
N508 X-164.413 Y-7.753 Z-3.201 
N509 X-164.414 Y-7.664 Z-3.333 
N510 X-164.415 Y-7.575 Z-3.465 
N511 X-164.416 Y-7.486 Z-3.596 
N512 X-164.416 Y-7.397 Z-3.728 
N513 X-164.417 Y-7.308 Z-3.860 
N514 X-164.417 Y-7.220 Z-3.992 
N515 X-164.418 Y-7.131 Z-4.123 
N516 X-164.418 Y-7.042 Z-4.255 
N517 X-164.418 Y-6.953 Z-4.387 
N518 X-164.418 Y-6.864 Z-4.518 
N519 X-164.419 Y-6.775 Z-4.650 
N520 X-164.419 Y-6.687 Z-4.781 
N521 X-164.419 Y-6.599 Z-4.912 
N522 X-164.419 Y-6.510 Z-5.043 
N523 X-164.419 Y-6.422 Z-5.174 
N524 X-164.419 Y-6.334 Z-5.305 
N525 X-164.419 Y-6.246 Z-5.436 
N526 X-164.419 Y-6.157 Z-5.566 
N527 X-164.419 Y-6.069 Z-5.697 
N528 X-164.420 Y-5.981 Z-5.828 
N529 X-164.420 Y-5.892 Z-5.959 
N530 X-164.420 Y-5.804 Z-6.090 
N531 X-164.420 Y-5.716 Z-6.221 
N532 X-164.420 Y-5.627 Z-6.352 
N533 X-164.420 Y-5.539 Z-6.483 
N534 X-164.420 Y-5.451 Z-6.614 
N535 X-164.420 Y-5.363 Z-6.745 
N536 X-164.420 Y-5.274 Z-6.875 
N537 X-164.421 Y-5.186 Z-7.006 
N538 X-164.421 Y-5.098 Z-7.137 
N539 X-164.421 Y-5.009 Z-7.268 
N540 X-164.421 Y-4.921 Z-7.399 
N541 X-164.421 Y-4.833 Z-7.530 
N542 X-164.421 Y-4.745 Z-7.661 
N543 X-164.421 Y-4.656 Z-7.792 
N544 X-164.421 Y-4.568 Z-7.923 
N545 X-164.421 Y-4.480 Z-8.054 
N546 X-164.422 Y-4.391 Z-8.184 
N547 X-164.422 Y-4.303 Z-8.315 
N548 X-164.422 Y-4.215 Z-8.446 
N549 X-164.422 Y-4.126 Z-8.577 
N550 X-164.422 Y-4.038 Z-8.708 
N551 X-164.422 Y-3.950 Z-8.839 
N552 X-164.422 Y-3.862 Z-8.970 
N553 X-164.422 Y-3.773 Z-9.101 
N554 X-164.423 Y-3.685 Z-9.232 
N555 X-164.423 Y-3.597 Z-9.363 
N556 X-164.423 Y-3.508 Z-9.493 
N557 X-164.423 Y-3.420 Z-9.624 
N558 G40 X-164.430 Y2.172 Z-17.915 F318
N559 X-164.430 Y2.172 Z-17.915 
N560 G00 X-164.430 Y-39.270 Z-45.889 
RAPORT("TA000001","Side Milling:112 End")
;trailer : concat=None
; points cnt = 511
N562 M9 ; chlodziwo wyl.
N563 MSG (" --- KONIEC PODPROGRAMU --- ")
N564 FGROUP()
N565 TRAFOOF
N566 STOPRE
N567 G0 G53 D0 Z550.0 M9 M5
N568 G0 G53 Y150 A0 B0
N569 M17
