; PROGRAM NAME: A00000138
; ORDER       : A000001
; OPER. NAME  : Side Milling:116
; OPER. DESCR.: Side Milling/czolo nozki po luku zgr
; OPER. TYPE  : sideMill
; GEO. OPTION : 1
; MACHINE     : HSTM_300_SIM840D_Py
;             : HSTM300/500 - HAMUEL: 5-axis milling machine-SIM840D Traori PP_Script
; CONTROL     : SINUMERIK 840D
; created:   2021-11-15 09:10:04.344445
;-------DODATKOWE DANE-------------------
; PROGRAMISTA : Mariusz Malec
; PARTID      : 138T005360P1002_-
;  ap         : 4.4
;  ae         : 1.0
;  lean_angle : 0.0
;  fin_offset : -12.5
;----------------------------------------
RAPORT("TA000001","Side Milling:116")
N10 TRAFOOF
N11 D0
N12 G90 G94
N13 G0 G53 D0 Z550
N14 STOPRE
M9 ; chlodziwo wyl
; --- Side Milling:116 - Side Milling/czolo nozki po luku zgr ---
N16 ;ToolChange : concat=None ,current_tdmid=None, PP.tdmId=940642
N17 TRAFOOF
N18 G0 G53 D0 X-200 Y150 Z550 B0
N19 T="7740642"
RAPORT("TA000001","ToolChangeStart 7740642")
N20 M6
RAPORT("TA000001","ToolChangeEnd")
N21 STOPRE
N22 MSG(" TLID=940642 D=10.0 R=0.0 Ang=0.0 Len=116.0 ")
;---> in saveDoc :0:00:00.157808
;---> in saveDoc :0:00:00.148602
N23 S3183 M03
N24 STOPRE
N25 TOL(0.1,1,1)
N26 G0 G53 A304.0000 B-0.0000
N27 TRAORI
N28 G54 D1
;tol5=0.15
N29 D1 
;---> in saveDoc :0:00:00.182476
STOPRE
E_ZDARZ=500001
;ACS_ROUGH_ROOT_FRONT=7740642
STOPRE
;UWAGA : ZMIENIONA TOLERANCJA OSI A i B, ruchy osi A i B beda usuniete : TOL5=0.15
N30 ; DELTA A > 40.1
N31 TRAFOOF
N32 D1
N33 STOPRE
N34 G00 G54 Z270.000
N35 G01 A304.0000 F10000
N36 TRAORI
N37 G54 D1
N38 STOPRE
N39 TRANS 
N40 G00 X-133.482 Y75.550 Z13.946 A304.0000 
N41 M342 ; chlodziwo woda
N42 X-133.482 Y34.098 Z-14.014 
N43 ;FSE_1
N44 G01 G41 X-133.545 Y33.540 Z-13.186 F318
N45 G01 X-133.545 Y33.540 Z-13.186 F318 
N46 X-133.552 Y33.480 Z-13.098 
N47 X-133.559 Y33.420 Z-13.009 
N48 X-133.565 Y33.360 Z-12.920 
N49 X-133.572 Y33.301 Z-12.832 
N50 X-133.579 Y33.241 Z-12.743 
N51 X-133.586 Y33.181 Z-12.654 
N52 X-133.592 Y33.121 Z-12.566 
N53 X-133.599 Y33.061 Z-12.477 
N54 X-133.606 Y33.002 Z-12.388 
N55 X-133.613 Y32.942 Z-12.300 
N56 X-133.619 Y32.882 Z-12.211 
N57 X-133.626 Y32.822 Z-12.123 
N58 X-133.633 Y32.762 Z-12.034 
N59 X-133.640 Y32.703 Z-11.945 
N60 X-133.647 Y32.643 Z-11.857 
N61 X-133.653 Y32.583 Z-11.768 
N62 X-133.660 Y32.523 Z-11.679 
N63 X-133.667 Y32.463 Z-11.591 
N64 X-133.674 Y32.404 Z-11.502 
N65 X-133.680 Y32.344 Z-11.413 
N66 X-133.687 Y32.284 Z-11.325 
N67 X-133.694 Y32.224 Z-11.236 
N68 X-133.701 Y32.164 Z-11.147 
N69 X-133.707 Y32.105 Z-11.059 
N70 X-133.714 Y32.045 Z-10.970 
N71 X-133.721 Y31.985 Z-10.881 
N72 X-133.728 Y31.925 Z-10.793 
N73 X-133.735 Y31.866 Z-10.704 
N74 X-133.741 Y31.806 Z-10.616 
N75 X-133.748 Y31.747 Z-10.528 
N76 X-133.755 Y31.687 Z-10.440 
N77 X-133.761 Y31.628 Z-10.352 
N78 X-133.768 Y31.569 Z-10.264 
N79 X-133.775 Y31.509 Z-10.176 
N80 X-133.782 Y31.450 Z-10.088 
N81 X-133.788 Y31.391 Z-10.000 
N82 X-133.795 Y31.331 Z-9.912 
N83 X-133.802 Y31.272 Z-9.824 
N84 X-133.808 Y31.212 Z-9.736 
N85 X-133.815 Y31.153 Z-9.648 
N86 X-133.822 Y31.094 Z-9.560 
N87 X-133.829 Y31.034 Z-9.472 
N88 X-133.835 Y30.975 Z-9.384 
N89 X-133.842 Y30.916 Z-9.296 
N90 X-133.849 Y30.856 Z-9.208 
N91 X-133.855 Y30.797 Z-9.120 
N92 X-133.862 Y30.738 Z-9.032 
N93 X-133.869 Y30.678 Z-8.944 
N94 X-133.876 Y30.619 Z-8.856 
N95 X-133.882 Y30.559 Z-8.768 
N96 X-133.889 Y30.500 Z-8.680 
N97 X-133.896 Y30.441 Z-8.592 
N98 X-133.903 Y30.381 Z-8.504 
N99 X-133.909 Y30.322 Z-8.416 
N100 X-133.916 Y30.263 Z-8.328 
N101 X-133.923 Y30.203 Z-8.240 
N102 X-133.929 Y30.144 Z-8.152 
N103 X-133.936 Y30.084 Z-8.064 
N104 X-133.943 Y30.025 Z-7.976 
N105 X-133.950 Y29.966 Z-7.888 
N106 X-133.956 Y29.906 Z-7.800 
N107 X-133.963 Y29.847 Z-7.712 
N108 X-133.970 Y29.788 Z-7.624 
N109 X-133.976 Y29.728 Z-7.535 
N110 X-133.983 Y29.669 Z-7.447 
N111 X-133.990 Y29.609 Z-7.359 
N112 X-133.997 Y29.550 Z-7.271 
N113 X-134.003 Y29.491 Z-7.183 
N114 X-134.010 Y29.431 Z-7.095 
N115 X-134.017 Y29.372 Z-7.007 
N116 X-134.024 Y29.313 Z-6.919 
N117 X-134.030 Y29.253 Z-6.831 
N118 X-134.037 Y29.194 Z-6.743 
N119 X-134.044 Y29.135 Z-6.655 
N120 X-134.050 Y29.075 Z-6.567 
N121 X-134.057 Y29.016 Z-6.479 
N122 X-134.064 Y28.957 Z-6.392 
N123 X-134.071 Y28.898 Z-6.304 
N124 X-134.077 Y28.838 Z-6.216 
N125 X-134.084 Y28.779 Z-6.128 
N126 X-134.091 Y28.720 Z-6.041 
N127 X-134.097 Y28.661 Z-5.953 
N128 X-134.104 Y28.601 Z-5.865 
N129 X-134.111 Y28.542 Z-5.777 
N130 X-134.117 Y28.483 Z-5.689 
N131 X-134.124 Y28.424 Z-5.602 
N132 X-134.131 Y28.365 Z-5.514 
N133 X-134.138 Y28.305 Z-5.426 
N134 X-134.144 Y28.246 Z-5.338 
N135 X-134.151 Y28.187 Z-5.250 
N136 X-134.158 Y28.128 Z-5.163 
N137 X-134.164 Y28.069 Z-5.075 
N138 X-134.171 Y28.009 Z-4.987 
N139 X-134.178 Y27.950 Z-4.899 
N140 X-134.184 Y27.891 Z-4.812 
N141 X-134.191 Y27.832 Z-4.724 
N142 X-134.198 Y27.772 Z-4.636 
N143 X-134.205 Y27.713 Z-4.548 
N144 X-134.211 Y27.654 Z-4.460 
N145 X-134.218 Y27.595 Z-4.373 
N146 X-134.225 Y27.536 Z-4.285 
N147 X-134.231 Y27.476 Z-4.197 
N148 X-134.238 Y27.417 Z-4.109 
N149 X-134.245 Y27.358 Z-4.021 
N150 X-134.251 Y27.299 Z-3.934 
N151 X-134.258 Y27.240 Z-3.846 
N152 X-134.265 Y27.180 Z-3.758 
N153 X-134.272 Y27.121 Z-3.670 
N154 X-134.278 Y27.062 Z-3.583 
N155 X-134.285 Y27.003 Z-3.495 
N156 X-134.292 Y26.943 Z-3.407 
N157 X-134.298 Y26.884 Z-3.319 
N158 X-134.305 Y26.825 Z-3.231 
N159 X-134.312 Y26.766 Z-3.144 
N160 X-134.319 Y26.707 Z-3.056 
N161 X-134.325 Y26.647 Z-2.968 
N162 X-134.332 Y26.588 Z-2.880 
N163 X-134.339 Y26.529 Z-2.792 
N164 X-134.345 Y26.470 Z-2.705 
N165 X-134.352 Y26.411 Z-2.617 
N166 X-134.359 Y26.351 Z-2.529 
N167 X-134.364 Y26.292 Z-2.441 
N168 X-134.368 Y26.233 Z-2.353 
N169 X-134.373 Y26.174 Z-2.265 
N170 X-134.378 Y26.114 Z-2.178 
N171 X-134.383 Y26.055 Z-2.090 
N172 X-134.387 Y25.996 Z-2.002 
N173 X-134.392 Y25.936 Z-1.914 
N174 X-134.397 Y25.877 Z-1.826 
N175 X-134.401 Y25.818 Z-1.738 
N176 X-134.406 Y25.759 Z-1.650 
N177 X-134.411 Y25.699 Z-1.562 
N178 X-134.415 Y25.640 Z-1.475 
N179 X-134.420 Y25.581 Z-1.387 
N180 X-134.425 Y25.522 Z-1.299 
N181 X-134.430 Y25.462 Z-1.211 
N182 X-134.434 Y25.403 Z-1.123 
N183 X-134.439 Y25.344 Z-1.035 
N184 X-134.444 Y25.284 Z-0.947 
N185 X-134.448 Y25.225 Z-0.859 
N186 X-134.453 Y25.166 Z-0.772 
N187 X-134.458 Y25.107 Z-0.684 
N188 X-134.462 Y25.047 Z-0.596 
N189 X-134.467 Y24.988 Z-0.508 
N190 X-134.472 Y24.929 Z-0.420 
N191 X-134.477 Y24.870 Z-0.332 
N192 X-134.481 Y24.810 Z-0.244 
N193 X-134.486 Y24.751 Z-0.156 
N194 X-134.491 Y24.692 Z-0.069 
N195 X-134.495 Y24.632 Z0.019 
N196 X-134.500 Y24.573 Z0.107 
N197 X-134.505 Y24.514 Z0.195 
N198 X-134.509 Y24.455 Z0.283 
N199 X-134.514 Y24.395 Z0.371 
N200 X-134.519 Y24.336 Z0.459 
N201 X-134.524 Y24.277 Z0.547 
N202 X-134.528 Y24.218 Z0.634 
N203 X-134.533 Y24.158 Z0.722 
N204 X-134.538 Y24.099 Z0.810 
N205 X-134.542 Y24.040 Z0.898 
N206 X-134.547 Y23.980 Z0.986 
N207 X-134.552 Y23.921 Z1.074 
N208 X-134.557 Y23.862 Z1.162 
N209 X-134.561 Y23.803 Z1.250 
N210 X-134.566 Y23.743 Z1.337 
N211 X-134.571 Y23.684 Z1.425 
N212 X-134.575 Y23.625 Z1.513 
N213 X-134.580 Y23.566 Z1.601 
N214 X-134.585 Y23.506 Z1.689 
N215 X-134.589 Y23.447 Z1.777 
N216 X-134.594 Y23.388 Z1.865 
N217 X-134.599 Y23.328 Z1.953 
N218 X-134.604 Y23.269 Z2.040 
N219 X-134.608 Y23.210 Z2.128 
N220 X-134.613 Y23.151 Z2.216 
N221 X-134.618 Y23.091 Z2.304 
N222 X-134.622 Y23.032 Z2.392 
N223 X-134.627 Y22.973 Z2.480 
N224 X-134.632 Y22.914 Z2.568 
N225 X-134.636 Y22.854 Z2.656 
N226 X-134.641 Y22.795 Z2.743 
N227 X-134.646 Y22.736 Z2.831 
N228 X-134.650 Y22.676 Z2.919 
N229 X-134.652 Y22.617 Z3.007 
N230 X-134.655 Y22.558 Z3.095 
N231 X-134.658 Y22.498 Z3.183 
N232 X-134.661 Y22.439 Z3.271 
N233 X-134.663 Y22.380 Z3.359 
N234 X-134.666 Y22.321 Z3.447 
N235 X-134.669 Y22.261 Z3.535 
N236 X-134.672 Y22.202 Z3.623 
N237 X-134.674 Y22.143 Z3.711 
N238 X-134.677 Y22.083 Z3.799 
N239 X-134.680 Y22.024 Z3.887 
N240 X-134.683 Y21.965 Z3.974 
N241 X-134.685 Y21.905 Z4.062 
N242 X-134.688 Y21.846 Z4.150 
N243 X-134.691 Y21.787 Z4.238 
N244 X-134.694 Y21.727 Z4.326 
N245 X-134.697 Y21.668 Z4.414 
N246 X-134.699 Y21.609 Z4.502 
N247 X-134.702 Y21.549 Z4.590 
N248 X-134.705 Y21.490 Z4.678 
N249 X-134.708 Y21.431 Z4.766 
N250 X-134.710 Y21.372 Z4.854 
N251 X-134.713 Y21.312 Z4.942 
N252 X-134.716 Y21.253 Z5.030 
N253 X-134.719 Y21.194 Z5.118 
N254 X-134.721 Y21.134 Z5.206 
N255 X-134.724 Y21.075 Z5.293 
N256 X-134.727 Y21.016 Z5.381 
N257 X-134.730 Y20.956 Z5.469 
N258 X-134.732 Y20.897 Z5.557 
N259 X-134.735 Y20.838 Z5.645 
N260 X-134.738 Y20.778 Z5.733 
N261 X-134.741 Y20.719 Z5.821 
N262 X-134.743 Y20.660 Z5.909 
N263 X-134.746 Y20.600 Z5.997 
N264 X-134.749 Y20.541 Z6.085 
N265 X-134.752 Y20.482 Z6.173 
N266 X-134.754 Y20.423 Z6.261 
N267 X-134.757 Y20.363 Z6.349 
N268 X-134.760 Y20.304 Z6.437 
N269 X-134.763 Y20.245 Z6.525 
N270 X-134.765 Y20.185 Z6.612 
N271 X-134.768 Y20.126 Z6.700 
N272 X-134.769 Y20.067 Z6.788 
N273 X-134.770 Y20.007 Z6.876 
N274 X-134.770 Y19.948 Z6.964 
N275 X-134.771 Y19.889 Z7.052 
N276 X-134.772 Y19.829 Z7.140 
N277 X-134.773 Y19.770 Z7.228 
N278 X-134.774 Y19.711 Z7.316 
N279 X-134.775 Y19.651 Z7.404 
N280 X-134.776 Y19.592 Z7.492 
N281 X-134.776 Y19.533 Z7.580 
N282 X-134.777 Y19.473 Z7.668 
N283 X-134.778 Y19.414 Z7.756 
N284 X-134.779 Y19.355 Z7.844 
N285 X-134.780 Y19.295 Z7.932 
N286 X-134.781 Y19.236 Z8.020 
N287 X-134.781 Y19.177 Z8.108 
N288 X-134.782 Y19.117 Z8.196 
N289 X-134.783 Y19.058 Z8.284 
N290 X-134.784 Y18.999 Z8.372 
N291 X-134.785 Y18.939 Z8.460 
N292 X-134.786 Y18.880 Z8.548 
N293 X-134.787 Y18.821 Z8.636 
N294 X-134.787 Y18.761 Z8.723 
N295 X-134.788 Y18.702 Z8.811 
N296 X-134.789 Y18.643 Z8.899 
N297 X-134.790 Y18.583 Z8.987 
N298 X-134.791 Y18.524 Z9.075 
N299 X-134.792 Y18.465 Z9.163 
N300 X-134.793 Y18.405 Z9.251 
N301 X-134.793 Y18.346 Z9.339 
N302 X-134.794 Y18.287 Z9.427 
N303 X-134.795 Y18.227 Z9.515 
N304 X-134.796 Y18.168 Z9.603 
N305 X-134.797 Y18.109 Z9.691 
N306 X-134.798 Y18.049 Z9.779 
N307 X-134.799 Y17.990 Z9.867 
N308 X-134.799 Y17.931 Z9.955 
N309 X-134.800 Y17.871 Z10.043 
N310 X-134.801 Y17.812 Z10.131 
N311 X-134.802 Y17.753 Z10.219 
N312 X-134.803 Y17.693 Z10.307 
N313 X-134.804 Y17.634 Z10.395 
N314 X-134.805 Y17.575 Z10.483 
N315 X-134.805 Y17.515 Z10.571 
N316 X-134.806 Y17.456 Z10.659 
N317 X-134.807 Y17.397 Z10.747 
N318 X-134.808 Y17.337 Z10.835 
N319 X-134.809 Y17.278 Z10.922 
N320 X-134.810 Y17.219 Z11.010 
N321 X-134.811 Y17.160 Z11.098 
N322 X-134.811 Y17.100 Z11.186 
N323 X-134.812 Y17.041 Z11.274 
N324 X-134.813 Y16.982 Z11.362 
N325 X-134.814 Y16.922 Z11.450 
N326 X-134.815 Y16.863 Z11.538 
N327 X-134.816 Y16.804 Z11.626 
N328 X-134.817 Y16.744 Z11.714 
N329 X-134.817 Y16.685 Z11.802 
N330 X-134.817 Y16.626 Z11.890 
N331 X-134.816 Y16.566 Z11.978 
N332 X-134.815 Y16.507 Z12.066 
N333 X-134.813 Y16.448 Z12.154 
N334 X-134.812 Y16.388 Z12.242 
N335 X-134.811 Y16.329 Z12.330 
N336 X-134.809 Y16.270 Z12.418 
N337 X-134.808 Y16.210 Z12.506 
N338 X-134.807 Y16.151 Z12.594 
N339 X-134.806 Y16.092 Z12.682 
N340 X-134.804 Y16.032 Z12.770 
N341 X-134.803 Y15.973 Z12.858 
N342 X-134.802 Y15.914 Z12.946 
N343 X-134.801 Y15.854 Z13.033 
N344 X-134.799 Y15.795 Z13.121 
N345 X-134.798 Y15.736 Z13.209 
N346 X-134.797 Y15.676 Z13.297 
N347 X-134.795 Y15.617 Z13.385 
N348 X-134.794 Y15.558 Z13.473 
N349 X-134.793 Y15.498 Z13.561 
N350 X-134.792 Y15.439 Z13.649 
N351 X-134.790 Y15.380 Z13.737 
N352 X-134.789 Y15.320 Z13.825 
N353 X-134.788 Y15.261 Z13.913 
N354 X-134.787 Y15.202 Z14.001 
N355 X-134.785 Y15.142 Z14.089 
N356 X-134.784 Y15.083 Z14.177 
N357 X-134.783 Y15.024 Z14.265 
N358 X-134.781 Y14.964 Z14.353 
N359 X-134.780 Y14.905 Z14.441 
N360 X-134.779 Y14.846 Z14.529 
N361 X-134.778 Y14.786 Z14.617 
N362 X-134.776 Y14.727 Z14.705 
N363 X-134.775 Y14.668 Z14.793 
N364 X-134.774 Y14.608 Z14.881 
N365 X-134.772 Y14.549 Z14.969 
N366 X-134.771 Y14.490 Z15.056 
N367 X-134.770 Y14.430 Z15.144 
N368 X-134.769 Y14.371 Z15.232 
N369 X-134.767 Y14.312 Z15.320 
N370 X-134.766 Y14.252 Z15.408 
N371 X-134.765 Y14.193 Z15.496 
N372 X-134.764 Y14.134 Z15.584 
N373 X-134.762 Y14.074 Z15.672 
N374 X-134.761 Y14.015 Z15.760 
N375 X-134.760 Y13.956 Z15.848 
N376 X-134.758 Y13.896 Z15.936 
N377 X-134.757 Y13.837 Z16.024 
N378 X-134.756 Y13.778 Z16.112 
N379 X-134.755 Y13.719 Z16.200 
N380 X-134.753 Y13.659 Z16.288 
N381 X-134.752 Y13.600 Z16.376 
N382 X-134.751 Y13.541 Z16.464 
N383 X-134.750 Y13.481 Z16.552 
N384 X-134.748 Y13.422 Z16.640 
N385 X-134.747 Y13.363 Z16.728 
N386 X-134.744 Y13.303 Z16.816 
N387 X-134.741 Y13.244 Z16.903 
N388 X-134.738 Y13.185 Z16.991 
N389 X-134.735 Y13.125 Z17.079 
N390 X-134.732 Y13.066 Z17.167 
N391 X-134.729 Y13.007 Z17.255 
N392 X-134.726 Y12.947 Z17.343 
N393 X-134.723 Y12.888 Z17.431 
N394 X-134.720 Y12.829 Z17.519 
N395 X-134.717 Y12.769 Z17.607 
N396 X-134.714 Y12.710 Z17.695 
N397 X-134.710 Y12.651 Z17.783 
N398 X-134.707 Y12.592 Z17.871 
N399 X-134.704 Y12.532 Z17.959 
N400 X-134.701 Y12.473 Z18.047 
N401 X-134.698 Y12.414 Z18.134 
N402 X-134.695 Y12.354 Z18.222 
N403 X-134.692 Y12.295 Z18.310 
N404 X-134.689 Y12.236 Z18.398 
N405 X-134.686 Y12.176 Z18.486 
N406 X-134.683 Y12.117 Z18.574 
N407 X-134.680 Y12.058 Z18.662 
N408 X-134.677 Y11.998 Z18.750 
N409 X-134.674 Y11.939 Z18.838 
N410 X-134.671 Y11.880 Z18.926 
N411 X-134.667 Y11.821 Z19.014 
N412 X-134.664 Y11.761 Z19.102 
N413 X-134.661 Y11.702 Z19.190 
N414 X-134.658 Y11.643 Z19.277 
N415 X-134.655 Y11.583 Z19.365 
N416 X-134.652 Y11.524 Z19.453 
N417 X-134.649 Y11.465 Z19.541 
N418 X-134.646 Y11.405 Z19.629 
N419 X-134.643 Y11.346 Z19.717 
N420 X-134.640 Y11.287 Z19.805 
N421 X-134.637 Y11.227 Z19.893 
N422 X-134.634 Y11.168 Z19.981 
N423 X-134.631 Y11.109 Z20.069 
N424 X-134.628 Y11.050 Z20.157 
N425 X-134.624 Y10.990 Z20.245 
N426 X-134.621 Y10.931 Z20.333 
N427 X-134.618 Y10.871 Z20.421 
N428 X-134.615 Y10.812 Z20.509 
N429 X-134.612 Y10.753 Z20.597 
N430 X-134.609 Y10.693 Z20.685 
N431 X-134.606 Y10.634 Z20.773 
N432 X-134.603 Y10.574 Z20.862 
N433 X-134.600 Y10.515 Z20.950 
N434 X-134.597 Y10.455 Z21.038 
N435 X-134.594 Y10.396 Z21.126 
N436 X-134.591 Y10.336 Z21.214 
N437 X-134.588 Y10.277 Z21.302 
N438 X-134.584 Y10.217 Z21.390 
N439 X-134.581 Y10.158 Z21.479 
N440 X-134.578 Y10.098 Z21.567 
N441 X-134.575 Y10.039 Z21.655 
N442 X-134.572 Y9.980 Z21.743 
N443 X-134.569 Y9.920 Z21.831 
N444 X-134.566 Y9.861 Z21.919 
N445 X-134.563 Y9.801 Z22.008 
N446 X-134.560 Y9.742 Z22.096 
N447 X-134.557 Y9.682 Z22.184 
N448 X-134.554 Y9.623 Z22.272 
N449 X-134.551 Y9.563 Z22.360 
N450 X-134.547 Y9.504 Z22.448 
N451 X-134.544 Y9.444 Z22.537 
N452 X-134.541 Y9.385 Z22.625 
N453 X-134.538 Y9.325 Z22.713 
N454 X-134.535 Y9.266 Z22.801 
N455 X-134.532 Y9.207 Z22.889 
N456 X-134.529 Y9.147 Z22.977 
N457 X-134.526 Y9.088 Z23.066 
N458 X-134.523 Y9.028 Z23.154 
N459 X-134.520 Y8.969 Z23.242 
N460 X-134.517 Y8.909 Z23.330 
N461 X-134.514 Y8.850 Z23.418 
N462 X-134.511 Y8.790 Z23.506 
N463 X-134.507 Y8.731 Z23.594 
N464 X-134.504 Y8.671 Z23.683 
N465 X-134.501 Y8.612 Z23.771 
N466 X-134.498 Y8.552 Z23.859 
N467 X-134.495 Y8.493 Z23.947 
N468 X-134.492 Y8.433 Z24.035 
N469 X-134.489 Y8.374 Z24.123 
N470 X-134.486 Y8.315 Z24.212 
N471 X-134.483 Y8.255 Z24.300 
N472 X-134.480 Y8.196 Z24.388 
N473 X-134.477 Y8.136 Z24.476 
N474 G40 X-134.448 Y7.577 Z25.305 F318
N475 X-134.448 Y7.577 Z25.305 
N476 G00 X-134.448 Y32.448 Z42.081 
N477 X-133.482 Y55.515 Z0.432 
N478 X-133.482 Y30.644 Z-16.344 
N479 ;FSE_1
N480 G01 G41 X-133.545 Y30.085 Z-15.516 F318
N481 G01 X-133.545 Y30.085 Z-15.516 F318 
N482 X-133.552 Y30.026 Z-15.428 
N483 X-133.559 Y29.966 Z-15.339 
N484 X-133.565 Y29.906 Z-15.250 
N485 X-133.572 Y29.846 Z-15.162 
N486 X-133.579 Y29.786 Z-15.073 
N487 X-133.586 Y29.727 Z-14.984 
N488 X-133.592 Y29.667 Z-14.896 
N489 X-133.599 Y29.607 Z-14.807 
N490 X-133.606 Y29.547 Z-14.718 
N491 X-133.613 Y29.487 Z-14.630 
N492 X-133.619 Y29.428 Z-14.541 
N493 X-133.626 Y29.368 Z-14.453 
N494 X-133.633 Y29.308 Z-14.364 
N495 X-133.640 Y29.248 Z-14.275 
N496 X-133.647 Y29.189 Z-14.187 
N497 X-133.653 Y29.129 Z-14.098 
N498 X-133.660 Y29.069 Z-14.009 
N499 X-133.667 Y29.009 Z-13.921 
N500 X-133.674 Y28.949 Z-13.832 
N501 X-133.680 Y28.890 Z-13.743 
N502 X-133.687 Y28.830 Z-13.655 
N503 X-133.694 Y28.770 Z-13.566 
N504 X-133.701 Y28.710 Z-13.477 
N505 X-133.707 Y28.650 Z-13.389 
N506 X-133.714 Y28.591 Z-13.300 
N507 X-133.721 Y28.531 Z-13.211 
N508 X-133.728 Y28.471 Z-13.123 
N509 X-133.735 Y28.411 Z-13.034 
N510 X-133.741 Y28.352 Z-12.946 
N511 X-133.748 Y28.292 Z-12.858 
N512 X-133.755 Y28.233 Z-12.770 
N513 X-133.761 Y28.174 Z-12.682 
N514 X-133.768 Y28.114 Z-12.594 
N515 X-133.775 Y28.055 Z-12.506 
N516 X-133.782 Y27.996 Z-12.418 
N517 X-133.788 Y27.936 Z-12.330 
N518 X-133.795 Y27.877 Z-12.242 
N519 X-133.802 Y27.818 Z-12.154 
N520 X-133.808 Y27.758 Z-12.066 
N521 X-133.815 Y27.699 Z-11.978 
N522 X-133.822 Y27.639 Z-11.890 
N523 X-133.829 Y27.580 Z-11.802 
N524 X-133.835 Y27.521 Z-11.714 
N525 X-133.842 Y27.461 Z-11.626 
N526 X-133.849 Y27.402 Z-11.538 
N527 X-133.855 Y27.343 Z-11.450 
N528 X-133.862 Y27.283 Z-11.362 
N529 X-133.869 Y27.224 Z-11.274 
N530 X-133.876 Y27.164 Z-11.186 
N531 X-133.882 Y27.105 Z-11.098 
N532 X-133.889 Y27.046 Z-11.010 
N533 X-133.896 Y26.986 Z-10.922 
N534 X-133.903 Y26.927 Z-10.834 
N535 X-133.909 Y26.868 Z-10.746 
N536 X-133.916 Y26.808 Z-10.658 
N537 X-133.923 Y26.749 Z-10.570 
N538 X-133.929 Y26.689 Z-10.482 
N539 X-133.936 Y26.630 Z-10.394 
N540 X-133.943 Y26.571 Z-10.306 
N541 X-133.950 Y26.511 Z-10.218 
N542 X-133.956 Y26.452 Z-10.130 
N543 X-133.963 Y26.393 Z-10.041 
N544 X-133.970 Y26.333 Z-9.953 
N545 X-133.976 Y26.274 Z-9.865 
N546 X-133.983 Y26.215 Z-9.777 
N547 X-133.990 Y26.155 Z-9.689 
N548 X-133.997 Y26.096 Z-9.601 
N549 X-134.003 Y26.036 Z-9.513 
N550 X-134.010 Y25.977 Z-9.425 
N551 X-134.017 Y25.918 Z-9.337 
N552 X-134.024 Y25.858 Z-9.249 
N553 X-134.030 Y25.799 Z-9.161 
N554 X-134.037 Y25.740 Z-9.073 
N555 X-134.044 Y25.680 Z-8.985 
N556 X-134.050 Y25.621 Z-8.897 
N557 X-134.057 Y25.562 Z-8.809 
N558 X-134.064 Y25.502 Z-8.722 
N559 X-134.071 Y25.443 Z-8.634 
N560 X-134.077 Y25.384 Z-8.546 
N561 X-134.084 Y25.325 Z-8.458 
N562 X-134.091 Y25.266 Z-8.371 
N563 X-134.097 Y25.206 Z-8.283 
N564 X-134.104 Y25.147 Z-8.195 
N565 X-134.111 Y25.088 Z-8.107 
N566 X-134.117 Y25.029 Z-8.019 
N567 X-134.124 Y24.969 Z-7.932 
N568 X-134.131 Y24.910 Z-7.844 
N569 X-134.138 Y24.851 Z-7.756 
N570 X-134.144 Y24.792 Z-7.668 
N571 X-134.151 Y24.733 Z-7.580 
N572 X-134.158 Y24.673 Z-7.493 
N573 X-134.164 Y24.614 Z-7.405 
N574 X-134.171 Y24.555 Z-7.317 
N575 X-134.178 Y24.496 Z-7.229 
N576 X-134.184 Y24.437 Z-7.142 
N577 X-134.191 Y24.377 Z-7.054 
N578 X-134.198 Y24.318 Z-6.966 
N579 X-134.205 Y24.259 Z-6.878 
N580 X-134.211 Y24.200 Z-6.790 
N581 X-134.218 Y24.140 Z-6.703 
N582 X-134.225 Y24.081 Z-6.615 
N583 X-134.231 Y24.022 Z-6.527 
N584 X-134.238 Y23.963 Z-6.439 
N585 X-134.245 Y23.904 Z-6.351 
N586 X-134.251 Y23.844 Z-6.264 
N587 X-134.258 Y23.785 Z-6.176 
N588 X-134.265 Y23.726 Z-6.088 
N589 X-134.272 Y23.667 Z-6.000 
N590 X-134.278 Y23.608 Z-5.912 
N591 X-134.285 Y23.548 Z-5.825 
N592 X-134.292 Y23.489 Z-5.737 
N593 X-134.298 Y23.430 Z-5.649 
N594 X-134.305 Y23.371 Z-5.561 
N595 X-134.312 Y23.312 Z-5.474 
N596 X-134.319 Y23.252 Z-5.386 
N597 X-134.325 Y23.193 Z-5.298 
N598 X-134.332 Y23.134 Z-5.210 
N599 X-134.339 Y23.075 Z-5.122 
N600 X-134.345 Y23.015 Z-5.035 
N601 X-134.352 Y22.956 Z-4.947 
N602 X-134.359 Y22.897 Z-4.859 
N603 X-134.364 Y22.838 Z-4.771 
N604 X-134.368 Y22.778 Z-4.683 
N605 X-134.373 Y22.719 Z-4.595 
N606 X-134.378 Y22.660 Z-4.508 
N607 X-134.383 Y22.601 Z-4.420 
N608 X-134.387 Y22.541 Z-4.332 
N609 X-134.392 Y22.482 Z-4.244 
N610 X-134.397 Y22.423 Z-4.156 
N611 X-134.401 Y22.364 Z-4.068 
N612 X-134.406 Y22.304 Z-3.980 
N613 X-134.411 Y22.245 Z-3.892 
N614 X-134.415 Y22.186 Z-3.805 
N615 X-134.420 Y22.126 Z-3.717 
N616 X-134.425 Y22.067 Z-3.629 
N617 X-134.430 Y22.008 Z-3.541 
N618 X-134.434 Y21.949 Z-3.453 
N619 X-134.439 Y21.889 Z-3.365 
N620 X-134.444 Y21.830 Z-3.277 
N621 X-134.448 Y21.771 Z-3.189 
N622 X-134.453 Y21.712 Z-3.102 
N623 X-134.458 Y21.652 Z-3.014 
N624 X-134.462 Y21.593 Z-2.926 
N625 X-134.467 Y21.534 Z-2.838 
N626 X-134.472 Y21.474 Z-2.750 
N627 X-134.477 Y21.415 Z-2.662 
N628 X-134.481 Y21.356 Z-2.574 
N629 X-134.486 Y21.297 Z-2.486 
N630 X-134.491 Y21.237 Z-2.399 
N631 X-134.495 Y21.178 Z-2.311 
N632 X-134.500 Y21.119 Z-2.223 
N633 X-134.505 Y21.060 Z-2.135 
N634 X-134.509 Y21.000 Z-2.047 
N635 X-134.514 Y20.941 Z-1.959 
N636 X-134.519 Y20.882 Z-1.871 
N637 X-134.524 Y20.822 Z-1.783 
N638 X-134.528 Y20.763 Z-1.696 
N639 X-134.533 Y20.704 Z-1.608 
N640 X-134.538 Y20.645 Z-1.520 
N641 X-134.542 Y20.585 Z-1.432 
N642 X-134.547 Y20.526 Z-1.344 
N643 X-134.552 Y20.467 Z-1.256 
N644 X-134.557 Y20.408 Z-1.168 
N645 X-134.561 Y20.348 Z-1.080 
N646 X-134.566 Y20.289 Z-0.993 
N647 X-134.571 Y20.230 Z-0.905 
N648 X-134.575 Y20.170 Z-0.817 
N649 X-134.580 Y20.111 Z-0.729 
N650 X-134.585 Y20.052 Z-0.641 
N651 X-134.589 Y19.993 Z-0.553 
N652 X-134.594 Y19.933 Z-0.465 
N653 X-134.599 Y19.874 Z-0.377 
N654 X-134.604 Y19.815 Z-0.289 
N655 X-134.608 Y19.756 Z-0.202 
N656 X-134.613 Y19.696 Z-0.114 
N657 X-134.618 Y19.637 Z-0.026 
N658 X-134.622 Y19.578 Z0.062 
N659 X-134.627 Y19.518 Z0.150 
N660 X-134.632 Y19.459 Z0.238 
N661 X-134.636 Y19.400 Z0.326 
N662 X-134.641 Y19.341 Z0.414 
N663 X-134.646 Y19.281 Z0.501 
N664 X-134.650 Y19.222 Z0.589 
N665 X-134.652 Y19.163 Z0.677 
N666 X-134.655 Y19.103 Z0.765 
N667 X-134.658 Y19.044 Z0.853 
N668 X-134.661 Y18.985 Z0.941 
N669 X-134.663 Y18.926 Z1.029 
N670 X-134.666 Y18.866 Z1.117 
N671 X-134.669 Y18.807 Z1.205 
N672 X-134.672 Y18.748 Z1.293 
N673 X-134.674 Y18.688 Z1.381 
N674 X-134.677 Y18.629 Z1.469 
N675 X-134.680 Y18.570 Z1.557 
N676 X-134.683 Y18.510 Z1.644 
N677 X-134.685 Y18.451 Z1.732 
N678 X-134.688 Y18.392 Z1.820 
N679 X-134.691 Y18.332 Z1.908 
N680 X-134.694 Y18.273 Z1.996 
N681 X-134.697 Y18.214 Z2.084 
N682 X-134.699 Y18.154 Z2.172 
N683 X-134.702 Y18.095 Z2.260 
N684 X-134.705 Y18.036 Z2.348 
N685 X-134.708 Y17.977 Z2.436 
N686 X-134.710 Y17.917 Z2.524 
N687 X-134.713 Y17.858 Z2.612 
N688 X-134.716 Y17.799 Z2.700 
N689 X-134.719 Y17.739 Z2.788 
N690 X-134.721 Y17.680 Z2.876 
N691 X-134.724 Y17.621 Z2.963 
N692 X-134.727 Y17.561 Z3.051 
N693 X-134.730 Y17.502 Z3.139 
N694 X-134.732 Y17.443 Z3.227 
N695 X-134.735 Y17.383 Z3.315 
N696 X-134.738 Y17.324 Z3.403 
N697 X-134.741 Y17.265 Z3.491 
N698 X-134.743 Y17.205 Z3.579 
N699 X-134.746 Y17.146 Z3.667 
N700 X-134.749 Y17.087 Z3.755 
N701 X-134.752 Y17.028 Z3.843 
N702 X-134.754 Y16.968 Z3.931 
N703 X-134.757 Y16.909 Z4.019 
N704 X-134.760 Y16.850 Z4.107 
N705 X-134.763 Y16.790 Z4.195 
N706 X-134.765 Y16.731 Z4.282 
N707 X-134.768 Y16.672 Z4.370 
N708 X-134.769 Y16.612 Z4.458 
N709 X-134.770 Y16.553 Z4.546 
N710 X-134.770 Y16.494 Z4.634 
N711 X-134.771 Y16.434 Z4.722 
N712 X-134.772 Y16.375 Z4.810 
N713 X-134.773 Y16.316 Z4.898 
N714 X-134.774 Y16.256 Z4.986 
N715 X-134.775 Y16.197 Z5.074 
N716 X-134.776 Y16.138 Z5.162 
N717 X-134.776 Y16.078 Z5.250 
N718 X-134.777 Y16.019 Z5.338 
N719 X-134.778 Y15.960 Z5.426 
N720 X-134.779 Y15.900 Z5.514 
N721 X-134.780 Y15.841 Z5.602 
N722 X-134.781 Y15.782 Z5.690 
N723 X-134.781 Y15.722 Z5.778 
N724 X-134.782 Y15.663 Z5.866 
N725 X-134.783 Y15.604 Z5.954 
N726 X-134.784 Y15.544 Z6.042 
N727 X-134.785 Y15.485 Z6.130 
N728 X-134.786 Y15.426 Z6.218 
N729 X-134.787 Y15.366 Z6.306 
N730 X-134.787 Y15.307 Z6.394 
N731 X-134.788 Y15.248 Z6.481 
N732 X-134.789 Y15.188 Z6.569 
N733 X-134.790 Y15.129 Z6.657 
N734 X-134.791 Y15.070 Z6.745 
N735 X-134.792 Y15.010 Z6.833 
N736 X-134.793 Y14.951 Z6.921 
N737 X-134.793 Y14.892 Z7.009 
N738 X-134.794 Y14.832 Z7.097 
N739 X-134.795 Y14.773 Z7.185 
N740 X-134.796 Y14.714 Z7.273 
N741 X-134.797 Y14.654 Z7.361 
N742 X-134.798 Y14.595 Z7.449 
N743 X-134.799 Y14.536 Z7.537 
N744 X-134.799 Y14.476 Z7.625 
N745 X-134.800 Y14.417 Z7.713 
N746 X-134.801 Y14.358 Z7.801 
N747 X-134.802 Y14.298 Z7.889 
N748 X-134.803 Y14.239 Z7.977 
N749 X-134.804 Y14.180 Z8.065 
N750 X-134.805 Y14.120 Z8.153 
N751 X-134.805 Y14.061 Z8.241 
N752 X-134.806 Y14.002 Z8.329 
N753 X-134.807 Y13.943 Z8.417 
N754 X-134.808 Y13.883 Z8.505 
N755 X-134.809 Y13.824 Z8.593 
N756 X-134.810 Y13.765 Z8.680 
N757 X-134.811 Y13.705 Z8.768 
N758 X-134.811 Y13.646 Z8.856 
N759 X-134.812 Y13.587 Z8.944 
N760 X-134.813 Y13.527 Z9.032 
N761 X-134.814 Y13.468 Z9.120 
N762 X-134.815 Y13.409 Z9.208 
N763 X-134.816 Y13.349 Z9.296 
N764 X-134.817 Y13.290 Z9.384 
N765 X-134.817 Y13.231 Z9.472 
N766 X-134.817 Y13.171 Z9.560 
N767 X-134.816 Y13.112 Z9.648 
N768 X-134.815 Y13.053 Z9.736 
N769 X-134.813 Y12.993 Z9.824 
N770 X-134.812 Y12.934 Z9.912 
N771 X-134.811 Y12.875 Z10.000 
N772 X-134.809 Y12.815 Z10.088 
N773 X-134.808 Y12.756 Z10.176 
N774 X-134.807 Y12.697 Z10.264 
N775 X-134.806 Y12.637 Z10.352 
N776 X-134.804 Y12.578 Z10.440 
N777 X-134.803 Y12.519 Z10.528 
N778 X-134.802 Y12.459 Z10.616 
N779 X-134.801 Y12.400 Z10.703 
N780 X-134.799 Y12.341 Z10.791 
N781 X-134.798 Y12.281 Z10.879 
N782 X-134.797 Y12.222 Z10.967 
N783 X-134.795 Y12.163 Z11.055 
N784 X-134.794 Y12.103 Z11.143 
N785 X-134.793 Y12.044 Z11.231 
N786 X-134.792 Y11.985 Z11.319 
N787 X-134.790 Y11.925 Z11.407 
N788 X-134.789 Y11.866 Z11.495 
N789 X-134.788 Y11.807 Z11.583 
N790 X-134.787 Y11.747 Z11.671 
N791 X-134.785 Y11.688 Z11.759 
N792 X-134.784 Y11.629 Z11.847 
N793 X-134.783 Y11.569 Z11.935 
N794 X-134.781 Y11.510 Z12.023 
N795 X-134.780 Y11.451 Z12.111 
N796 X-134.779 Y11.391 Z12.199 
N797 X-134.778 Y11.332 Z12.287 
N798 X-134.776 Y11.273 Z12.375 
N799 X-134.775 Y11.213 Z12.463 
N800 X-134.774 Y11.154 Z12.551 
N801 X-134.772 Y11.095 Z12.639 
N802 X-134.771 Y11.035 Z12.726 
N803 X-134.770 Y10.976 Z12.814 
N804 X-134.769 Y10.917 Z12.902 
N805 X-134.767 Y10.857 Z12.990 
N806 X-134.766 Y10.798 Z13.078 
N807 X-134.765 Y10.739 Z13.166 
N808 X-134.764 Y10.679 Z13.254 
N809 X-134.762 Y10.620 Z13.342 
N810 X-134.761 Y10.561 Z13.430 
N811 X-134.760 Y10.501 Z13.518 
N812 X-134.758 Y10.442 Z13.606 
N813 X-134.757 Y10.383 Z13.694 
N814 X-134.756 Y10.324 Z13.782 
N815 X-134.755 Y10.264 Z13.870 
N816 X-134.753 Y10.205 Z13.958 
N817 X-134.752 Y10.146 Z14.046 
N818 X-134.751 Y10.086 Z14.134 
N819 X-134.750 Y10.027 Z14.222 
N820 X-134.748 Y9.968 Z14.310 
N821 X-134.747 Y9.908 Z14.398 
N822 X-134.744 Y9.849 Z14.486 
N823 X-134.741 Y9.790 Z14.574 
N824 X-134.738 Y9.730 Z14.661 
N825 X-134.735 Y9.671 Z14.749 
N826 X-134.732 Y9.612 Z14.837 
N827 X-134.729 Y9.552 Z14.925 
N828 X-134.726 Y9.493 Z15.013 
N829 X-134.723 Y9.434 Z15.101 
N830 X-134.720 Y9.374 Z15.189 
N831 X-134.717 Y9.315 Z15.277 
N832 X-134.714 Y9.256 Z15.365 
N833 X-134.710 Y9.197 Z15.453 
N834 X-134.707 Y9.137 Z15.541 
N835 X-134.704 Y9.078 Z15.629 
N836 X-134.701 Y9.019 Z15.717 
N837 X-134.698 Y8.959 Z15.804 
N838 X-134.695 Y8.900 Z15.892 
N839 X-134.692 Y8.841 Z15.980 
N840 X-134.689 Y8.781 Z16.068 
N841 X-134.686 Y8.722 Z16.156 
N842 X-134.683 Y8.663 Z16.244 
N843 X-134.680 Y8.603 Z16.332 
N844 X-134.677 Y8.544 Z16.420 
N845 X-134.674 Y8.485 Z16.508 
N846 X-134.671 Y8.426 Z16.596 
N847 X-134.667 Y8.366 Z16.684 
N848 X-134.664 Y8.307 Z16.772 
N849 X-134.661 Y8.248 Z16.860 
N850 X-134.658 Y8.188 Z16.948 
N851 X-134.655 Y8.129 Z17.035 
N852 X-134.652 Y8.070 Z17.123 
N853 X-134.649 Y8.010 Z17.211 
N854 X-134.646 Y7.951 Z17.299 
N855 X-134.643 Y7.892 Z17.387 
N856 X-134.640 Y7.832 Z17.475 
N857 X-134.637 Y7.773 Z17.563 
N858 X-134.634 Y7.714 Z17.651 
N859 X-134.631 Y7.655 Z17.739 
N860 X-134.628 Y7.595 Z17.827 
N861 X-134.624 Y7.536 Z17.915 
N862 X-134.621 Y7.477 Z18.003 
N863 X-134.618 Y7.417 Z18.091 
N864 X-134.615 Y7.358 Z18.179 
N865 X-134.612 Y7.298 Z18.267 
N866 X-134.609 Y7.239 Z18.355 
N867 X-134.606 Y7.179 Z18.443 
N868 X-134.603 Y7.120 Z18.532 
N869 X-134.600 Y7.060 Z18.620 
N870 X-134.597 Y7.001 Z18.708 
N871 X-134.594 Y6.941 Z18.796 
N872 X-134.591 Y6.882 Z18.884 
N873 X-134.588 Y6.823 Z18.972 
N874 X-134.584 Y6.763 Z19.061 
N875 X-134.581 Y6.704 Z19.149 
N876 X-134.578 Y6.644 Z19.237 
N877 X-134.575 Y6.585 Z19.325 
N878 X-134.572 Y6.525 Z19.413 
N879 X-134.569 Y6.466 Z19.501 
N880 X-134.566 Y6.406 Z19.589 
N881 X-134.563 Y6.347 Z19.678 
N882 X-134.560 Y6.287 Z19.766 
N883 X-134.557 Y6.228 Z19.854 
N884 X-134.554 Y6.168 Z19.942 
N885 X-134.551 Y6.109 Z20.030 
N886 X-134.547 Y6.050 Z20.118 
N887 X-134.544 Y5.990 Z20.207 
N888 X-134.541 Y5.931 Z20.295 
N889 X-134.538 Y5.871 Z20.383 
N890 X-134.535 Y5.812 Z20.471 
N891 X-134.532 Y5.752 Z20.559 
N892 X-134.529 Y5.693 Z20.647 
N893 X-134.526 Y5.633 Z20.736 
N894 X-134.523 Y5.574 Z20.824 
N895 X-134.520 Y5.514 Z20.912 
N896 X-134.517 Y5.455 Z21.000 
N897 X-134.514 Y5.395 Z21.088 
N898 X-134.511 Y5.336 Z21.176 
N899 X-134.507 Y5.276 Z21.264 
N900 X-134.504 Y5.217 Z21.353 
N901 X-134.501 Y5.158 Z21.441 
N902 X-134.498 Y5.098 Z21.529 
N903 X-134.495 Y5.039 Z21.617 
N904 X-134.492 Y4.979 Z21.705 
N905 X-134.489 Y4.920 Z21.793 
N906 X-134.486 Y4.860 Z21.882 
N907 X-134.483 Y4.801 Z21.970 
N908 X-134.480 Y4.741 Z22.058 
N909 X-134.477 Y4.682 Z22.146 
N910 G40 X-134.448 Y4.123 Z22.975 F318
N911 X-134.448 Y4.123 Z22.975 
N912 G00 X-134.448 Y28.994 Z39.751 
N913 X-133.482 Y52.060 Z-1.898 
N914 X-133.482 Y27.189 Z-18.674 
N915 ;FSE_1
N916 G01 G41 X-133.545 Y26.631 Z-17.846 F318
N917 G01 X-133.545 Y26.631 Z-17.846 F318 
N918 X-133.552 Y26.571 Z-17.758 
N919 X-133.559 Y26.512 Z-17.669 
N920 X-133.565 Y26.452 Z-17.580 
N921 X-133.572 Y26.392 Z-17.492 
N922 X-133.579 Y26.332 Z-17.403 
N923 X-133.586 Y26.272 Z-17.314 
N924 X-133.592 Y26.213 Z-17.226 
N925 X-133.599 Y26.153 Z-17.137 
N926 X-133.606 Y26.093 Z-17.048 
N927 X-133.613 Y26.033 Z-16.960 
N928 X-133.619 Y25.973 Z-16.871 
N929 X-133.626 Y25.914 Z-16.782 
N930 X-133.633 Y25.854 Z-16.694 
N931 X-133.640 Y25.794 Z-16.605 
N932 X-133.647 Y25.734 Z-16.517 
N933 X-133.653 Y25.674 Z-16.428 
N934 X-133.660 Y25.615 Z-16.339 
N935 X-133.667 Y25.555 Z-16.251 
N936 X-133.674 Y25.495 Z-16.162 
N937 X-133.680 Y25.435 Z-16.073 
N938 X-133.687 Y25.375 Z-15.985 
N939 X-133.694 Y25.316 Z-15.896 
N940 X-133.701 Y25.256 Z-15.807 
N941 X-133.707 Y25.196 Z-15.719 
N942 X-133.714 Y25.136 Z-15.630 
N943 X-133.721 Y25.076 Z-15.541 
N944 X-133.728 Y25.017 Z-15.453 
N945 X-133.735 Y24.957 Z-15.364 
N946 X-133.741 Y24.898 Z-15.276 
N947 X-133.748 Y24.838 Z-15.188 
N948 X-133.755 Y24.779 Z-15.100 
N949 X-133.761 Y24.719 Z-15.012 
N950 X-133.768 Y24.660 Z-14.924 
N951 X-133.775 Y24.601 Z-14.836 
N952 X-133.782 Y24.541 Z-14.748 
N953 X-133.788 Y24.482 Z-14.660 
N954 X-133.795 Y24.423 Z-14.572 
N955 X-133.802 Y24.363 Z-14.484 
N956 X-133.808 Y24.304 Z-14.396 
N957 X-133.815 Y24.244 Z-14.308 
N958 X-133.822 Y24.185 Z-14.220 
N959 X-133.829 Y24.126 Z-14.132 
N960 X-133.835 Y24.066 Z-14.044 
N961 X-133.842 Y24.007 Z-13.956 
N962 X-133.849 Y23.948 Z-13.868 
N963 X-133.855 Y23.888 Z-13.780 
N964 X-133.862 Y23.829 Z-13.692 
N965 X-133.869 Y23.769 Z-13.604 
N966 X-133.876 Y23.710 Z-13.516 
N967 X-133.882 Y23.651 Z-13.428 
N968 X-133.889 Y23.591 Z-13.340 
N969 X-133.896 Y23.532 Z-13.252 
N970 X-133.903 Y23.473 Z-13.164 
N971 X-133.909 Y23.413 Z-13.076 
N972 X-133.916 Y23.354 Z-12.988 
N973 X-133.923 Y23.295 Z-12.900 
N974 X-133.929 Y23.235 Z-12.812 
N975 X-133.936 Y23.176 Z-12.724 
N976 X-133.943 Y23.116 Z-12.636 
N977 X-133.950 Y23.057 Z-12.548 
N978 X-133.956 Y22.998 Z-12.459 
N979 X-133.963 Y22.938 Z-12.371 
N980 X-133.970 Y22.879 Z-12.283 
N981 X-133.976 Y22.820 Z-12.195 
N982 X-133.983 Y22.760 Z-12.107 
N983 X-133.990 Y22.701 Z-12.019 
N984 X-133.997 Y22.641 Z-11.931 
N985 X-134.003 Y22.582 Z-11.843 
N986 X-134.010 Y22.523 Z-11.755 
N987 X-134.017 Y22.463 Z-11.667 
N988 X-134.024 Y22.404 Z-11.579 
N989 X-134.030 Y22.345 Z-11.491 
N990 X-134.037 Y22.285 Z-11.403 
N991 X-134.044 Y22.226 Z-11.315 
N992 X-134.050 Y22.167 Z-11.227 
N993 X-134.057 Y22.107 Z-11.139 
N994 X-134.064 Y22.048 Z-11.052 
N995 X-134.071 Y21.989 Z-10.964 
N996 X-134.077 Y21.930 Z-10.876 
N997 X-134.084 Y21.870 Z-10.788 
N998 X-134.091 Y21.811 Z-10.700 
N999 X-134.097 Y21.752 Z-10.613 
N1000 X-134.104 Y21.693 Z-10.525 
N1001 X-134.111 Y21.634 Z-10.437 
N1002 X-134.117 Y21.574 Z-10.349 
N1003 X-134.124 Y21.515 Z-10.262 
N1004 X-134.131 Y21.456 Z-10.174 
N1005 X-134.138 Y21.397 Z-10.086 
N1006 X-134.144 Y21.338 Z-9.998 
N1007 X-134.151 Y21.278 Z-9.910 
N1008 X-134.158 Y21.219 Z-9.823 
N1009 X-134.164 Y21.160 Z-9.735 
N1010 X-134.171 Y21.101 Z-9.647 
N1011 X-134.178 Y21.041 Z-9.559 
N1012 X-134.184 Y20.982 Z-9.471 
N1013 X-134.191 Y20.923 Z-9.384 
N1014 X-134.198 Y20.864 Z-9.296 
N1015 X-134.205 Y20.805 Z-9.208 
N1016 X-134.211 Y20.745 Z-9.120 
N1017 X-134.218 Y20.686 Z-9.033 
N1018 X-134.225 Y20.627 Z-8.945 
N1019 X-134.231 Y20.568 Z-8.857 
N1020 X-134.238 Y20.509 Z-8.769 
N1021 X-134.245 Y20.449 Z-8.681 
N1022 X-134.251 Y20.390 Z-8.594 
N1023 X-134.258 Y20.331 Z-8.506 
N1024 X-134.265 Y20.272 Z-8.418 
N1025 X-134.272 Y20.212 Z-8.330 
N1026 X-134.278 Y20.153 Z-8.242 
N1027 X-134.285 Y20.094 Z-8.155 
N1028 X-134.292 Y20.035 Z-8.067 
N1029 X-134.298 Y19.976 Z-7.979 
N1030 X-134.305 Y19.916 Z-7.891 
N1031 X-134.312 Y19.857 Z-7.804 
N1032 X-134.319 Y19.798 Z-7.716 
N1033 X-134.325 Y19.739 Z-7.628 
N1034 X-134.332 Y19.680 Z-7.540 
N1035 X-134.339 Y19.620 Z-7.452 
N1036 X-134.345 Y19.561 Z-7.365 
N1037 X-134.352 Y19.502 Z-7.277 
N1038 X-134.359 Y19.443 Z-7.189 
N1039 X-134.364 Y19.383 Z-7.101 
N1040 X-134.368 Y19.324 Z-7.013 
N1041 X-134.373 Y19.265 Z-6.925 
N1042 X-134.378 Y19.206 Z-6.838 
N1043 X-134.383 Y19.146 Z-6.750 
N1044 X-134.387 Y19.087 Z-6.662 
N1045 X-134.392 Y19.028 Z-6.574 
N1046 X-134.397 Y18.969 Z-6.486 
N1047 X-134.401 Y18.909 Z-6.398 
N1048 X-134.406 Y18.850 Z-6.310 
N1049 X-134.411 Y18.791 Z-6.222 
N1050 X-134.415 Y18.731 Z-6.135 
N1051 X-134.420 Y18.672 Z-6.047 
N1052 X-134.425 Y18.613 Z-5.959 
N1053 X-134.430 Y18.554 Z-5.871 
N1054 X-134.434 Y18.494 Z-5.783 
N1055 X-134.439 Y18.435 Z-5.695 
N1056 X-134.444 Y18.376 Z-5.607 
N1057 X-134.448 Y18.317 Z-5.519 
N1058 X-134.453 Y18.257 Z-5.432 
N1059 X-134.458 Y18.198 Z-5.344 
N1060 X-134.462 Y18.139 Z-5.256 
N1061 X-134.467 Y18.079 Z-5.168 
N1062 X-134.472 Y18.020 Z-5.080 
N1063 X-134.477 Y17.961 Z-4.992 
N1064 X-134.481 Y17.902 Z-4.904 
N1065 X-134.486 Y17.842 Z-4.816 
N1066 X-134.491 Y17.783 Z-4.728 
N1067 X-134.495 Y17.724 Z-4.641 
N1068 X-134.500 Y17.665 Z-4.553 
N1069 X-134.505 Y17.605 Z-4.465 
N1070 X-134.509 Y17.546 Z-4.377 
N1071 X-134.514 Y17.487 Z-4.289 
N1072 X-134.519 Y17.427 Z-4.201 
N1073 X-134.524 Y17.368 Z-4.113 
N1074 X-134.528 Y17.309 Z-4.025 
N1075 X-134.533 Y17.250 Z-3.938 
N1076 X-134.538 Y17.190 Z-3.850 
N1077 X-134.542 Y17.131 Z-3.762 
N1078 X-134.547 Y17.072 Z-3.674 
N1079 X-134.552 Y17.013 Z-3.586 
N1080 X-134.557 Y16.953 Z-3.498 
N1081 X-134.561 Y16.894 Z-3.410 
N1082 X-134.566 Y16.835 Z-3.322 
N1083 X-134.571 Y16.775 Z-3.235 
N1084 X-134.575 Y16.716 Z-3.147 
N1085 X-134.580 Y16.657 Z-3.059 
N1086 X-134.585 Y16.598 Z-2.971 
N1087 X-134.589 Y16.538 Z-2.883 
N1088 X-134.594 Y16.479 Z-2.795 
N1089 X-134.599 Y16.420 Z-2.707 
N1090 X-134.604 Y16.360 Z-2.619 
N1091 X-134.608 Y16.301 Z-2.532 
N1092 X-134.613 Y16.242 Z-2.444 
N1093 X-134.618 Y16.183 Z-2.356 
N1094 X-134.622 Y16.123 Z-2.268 
N1095 X-134.627 Y16.064 Z-2.180 
N1096 X-134.632 Y16.005 Z-2.092 
N1097 X-134.636 Y15.946 Z-2.004 
N1098 X-134.641 Y15.886 Z-1.916 
N1099 X-134.646 Y15.827 Z-1.829 
N1100 X-134.650 Y15.768 Z-1.741 
N1101 X-134.652 Y15.708 Z-1.653 
N1102 X-134.655 Y15.649 Z-1.565 
N1103 X-134.658 Y15.590 Z-1.477 
N1104 X-134.661 Y15.531 Z-1.389 
N1105 X-134.663 Y15.471 Z-1.301 
N1106 X-134.666 Y15.412 Z-1.213 
N1107 X-134.669 Y15.353 Z-1.125 
N1108 X-134.672 Y15.293 Z-1.037 
N1109 X-134.674 Y15.234 Z-0.949 
N1110 X-134.677 Y15.175 Z-0.861 
N1111 X-134.680 Y15.115 Z-0.773 
N1112 X-134.683 Y15.056 Z-0.685 
N1113 X-134.685 Y14.997 Z-0.598 
N1114 X-134.688 Y14.937 Z-0.510 
N1115 X-134.691 Y14.878 Z-0.422 
N1116 X-134.694 Y14.819 Z-0.334 
N1117 X-134.697 Y14.759 Z-0.246 
N1118 X-134.699 Y14.700 Z-0.158 
N1119 X-134.702 Y14.641 Z-0.070 
N1120 X-134.705 Y14.582 Z0.018 
N1121 X-134.708 Y14.522 Z0.106 
N1122 X-134.710 Y14.463 Z0.194 
N1123 X-134.713 Y14.404 Z0.282 
N1124 X-134.716 Y14.344 Z0.370 
N1125 X-134.719 Y14.285 Z0.458 
N1126 X-134.721 Y14.226 Z0.546 
N1127 X-134.724 Y14.166 Z0.634 
N1128 X-134.727 Y14.107 Z0.721 
N1129 X-134.730 Y14.048 Z0.809 
N1130 X-134.732 Y13.988 Z0.897 
N1131 X-134.735 Y13.929 Z0.985 
N1132 X-134.738 Y13.870 Z1.073 
N1133 X-134.741 Y13.810 Z1.161 
N1134 X-134.743 Y13.751 Z1.249 
N1135 X-134.746 Y13.692 Z1.337 
N1136 X-134.749 Y13.633 Z1.425 
N1137 X-134.752 Y13.573 Z1.513 
N1138 X-134.754 Y13.514 Z1.601 
N1139 X-134.757 Y13.455 Z1.689 
N1140 X-134.760 Y13.395 Z1.777 
N1141 X-134.763 Y13.336 Z1.865 
N1142 X-134.765 Y13.277 Z1.953 
N1143 X-134.768 Y13.217 Z2.040 
N1144 X-134.769 Y13.158 Z2.128 
N1145 X-134.770 Y13.099 Z2.216 
N1146 X-134.770 Y13.039 Z2.304 
N1147 X-134.771 Y12.980 Z2.392 
N1148 X-134.772 Y12.921 Z2.480 
N1149 X-134.773 Y12.861 Z2.568 
N1150 X-134.774 Y12.802 Z2.656 
N1151 X-134.775 Y12.743 Z2.744 
N1152 X-134.776 Y12.683 Z2.832 
N1153 X-134.776 Y12.624 Z2.920 
N1154 X-134.777 Y12.565 Z3.008 
N1155 X-134.778 Y12.505 Z3.096 
N1156 X-134.779 Y12.446 Z3.184 
N1157 X-134.780 Y12.387 Z3.272 
N1158 X-134.781 Y12.327 Z3.360 
N1159 X-134.781 Y12.268 Z3.448 
N1160 X-134.782 Y12.209 Z3.536 
N1161 X-134.783 Y12.149 Z3.624 
N1162 X-134.784 Y12.090 Z3.712 
N1163 X-134.785 Y12.031 Z3.800 
N1164 X-134.786 Y11.971 Z3.888 
N1165 X-134.787 Y11.912 Z3.976 
N1166 X-134.787 Y11.853 Z4.064 
N1167 X-134.788 Y11.793 Z4.151 
N1168 X-134.789 Y11.734 Z4.239 
N1169 X-134.790 Y11.675 Z4.327 
N1170 X-134.791 Y11.615 Z4.415 
N1171 X-134.792 Y11.556 Z4.503 
N1172 X-134.793 Y11.497 Z4.591 
N1173 X-134.793 Y11.437 Z4.679 
N1174 X-134.794 Y11.378 Z4.767 
N1175 X-134.795 Y11.319 Z4.855 
N1176 X-134.796 Y11.259 Z4.943 
N1177 X-134.797 Y11.200 Z5.031 
N1178 X-134.798 Y11.141 Z5.119 
N1179 X-134.799 Y11.081 Z5.207 
N1180 X-134.799 Y11.022 Z5.295 
N1181 X-134.800 Y10.963 Z5.383 
N1182 X-134.801 Y10.903 Z5.471 
N1183 X-134.802 Y10.844 Z5.559 
N1184 X-134.803 Y10.785 Z5.647 
N1185 X-134.804 Y10.725 Z5.735 
N1186 X-134.805 Y10.666 Z5.823 
N1187 X-134.805 Y10.607 Z5.911 
N1188 X-134.806 Y10.548 Z5.999 
N1189 X-134.807 Y10.488 Z6.087 
N1190 X-134.808 Y10.429 Z6.175 
N1191 X-134.809 Y10.370 Z6.263 
N1192 X-134.810 Y10.310 Z6.350 
N1193 X-134.811 Y10.251 Z6.438 
N1194 X-134.811 Y10.192 Z6.526 
N1195 X-134.812 Y10.132 Z6.614 
N1196 X-134.813 Y10.073 Z6.702 
N1197 X-134.814 Y10.014 Z6.790 
N1198 X-134.815 Y9.954 Z6.878 
N1199 X-134.816 Y9.895 Z6.966 
N1200 X-134.817 Y9.836 Z7.054 
N1201 X-134.817 Y9.776 Z7.142 
N1202 X-134.817 Y9.717 Z7.230 
N1203 X-134.816 Y9.658 Z7.318 
N1204 X-134.815 Y9.598 Z7.406 
N1205 X-134.813 Y9.539 Z7.494 
N1206 X-134.812 Y9.480 Z7.582 
N1207 X-134.811 Y9.420 Z7.670 
N1208 X-134.809 Y9.361 Z7.758 
N1209 X-134.808 Y9.302 Z7.846 
N1210 X-134.807 Y9.242 Z7.934 
N1211 X-134.806 Y9.183 Z8.022 
N1212 X-134.804 Y9.124 Z8.110 
N1213 X-134.803 Y9.064 Z8.198 
N1214 X-134.802 Y9.005 Z8.286 
N1215 X-134.801 Y8.946 Z8.374 
N1216 X-134.799 Y8.886 Z8.461 
N1217 X-134.798 Y8.827 Z8.549 
N1218 X-134.797 Y8.768 Z8.637 
N1219 X-134.795 Y8.708 Z8.725 
N1220 X-134.794 Y8.649 Z8.813 
N1221 X-134.793 Y8.590 Z8.901 
N1222 X-134.792 Y8.530 Z8.989 
N1223 X-134.790 Y8.471 Z9.077 
N1224 X-134.789 Y8.412 Z9.165 
N1225 X-134.788 Y8.352 Z9.253 
N1226 X-134.787 Y8.293 Z9.341 
N1227 X-134.785 Y8.234 Z9.429 
N1228 X-134.784 Y8.174 Z9.517 
N1229 X-134.783 Y8.115 Z9.605 
N1230 X-134.781 Y8.056 Z9.693 
N1231 X-134.780 Y7.996 Z9.781 
N1232 X-134.779 Y7.937 Z9.869 
N1233 X-134.778 Y7.878 Z9.957 
N1234 X-134.776 Y7.818 Z10.045 
N1235 X-134.775 Y7.759 Z10.133 
N1236 X-134.774 Y7.700 Z10.221 
N1237 X-134.772 Y7.640 Z10.309 
N1238 X-134.771 Y7.581 Z10.397 
N1239 X-134.770 Y7.522 Z10.484 
N1240 X-134.769 Y7.462 Z10.572 
N1241 X-134.767 Y7.403 Z10.660 
N1242 X-134.766 Y7.344 Z10.748 
N1243 X-134.765 Y7.284 Z10.836 
N1244 X-134.764 Y7.225 Z10.924 
N1245 X-134.762 Y7.166 Z11.012 
N1246 X-134.761 Y7.106 Z11.100 
N1247 X-134.760 Y7.047 Z11.188 
N1248 X-134.758 Y6.988 Z11.276 
N1249 X-134.757 Y6.929 Z11.364 
N1250 X-134.756 Y6.869 Z11.452 
N1251 X-134.755 Y6.810 Z11.540 
N1252 X-134.753 Y6.751 Z11.628 
N1253 X-134.752 Y6.691 Z11.716 
N1254 X-134.751 Y6.632 Z11.804 
N1255 X-134.750 Y6.573 Z11.892 
N1256 X-134.748 Y6.513 Z11.980 
N1257 X-134.747 Y6.454 Z12.068 
N1258 X-134.744 Y6.395 Z12.156 
N1259 X-134.741 Y6.335 Z12.244 
N1260 X-134.738 Y6.276 Z12.331 
N1261 X-134.735 Y6.217 Z12.419 
N1262 X-134.732 Y6.157 Z12.507 
N1263 X-134.729 Y6.098 Z12.595 
N1264 X-134.726 Y6.039 Z12.683 
N1265 X-134.723 Y5.979 Z12.771 
N1266 X-134.720 Y5.920 Z12.859 
N1267 X-134.717 Y5.861 Z12.947 
N1268 X-134.714 Y5.802 Z13.035 
N1269 X-134.710 Y5.742 Z13.123 
N1270 X-134.707 Y5.683 Z13.211 
N1271 X-134.704 Y5.624 Z13.299 
N1272 X-134.701 Y5.564 Z13.387 
N1273 X-134.698 Y5.505 Z13.475 
N1274 X-134.695 Y5.446 Z13.562 
N1275 X-134.692 Y5.386 Z13.650 
N1276 X-134.689 Y5.327 Z13.738 
N1277 X-134.686 Y5.268 Z13.826 
N1278 X-134.683 Y5.208 Z13.914 
N1279 X-134.680 Y5.149 Z14.002 
N1280 X-134.677 Y5.090 Z14.090 
N1281 X-134.674 Y5.031 Z14.178 
N1282 X-134.671 Y4.971 Z14.266 
N1283 X-134.667 Y4.912 Z14.354 
N1284 X-134.664 Y4.853 Z14.442 
N1285 X-134.661 Y4.793 Z14.530 
N1286 X-134.658 Y4.734 Z14.618 
N1287 X-134.655 Y4.675 Z14.705 
N1288 X-134.652 Y4.615 Z14.793 
N1289 X-134.649 Y4.556 Z14.881 
N1290 X-134.646 Y4.497 Z14.969 
N1291 X-134.643 Y4.437 Z15.057 
N1292 X-134.640 Y4.378 Z15.145 
N1293 X-134.637 Y4.319 Z15.233 
N1294 X-134.634 Y4.260 Z15.321 
N1295 X-134.631 Y4.200 Z15.409 
N1296 X-134.628 Y4.141 Z15.497 
N1297 X-134.624 Y4.082 Z15.585 
N1298 X-134.621 Y4.022 Z15.673 
N1299 X-134.618 Y3.963 Z15.761 
N1300 X-134.615 Y3.903 Z15.849 
N1301 X-134.612 Y3.844 Z15.937 
N1302 X-134.609 Y3.784 Z16.025 
N1303 X-134.606 Y3.725 Z16.113 
N1304 X-134.603 Y3.666 Z16.202 
N1305 X-134.600 Y3.606 Z16.290 
N1306 X-134.597 Y3.547 Z16.378 
N1307 X-134.594 Y3.487 Z16.466 
N1308 X-134.591 Y3.428 Z16.554 
N1309 X-134.588 Y3.368 Z16.642 
N1310 X-134.584 Y3.309 Z16.731 
N1311 X-134.581 Y3.249 Z16.819 
N1312 X-134.578 Y3.190 Z16.907 
N1313 X-134.575 Y3.130 Z16.995 
N1314 X-134.572 Y3.071 Z17.083 
N1315 X-134.569 Y3.011 Z17.171 
N1316 X-134.566 Y2.952 Z17.260 
N1317 X-134.563 Y2.892 Z17.348 
N1318 X-134.560 Y2.833 Z17.436 
N1319 X-134.557 Y2.774 Z17.524 
N1320 X-134.554 Y2.714 Z17.612 
N1321 X-134.551 Y2.655 Z17.700 
N1322 X-134.547 Y2.595 Z17.788 
N1323 X-134.544 Y2.536 Z17.877 
N1324 X-134.541 Y2.476 Z17.965 
N1325 X-134.538 Y2.417 Z18.053 
N1326 X-134.535 Y2.357 Z18.141 
N1327 X-134.532 Y2.298 Z18.229 
N1328 X-134.529 Y2.238 Z18.317 
N1329 X-134.526 Y2.179 Z18.406 
N1330 X-134.523 Y2.119 Z18.494 
N1331 X-134.520 Y2.060 Z18.582 
N1332 X-134.517 Y2.001 Z18.670 
N1333 X-134.514 Y1.941 Z18.758 
N1334 X-134.511 Y1.882 Z18.846 
N1335 X-134.507 Y1.822 Z18.935 
N1336 X-134.504 Y1.763 Z19.023 
N1337 X-134.501 Y1.703 Z19.111 
N1338 X-134.498 Y1.644 Z19.199 
N1339 X-134.495 Y1.584 Z19.287 
N1340 X-134.492 Y1.525 Z19.375 
N1341 X-134.489 Y1.465 Z19.463 
N1342 X-134.486 Y1.406 Z19.552 
N1343 X-134.483 Y1.346 Z19.640 
N1344 X-134.480 Y1.287 Z19.728 
N1345 X-134.477 Y1.228 Z19.816 
N1346 G40 X-134.448 Y0.669 Z20.645 F318
N1347 X-134.448 Y0.669 Z20.645 
N1348 G00 X-134.448 Y42.120 Z48.604 
RAPORT("TA000001","Side Milling:116 End")
;trailer : concat=None
; points cnt = 1290
N1350 MSG (" --- GROUPED OF SUBPROGRAM --- ")
N1351 FGROUP()
N1352 TRAFOOF
; PROGRAM NAME: A00000138
; ORDER       : A000001
; OPER. NAME  : Side Milling:117
; OPER. DESCR.: rough face root outlet FSA
; OPER. TYPE  : sideMill
; GEO. OPTION : 1
; MACHINE     : HSTM_300_SIM840D_Py
;             : HSTM300/500 - HAMUEL: 5-axis milling machine-SIM840D Traori PP_Script
; CONTROL     : SINUMERIK 840D
; created:   2021-11-15 09:10:07.657808
;-------DODATKOWE DANE-------------------
; PROGRAMISTA : Mariusz Malec
; PARTID      : 138T005360P1002_-
;  ap         : 4.4
;  ae         : 1.0
;  lean_angle : 0.0
;  fin_offset : -12.5
;----------------------------------------
RAPORT("TA000001","Side Milling:117")
N10 TRAFOOF
N11 D0
N12 G90 G94
N13 G0 G53 D0 Z550
N14 STOPRE
M9 ; chlodziwo wyl
; --- Side Milling:117 - rough face root outlet FSA ---
N16 ;ToolChange : concat=None ,current_tdmid=None, PP.tdmId=940642
N17 TRAFOOF
N18 G0 G53 D0 Z550 B0
N19 STOPRE
N20 MSG(" TLID=940642 D=10.0 R=0.0 Ang=0.0 Len=116.0 ")
N21 S3183 M03
N22 STOPRE
N23 TOL(0.1,1,1)
N24 G0 G53 A124.0000 B0.0000
N25 TRAORI
N26 G54 D2
;tol5=0.15
N27 D2 
;---> in saveDoc :0:00:00.172539
STOPRE
E_ZDARZ=500001
;ACS_ROUGH_ROOT_FRONT=7740642
STOPRE
;UWAGA : ZMIENIONA TOLERANCJA OSI A i B, ruchy osi A i B beda usuniete : TOL5=0.15
N28 ; DELTA A > 40.1
N29 TRAFOOF
N30 D2
N31 STOPRE
N32 G00 G54 Z270.000
N33 G01 A124.0000 F10000
N34 TRAORI
N35 G54 D2
N36 STOPRE
N37 TRANS 
N38 G00 X-132.363 Y-76.055 Z-3.097 A124.0000 
N39 M342 ; chlodziwo woda
N40 X-132.363 Y-34.603 Z24.862 
N41 ;FSA_1
N42 G01 G41 X-132.457 Y-34.047 Z24.037 F318
N43 G01 X-132.457 Y-34.047 Z24.037 F318 
N44 X-132.467 Y-33.987 Z23.948 
N45 X-132.477 Y-33.927 Z23.860 
N46 X-132.487 Y-33.868 Z23.771 
N47 X-132.497 Y-33.808 Z23.683 
N48 X-132.507 Y-33.748 Z23.595 
N49 X-132.517 Y-33.689 Z23.506 
N50 X-132.527 Y-33.629 Z23.418 
N51 X-132.537 Y-33.569 Z23.329 
N52 X-132.547 Y-33.510 Z23.241 
N53 X-132.557 Y-33.450 Z23.152 
N54 X-132.567 Y-33.390 Z23.064 
N55 X-132.578 Y-33.331 Z22.976 
N56 X-132.588 Y-33.271 Z22.887 
N57 X-132.598 Y-33.211 Z22.799 
N58 X-132.608 Y-33.152 Z22.710 
N59 X-132.618 Y-33.092 Z22.622 
N60 X-132.628 Y-33.032 Z22.533 
N61 X-132.638 Y-32.973 Z22.445 
N62 X-132.648 Y-32.913 Z22.357 
N63 X-132.658 Y-32.854 Z22.268 
N64 X-132.668 Y-32.794 Z22.180 
N65 X-132.678 Y-32.734 Z22.091 
N66 X-132.688 Y-32.675 Z22.003 
N67 X-132.698 Y-32.615 Z21.914 
N68 X-132.708 Y-32.555 Z21.826 
N69 X-132.718 Y-32.496 Z21.738 
N70 X-132.728 Y-32.436 Z21.649 
N71 X-132.738 Y-32.376 Z21.561 
N72 X-132.748 Y-32.317 Z21.473 
N73 X-132.758 Y-32.258 Z21.385 
N74 X-132.768 Y-32.199 Z21.297 
N75 X-132.778 Y-32.139 Z21.209 
N76 X-132.788 Y-32.080 Z21.122 
N77 X-132.798 Y-32.021 Z21.034 
N78 X-132.808 Y-31.962 Z20.946 
N79 X-132.818 Y-31.903 Z20.858 
N80 X-132.828 Y-31.843 Z20.770 
N81 X-132.838 Y-31.784 Z20.683 
N82 X-132.848 Y-31.725 Z20.595 
N83 X-132.858 Y-31.666 Z20.507 
N84 X-132.868 Y-31.606 Z20.419 
N85 X-132.878 Y-31.547 Z20.331 
N86 X-132.888 Y-31.488 Z20.244 
N87 X-132.898 Y-31.429 Z20.156 
N88 X-132.908 Y-31.369 Z20.068 
N89 X-132.918 Y-31.310 Z19.980 
N90 X-132.928 Y-31.251 Z19.892 
N91 X-132.938 Y-31.192 Z19.804 
N92 X-132.947 Y-31.133 Z19.717 
N93 X-132.957 Y-31.073 Z19.629 
N94 X-132.967 Y-31.014 Z19.541 
N95 X-132.977 Y-30.955 Z19.453 
N96 X-132.987 Y-30.896 Z19.365 
N97 X-132.997 Y-30.836 Z19.278 
N98 X-133.007 Y-30.777 Z19.190 
N99 X-133.017 Y-30.718 Z19.102 
N100 X-133.027 Y-30.659 Z19.014 
N101 X-133.037 Y-30.600 Z18.926 
N102 X-133.047 Y-30.540 Z18.839 
N103 X-133.057 Y-30.481 Z18.751 
N104 X-133.067 Y-30.422 Z18.663 
N105 X-133.077 Y-30.363 Z18.575 
N106 X-133.087 Y-30.303 Z18.487 
N107 X-133.097 Y-30.244 Z18.400 
N108 X-133.107 Y-30.185 Z18.312 
N109 X-133.117 Y-30.126 Z18.224 
N110 X-133.127 Y-30.066 Z18.136 
N111 X-133.137 Y-30.007 Z18.048 
N112 X-133.147 Y-29.948 Z17.961 
N113 X-133.157 Y-29.889 Z17.873 
N114 X-133.167 Y-29.830 Z17.785 
N115 X-133.177 Y-29.770 Z17.697 
N116 X-133.187 Y-29.711 Z17.609 
N117 X-133.197 Y-29.652 Z17.521 
N118 X-133.207 Y-29.593 Z17.434 
N119 X-133.217 Y-29.534 Z17.346 
N120 X-133.227 Y-29.475 Z17.259 
N121 X-133.236 Y-29.416 Z17.171 
N122 X-133.246 Y-29.356 Z17.083 
N123 X-133.256 Y-29.297 Z16.996 
N124 X-133.266 Y-29.238 Z16.908 
N125 X-133.276 Y-29.179 Z16.821 
N126 X-133.286 Y-29.120 Z16.733 
N127 X-133.296 Y-29.061 Z16.646 
N128 X-133.306 Y-29.002 Z16.558 
N129 X-133.316 Y-28.943 Z16.471 
N130 X-133.326 Y-28.884 Z16.383 
N131 X-133.336 Y-28.825 Z16.295 
N132 X-133.346 Y-28.766 Z16.208 
N133 X-133.356 Y-28.707 Z16.120 
N134 X-133.366 Y-28.648 Z16.033 
N135 X-133.376 Y-28.589 Z15.945 
N136 X-133.386 Y-28.530 Z15.858 
N137 X-133.396 Y-28.471 Z15.770 
N138 X-133.405 Y-28.412 Z15.683 
N139 X-133.415 Y-28.352 Z15.595 
N140 X-133.425 Y-28.293 Z15.507 
N141 X-133.435 Y-28.234 Z15.420 
N142 X-133.445 Y-28.175 Z15.332 
N143 X-133.455 Y-28.116 Z15.245 
N144 X-133.465 Y-28.057 Z15.157 
N145 X-133.475 Y-27.998 Z15.070 
N146 X-133.485 Y-27.939 Z14.982 
N147 X-133.495 Y-27.880 Z14.895 
N148 X-133.505 Y-27.821 Z14.807 
N149 X-133.515 Y-27.762 Z14.719 
N150 X-133.525 Y-27.703 Z14.632 
N151 X-133.535 Y-27.644 Z14.544 
N152 X-133.545 Y-27.585 Z14.457 
N153 X-133.555 Y-27.526 Z14.369 
N154 X-133.565 Y-27.467 Z14.282 
N155 X-133.574 Y-27.408 Z14.194 
N156 X-133.584 Y-27.348 Z14.106 
N157 X-133.594 Y-27.289 Z14.019 
N158 X-133.604 Y-27.230 Z13.931 
N159 X-133.614 Y-27.171 Z13.844 
N160 X-133.624 Y-27.112 Z13.756 
N161 X-133.634 Y-27.053 Z13.669 
N162 X-133.644 Y-26.994 Z13.581 
N163 X-133.654 Y-26.935 Z13.494 
N164 X-133.664 Y-26.876 Z13.406 
N165 X-133.674 Y-26.817 Z13.318 
N166 X-133.684 Y-26.758 Z13.231 
N167 X-133.694 Y-26.699 Z13.143 
N168 X-133.704 Y-26.640 Z13.056 
N169 X-133.714 Y-26.581 Z12.968 
N170 X-133.724 Y-26.522 Z12.881 
N171 X-133.733 Y-26.463 Z12.793 
N172 X-133.743 Y-26.404 Z12.706 
N173 X-133.751 Y-26.344 Z12.618 
N174 X-133.759 Y-26.285 Z12.530 
N175 X-133.767 Y-26.226 Z12.442 
N176 X-133.775 Y-26.167 Z12.355 
N177 X-133.782 Y-26.108 Z12.267 
N178 X-133.790 Y-26.049 Z12.179 
N179 X-133.798 Y-25.989 Z12.092 
N180 X-133.806 Y-25.930 Z12.004 
N181 X-133.813 Y-25.871 Z11.916 
N182 X-133.821 Y-25.812 Z11.828 
N183 X-133.829 Y-25.753 Z11.741 
N184 X-133.836 Y-25.694 Z11.653 
N185 X-133.844 Y-25.634 Z11.565 
N186 X-133.852 Y-25.575 Z11.478 
N187 X-133.860 Y-25.516 Z11.390 
N188 X-133.867 Y-25.457 Z11.302 
N189 X-133.875 Y-25.398 Z11.215 
N190 X-133.883 Y-25.339 Z11.127 
N191 X-133.891 Y-25.279 Z11.039 
N192 X-133.898 Y-25.220 Z10.951 
N193 X-133.906 Y-25.161 Z10.864 
N194 X-133.914 Y-25.102 Z10.776 
N195 X-133.922 Y-25.043 Z10.688 
N196 X-133.929 Y-24.984 Z10.601 
N197 X-133.937 Y-24.925 Z10.513 
N198 X-133.945 Y-24.865 Z10.425 
N199 X-133.953 Y-24.806 Z10.337 
N200 X-133.960 Y-24.747 Z10.250 
N201 X-133.968 Y-24.688 Z10.162 
N202 X-133.976 Y-24.629 Z10.074 
N203 X-133.984 Y-24.570 Z9.987 
N204 X-133.991 Y-24.510 Z9.899 
N205 X-133.999 Y-24.451 Z9.811 
N206 X-134.007 Y-24.392 Z9.723 
N207 X-134.014 Y-24.333 Z9.636 
N208 X-134.022 Y-24.274 Z9.548 
N209 X-134.030 Y-24.215 Z9.460 
N210 X-134.038 Y-24.155 Z9.373 
N211 X-134.045 Y-24.096 Z9.285 
N212 X-134.053 Y-24.037 Z9.197 
N213 X-134.061 Y-23.978 Z9.109 
N214 X-134.069 Y-23.919 Z9.022 
N215 X-134.076 Y-23.860 Z8.934 
N216 X-134.084 Y-23.800 Z8.846 
N217 X-134.092 Y-23.741 Z8.759 
N218 X-134.100 Y-23.682 Z8.671 
N219 X-134.107 Y-23.623 Z8.583 
N220 X-134.115 Y-23.564 Z8.496 
N221 X-134.123 Y-23.505 Z8.408 
N222 X-134.131 Y-23.445 Z8.320 
N223 X-134.138 Y-23.386 Z8.232 
N224 X-134.146 Y-23.327 Z8.145 
N225 X-134.154 Y-23.268 Z8.057 
N226 X-134.161 Y-23.209 Z7.969 
N227 X-134.169 Y-23.150 Z7.882 
N228 X-134.177 Y-23.091 Z7.794 
N229 X-134.185 Y-23.031 Z7.706 
N230 X-134.192 Y-22.972 Z7.618 
N231 X-134.200 Y-22.913 Z7.531 
N232 X-134.208 Y-22.854 Z7.443 
N233 X-134.216 Y-22.795 Z7.355 
N234 X-134.223 Y-22.736 Z7.268 
N235 X-134.231 Y-22.676 Z7.180 
N236 X-134.239 Y-22.617 Z7.092 
N237 X-134.246 Y-22.558 Z7.004 
N238 X-134.252 Y-22.499 Z6.917 
N239 X-134.258 Y-22.440 Z6.829 
N240 X-134.263 Y-22.380 Z6.741 
N241 X-134.269 Y-22.321 Z6.653 
N242 X-134.275 Y-22.262 Z6.565 
N243 X-134.281 Y-22.203 Z6.478 
N244 X-134.287 Y-22.143 Z6.390 
N245 X-134.293 Y-22.084 Z6.302 
N246 X-134.298 Y-22.025 Z6.214 
N247 X-134.304 Y-21.966 Z6.126 
N248 X-134.310 Y-21.907 Z6.038 
N249 X-134.316 Y-21.847 Z5.951 
N250 X-134.322 Y-21.788 Z5.863 
N251 X-134.328 Y-21.729 Z5.775 
N252 X-134.333 Y-21.670 Z5.687 
N253 X-134.339 Y-21.610 Z5.599 
N254 X-134.345 Y-21.551 Z5.512 
N255 X-134.351 Y-21.492 Z5.424 
N256 X-134.357 Y-21.433 Z5.336 
N257 X-134.363 Y-21.373 Z5.248 
N258 X-134.368 Y-21.314 Z5.160 
N259 X-134.374 Y-21.255 Z5.073 
N260 X-134.380 Y-21.196 Z4.985 
N261 X-134.386 Y-21.137 Z4.897 
N262 X-134.392 Y-21.077 Z4.809 
N263 X-134.397 Y-21.018 Z4.721 
N264 X-134.403 Y-20.959 Z4.633 
N265 X-134.409 Y-20.900 Z4.546 
N266 X-134.415 Y-20.840 Z4.458 
N267 X-134.421 Y-20.781 Z4.370 
N268 X-134.427 Y-20.722 Z4.282 
N269 X-134.432 Y-20.663 Z4.194 
N270 X-134.438 Y-20.603 Z4.107 
N271 X-134.444 Y-20.544 Z4.019 
N272 X-134.450 Y-20.485 Z3.931 
N273 X-134.456 Y-20.426 Z3.843 
N274 X-134.462 Y-20.367 Z3.755 
N275 X-134.467 Y-20.307 Z3.668 
N276 X-134.471 Y-20.248 Z3.580 
N277 X-134.476 Y-20.189 Z3.492 
N278 X-134.480 Y-20.129 Z3.404 
N279 X-134.484 Y-20.070 Z3.316 
N280 X-134.489 Y-20.011 Z3.228 
N281 X-134.493 Y-19.952 Z3.140 
N282 X-134.497 Y-19.892 Z3.052 
N283 X-134.502 Y-19.833 Z2.965 
N284 X-134.506 Y-19.774 Z2.877 
N285 X-134.510 Y-19.715 Z2.789 
N286 X-134.515 Y-19.655 Z2.701 
N287 X-134.519 Y-19.596 Z2.613 
N288 X-134.523 Y-19.537 Z2.525 
N289 X-134.527 Y-19.478 Z2.437 
N290 X-134.532 Y-19.418 Z2.349 
N291 X-134.536 Y-19.359 Z2.262 
N292 X-134.540 Y-19.300 Z2.174 
N293 X-134.545 Y-19.240 Z2.086 
N294 X-134.549 Y-19.181 Z1.998 
N295 X-134.553 Y-19.122 Z1.910 
N296 X-134.558 Y-19.063 Z1.822 
N297 X-134.562 Y-19.003 Z1.734 
N298 X-134.566 Y-18.944 Z1.646 
N299 X-134.570 Y-18.885 Z1.559 
N300 X-134.575 Y-18.826 Z1.471 
N301 X-134.579 Y-18.766 Z1.383 
N302 X-134.583 Y-18.707 Z1.295 
N303 X-134.588 Y-18.648 Z1.207 
N304 X-134.592 Y-18.588 Z1.119 
N305 X-134.596 Y-18.529 Z1.031 
N306 X-134.601 Y-18.470 Z0.944 
N307 X-134.605 Y-18.411 Z0.856 
N308 X-134.609 Y-18.351 Z0.768 
N309 X-134.614 Y-18.292 Z0.680 
N310 X-134.618 Y-18.233 Z0.592 
N311 X-134.622 Y-18.174 Z0.504 
N312 X-134.626 Y-18.114 Z0.416 
N313 X-134.631 Y-18.055 Z0.328 
N314 X-134.635 Y-17.996 Z0.241 
N315 X-134.639 Y-17.936 Z0.153 
N316 X-134.644 Y-17.877 Z0.065 
N317 X-134.648 Y-17.818 Z-0.023 
N318 X-134.652 Y-17.759 Z-0.111 
N319 X-134.656 Y-17.699 Z-0.199 
N320 X-134.658 Y-17.640 Z-0.287 
N321 X-134.661 Y-17.581 Z-0.375 
N322 X-134.664 Y-17.521 Z-0.463 
N323 X-134.666 Y-17.462 Z-0.551 
N324 X-134.669 Y-17.403 Z-0.638 
N325 X-134.671 Y-17.344 Z-0.726 
N326 X-134.674 Y-17.284 Z-0.814 
N327 X-134.676 Y-17.225 Z-0.902 
N328 X-134.679 Y-17.166 Z-0.990 
N329 X-134.681 Y-17.106 Z-1.078 
N330 X-134.684 Y-17.047 Z-1.166 
N331 X-134.687 Y-16.988 Z-1.254 
N332 X-134.689 Y-16.928 Z-1.342 
N333 X-134.692 Y-16.869 Z-1.430 
N334 X-134.694 Y-16.810 Z-1.518 
N335 X-134.697 Y-16.751 Z-1.606 
N336 X-134.699 Y-16.691 Z-1.693 
N337 X-134.702 Y-16.632 Z-1.781 
N338 X-134.704 Y-16.573 Z-1.869 
N339 X-134.707 Y-16.513 Z-1.957 
N340 X-134.710 Y-16.454 Z-2.045 
N341 X-134.712 Y-16.395 Z-2.133 
N342 X-134.715 Y-16.335 Z-2.221 
N343 X-134.717 Y-16.276 Z-2.309 
N344 X-134.720 Y-16.217 Z-2.397 
N345 X-134.722 Y-16.158 Z-2.485 
N346 X-134.725 Y-16.098 Z-2.573 
N347 X-134.727 Y-16.039 Z-2.661 
N348 X-134.730 Y-15.980 Z-2.748 
N349 X-134.733 Y-15.920 Z-2.836 
N350 X-134.735 Y-15.861 Z-2.924 
N351 X-134.738 Y-15.802 Z-3.012 
N352 X-134.740 Y-15.742 Z-3.100 
N353 X-134.743 Y-15.683 Z-3.188 
N354 X-134.745 Y-15.624 Z-3.276 
N355 X-134.748 Y-15.565 Z-3.364 
N356 X-134.750 Y-15.505 Z-3.452 
N357 X-134.753 Y-15.446 Z-3.540 
N358 X-134.756 Y-15.387 Z-3.628 
N359 X-134.758 Y-15.327 Z-3.716 
N360 X-134.761 Y-15.268 Z-3.804 
N361 X-134.763 Y-15.209 Z-3.891 
N362 X-134.766 Y-15.149 Z-3.979 
N363 X-134.768 Y-15.090 Z-4.067 
N364 X-134.771 Y-15.031 Z-4.155 
N365 X-134.773 Y-14.971 Z-4.243 
N366 X-134.776 Y-14.912 Z-4.331 
N367 X-134.778 Y-14.853 Z-4.419 
N368 X-134.781 Y-14.794 Z-4.507 
N369 X-134.783 Y-14.734 Z-4.595 
N370 X-134.784 Y-14.675 Z-4.683 
N371 X-134.785 Y-14.616 Z-4.771 
N372 X-134.785 Y-14.556 Z-4.859 
N373 X-134.786 Y-14.497 Z-4.947 
N374 X-134.786 Y-14.438 Z-5.034 
N375 X-134.787 Y-14.378 Z-5.122 
N376 X-134.788 Y-14.319 Z-5.210 
N377 X-134.788 Y-14.260 Z-5.298 
N378 X-134.789 Y-14.200 Z-5.386 
N379 X-134.789 Y-14.141 Z-5.474 
N380 X-134.790 Y-14.082 Z-5.562 
N381 X-134.791 Y-14.022 Z-5.650 
N382 X-134.791 Y-13.963 Z-5.738 
N383 X-134.792 Y-13.904 Z-5.826 
N384 X-134.792 Y-13.845 Z-5.914 
N385 X-134.793 Y-13.785 Z-6.002 
N386 X-134.794 Y-13.726 Z-6.090 
N387 X-134.794 Y-13.667 Z-6.178 
N388 X-134.795 Y-13.607 Z-6.266 
N389 X-134.795 Y-13.548 Z-6.354 
N390 X-134.796 Y-13.489 Z-6.442 
N391 X-134.796 Y-13.429 Z-6.530 
N392 X-134.797 Y-13.370 Z-6.617 
N393 X-134.798 Y-13.311 Z-6.705 
N394 X-134.798 Y-13.251 Z-6.793 
N395 X-134.799 Y-13.192 Z-6.881 
N396 X-134.799 Y-13.133 Z-6.969 
N397 X-134.800 Y-13.073 Z-7.057 
N398 X-134.801 Y-13.014 Z-7.145 
N399 X-134.801 Y-12.955 Z-7.233 
N400 X-134.802 Y-12.895 Z-7.321 
N401 X-134.802 Y-12.836 Z-7.409 
N402 X-134.803 Y-12.777 Z-7.497 
N403 X-134.804 Y-12.717 Z-7.585 
N404 X-134.804 Y-12.658 Z-7.673 
N405 X-134.805 Y-12.599 Z-7.761 
N406 X-134.805 Y-12.540 Z-7.849 
N407 X-134.806 Y-12.480 Z-7.937 
N408 X-134.807 Y-12.421 Z-8.025 
N409 X-134.807 Y-12.362 Z-8.113 
N410 X-134.808 Y-12.302 Z-8.200 
N411 X-134.808 Y-12.243 Z-8.288 
N412 X-134.809 Y-12.184 Z-8.376 
N413 X-134.809 Y-12.124 Z-8.464 
N414 X-134.810 Y-12.065 Z-8.552 
N415 X-134.811 Y-12.006 Z-8.640 
N416 X-134.811 Y-11.946 Z-8.728 
N417 X-134.812 Y-11.887 Z-8.816 
N418 X-134.812 Y-11.828 Z-8.904 
N419 X-134.813 Y-11.768 Z-8.992 
N420 X-134.814 Y-11.709 Z-9.080 
N421 X-134.814 Y-11.650 Z-9.168 
N422 X-134.815 Y-11.590 Z-9.256 
N423 X-134.815 Y-11.531 Z-9.344 
N424 X-134.816 Y-11.472 Z-9.432 
N425 X-134.817 Y-11.412 Z-9.520 
N426 X-134.817 Y-11.353 Z-9.608 
N427 X-134.818 Y-11.293 Z-9.696 
N428 X-134.818 Y-11.234 Z-9.784 
N429 X-134.819 Y-11.174 Z-9.873 
N430 X-134.820 Y-11.115 Z-9.961 
N431 X-134.820 Y-11.055 Z-10.049 
N432 X-134.821 Y-10.996 Z-10.137 
N433 X-134.821 Y-10.936 Z-10.225 
N434 X-134.822 Y-10.877 Z-10.314 
N435 X-134.823 Y-10.817 Z-10.402 
N436 X-134.823 Y-10.758 Z-10.490 
N437 X-134.824 Y-10.698 Z-10.578 
N438 X-134.824 Y-10.639 Z-10.666 
N439 X-134.825 Y-10.579 Z-10.755 
N440 X-134.826 Y-10.520 Z-10.843 
N441 X-134.826 Y-10.460 Z-10.931 
N442 X-134.827 Y-10.401 Z-11.019 
N443 X-134.827 Y-10.342 Z-11.107 
N444 X-134.828 Y-10.282 Z-11.196 
N445 X-134.828 Y-10.223 Z-11.284 
N446 X-134.829 Y-10.163 Z-11.372 
N447 X-134.830 Y-10.104 Z-11.460 
N448 X-134.830 Y-10.044 Z-11.548 
N449 X-134.831 Y-9.985 Z-11.637 
N450 X-134.831 Y-9.925 Z-11.725 
N451 X-134.832 Y-9.866 Z-11.813 
N452 X-134.833 Y-9.806 Z-11.901 
N453 X-134.833 Y-9.747 Z-11.989 
N454 X-134.834 Y-9.687 Z-12.077 
N455 X-134.834 Y-9.628 Z-12.166 
N456 X-134.835 Y-9.568 Z-12.254 
N457 X-134.836 Y-9.509 Z-12.342 
N458 X-134.836 Y-9.449 Z-12.430 
N459 X-134.837 Y-9.390 Z-12.518 
N460 X-134.837 Y-9.330 Z-12.607 
N461 X-134.838 Y-9.271 Z-12.695 
N462 X-134.839 Y-9.211 Z-12.783 
N463 X-134.839 Y-9.152 Z-12.871 
N464 X-134.840 Y-9.092 Z-12.959 
N465 X-134.840 Y-9.033 Z-13.048 
N466 X-134.841 Y-8.973 Z-13.136 
N467 X-134.842 Y-8.914 Z-13.224 
N468 X-134.842 Y-8.854 Z-13.312 
N469 X-134.843 Y-8.795 Z-13.400 
N470 X-134.843 Y-8.735 Z-13.489 
N471 X-134.844 Y-8.676 Z-13.577 
N472 G40 X-134.850 Y-8.117 Z-14.406 F318
N473 X-134.850 Y-8.117 Z-14.406 
N474 G00 X-134.850 Y-32.988 Z-31.182 
N475 X-132.363 Y-56.020 Z10.416 
N476 X-132.363 Y-31.149 Z27.192 
N477 ;FSA_1
N478 G01 G41 X-132.457 Y-30.592 Z26.367 F318
N479 G01 X-132.457 Y-30.592 Z26.367 F318 
N480 X-132.467 Y-30.533 Z26.278 
N481 X-132.477 Y-30.473 Z26.190 
N482 X-132.487 Y-30.413 Z26.101 
N483 X-132.497 Y-30.354 Z26.013 
N484 X-132.507 Y-30.294 Z25.925 
N485 X-132.517 Y-30.234 Z25.836 
N486 X-132.527 Y-30.175 Z25.748 
N487 X-132.537 Y-30.115 Z25.659 
N488 X-132.547 Y-30.055 Z25.571 
N489 X-132.557 Y-29.996 Z25.482 
N490 X-132.567 Y-29.936 Z25.394 
N491 X-132.578 Y-29.876 Z25.306 
N492 X-132.588 Y-29.817 Z25.217 
N493 X-132.598 Y-29.757 Z25.129 
N494 X-132.608 Y-29.697 Z25.040 
N495 X-132.618 Y-29.638 Z24.952 
N496 X-132.628 Y-29.578 Z24.863 
N497 X-132.638 Y-29.519 Z24.775 
N498 X-132.648 Y-29.459 Z24.687 
N499 X-132.658 Y-29.399 Z24.598 
N500 X-132.668 Y-29.340 Z24.510 
N501 X-132.678 Y-29.280 Z24.421 
N502 X-132.688 Y-29.220 Z24.333 
N503 X-132.698 Y-29.161 Z24.244 
N504 X-132.708 Y-29.101 Z24.156 
N505 X-132.718 Y-29.041 Z24.067 
N506 X-132.728 Y-28.982 Z23.979 
N507 X-132.738 Y-28.922 Z23.891 
N508 X-132.748 Y-28.863 Z23.803 
N509 X-132.758 Y-28.804 Z23.715 
N510 X-132.768 Y-28.744 Z23.627 
N511 X-132.778 Y-28.685 Z23.539 
N512 X-132.788 Y-28.626 Z23.452 
N513 X-132.798 Y-28.567 Z23.364 
N514 X-132.808 Y-28.507 Z23.276 
N515 X-132.818 Y-28.448 Z23.188 
N516 X-132.828 Y-28.389 Z23.100 
N517 X-132.838 Y-28.330 Z23.013 
N518 X-132.848 Y-28.271 Z22.925 
N519 X-132.858 Y-28.211 Z22.837 
N520 X-132.868 Y-28.152 Z22.749 
N521 X-132.878 Y-28.093 Z22.661 
N522 X-132.888 Y-28.034 Z22.573 
N523 X-132.898 Y-27.974 Z22.486 
N524 X-132.908 Y-27.915 Z22.398 
N525 X-132.918 Y-27.856 Z22.310 
N526 X-132.928 Y-27.797 Z22.222 
N527 X-132.938 Y-27.737 Z22.134 
N528 X-132.947 Y-27.678 Z22.047 
N529 X-132.957 Y-27.619 Z21.959 
N530 X-132.967 Y-27.560 Z21.871 
N531 X-132.977 Y-27.501 Z21.783 
N532 X-132.987 Y-27.441 Z21.695 
N533 X-132.997 Y-27.382 Z21.608 
N534 X-133.007 Y-27.323 Z21.520 
N535 X-133.017 Y-27.264 Z21.432 
N536 X-133.027 Y-27.204 Z21.344 
N537 X-133.037 Y-27.145 Z21.256 
N538 X-133.047 Y-27.086 Z21.169 
N539 X-133.057 Y-27.027 Z21.081 
N540 X-133.067 Y-26.968 Z20.993 
N541 X-133.077 Y-26.908 Z20.905 
N542 X-133.087 Y-26.849 Z20.817 
N543 X-133.097 Y-26.790 Z20.730 
N544 X-133.107 Y-26.731 Z20.642 
N545 X-133.117 Y-26.671 Z20.554 
N546 X-133.127 Y-26.612 Z20.466 
N547 X-133.137 Y-26.553 Z20.378 
N548 X-133.147 Y-26.494 Z20.290 
N549 X-133.157 Y-26.434 Z20.203 
N550 X-133.167 Y-26.375 Z20.115 
N551 X-133.177 Y-26.316 Z20.027 
N552 X-133.187 Y-26.257 Z19.939 
N553 X-133.197 Y-26.198 Z19.851 
N554 X-133.207 Y-26.138 Z19.764 
N555 X-133.217 Y-26.079 Z19.676 
N556 X-133.227 Y-26.020 Z19.589 
N557 X-133.236 Y-25.961 Z19.501 
N558 X-133.246 Y-25.902 Z19.413 
N559 X-133.256 Y-25.843 Z19.326 
N560 X-133.266 Y-25.784 Z19.238 
N561 X-133.276 Y-25.725 Z19.151 
N562 X-133.286 Y-25.666 Z19.063 
N563 X-133.296 Y-25.607 Z18.976 
N564 X-133.306 Y-25.548 Z18.888 
N565 X-133.316 Y-25.489 Z18.801 
N566 X-133.326 Y-25.430 Z18.713 
N567 X-133.336 Y-25.371 Z18.625 
N568 X-133.346 Y-25.312 Z18.538 
N569 X-133.356 Y-25.252 Z18.450 
N570 X-133.366 Y-25.193 Z18.363 
N571 X-133.376 Y-25.134 Z18.275 
N572 X-133.386 Y-25.075 Z18.188 
N573 X-133.396 Y-25.016 Z18.100 
N574 X-133.405 Y-24.957 Z18.013 
N575 X-133.415 Y-24.898 Z17.925 
N576 X-133.425 Y-24.839 Z17.837 
N577 X-133.435 Y-24.780 Z17.750 
N578 X-133.445 Y-24.721 Z17.662 
N579 X-133.455 Y-24.662 Z17.575 
N580 X-133.465 Y-24.603 Z17.487 
N581 X-133.475 Y-24.544 Z17.400 
N582 X-133.485 Y-24.485 Z17.312 
N583 X-133.495 Y-24.426 Z17.224 
N584 X-133.505 Y-24.367 Z17.137 
N585 X-133.515 Y-24.308 Z17.049 
N586 X-133.525 Y-24.248 Z16.962 
N587 X-133.535 Y-24.189 Z16.874 
N588 X-133.545 Y-24.130 Z16.787 
N589 X-133.555 Y-24.071 Z16.699 
N590 X-133.565 Y-24.012 Z16.612 
N591 X-133.574 Y-23.953 Z16.524 
N592 X-133.584 Y-23.894 Z16.436 
N593 X-133.594 Y-23.835 Z16.349 
N594 X-133.604 Y-23.776 Z16.261 
N595 X-133.614 Y-23.717 Z16.174 
N596 X-133.624 Y-23.658 Z16.086 
N597 X-133.634 Y-23.599 Z15.999 
N598 X-133.644 Y-23.540 Z15.911 
N599 X-133.654 Y-23.481 Z15.824 
N600 X-133.664 Y-23.422 Z15.736 
N601 X-133.674 Y-23.363 Z15.648 
N602 X-133.684 Y-23.304 Z15.561 
N603 X-133.694 Y-23.244 Z15.473 
N604 X-133.704 Y-23.185 Z15.386 
N605 X-133.714 Y-23.126 Z15.298 
N606 X-133.724 Y-23.067 Z15.211 
N607 X-133.733 Y-23.008 Z15.123 
N608 X-133.743 Y-22.949 Z15.036 
N609 X-133.751 Y-22.890 Z14.948 
N610 X-133.759 Y-22.831 Z14.860 
N611 X-133.767 Y-22.772 Z14.772 
N612 X-133.775 Y-22.713 Z14.685 
N613 X-133.782 Y-22.653 Z14.597 
N614 X-133.790 Y-22.594 Z14.509 
N615 X-133.798 Y-22.535 Z14.422 
N616 X-133.806 Y-22.476 Z14.334 
N617 X-133.813 Y-22.417 Z14.246 
N618 X-133.821 Y-22.358 Z14.158 
N619 X-133.829 Y-22.298 Z14.071 
N620 X-133.836 Y-22.239 Z13.983 
N621 X-133.844 Y-22.180 Z13.895 
N622 X-133.852 Y-22.121 Z13.808 
N623 X-133.860 Y-22.062 Z13.720 
N624 X-133.867 Y-22.003 Z13.632 
N625 X-133.875 Y-21.943 Z13.544 
N626 X-133.883 Y-21.884 Z13.457 
N627 X-133.891 Y-21.825 Z13.369 
N628 X-133.898 Y-21.766 Z13.281 
N629 X-133.906 Y-21.707 Z13.194 
N630 X-133.914 Y-21.648 Z13.106 
N631 X-133.922 Y-21.589 Z13.018 
N632 X-133.929 Y-21.529 Z12.931 
N633 X-133.937 Y-21.470 Z12.843 
N634 X-133.945 Y-21.411 Z12.755 
N635 X-133.953 Y-21.352 Z12.667 
N636 X-133.960 Y-21.293 Z12.580 
N637 X-133.968 Y-21.234 Z12.492 
N638 X-133.976 Y-21.174 Z12.404 
N639 X-133.984 Y-21.115 Z12.317 
N640 X-133.991 Y-21.056 Z12.229 
N641 X-133.999 Y-20.997 Z12.141 
N642 X-134.007 Y-20.938 Z12.053 
N643 X-134.014 Y-20.879 Z11.966 
N644 X-134.022 Y-20.819 Z11.878 
N645 X-134.030 Y-20.760 Z11.790 
N646 X-134.038 Y-20.701 Z11.703 
N647 X-134.045 Y-20.642 Z11.615 
N648 X-134.053 Y-20.583 Z11.527 
N649 X-134.061 Y-20.524 Z11.439 
N650 X-134.069 Y-20.464 Z11.352 
N651 X-134.076 Y-20.405 Z11.264 
N652 X-134.084 Y-20.346 Z11.176 
N653 X-134.092 Y-20.287 Z11.089 
N654 X-134.100 Y-20.228 Z11.001 
N655 X-134.107 Y-20.169 Z10.913 
N656 X-134.115 Y-20.109 Z10.825 
N657 X-134.123 Y-20.050 Z10.738 
N658 X-134.131 Y-19.991 Z10.650 
N659 X-134.138 Y-19.932 Z10.562 
N660 X-134.146 Y-19.873 Z10.475 
N661 X-134.154 Y-19.814 Z10.387 
N662 X-134.161 Y-19.755 Z10.299 
N663 X-134.169 Y-19.695 Z10.212 
N664 X-134.177 Y-19.636 Z10.124 
N665 X-134.185 Y-19.577 Z10.036 
N666 X-134.192 Y-19.518 Z9.948 
N667 X-134.200 Y-19.459 Z9.861 
N668 X-134.208 Y-19.400 Z9.773 
N669 X-134.216 Y-19.340 Z9.685 
N670 X-134.223 Y-19.281 Z9.598 
N671 X-134.231 Y-19.222 Z9.510 
N672 X-134.239 Y-19.163 Z9.422 
N673 X-134.246 Y-19.104 Z9.334 
N674 X-134.252 Y-19.044 Z9.247 
N675 X-134.258 Y-18.985 Z9.159 
N676 X-134.263 Y-18.926 Z9.071 
N677 X-134.269 Y-18.867 Z8.983 
N678 X-134.275 Y-18.808 Z8.895 
N679 X-134.281 Y-18.748 Z8.807 
N680 X-134.287 Y-18.689 Z8.720 
N681 X-134.293 Y-18.630 Z8.632 
N682 X-134.298 Y-18.571 Z8.544 
N683 X-134.304 Y-18.511 Z8.456 
N684 X-134.310 Y-18.452 Z8.368 
N685 X-134.316 Y-18.393 Z8.281 
N686 X-134.322 Y-18.334 Z8.193 
N687 X-134.328 Y-18.274 Z8.105 
N688 X-134.333 Y-18.215 Z8.017 
N689 X-134.339 Y-18.156 Z7.929 
N690 X-134.345 Y-18.097 Z7.842 
N691 X-134.351 Y-18.038 Z7.754 
N692 X-134.357 Y-17.978 Z7.666 
N693 X-134.363 Y-17.919 Z7.578 
N694 X-134.368 Y-17.860 Z7.490 
N695 X-134.374 Y-17.801 Z7.403 
N696 X-134.380 Y-17.741 Z7.315 
N697 X-134.386 Y-17.682 Z7.227 
N698 X-134.392 Y-17.623 Z7.139 
N699 X-134.397 Y-17.564 Z7.051 
N700 X-134.403 Y-17.505 Z6.963 
N701 X-134.409 Y-17.445 Z6.876 
N702 X-134.415 Y-17.386 Z6.788 
N703 X-134.421 Y-17.327 Z6.700 
N704 X-134.427 Y-17.268 Z6.612 
N705 X-134.432 Y-17.208 Z6.524 
N706 X-134.438 Y-17.149 Z6.437 
N707 X-134.444 Y-17.090 Z6.349 
N708 X-134.450 Y-17.031 Z6.261 
N709 X-134.456 Y-16.971 Z6.173 
N710 X-134.462 Y-16.912 Z6.085 
N711 X-134.467 Y-16.853 Z5.998 
N712 X-134.471 Y-16.794 Z5.910 
N713 X-134.476 Y-16.734 Z5.822 
N714 X-134.480 Y-16.675 Z5.734 
N715 X-134.484 Y-16.616 Z5.646 
N716 X-134.489 Y-16.557 Z5.558 
N717 X-134.493 Y-16.497 Z5.470 
N718 X-134.497 Y-16.438 Z5.382 
N719 X-134.502 Y-16.379 Z5.295 
N720 X-134.506 Y-16.320 Z5.207 
N721 X-134.510 Y-16.260 Z5.119 
N722 X-134.515 Y-16.201 Z5.031 
N723 X-134.519 Y-16.142 Z4.943 
N724 X-134.523 Y-16.082 Z4.855 
N725 X-134.527 Y-16.023 Z4.767 
N726 X-134.532 Y-15.964 Z4.679 
N727 X-134.536 Y-15.905 Z4.592 
N728 X-134.540 Y-15.845 Z4.504 
N729 X-134.545 Y-15.786 Z4.416 
N730 X-134.549 Y-15.727 Z4.328 
N731 X-134.553 Y-15.668 Z4.240 
N732 X-134.558 Y-15.608 Z4.152 
N733 X-134.562 Y-15.549 Z4.064 
N734 X-134.566 Y-15.490 Z3.976 
N735 X-134.570 Y-15.430 Z3.889 
N736 X-134.575 Y-15.371 Z3.801 
N737 X-134.579 Y-15.312 Z3.713 
N738 X-134.583 Y-15.253 Z3.625 
N739 X-134.588 Y-15.193 Z3.537 
N740 X-134.592 Y-15.134 Z3.449 
N741 X-134.596 Y-15.075 Z3.361 
N742 X-134.601 Y-15.016 Z3.273 
N743 X-134.605 Y-14.956 Z3.186 
N744 X-134.609 Y-14.897 Z3.098 
N745 X-134.614 Y-14.838 Z3.010 
N746 X-134.618 Y-14.779 Z2.922 
N747 X-134.622 Y-14.719 Z2.834 
N748 X-134.626 Y-14.660 Z2.746 
N749 X-134.631 Y-14.601 Z2.658 
N750 X-134.635 Y-14.541 Z2.571 
N751 X-134.639 Y-14.482 Z2.483 
N752 X-134.644 Y-14.423 Z2.395 
N753 X-134.648 Y-14.364 Z2.307 
N754 X-134.652 Y-14.304 Z2.219 
N755 X-134.656 Y-14.245 Z2.131 
N756 X-134.658 Y-14.186 Z2.043 
N757 X-134.661 Y-14.126 Z1.955 
N758 X-134.664 Y-14.067 Z1.867 
N759 X-134.666 Y-14.008 Z1.779 
N760 X-134.669 Y-13.949 Z1.692 
N761 X-134.671 Y-13.889 Z1.604 
N762 X-134.674 Y-13.830 Z1.516 
N763 X-134.676 Y-13.771 Z1.428 
N764 X-134.679 Y-13.711 Z1.340 
N765 X-134.681 Y-13.652 Z1.252 
N766 X-134.684 Y-13.593 Z1.164 
N767 X-134.687 Y-13.533 Z1.076 
N768 X-134.689 Y-13.474 Z0.988 
N769 X-134.692 Y-13.415 Z0.900 
N770 X-134.694 Y-13.356 Z0.812 
N771 X-134.697 Y-13.296 Z0.724 
N772 X-134.699 Y-13.237 Z0.637 
N773 X-134.702 Y-13.178 Z0.549 
N774 X-134.704 Y-13.118 Z0.461 
N775 X-134.707 Y-13.059 Z0.373 
N776 X-134.710 Y-13.000 Z0.285 
N777 X-134.712 Y-12.940 Z0.197 
N778 X-134.715 Y-12.881 Z0.109 
N779 X-134.717 Y-12.822 Z0.021 
N780 X-134.720 Y-12.763 Z-0.067 
N781 X-134.722 Y-12.703 Z-0.155 
N782 X-134.725 Y-12.644 Z-0.243 
N783 X-134.727 Y-12.585 Z-0.331 
N784 X-134.730 Y-12.525 Z-0.419 
N785 X-134.733 Y-12.466 Z-0.506 
N786 X-134.735 Y-12.407 Z-0.594 
N787 X-134.738 Y-12.347 Z-0.682 
N788 X-134.740 Y-12.288 Z-0.770 
N789 X-134.743 Y-12.229 Z-0.858 
N790 X-134.745 Y-12.169 Z-0.946 
N791 X-134.748 Y-12.110 Z-1.034 
N792 X-134.750 Y-12.051 Z-1.122 
N793 X-134.753 Y-11.992 Z-1.210 
N794 X-134.756 Y-11.932 Z-1.298 
N795 X-134.758 Y-11.873 Z-1.386 
N796 X-134.761 Y-11.814 Z-1.474 
N797 X-134.763 Y-11.754 Z-1.561 
N798 X-134.766 Y-11.695 Z-1.649 
N799 X-134.768 Y-11.636 Z-1.737 
N800 X-134.771 Y-11.576 Z-1.825 
N801 X-134.773 Y-11.517 Z-1.913 
N802 X-134.776 Y-11.458 Z-2.001 
N803 X-134.778 Y-11.399 Z-2.089 
N804 X-134.781 Y-11.339 Z-2.177 
N805 X-134.783 Y-11.280 Z-2.265 
N806 X-134.784 Y-11.221 Z-2.353 
N807 X-134.785 Y-11.161 Z-2.441 
N808 X-134.785 Y-11.102 Z-2.529 
N809 X-134.786 Y-11.043 Z-2.617 
N810 X-134.786 Y-10.983 Z-2.705 
N811 X-134.787 Y-10.924 Z-2.792 
N812 X-134.788 Y-10.865 Z-2.880 
N813 X-134.788 Y-10.805 Z-2.968 
N814 X-134.789 Y-10.746 Z-3.056 
N815 X-134.789 Y-10.687 Z-3.144 
N816 X-134.790 Y-10.627 Z-3.232 
N817 X-134.791 Y-10.568 Z-3.320 
N818 X-134.791 Y-10.509 Z-3.408 
N819 X-134.792 Y-10.450 Z-3.496 
N820 X-134.792 Y-10.390 Z-3.584 
N821 X-134.793 Y-10.331 Z-3.672 
N822 X-134.794 Y-10.272 Z-3.760 
N823 X-134.794 Y-10.212 Z-3.848 
N824 X-134.795 Y-10.153 Z-3.936 
N825 X-134.795 Y-10.094 Z-4.024 
N826 X-134.796 Y-10.034 Z-4.112 
N827 X-134.796 Y-9.975 Z-4.200 
N828 X-134.797 Y-9.916 Z-4.288 
N829 X-134.798 Y-9.856 Z-4.375 
N830 X-134.798 Y-9.797 Z-4.463 
N831 X-134.799 Y-9.738 Z-4.551 
N832 X-134.799 Y-9.678 Z-4.639 
N833 X-134.800 Y-9.619 Z-4.727 
N834 X-134.801 Y-9.560 Z-4.815 
N835 X-134.801 Y-9.500 Z-4.903 
N836 X-134.802 Y-9.441 Z-4.991 
N837 X-134.802 Y-9.382 Z-5.079 
N838 X-134.803 Y-9.322 Z-5.167 
N839 X-134.804 Y-9.263 Z-5.255 
N840 X-134.804 Y-9.204 Z-5.343 
N841 X-134.805 Y-9.145 Z-5.431 
N842 X-134.805 Y-9.085 Z-5.519 
N843 X-134.806 Y-9.026 Z-5.607 
N844 X-134.807 Y-8.967 Z-5.695 
N845 X-134.807 Y-8.907 Z-5.783 
N846 X-134.808 Y-8.848 Z-5.870 
N847 X-134.808 Y-8.789 Z-5.958 
N848 X-134.809 Y-8.729 Z-6.046 
N849 X-134.809 Y-8.670 Z-6.134 
N850 X-134.810 Y-8.611 Z-6.222 
N851 X-134.811 Y-8.551 Z-6.310 
N852 X-134.811 Y-8.492 Z-6.398 
N853 X-134.812 Y-8.433 Z-6.486 
N854 X-134.812 Y-8.373 Z-6.574 
N855 X-134.813 Y-8.314 Z-6.662 
N856 X-134.814 Y-8.255 Z-6.750 
N857 X-134.814 Y-8.195 Z-6.838 
N858 X-134.815 Y-8.136 Z-6.926 
N859 X-134.815 Y-8.077 Z-7.014 
N860 X-134.816 Y-8.017 Z-7.102 
N861 X-134.817 Y-7.958 Z-7.190 
N862 X-134.817 Y-7.898 Z-7.278 
N863 X-134.818 Y-7.839 Z-7.366 
N864 X-134.818 Y-7.780 Z-7.454 
N865 X-134.819 Y-7.720 Z-7.543 
N866 X-134.820 Y-7.661 Z-7.631 
N867 X-134.820 Y-7.601 Z-7.719 
N868 X-134.821 Y-7.542 Z-7.807 
N869 X-134.821 Y-7.482 Z-7.895 
N870 X-134.822 Y-7.423 Z-7.984 
N871 X-134.823 Y-7.363 Z-8.072 
N872 X-134.823 Y-7.304 Z-8.160 
N873 X-134.824 Y-7.244 Z-8.248 
N874 X-134.824 Y-7.185 Z-8.336 
N875 X-134.825 Y-7.125 Z-8.425 
N876 X-134.826 Y-7.066 Z-8.513 
N877 X-134.826 Y-7.006 Z-8.601 
N878 X-134.827 Y-6.947 Z-8.689 
N879 X-134.827 Y-6.887 Z-8.777 
N880 X-134.828 Y-6.828 Z-8.866 
N881 X-134.828 Y-6.768 Z-8.954 
N882 X-134.829 Y-6.709 Z-9.042 
N883 X-134.830 Y-6.649 Z-9.130 
N884 X-134.830 Y-6.590 Z-9.218 
N885 X-134.831 Y-6.530 Z-9.307 
N886 X-134.831 Y-6.471 Z-9.395 
N887 X-134.832 Y-6.411 Z-9.483 
N888 X-134.833 Y-6.352 Z-9.571 
N889 X-134.833 Y-6.292 Z-9.659 
N890 X-134.834 Y-6.233 Z-9.748 
N891 X-134.834 Y-6.173 Z-9.836 
N892 X-134.835 Y-6.114 Z-9.924 
N893 X-134.836 Y-6.054 Z-10.012 
N894 X-134.836 Y-5.995 Z-10.100 
N895 X-134.837 Y-5.935 Z-10.188 
N896 X-134.837 Y-5.876 Z-10.277 
N897 X-134.838 Y-5.816 Z-10.365 
N898 X-134.839 Y-5.757 Z-10.453 
N899 X-134.839 Y-5.697 Z-10.541 
N900 X-134.840 Y-5.638 Z-10.629 
N901 X-134.840 Y-5.578 Z-10.718 
N902 X-134.841 Y-5.519 Z-10.806 
N903 X-134.842 Y-5.459 Z-10.894 
N904 X-134.842 Y-5.400 Z-10.982 
N905 X-134.843 Y-5.341 Z-11.070 
N906 X-134.843 Y-5.281 Z-11.159 
N907 X-134.844 Y-5.222 Z-11.247 
N908 G40 X-134.850 Y-4.662 Z-12.076 F318
N909 X-134.850 Y-4.662 Z-12.076 
N910 G00 X-134.850 Y-29.533 Z-28.852 
N911 X-132.363 Y-52.566 Z12.746 
N912 X-132.363 Y-27.695 Z29.522 
N913 ;FSA_1
N914 G01 G41 X-132.457 Y-27.138 Z28.697 F318
N915 G01 X-132.457 Y-27.138 Z28.697 F318 
N916 X-132.467 Y-27.078 Z28.608 
N917 X-132.477 Y-27.019 Z28.520 
N918 X-132.487 Y-26.959 Z28.431 
N919 X-132.497 Y-26.899 Z28.343 
N920 X-132.507 Y-26.840 Z28.255 
N921 X-132.517 Y-26.780 Z28.166 
N922 X-132.527 Y-26.720 Z28.078 
N923 X-132.537 Y-26.661 Z27.989 
N924 X-132.547 Y-26.601 Z27.901 
N925 X-132.557 Y-26.541 Z27.812 
N926 X-132.567 Y-26.482 Z27.724 
N927 X-132.578 Y-26.422 Z27.636 
N928 X-132.588 Y-26.362 Z27.547 
N929 X-132.598 Y-26.303 Z27.459 
N930 X-132.608 Y-26.243 Z27.370 
N931 X-132.618 Y-26.183 Z27.282 
N932 X-132.628 Y-26.124 Z27.193 
N933 X-132.638 Y-26.064 Z27.105 
N934 X-132.648 Y-26.005 Z27.016 
N935 X-132.658 Y-25.945 Z26.928 
N936 X-132.668 Y-25.885 Z26.840 
N937 X-132.678 Y-25.826 Z26.751 
N938 X-132.688 Y-25.766 Z26.663 
N939 X-132.698 Y-25.706 Z26.574 
N940 X-132.708 Y-25.647 Z26.486 
N941 X-132.718 Y-25.587 Z26.397 
N942 X-132.728 Y-25.527 Z26.309 
N943 X-132.738 Y-25.468 Z26.221 
N944 X-132.748 Y-25.408 Z26.133 
N945 X-132.758 Y-25.349 Z26.045 
N946 X-132.768 Y-25.290 Z25.957 
N947 X-132.778 Y-25.231 Z25.869 
N948 X-132.788 Y-25.172 Z25.782 
N949 X-132.798 Y-25.112 Z25.694 
N950 X-132.808 Y-25.053 Z25.606 
N951 X-132.818 Y-24.994 Z25.518 
N952 X-132.828 Y-24.935 Z25.430 
N953 X-132.838 Y-24.875 Z25.342 
N954 X-132.848 Y-24.816 Z25.255 
N955 X-132.858 Y-24.757 Z25.167 
N956 X-132.868 Y-24.698 Z25.079 
N957 X-132.878 Y-24.639 Z24.991 
N958 X-132.888 Y-24.579 Z24.903 
N959 X-132.898 Y-24.520 Z24.816 
N960 X-132.908 Y-24.461 Z24.728 
N961 X-132.918 Y-24.402 Z24.640 
N962 X-132.928 Y-24.342 Z24.552 
N963 X-132.938 Y-24.283 Z24.464 
N964 X-132.947 Y-24.224 Z24.377 
N965 X-132.957 Y-24.165 Z24.289 
N966 X-132.967 Y-24.105 Z24.201 
N967 X-132.977 Y-24.046 Z24.113 
N968 X-132.987 Y-23.987 Z24.025 
N969 X-132.997 Y-23.928 Z23.938 
N970 X-133.007 Y-23.869 Z23.850 
N971 X-133.017 Y-23.809 Z23.762 
N972 X-133.027 Y-23.750 Z23.674 
N973 X-133.037 Y-23.691 Z23.586 
N974 X-133.047 Y-23.632 Z23.499 
N975 X-133.057 Y-23.572 Z23.411 
N976 X-133.067 Y-23.513 Z23.323 
N977 X-133.077 Y-23.454 Z23.235 
N978 X-133.087 Y-23.395 Z23.147 
N979 X-133.097 Y-23.336 Z23.060 
N980 X-133.107 Y-23.276 Z22.972 
N981 X-133.117 Y-23.217 Z22.884 
N982 X-133.127 Y-23.158 Z22.796 
N983 X-133.137 Y-23.099 Z22.708 
N984 X-133.147 Y-23.039 Z22.620 
N985 X-133.157 Y-22.980 Z22.533 
N986 X-133.167 Y-22.921 Z22.445 
N987 X-133.177 Y-22.862 Z22.357 
N988 X-133.187 Y-22.802 Z22.269 
N989 X-133.197 Y-22.743 Z22.181 
N990 X-133.207 Y-22.684 Z22.094 
N991 X-133.217 Y-22.625 Z22.006 
N992 X-133.227 Y-22.566 Z21.919 
N993 X-133.236 Y-22.507 Z21.831 
N994 X-133.246 Y-22.448 Z21.743 
N995 X-133.256 Y-22.389 Z21.656 
N996 X-133.266 Y-22.330 Z21.568 
N997 X-133.276 Y-22.271 Z21.481 
N998 X-133.286 Y-22.212 Z21.393 
N999 X-133.296 Y-22.153 Z21.306 
N1000 X-133.306 Y-22.093 Z21.218 
N1001 X-133.316 Y-22.034 Z21.130 
N1002 X-133.326 Y-21.975 Z21.043 
N1003 X-133.336 Y-21.916 Z20.955 
N1004 X-133.346 Y-21.857 Z20.868 
N1005 X-133.356 Y-21.798 Z20.780 
N1006 X-133.366 Y-21.739 Z20.693 
N1007 X-133.376 Y-21.680 Z20.605 
N1008 X-133.386 Y-21.621 Z20.518 
N1009 X-133.396 Y-21.562 Z20.430 
N1010 X-133.405 Y-21.503 Z20.342 
N1011 X-133.415 Y-21.444 Z20.255 
N1012 X-133.425 Y-21.385 Z20.167 
N1013 X-133.435 Y-21.326 Z20.080 
N1014 X-133.445 Y-21.267 Z19.992 
N1015 X-133.455 Y-21.208 Z19.905 
N1016 X-133.465 Y-21.149 Z19.817 
N1017 X-133.475 Y-21.089 Z19.730 
N1018 X-133.485 Y-21.030 Z19.642 
N1019 X-133.495 Y-20.971 Z19.554 
N1020 X-133.505 Y-20.912 Z19.467 
N1021 X-133.515 Y-20.853 Z19.379 
N1022 X-133.525 Y-20.794 Z19.292 
N1023 X-133.535 Y-20.735 Z19.204 
N1024 X-133.545 Y-20.676 Z19.117 
N1025 X-133.555 Y-20.617 Z19.029 
N1026 X-133.565 Y-20.558 Z18.942 
N1027 X-133.574 Y-20.499 Z18.854 
N1028 X-133.584 Y-20.440 Z18.766 
N1029 X-133.594 Y-20.381 Z18.679 
N1030 X-133.604 Y-20.322 Z18.591 
N1031 X-133.614 Y-20.263 Z18.504 
N1032 X-133.624 Y-20.204 Z18.416 
N1033 X-133.634 Y-20.145 Z18.329 
N1034 X-133.644 Y-20.085 Z18.241 
N1035 X-133.654 Y-20.026 Z18.154 
N1036 X-133.664 Y-19.967 Z18.066 
N1037 X-133.674 Y-19.908 Z17.978 
N1038 X-133.684 Y-19.849 Z17.891 
N1039 X-133.694 Y-19.790 Z17.803 
N1040 X-133.704 Y-19.731 Z17.716 
N1041 X-133.714 Y-19.672 Z17.628 
N1042 X-133.724 Y-19.613 Z17.541 
N1043 X-133.733 Y-19.554 Z17.453 
N1044 X-133.743 Y-19.495 Z17.366 
N1045 X-133.751 Y-19.436 Z17.278 
N1046 X-133.759 Y-19.377 Z17.190 
N1047 X-133.767 Y-19.317 Z17.102 
N1048 X-133.775 Y-19.258 Z17.015 
N1049 X-133.782 Y-19.199 Z16.927 
N1050 X-133.790 Y-19.140 Z16.839 
N1051 X-133.798 Y-19.081 Z16.752 
N1052 X-133.806 Y-19.022 Z16.664 
N1053 X-133.813 Y-18.962 Z16.576 
N1054 X-133.821 Y-18.903 Z16.488 
N1055 X-133.829 Y-18.844 Z16.401 
N1056 X-133.836 Y-18.785 Z16.313 
N1057 X-133.844 Y-18.726 Z16.225 
N1058 X-133.852 Y-18.667 Z16.138 
N1059 X-133.860 Y-18.607 Z16.050 
N1060 X-133.867 Y-18.548 Z15.962 
N1061 X-133.875 Y-18.489 Z15.874 
N1062 X-133.883 Y-18.430 Z15.787 
N1063 X-133.891 Y-18.371 Z15.699 
N1064 X-133.898 Y-18.312 Z15.611 
N1065 X-133.906 Y-18.253 Z15.524 
N1066 X-133.914 Y-18.193 Z15.436 
N1067 X-133.922 Y-18.134 Z15.348 
N1068 X-133.929 Y-18.075 Z15.260 
N1069 X-133.937 Y-18.016 Z15.173 
N1070 X-133.945 Y-17.957 Z15.085 
N1071 X-133.953 Y-17.898 Z14.997 
N1072 X-133.960 Y-17.838 Z14.910 
N1073 X-133.968 Y-17.779 Z14.822 
N1074 X-133.976 Y-17.720 Z14.734 
N1075 X-133.984 Y-17.661 Z14.647 
N1076 X-133.991 Y-17.602 Z14.559 
N1077 X-133.999 Y-17.543 Z14.471 
N1078 X-134.007 Y-17.483 Z14.383 
N1079 X-134.014 Y-17.424 Z14.296 
N1080 X-134.022 Y-17.365 Z14.208 
N1081 X-134.030 Y-17.306 Z14.120 
N1082 X-134.038 Y-17.247 Z14.033 
N1083 X-134.045 Y-17.188 Z13.945 
N1084 X-134.053 Y-17.128 Z13.857 
N1085 X-134.061 Y-17.069 Z13.769 
N1086 X-134.069 Y-17.010 Z13.682 
N1087 X-134.076 Y-16.951 Z13.594 
N1088 X-134.084 Y-16.892 Z13.506 
N1089 X-134.092 Y-16.833 Z13.419 
N1090 X-134.100 Y-16.773 Z13.331 
N1091 X-134.107 Y-16.714 Z13.243 
N1092 X-134.115 Y-16.655 Z13.155 
N1093 X-134.123 Y-16.596 Z13.068 
N1094 X-134.131 Y-16.537 Z12.980 
N1095 X-134.138 Y-16.478 Z12.892 
N1096 X-134.146 Y-16.419 Z12.805 
N1097 X-134.154 Y-16.359 Z12.717 
N1098 X-134.161 Y-16.300 Z12.629 
N1099 X-134.169 Y-16.241 Z12.541 
N1100 X-134.177 Y-16.182 Z12.454 
N1101 X-134.185 Y-16.123 Z12.366 
N1102 X-134.192 Y-16.064 Z12.278 
N1103 X-134.200 Y-16.004 Z12.191 
N1104 X-134.208 Y-15.945 Z12.103 
N1105 X-134.216 Y-15.886 Z12.015 
N1106 X-134.223 Y-15.827 Z11.928 
N1107 X-134.231 Y-15.768 Z11.840 
N1108 X-134.239 Y-15.709 Z11.752 
N1109 X-134.246 Y-15.649 Z11.664 
N1110 X-134.252 Y-15.590 Z11.577 
N1111 X-134.258 Y-15.531 Z11.489 
N1112 X-134.263 Y-15.472 Z11.401 
N1113 X-134.269 Y-15.412 Z11.313 
N1114 X-134.275 Y-15.353 Z11.225 
N1115 X-134.281 Y-15.294 Z11.137 
N1116 X-134.287 Y-15.235 Z11.050 
N1117 X-134.293 Y-15.176 Z10.962 
N1118 X-134.298 Y-15.116 Z10.874 
N1119 X-134.304 Y-15.057 Z10.786 
N1120 X-134.310 Y-14.998 Z10.698 
N1121 X-134.316 Y-14.939 Z10.611 
N1122 X-134.322 Y-14.879 Z10.523 
N1123 X-134.328 Y-14.820 Z10.435 
N1124 X-134.333 Y-14.761 Z10.347 
N1125 X-134.339 Y-14.702 Z10.259 
N1126 X-134.345 Y-14.642 Z10.172 
N1127 X-134.351 Y-14.583 Z10.084 
N1128 X-134.357 Y-14.524 Z9.996 
N1129 X-134.363 Y-14.465 Z9.908 
N1130 X-134.368 Y-14.406 Z9.820 
N1131 X-134.374 Y-14.346 Z9.732 
N1132 X-134.380 Y-14.287 Z9.645 
N1133 X-134.386 Y-14.228 Z9.557 
N1134 X-134.392 Y-14.169 Z9.469 
N1135 X-134.397 Y-14.109 Z9.381 
N1136 X-134.403 Y-14.050 Z9.293 
N1137 X-134.409 Y-13.991 Z9.206 
N1138 X-134.415 Y-13.932 Z9.118 
N1139 X-134.421 Y-13.873 Z9.030 
N1140 X-134.427 Y-13.813 Z8.942 
N1141 X-134.432 Y-13.754 Z8.854 
N1142 X-134.438 Y-13.695 Z8.767 
N1143 X-134.444 Y-13.636 Z8.679 
N1144 X-134.450 Y-13.576 Z8.591 
N1145 X-134.456 Y-13.517 Z8.503 
N1146 X-134.462 Y-13.458 Z8.415 
N1147 X-134.467 Y-13.399 Z8.327 
N1148 X-134.471 Y-13.339 Z8.240 
N1149 X-134.476 Y-13.280 Z8.152 
N1150 X-134.480 Y-13.221 Z8.064 
N1151 X-134.484 Y-13.162 Z7.976 
N1152 X-134.489 Y-13.102 Z7.888 
N1153 X-134.493 Y-13.043 Z7.800 
N1154 X-134.497 Y-12.984 Z7.712 
N1155 X-134.502 Y-12.924 Z7.625 
N1156 X-134.506 Y-12.865 Z7.537 
N1157 X-134.510 Y-12.806 Z7.449 
N1158 X-134.515 Y-12.747 Z7.361 
N1159 X-134.519 Y-12.687 Z7.273 
N1160 X-134.523 Y-12.628 Z7.185 
N1161 X-134.527 Y-12.569 Z7.097 
N1162 X-134.532 Y-12.510 Z7.009 
N1163 X-134.536 Y-12.450 Z6.922 
N1164 X-134.540 Y-12.391 Z6.834 
N1165 X-134.545 Y-12.332 Z6.746 
N1166 X-134.549 Y-12.273 Z6.658 
N1167 X-134.553 Y-12.213 Z6.570 
N1168 X-134.558 Y-12.154 Z6.482 
N1169 X-134.562 Y-12.095 Z6.394 
N1170 X-134.566 Y-12.035 Z6.306 
N1171 X-134.570 Y-11.976 Z6.219 
N1172 X-134.575 Y-11.917 Z6.131 
N1173 X-134.579 Y-11.858 Z6.043 
N1174 X-134.583 Y-11.798 Z5.955 
N1175 X-134.588 Y-11.739 Z5.867 
N1176 X-134.592 Y-11.680 Z5.779 
N1177 X-134.596 Y-11.621 Z5.691 
N1178 X-134.601 Y-11.561 Z5.603 
N1179 X-134.605 Y-11.502 Z5.516 
N1180 X-134.609 Y-11.443 Z5.428 
N1181 X-134.614 Y-11.383 Z5.340 
N1182 X-134.618 Y-11.324 Z5.252 
N1183 X-134.622 Y-11.265 Z5.164 
N1184 X-134.626 Y-11.206 Z5.076 
N1185 X-134.631 Y-11.146 Z4.988 
N1186 X-134.635 Y-11.087 Z4.900 
N1187 X-134.639 Y-11.028 Z4.813 
N1188 X-134.644 Y-10.969 Z4.725 
N1189 X-134.648 Y-10.909 Z4.637 
N1190 X-134.652 Y-10.850 Z4.549 
N1191 X-134.656 Y-10.791 Z4.461 
N1192 X-134.658 Y-10.731 Z4.373 
N1193 X-134.661 Y-10.672 Z4.285 
N1194 X-134.664 Y-10.613 Z4.197 
N1195 X-134.666 Y-10.554 Z4.109 
N1196 X-134.669 Y-10.494 Z4.022 
N1197 X-134.671 Y-10.435 Z3.934 
N1198 X-134.674 Y-10.376 Z3.846 
N1199 X-134.676 Y-10.316 Z3.758 
N1200 X-134.679 Y-10.257 Z3.670 
N1201 X-134.681 Y-10.198 Z3.582 
N1202 X-134.684 Y-10.138 Z3.494 
N1203 X-134.687 Y-10.079 Z3.406 
N1204 X-134.689 Y-10.020 Z3.318 
N1205 X-134.692 Y-9.961 Z3.230 
N1206 X-134.694 Y-9.901 Z3.142 
N1207 X-134.697 Y-9.842 Z3.054 
N1208 X-134.699 Y-9.783 Z2.966 
N1209 X-134.702 Y-9.723 Z2.879 
N1210 X-134.704 Y-9.664 Z2.791 
N1211 X-134.707 Y-9.605 Z2.703 
N1212 X-134.710 Y-9.545 Z2.615 
N1213 X-134.712 Y-9.486 Z2.527 
N1214 X-134.715 Y-9.427 Z2.439 
N1215 X-134.717 Y-9.367 Z2.351 
N1216 X-134.720 Y-9.308 Z2.263 
N1217 X-134.722 Y-9.249 Z2.175 
N1218 X-134.725 Y-9.190 Z2.087 
N1219 X-134.727 Y-9.130 Z1.999 
N1220 X-134.730 Y-9.071 Z1.911 
N1221 X-134.733 Y-9.012 Z1.824 
N1222 X-134.735 Y-8.952 Z1.736 
N1223 X-134.738 Y-8.893 Z1.648 
N1224 X-134.740 Y-8.834 Z1.560 
N1225 X-134.743 Y-8.774 Z1.472 
N1226 X-134.745 Y-8.715 Z1.384 
N1227 X-134.748 Y-8.656 Z1.296 
N1228 X-134.750 Y-8.597 Z1.208 
N1229 X-134.753 Y-8.537 Z1.120 
N1230 X-134.756 Y-8.478 Z1.032 
N1231 X-134.758 Y-8.419 Z0.944 
N1232 X-134.761 Y-8.359 Z0.856 
N1233 X-134.763 Y-8.300 Z0.769 
N1234 X-134.766 Y-8.241 Z0.681 
N1235 X-134.768 Y-8.181 Z0.593 
N1236 X-134.771 Y-8.122 Z0.505 
N1237 X-134.773 Y-8.063 Z0.417 
N1238 X-134.776 Y-8.004 Z0.329 
N1239 X-134.778 Y-7.944 Z0.241 
N1240 X-134.781 Y-7.885 Z0.153 
N1241 X-134.783 Y-7.826 Z0.065 
N1242 X-134.784 Y-7.766 Z-0.023 
N1243 X-134.785 Y-7.707 Z-0.111 
N1244 X-134.785 Y-7.648 Z-0.199 
N1245 X-134.786 Y-7.588 Z-0.287 
N1246 X-134.786 Y-7.529 Z-0.375 
N1247 X-134.787 Y-7.470 Z-0.463 
N1248 X-134.788 Y-7.410 Z-0.550 
N1249 X-134.788 Y-7.351 Z-0.638 
N1250 X-134.789 Y-7.292 Z-0.726 
N1251 X-134.789 Y-7.232 Z-0.814 
N1252 X-134.790 Y-7.173 Z-0.902 
N1253 X-134.791 Y-7.114 Z-0.990 
N1254 X-134.791 Y-7.055 Z-1.078 
N1255 X-134.792 Y-6.995 Z-1.166 
N1256 X-134.792 Y-6.936 Z-1.254 
N1257 X-134.793 Y-6.877 Z-1.342 
N1258 X-134.794 Y-6.817 Z-1.430 
N1259 X-134.794 Y-6.758 Z-1.518 
N1260 X-134.795 Y-6.699 Z-1.606 
N1261 X-134.795 Y-6.639 Z-1.694 
N1262 X-134.796 Y-6.580 Z-1.782 
N1263 X-134.796 Y-6.521 Z-1.870 
N1264 X-134.797 Y-6.461 Z-1.958 
N1265 X-134.798 Y-6.402 Z-2.045 
N1266 X-134.798 Y-6.343 Z-2.133 
N1267 X-134.799 Y-6.283 Z-2.221 
N1268 X-134.799 Y-6.224 Z-2.309 
N1269 X-134.800 Y-6.165 Z-2.397 
N1270 X-134.801 Y-6.105 Z-2.485 
N1271 X-134.801 Y-6.046 Z-2.573 
N1272 X-134.802 Y-5.987 Z-2.661 
N1273 X-134.802 Y-5.927 Z-2.749 
N1274 X-134.803 Y-5.868 Z-2.837 
N1275 X-134.804 Y-5.809 Z-2.925 
N1276 X-134.804 Y-5.750 Z-3.013 
N1277 X-134.805 Y-5.690 Z-3.101 
N1278 X-134.805 Y-5.631 Z-3.189 
N1279 X-134.806 Y-5.572 Z-3.277 
N1280 X-134.807 Y-5.512 Z-3.365 
N1281 X-134.807 Y-5.453 Z-3.453 
N1282 X-134.808 Y-5.394 Z-3.541 
N1283 X-134.808 Y-5.334 Z-3.628 
N1284 X-134.809 Y-5.275 Z-3.716 
N1285 X-134.809 Y-5.216 Z-3.804 
N1286 X-134.810 Y-5.156 Z-3.892 
N1287 X-134.811 Y-5.097 Z-3.980 
N1288 X-134.811 Y-5.038 Z-4.068 
N1289 X-134.812 Y-4.978 Z-4.156 
N1290 X-134.812 Y-4.919 Z-4.244 
N1291 X-134.813 Y-4.860 Z-4.332 
N1292 X-134.814 Y-4.800 Z-4.420 
N1293 X-134.814 Y-4.741 Z-4.508 
N1294 X-134.815 Y-4.682 Z-4.596 
N1295 X-134.815 Y-4.622 Z-4.684 
N1296 X-134.816 Y-4.563 Z-4.772 
N1297 X-134.817 Y-4.504 Z-4.860 
N1298 X-134.817 Y-4.444 Z-4.948 
N1299 X-134.818 Y-4.385 Z-5.036 
N1300 X-134.818 Y-4.325 Z-5.124 
N1301 X-134.819 Y-4.266 Z-5.213 
N1302 X-134.820 Y-4.206 Z-5.301 
N1303 X-134.820 Y-4.147 Z-5.389 
N1304 X-134.821 Y-4.087 Z-5.477 
N1305 X-134.821 Y-4.028 Z-5.565 
N1306 X-134.822 Y-3.968 Z-5.654 
N1307 X-134.823 Y-3.909 Z-5.742 
N1308 X-134.823 Y-3.849 Z-5.830 
N1309 X-134.824 Y-3.790 Z-5.918 
N1310 X-134.824 Y-3.730 Z-6.006 
N1311 X-134.825 Y-3.671 Z-6.095 
N1312 X-134.826 Y-3.611 Z-6.183 
N1313 X-134.826 Y-3.552 Z-6.271 
N1314 X-134.827 Y-3.492 Z-6.359 
N1315 X-134.827 Y-3.433 Z-6.447 
N1316 X-134.828 Y-3.373 Z-6.536 
N1317 X-134.828 Y-3.314 Z-6.624 
N1318 X-134.829 Y-3.254 Z-6.712 
N1319 X-134.830 Y-3.195 Z-6.800 
N1320 X-134.830 Y-3.135 Z-6.888 
N1321 X-134.831 Y-3.076 Z-6.977 
N1322 X-134.831 Y-3.016 Z-7.065 
N1323 X-134.832 Y-2.957 Z-7.153 
N1324 X-134.833 Y-2.897 Z-7.241 
N1325 X-134.833 Y-2.838 Z-7.329 
N1326 X-134.834 Y-2.779 Z-7.418 
N1327 X-134.834 Y-2.719 Z-7.506 
N1328 X-134.835 Y-2.660 Z-7.594 
N1329 X-134.836 Y-2.600 Z-7.682 
N1330 X-134.836 Y-2.541 Z-7.770 
N1331 X-134.837 Y-2.481 Z-7.859 
N1332 X-134.837 Y-2.422 Z-7.947 
N1333 X-134.838 Y-2.362 Z-8.035 
N1334 X-134.839 Y-2.303 Z-8.123 
N1335 X-134.839 Y-2.243 Z-8.211 
N1336 X-134.840 Y-2.184 Z-8.299 
N1337 X-134.840 Y-2.124 Z-8.388 
N1338 X-134.841 Y-2.065 Z-8.476 
N1339 X-134.842 Y-2.005 Z-8.564 
N1340 X-134.842 Y-1.946 Z-8.652 
N1341 X-134.843 Y-1.886 Z-8.740 
N1342 X-134.843 Y-1.827 Z-8.829 
N1343 X-134.844 Y-1.767 Z-8.917 
N1344 G40 X-134.850 Y-1.208 Z-9.746 F318
N1345 X-134.850 Y-1.208 Z-9.746 
N1346 G00 X-134.850 Y-42.660 Z-37.706 
RAPORT("TA000001","Side Milling:117 End")
;trailer : concat=None
; points cnt = 1290
N1348 MSG (" --- GROUPED OF SUBPROGRAM --- ")
N1349 FGROUP()
N1350 TRAFOOF
; PROGRAM NAME: A00000138
; ORDER       : A000001
; OPER. NAME  : Side Milling:118
; OPER. DESCR.: Semi Finishing shroud Radius Cut KR
; OPER. TYPE  : sideMill
; GEO. OPTION : 1
; MACHINE     : HSTM_300_SIM840D_Py
;             : HSTM300/500 - HAMUEL: 5-axis milling machine-SIM840D Traori PP_Script
; CONTROL     : SINUMERIK 840D
; created:   2021-11-15 09:10:10.777426
;-------DODATKOWE DANE-------------------
; PROGRAMISTA : Mariusz Malec
; PARTID      : 138T005360P1002_-
;  ap         : 0.9
;  ae         : 5.0
;  lean_angle : 0.02
;  fin_offset : 0.3
;----------------------------------------
RAPORT("TA000001","Side Milling:118")
N10 TRAFOOF
N11 D0
N12 G90 G94
N13 G0 G53 D0 Z550
N14 STOPRE
M9 ; chlodziwo wyl
; --- Side Milling:118 - Semi Finishing shroud Radius Cut KR ---
N16 ;ToolChange : concat=None ,current_tdmid=None, PP.tdmId=940642
N17 TRAFOOF
N18 G0 G53 D0 Z550 B0
N19 STOPRE
N20 MSG(" TLID=940642 D=10.0 R=0.0 Ang=0.0 Len=116.0 ")
N21 S3183 M03
N22 STOPRE
N23 TOL(0.1,1,1)
N24 G0 G53 A179.9642 B3.0762
N25 TRAORI
N26 G54 D3
N27 D3 
;---> in saveDoc :0:00:00.204453
STOPRE
E_ZDARZ=400003
;ACS_PREFINISH_SHROUD=7740642
STOPRE
N28 ; DELTA A > 40.1
N29 TRAFOOF
N30 D3
N31 STOPRE
N32 G00 G54 Z270.000
N33 G01 A179.9642 F10000
N34 TRAORI
N35 G54 D3
N36 STOPRE
N37 TRANS 
N38 G00 X-300.430 Y-26.180 Z-62.954 A179.9642 B3.0762 
N39 M342 ; chlodziwo woda
N40 X-303.113 Y-26.149 Z-13.026 
N41 G01 X-303.113 Y-16.149 Z-13.036 F318 
N42 X-303.113 Y-15.149 Z-13.037 
N43 X-303.113 Y-10.149 Z-13.041 
N44 X-303.113 Y21.956 Z-13.073 
N45 X-303.113 Y26.956 Z-13.078 
N46 X-303.113 Y36.956 Z-13.087 
N47 G00 X-300.430 Y36.925 Z-63.015 
RAPORT("TA000001","Side Milling:118 End")
;trailer : concat=None
; points cnt = 6
N49 M9 ; chlodziwo wyl.
N50 MSG (" --- KONIEC PODPROGRAMU --- ")
N51 FGROUP()
N52 TRAFOOF
N53 STOPRE
N54 G0 G53 D0 Z550.0 M9 M5
N55 G0 G53 Y150 A0 B0
N56 M17
