; PROGRAM NAME: A00000139
; ORDER       : A000001
; OPER. NAME  : Side Milling:119
; OPER. DESCR.: Side Milling/czolo nozki po luku wk
; OPER. TYPE  : sideMill
; GEO. OPTION : 1
; MACHINE     : HSTM_300_SIM840D_Py
;             : HSTM300/500 - HAMUEL: 5-axis milling machine-SIM840D Traori PP_Script
; CONTROL     : SINUMERIK 840D
; created:   2021-11-15 09:10:12.631973
;-------DODATKOWE DANE-------------------
; PROGRAMISTA : Mariusz Malec
; PARTID      : 138T005360P1002_-
;  ap         : 22.0
;  ae         : 0.05
;  lean_angle : 0.0
;  fin_offset : -12.0
;----------------------------------------
RAPORT("TA000001","Side Milling:119")
N10 TRAFOOF
N11 D0
N12 G90 G94
N13 G0 G53 D0 Z550
N14 STOPRE
M9 ; chlodziwo wyl
; --- Side Milling:119 - Side Milling/czolo nozki po luku wk ---
N16 ;ToolChange : concat=None ,current_tdmid=None, PP.tdmId=940641
N17 TRAFOOF
N18 G0 G53 D0 X-200 Y150 Z550 B0
N19 T="7740641"
RAPORT("TA000001","ToolChangeStart 7740641")
N20 M6
RAPORT("TA000001","ToolChangeEnd")
N21 STOPRE
N22 MSG(" TLID=940641 D=9.5 R=0.0 Ang=0.0 Len=116.0 ")
;---> in saveDoc :0:00:00.238361
;---> in saveDoc :0:00:00.244351
N23 S3015 M03
N24 STOPRE
N25 TOL(0.1,1,1)
N26 G0 G53 A304.0000 B-0.0000
N27 TRAORI
N28 G54 D1
;tol5=0.15
N29 D1 
;---> in saveDoc :0:00:00.248335
STOPRE
E_ZDARZ=300007
;ACS_FINISH_ROOT_FRONT=7740641
STOPRE
;UWAGA : ZMIENIONA TOLERANCJA OSI A i B, ruchy osi A i B beda usuniete : TOL5=0.15
N30 ; DELTA A > 40.1
N31 TRAFOOF
N32 D1
N33 STOPRE
N34 G00 G54 Z270.000
N35 G01 A304.0000 F10000
N36 TRAORI
N37 G54 D1
N38 STOPRE
N39 TRANS 
N40 G00 X-134.325 Y64.891 Z15.740 A304.0000 
N41 M342 ; chlodziwo woda
N42 X-134.325 Y23.439 Z-12.219 
N43 ;finish FSE
N44 G01 G41 X-134.385 Y22.881 Z-11.392 F241
N45 G01 X-134.385 Y22.881 Z-11.392 F241 
N46 X-134.393 Y22.814 Z-11.293 
N47 X-134.400 Y22.747 Z-11.193 
N48 X-134.407 Y22.680 Z-11.094 
N49 X-134.414 Y22.613 Z-10.995 
N50 X-134.422 Y22.546 Z-10.895 
N51 X-134.429 Y22.479 Z-10.796 
N52 X-134.436 Y22.412 Z-10.697 
N53 X-134.444 Y22.345 Z-10.597 
N54 X-134.451 Y22.278 Z-10.498 
N55 X-134.458 Y22.211 Z-10.399 
N56 X-134.465 Y22.144 Z-10.299 
N57 X-134.473 Y22.077 Z-10.200 
N58 X-134.480 Y22.010 Z-10.101 
N59 X-134.487 Y21.943 Z-10.002 
N60 X-134.495 Y21.876 Z-9.902 
N61 X-134.502 Y21.809 Z-9.803 
N62 X-134.509 Y21.742 Z-9.704 
N63 X-134.516 Y21.675 Z-9.604 
N64 X-134.524 Y21.608 Z-9.505 
N65 X-134.531 Y21.541 Z-9.406 
N66 X-134.538 Y21.474 Z-9.306 
N67 X-134.546 Y21.407 Z-9.207 
N68 X-134.553 Y21.340 Z-9.108 
N69 X-134.560 Y21.273 Z-9.009 
N70 X-134.567 Y21.206 Z-8.909 
N71 X-134.575 Y21.140 Z-8.811 
N72 X-134.582 Y21.074 Z-8.713 
N73 X-134.589 Y21.007 Z-8.614 
N74 X-134.596 Y20.941 Z-8.516 
N75 X-134.604 Y20.874 Z-8.417 
N76 X-134.611 Y20.807 Z-8.317 
N77 X-134.618 Y20.739 Z-8.217 
N78 X-134.625 Y20.672 Z-8.118 
N79 X-134.633 Y20.605 Z-8.018 
N80 X-134.640 Y20.538 Z-7.918 
N81 X-134.647 Y20.471 Z-7.819 
N82 X-134.654 Y20.403 Z-7.719 
N83 X-134.661 Y20.336 Z-7.619 
N84 X-134.668 Y20.269 Z-7.520 
N85 X-134.675 Y20.202 Z-7.420 
N86 X-134.682 Y20.135 Z-7.321 
N87 X-134.688 Y20.067 Z-7.221 
N88 X-134.695 Y20.000 Z-7.121 
N89 X-134.702 Y19.933 Z-7.022 
N90 X-134.709 Y19.866 Z-6.922 
N91 X-134.715 Y19.798 Z-6.822 
N92 X-134.722 Y19.731 Z-6.723 
N93 X-134.728 Y19.664 Z-6.623 
N94 X-134.735 Y19.597 Z-6.523 
N95 X-134.741 Y19.529 Z-6.424 
N96 X-134.748 Y19.462 Z-6.324 
N97 X-134.754 Y19.395 Z-6.224 
N98 X-134.760 Y19.328 Z-6.124 
N99 X-134.766 Y19.261 Z-6.025 
N100 X-134.773 Y19.193 Z-5.925 
N101 X-134.779 Y19.126 Z-5.825 
N102 X-134.785 Y19.059 Z-5.726 
N103 X-134.791 Y18.992 Z-5.626 
N104 X-134.797 Y18.924 Z-5.526 
N105 X-134.803 Y18.857 Z-5.427 
N106 X-134.809 Y18.790 Z-5.327 
N107 X-134.814 Y18.723 Z-5.227 
N108 X-134.820 Y18.655 Z-5.128 
N109 X-134.826 Y18.588 Z-5.028 
N110 X-134.832 Y18.521 Z-4.928 
N111 X-134.837 Y18.454 Z-4.828 
N112 X-134.843 Y18.386 Z-4.729 
N113 X-134.849 Y18.319 Z-4.629 
N114 X-134.854 Y18.252 Z-4.529 
N115 X-134.860 Y18.185 Z-4.430 
N116 X-134.865 Y18.117 Z-4.330 
N117 X-134.870 Y18.050 Z-4.230 
N118 X-134.876 Y17.983 Z-4.130 
N119 X-134.881 Y17.916 Z-4.031 
N120 X-134.886 Y17.848 Z-3.931 
N121 X-134.891 Y17.781 Z-3.831 
N122 X-134.896 Y17.714 Z-3.732 
N123 X-134.901 Y17.646 Z-3.632 
N124 X-134.907 Y17.579 Z-3.532 
N125 X-134.912 Y17.512 Z-3.432 
N126 X-134.916 Y17.445 Z-3.333 
N127 X-134.921 Y17.377 Z-3.233 
N128 X-134.926 Y17.310 Z-3.133 
N129 X-134.931 Y17.243 Z-3.033 
N130 X-134.936 Y17.176 Z-2.934 
N131 X-134.940 Y17.108 Z-2.834 
N132 X-134.945 Y17.041 Z-2.734 
N133 X-134.950 Y16.974 Z-2.634 
N134 X-134.954 Y16.906 Z-2.535 
N135 X-134.959 Y16.839 Z-2.435 
N136 X-134.963 Y16.772 Z-2.335 
N137 X-134.968 Y16.705 Z-2.235 
N138 X-134.972 Y16.637 Z-2.136 
N139 X-134.976 Y16.570 Z-2.036 
N140 X-134.981 Y16.503 Z-1.936 
N141 X-134.985 Y16.435 Z-1.836 
N142 X-134.989 Y16.368 Z-1.737 
N143 X-134.993 Y16.301 Z-1.637 
N144 X-134.997 Y16.234 Z-1.537 
N145 X-135.001 Y16.166 Z-1.437 
N146 X-135.005 Y16.099 Z-1.338 
N147 X-135.009 Y16.032 Z-1.238 
N148 X-135.013 Y15.964 Z-1.138 
N149 X-135.017 Y15.897 Z-1.038 
N150 X-135.021 Y15.830 Z-0.939 
N151 X-135.024 Y15.763 Z-0.839 
N152 X-135.028 Y15.695 Z-0.739 
N153 X-135.032 Y15.628 Z-0.639 
N154 X-135.035 Y15.561 Z-0.540 
N155 X-135.039 Y15.493 Z-0.440 
N156 X-135.042 Y15.426 Z-0.340 
N157 X-135.046 Y15.359 Z-0.240 
N158 X-135.049 Y15.291 Z-0.140 
N159 X-135.052 Y15.224 Z-0.041 
N160 X-135.056 Y15.157 Z0.059 
N161 X-135.059 Y15.090 Z0.159 
N162 X-135.062 Y15.022 Z0.259 
N163 X-135.065 Y14.955 Z0.358 
N164 X-135.069 Y14.888 Z0.458 
N165 X-135.072 Y14.820 Z0.558 
N166 X-135.075 Y14.753 Z0.658 
N167 X-135.078 Y14.686 Z0.758 
N168 X-135.081 Y14.618 Z0.857 
N169 X-135.083 Y14.551 Z0.957 
N170 X-135.086 Y14.484 Z1.057 
N171 X-135.089 Y14.416 Z1.157 
N172 X-135.092 Y14.349 Z1.257 
N173 X-135.095 Y14.282 Z1.356 
N174 X-135.097 Y14.215 Z1.456 
N175 X-135.100 Y14.147 Z1.556 
N176 X-135.102 Y14.080 Z1.656 
N177 X-135.105 Y14.013 Z1.756 
N178 X-135.107 Y13.945 Z1.855 
N179 X-135.110 Y13.878 Z1.955 
N180 X-135.112 Y13.811 Z2.055 
N181 X-135.114 Y13.743 Z2.155 
N182 X-135.117 Y13.676 Z2.255 
N183 X-135.119 Y13.609 Z2.354 
N184 X-135.121 Y13.541 Z2.454 
N185 X-135.123 Y13.474 Z2.554 
N186 X-135.125 Y13.407 Z2.654 
N187 X-135.127 Y13.339 Z2.754 
N188 X-135.129 Y13.272 Z2.853 
N189 X-135.131 Y13.205 Z2.953 
N190 X-135.133 Y13.138 Z3.053 
N191 X-135.135 Y13.070 Z3.153 
N192 X-135.136 Y13.003 Z3.253 
N193 X-135.138 Y12.936 Z3.352 
N194 X-135.140 Y12.868 Z3.452 
N195 X-135.141 Y12.801 Z3.552 
N196 X-135.143 Y12.734 Z3.652 
N197 X-135.145 Y12.666 Z3.752 
N198 X-135.146 Y12.599 Z3.851 
N199 X-135.148 Y12.532 Z3.951 
N200 X-135.149 Y12.464 Z4.051 
N201 X-135.150 Y12.397 Z4.151 
N202 X-135.152 Y12.330 Z4.251 
N203 X-135.153 Y12.262 Z4.350 
N204 X-135.154 Y12.195 Z4.450 
N205 X-135.155 Y12.128 Z4.550 
N206 X-135.156 Y12.060 Z4.650 
N207 X-135.157 Y11.993 Z4.750 
N208 X-135.158 Y11.926 Z4.850 
N209 X-135.159 Y11.858 Z4.949 
N210 X-135.160 Y11.791 Z5.049 
N211 X-135.161 Y11.724 Z5.149 
N212 X-135.162 Y11.656 Z5.249 
N213 X-135.163 Y11.589 Z5.349 
N214 X-135.163 Y11.522 Z5.448 
N215 X-135.164 Y11.454 Z5.548 
N216 X-135.165 Y11.387 Z5.648 
N217 X-135.165 Y11.320 Z5.748 
N218 X-135.166 Y11.252 Z5.848 
N219 X-135.166 Y11.185 Z5.947 
N220 X-135.167 Y11.118 Z6.047 
N221 X-135.167 Y11.050 Z6.147 
N222 X-135.167 Y10.983 Z6.247 
N223 X-135.168 Y10.916 Z6.347 
N224 X-135.168 Y10.848 Z6.447 
N225 X-135.168 Y10.781 Z6.546 
N226 X-135.168 Y10.714 Z6.646 
N227 X-135.168 Y10.647 Z6.746 
N228 X-135.168 Y10.579 Z6.846 
N229 X-135.169 Y10.512 Z6.946 
N230 X-135.168 Y10.445 Z7.045 
N231 X-135.168 Y10.377 Z7.145 
N232 X-135.168 Y10.310 Z7.245 
N233 X-135.168 Y10.243 Z7.345 
N234 X-135.168 Y10.175 Z7.445 
N235 X-135.168 Y10.108 Z7.545 
N236 X-135.167 Y10.041 Z7.644 
N237 X-135.167 Y9.973 Z7.744 
N238 X-135.166 Y9.906 Z7.844 
N239 X-135.166 Y9.839 Z7.944 
N240 X-135.165 Y9.771 Z8.044 
N241 X-135.165 Y9.704 Z8.143 
N242 X-135.164 Y9.637 Z8.243 
N243 X-135.164 Y9.569 Z8.343 
N244 X-135.163 Y9.502 Z8.443 
N245 X-135.162 Y9.435 Z8.543 
N246 X-135.161 Y9.367 Z8.643 
N247 X-135.160 Y9.300 Z8.742 
N248 X-135.159 Y9.233 Z8.842 
N249 X-135.159 Y9.165 Z8.942 
N250 X-135.158 Y9.098 Z9.042 
N251 X-135.156 Y9.031 Z9.142 
N252 X-135.155 Y8.963 Z9.241 
N253 X-135.154 Y8.896 Z9.341 
N254 X-135.153 Y8.829 Z9.441 
N255 X-135.152 Y8.761 Z9.541 
N256 X-135.150 Y8.694 Z9.641 
N257 X-135.149 Y8.627 Z9.740 
N258 X-135.148 Y8.559 Z9.840 
N259 X-135.146 Y8.492 Z9.940 
N260 X-135.145 Y8.425 Z10.040 
N261 X-135.143 Y8.357 Z10.140 
N262 X-135.142 Y8.290 Z10.240 
N263 X-135.140 Y8.223 Z10.339 
N264 X-135.138 Y8.155 Z10.439 
N265 X-135.137 Y8.088 Z10.539 
N266 X-135.135 Y8.021 Z10.639 
N267 X-135.133 Y7.954 Z10.739 
N268 X-135.131 Y7.886 Z10.838 
N269 X-135.129 Y7.819 Z10.938 
N270 X-135.127 Y7.752 Z11.038 
N271 X-135.125 Y7.684 Z11.138 
N272 X-135.123 Y7.617 Z11.238 
N273 X-135.121 Y7.550 Z11.337 
N274 X-135.119 Y7.482 Z11.437 
N275 X-135.117 Y7.415 Z11.537 
N276 X-135.115 Y7.348 Z11.637 
N277 X-135.112 Y7.280 Z11.737 
N278 X-135.110 Y7.213 Z11.836 
N279 X-135.108 Y7.146 Z11.936 
N280 X-135.105 Y7.078 Z12.036 
N281 X-135.103 Y7.011 Z12.136 
N282 X-135.100 Y6.944 Z12.236 
N283 X-135.098 Y6.876 Z12.335 
N284 X-135.095 Y6.809 Z12.435 
N285 X-135.092 Y6.742 Z12.535 
N286 X-135.089 Y6.675 Z12.635 
N287 X-135.087 Y6.607 Z12.735 
N288 X-135.084 Y6.540 Z12.834 
N289 X-135.081 Y6.473 Z12.934 
N290 X-135.078 Y6.405 Z13.034 
N291 X-135.075 Y6.338 Z13.134 
N292 X-135.072 Y6.271 Z13.233 
N293 X-135.069 Y6.203 Z13.333 
N294 X-135.066 Y6.136 Z13.433 
N295 X-135.063 Y6.069 Z13.533 
N296 X-135.060 Y6.001 Z13.633 
N297 X-135.056 Y5.934 Z13.732 
N298 X-135.053 Y5.867 Z13.832 
N299 X-135.050 Y5.800 Z13.932 
N300 X-135.046 Y5.732 Z14.032 
N301 X-135.043 Y5.665 Z14.131 
N302 X-135.039 Y5.598 Z14.231 
N303 X-135.036 Y5.530 Z14.331 
N304 X-135.032 Y5.464 Z14.429 
N305 X-135.029 Y5.398 Z14.528 
N306 X-135.026 Y5.331 Z14.626 
N307 X-135.022 Y5.265 Z14.725 
N308 G40 X-134.993 Y4.706 Z15.553 F241
N309 X-134.993 Y4.706 Z15.553 
N310 G00 X-134.993 Y29.577 Z32.329 
N311 X-134.375 Y48.312 Z4.554 
N312 X-134.375 Y23.441 Z-12.222 
N313 ;finish FSE
N314 G01 G41 X-134.435 Y22.882 Z-11.394 F241
N315 G01 X-134.435 Y22.882 Z-11.394 F241 
N316 X-134.443 Y22.815 Z-11.295 
N317 X-134.450 Y22.748 Z-11.196 
N318 X-134.457 Y22.681 Z-11.096 
N319 X-134.464 Y22.614 Z-10.997 
N320 X-134.472 Y22.547 Z-10.898 
N321 X-134.479 Y22.480 Z-10.799 
N322 X-134.486 Y22.413 Z-10.699 
N323 X-134.494 Y22.347 Z-10.600 
N324 X-134.501 Y22.280 Z-10.501 
N325 X-134.508 Y22.213 Z-10.401 
N326 X-134.515 Y22.146 Z-10.302 
N327 X-134.523 Y22.079 Z-10.203 
N328 X-134.530 Y22.012 Z-10.103 
N329 X-134.537 Y21.945 Z-10.004 
N330 X-134.545 Y21.878 Z-9.905 
N331 X-134.552 Y21.811 Z-9.806 
N332 X-134.559 Y21.744 Z-9.706 
N333 X-134.566 Y21.677 Z-9.607 
N334 X-134.574 Y21.610 Z-9.508 
N335 X-134.581 Y21.543 Z-9.408 
N336 X-134.588 Y21.476 Z-9.309 
N337 X-134.595 Y21.409 Z-9.210 
N338 X-134.603 Y21.342 Z-9.110 
N339 X-134.610 Y21.275 Z-9.011 
N340 X-134.617 Y21.208 Z-8.912 
N341 X-134.625 Y21.142 Z-8.814 
N342 X-134.632 Y21.075 Z-8.715 
N343 X-134.639 Y21.009 Z-8.617 
N344 X-134.646 Y20.943 Z-8.519 
N345 X-134.653 Y20.876 Z-8.419 
N346 X-134.661 Y20.808 Z-8.319 
N347 X-134.668 Y20.741 Z-8.220 
N348 X-134.675 Y20.674 Z-8.120 
N349 X-134.683 Y20.607 Z-8.021 
N350 X-134.690 Y20.539 Z-7.921 
N351 X-134.697 Y20.472 Z-7.821 
N352 X-134.704 Y20.405 Z-7.722 
N353 X-134.711 Y20.338 Z-7.622 
N354 X-134.718 Y20.271 Z-7.522 
N355 X-134.725 Y20.203 Z-7.423 
N356 X-134.732 Y20.136 Z-7.323 
N357 X-134.738 Y20.069 Z-7.223 
N358 X-134.745 Y20.002 Z-7.124 
N359 X-134.752 Y19.934 Z-7.024 
N360 X-134.758 Y19.867 Z-6.924 
N361 X-134.765 Y19.800 Z-6.824 
N362 X-134.772 Y19.733 Z-6.725 
N363 X-134.778 Y19.665 Z-6.625 
N364 X-134.785 Y19.598 Z-6.525 
N365 X-134.791 Y19.531 Z-6.426 
N366 X-134.797 Y19.464 Z-6.326 
N367 X-134.804 Y19.396 Z-6.226 
N368 X-134.810 Y19.329 Z-6.127 
N369 X-134.816 Y19.262 Z-6.027 
N370 X-134.822 Y19.195 Z-5.927 
N371 X-134.829 Y19.127 Z-5.828 
N372 X-134.835 Y19.060 Z-5.728 
N373 X-134.841 Y18.993 Z-5.628 
N374 X-134.847 Y18.926 Z-5.528 
N375 X-134.853 Y18.858 Z-5.429 
N376 X-134.859 Y18.791 Z-5.329 
N377 X-134.864 Y18.724 Z-5.229 
N378 X-134.870 Y18.657 Z-5.130 
N379 X-134.876 Y18.589 Z-5.030 
N380 X-134.882 Y18.522 Z-4.930 
N381 X-134.887 Y18.455 Z-4.830 
N382 X-134.893 Y18.388 Z-4.731 
N383 X-134.898 Y18.320 Z-4.631 
N384 X-134.904 Y18.253 Z-4.531 
N385 X-134.909 Y18.186 Z-4.431 
N386 X-134.915 Y18.119 Z-4.332 
N387 X-134.920 Y18.051 Z-4.232 
N388 X-134.926 Y17.984 Z-4.132 
N389 X-134.931 Y17.917 Z-4.033 
N390 X-134.936 Y17.849 Z-3.933 
N391 X-134.941 Y17.782 Z-3.833 
N392 X-134.946 Y17.715 Z-3.733 
N393 X-134.951 Y17.648 Z-3.634 
N394 X-134.957 Y17.580 Z-3.534 
N395 X-134.961 Y17.513 Z-3.434 
N396 X-134.966 Y17.446 Z-3.334 
N397 X-134.971 Y17.379 Z-3.235 
N398 X-134.976 Y17.311 Z-3.135 
N399 X-134.981 Y17.244 Z-3.035 
N400 X-134.986 Y17.177 Z-2.935 
N401 X-134.990 Y17.109 Z-2.836 
N402 X-134.995 Y17.042 Z-2.736 
N403 X-135.000 Y16.975 Z-2.636 
N404 X-135.004 Y16.907 Z-2.536 
N405 X-135.009 Y16.840 Z-2.437 
N406 X-135.013 Y16.773 Z-2.337 
N407 X-135.018 Y16.706 Z-2.237 
N408 X-135.022 Y16.638 Z-2.137 
N409 X-135.026 Y16.571 Z-2.037 
N410 X-135.030 Y16.504 Z-1.938 
N411 X-135.035 Y16.436 Z-1.838 
N412 X-135.039 Y16.369 Z-1.738 
N413 X-135.043 Y16.302 Z-1.638 
N414 X-135.047 Y16.235 Z-1.539 
N415 X-135.051 Y16.167 Z-1.439 
N416 X-135.055 Y16.100 Z-1.339 
N417 X-135.059 Y16.033 Z-1.239 
N418 X-135.063 Y15.965 Z-1.139 
N419 X-135.067 Y15.898 Z-1.040 
N420 X-135.071 Y15.831 Z-0.940 
N421 X-135.074 Y15.763 Z-0.840 
N422 X-135.078 Y15.696 Z-0.740 
N423 X-135.082 Y15.629 Z-0.641 
N424 X-135.085 Y15.561 Z-0.541 
N425 X-135.089 Y15.494 Z-0.441 
N426 X-135.092 Y15.427 Z-0.341 
N427 X-135.096 Y15.360 Z-0.241 
N428 X-135.099 Y15.292 Z-0.142 
N429 X-135.102 Y15.225 Z-0.042 
N430 X-135.106 Y15.158 Z0.058 
N431 X-135.109 Y15.090 Z0.158 
N432 X-135.112 Y15.023 Z0.258 
N433 X-135.115 Y14.956 Z0.357 
N434 X-135.119 Y14.888 Z0.457 
N435 X-135.122 Y14.821 Z0.557 
N436 X-135.125 Y14.754 Z0.657 
N437 X-135.128 Y14.686 Z0.757 
N438 X-135.131 Y14.619 Z0.856 
N439 X-135.133 Y14.552 Z0.956 
N440 X-135.136 Y14.484 Z1.056 
N441 X-135.139 Y14.417 Z1.156 
N442 X-135.142 Y14.350 Z1.256 
N443 X-135.145 Y14.282 Z1.355 
N444 X-135.147 Y14.215 Z1.455 
N445 X-135.150 Y14.148 Z1.555 
N446 X-135.152 Y14.081 Z1.655 
N447 X-135.155 Y14.013 Z1.755 
N448 X-135.157 Y13.946 Z1.855 
N449 X-135.160 Y13.879 Z1.954 
N450 X-135.162 Y13.811 Z2.054 
N451 X-135.164 Y13.744 Z2.154 
N452 X-135.167 Y13.677 Z2.254 
N453 X-135.169 Y13.609 Z2.354 
N454 X-135.171 Y13.542 Z2.453 
N455 X-135.173 Y13.475 Z2.553 
N456 X-135.175 Y13.407 Z2.653 
N457 X-135.177 Y13.340 Z2.753 
N458 X-135.179 Y13.273 Z2.853 
N459 X-135.181 Y13.205 Z2.952 
N460 X-135.183 Y13.138 Z3.052 
N461 X-135.185 Y13.071 Z3.152 
N462 X-135.186 Y13.003 Z3.252 
N463 X-135.188 Y12.936 Z3.352 
N464 X-135.190 Y12.869 Z3.452 
N465 X-135.191 Y12.801 Z3.551 
N466 X-135.193 Y12.734 Z3.651 
N467 X-135.195 Y12.667 Z3.751 
N468 X-135.196 Y12.599 Z3.851 
N469 X-135.198 Y12.532 Z3.951 
N470 X-135.199 Y12.465 Z4.051 
N471 X-135.200 Y12.397 Z4.150 
N472 X-135.202 Y12.330 Z4.250 
N473 X-135.203 Y12.263 Z4.350 
N474 X-135.204 Y12.195 Z4.450 
N475 X-135.205 Y12.128 Z4.550 
N476 X-135.206 Y12.061 Z4.650 
N477 X-135.207 Y11.993 Z4.749 
N478 X-135.208 Y11.926 Z4.849 
N479 X-135.209 Y11.859 Z4.949 
N480 X-135.210 Y11.791 Z5.049 
N481 X-135.211 Y11.724 Z5.149 
N482 X-135.212 Y11.657 Z5.249 
N483 X-135.213 Y11.589 Z5.348 
N484 X-135.213 Y11.522 Z5.448 
N485 X-135.214 Y11.455 Z5.548 
N486 X-135.215 Y11.387 Z5.648 
N487 X-135.215 Y11.320 Z5.748 
N488 X-135.216 Y11.253 Z5.848 
N489 X-135.216 Y11.185 Z5.947 
N490 X-135.217 Y11.118 Z6.047 
N491 X-135.217 Y11.051 Z6.147 
N492 X-135.217 Y10.983 Z6.247 
N493 X-135.218 Y10.916 Z6.347 
N494 X-135.218 Y10.849 Z6.447 
N495 X-135.218 Y10.781 Z6.546 
N496 X-135.218 Y10.714 Z6.646 
N497 X-135.218 Y10.647 Z6.746 
N498 X-135.218 Y10.579 Z6.846 
N499 X-135.219 Y10.512 Z6.946 
N500 X-135.218 Y10.445 Z7.045 
N501 X-135.218 Y10.377 Z7.145 
N502 X-135.218 Y10.310 Z7.245 
N503 X-135.218 Y10.242 Z7.345 
N504 X-135.218 Y10.175 Z7.445 
N505 X-135.218 Y10.108 Z7.545 
N506 X-135.217 Y10.040 Z7.644 
N507 X-135.217 Y9.973 Z7.744 
N508 X-135.216 Y9.906 Z7.844 
N509 X-135.216 Y9.838 Z7.944 
N510 X-135.215 Y9.771 Z8.044 
N511 X-135.215 Y9.704 Z8.144 
N512 X-135.214 Y9.636 Z8.243 
N513 X-135.214 Y9.569 Z8.343 
N514 X-135.213 Y9.502 Z8.443 
N515 X-135.212 Y9.434 Z8.543 
N516 X-135.211 Y9.367 Z8.643 
N517 X-135.210 Y9.300 Z8.743 
N518 X-135.209 Y9.232 Z8.842 
N519 X-135.209 Y9.165 Z8.942 
N520 X-135.208 Y9.098 Z9.042 
N521 X-135.206 Y9.030 Z9.142 
N522 X-135.205 Y8.963 Z9.242 
N523 X-135.204 Y8.896 Z9.342 
N524 X-135.203 Y8.828 Z9.441 
N525 X-135.202 Y8.761 Z9.541 
N526 X-135.200 Y8.694 Z9.641 
N527 X-135.199 Y8.626 Z9.741 
N528 X-135.198 Y8.559 Z9.841 
N529 X-135.196 Y8.492 Z9.941 
N530 X-135.195 Y8.424 Z10.040 
N531 X-135.193 Y8.357 Z10.140 
N532 X-135.192 Y8.290 Z10.240 
N533 X-135.190 Y8.222 Z10.340 
N534 X-135.188 Y8.155 Z10.440 
N535 X-135.187 Y8.088 Z10.540 
N536 X-135.185 Y8.020 Z10.639 
N537 X-135.183 Y7.953 Z10.739 
N538 X-135.181 Y7.886 Z10.839 
N539 X-135.179 Y7.818 Z10.939 
N540 X-135.177 Y7.751 Z11.039 
N541 X-135.175 Y7.684 Z11.138 
N542 X-135.173 Y7.616 Z11.238 
N543 X-135.171 Y7.549 Z11.338 
N544 X-135.169 Y7.482 Z11.438 
N545 X-135.167 Y7.414 Z11.538 
N546 X-135.165 Y7.347 Z11.638 
N547 X-135.162 Y7.280 Z11.737 
N548 X-135.160 Y7.212 Z11.837 
N549 X-135.158 Y7.145 Z11.937 
N550 X-135.155 Y7.078 Z12.037 
N551 X-135.153 Y7.011 Z12.137 
N552 X-135.150 Y6.943 Z12.236 
N553 X-135.148 Y6.876 Z12.336 
N554 X-135.145 Y6.809 Z12.436 
N555 X-135.142 Y6.741 Z12.536 
N556 X-135.139 Y6.674 Z12.636 
N557 X-135.137 Y6.607 Z12.735 
N558 X-135.134 Y6.539 Z12.835 
N559 X-135.131 Y6.472 Z12.935 
N560 X-135.128 Y6.405 Z13.035 
N561 X-135.125 Y6.337 Z13.135 
N562 X-135.122 Y6.270 Z13.234 
N563 X-135.119 Y6.203 Z13.334 
N564 X-135.116 Y6.135 Z13.434 
N565 X-135.113 Y6.068 Z13.534 
N566 X-135.110 Y6.001 Z13.634 
N567 X-135.106 Y5.933 Z13.733 
N568 X-135.103 Y5.866 Z13.833 
N569 X-135.100 Y5.799 Z13.933 
N570 X-135.096 Y5.731 Z14.033 
N571 X-135.093 Y5.664 Z14.133 
N572 X-135.089 Y5.597 Z14.232 
N573 X-135.086 Y5.530 Z14.332 
N574 X-135.082 Y5.463 Z14.431 
N575 X-135.079 Y5.397 Z14.529 
N576 X-135.076 Y5.330 Z14.627 
N577 X-135.072 Y5.264 Z14.726 
N578 G40 X-135.043 Y4.705 Z15.555 F241
N579 X-135.043 Y4.705 Z15.555 
N580 G00 X-135.043 Y46.157 Z43.514 
RAPORT("TA000001","Side Milling:119 End")
;trailer : concat=None
; points cnt = 528
N582 MSG (" --- GROUPED OF SUBPROGRAM --- ")
N583 FGROUP()
N584 TRAFOOF
; PROGRAM NAME: A00000139
; ORDER       : A000001
; OPER. NAME  : Side Milling:120
; OPER. DESCR.: finish face root outlet FSA
; OPER. TYPE  : sideMill
; GEO. OPTION : 1
; MACHINE     : HSTM_300_SIM840D_Py
;             : HSTM300/500 - HAMUEL: 5-axis milling machine-SIM840D Traori PP_Script
; CONTROL     : SINUMERIK 840D
; created:   2021-11-15 09:10:15.278894
;-------DODATKOWE DANE-------------------
; PROGRAMISTA : Mariusz Malec
; PARTID      : 138T005360P1002_-
;  ap         : 22.0
;  ae         : 0.05
;  lean_angle : 0.0
;  fin_offset : -12.0
;----------------------------------------
RAPORT("TA000001","Side Milling:120")
N10 TRAFOOF
N11 D0
N12 G90 G94
N13 G0 G53 D0 Z550
N14 STOPRE
M9 ; chlodziwo wyl
; --- Side Milling:120 - finish face root outlet FSA ---
N16 ;ToolChange : concat=None ,current_tdmid=None, PP.tdmId=940641
N17 TRAFOOF
N18 G0 G53 D0 Z550 B0
N19 STOPRE
N20 MSG(" TLID=940641 D=9.5 R=0.0 Ang=0.0 Len=116.0 ")
N21 S3015 M03
N22 STOPRE
N23 TOL(0.1,1,1)
N24 G0 G53 A124.0000 B0.0000
N25 TRAORI
N26 G54 D2
;tol5=0.15
N27 D2 
;---> in saveDoc :0:00:00.225397
STOPRE
E_ZDARZ=300007
;ACS_FINISH_ROOT_FRONT=7740641
STOPRE
;UWAGA : ZMIENIONA TOLERANCJA OSI A i B, ruchy osi A i B beda usuniete : TOL5=0.15
N28 ; DELTA A > 40.1
N29 TRAFOOF
N30 D2
N31 STOPRE
N32 G00 G54 Z270.000
N33 G01 A124.0000 F10000
N34 TRAORI
N35 G54 D2
N36 STOPRE
N37 TRANS 
N38 G00 X-133.430 Y-65.413 Z-4.867 A124.0000 
N39 M342 ; chlodziwo woda
N40 X-133.430 Y-23.961 Z23.092 
N41 ;FSA_1
N42 G01 G41 X-133.523 Y-23.404 Z22.267 F241
N43 G01 X-133.523 Y-23.404 Z22.267 F241 
N44 X-133.534 Y-23.337 Z22.168 
N45 X-133.546 Y-23.270 Z22.069 
N46 X-133.557 Y-23.203 Z21.970 
N47 X-133.568 Y-23.137 Z21.871 
N48 X-133.579 Y-23.070 Z21.772 
N49 X-133.590 Y-23.003 Z21.672 
N50 X-133.601 Y-22.936 Z21.573 
N51 X-133.612 Y-22.869 Z21.474 
N52 X-133.624 Y-22.803 Z21.375 
N53 X-133.635 Y-22.736 Z21.276 
N54 X-133.646 Y-22.669 Z21.177 
N55 X-133.657 Y-22.602 Z21.078 
N56 X-133.668 Y-22.535 Z20.979 
N57 X-133.679 Y-22.469 Z20.880 
N58 X-133.691 Y-22.402 Z20.781 
N59 X-133.702 Y-22.335 Z20.682 
N60 X-133.713 Y-22.268 Z20.583 
N61 X-133.724 Y-22.201 Z20.484 
N62 X-133.735 Y-22.134 Z20.385 
N63 X-133.746 Y-22.068 Z20.286 
N64 X-133.757 Y-22.001 Z20.187 
N65 X-133.769 Y-21.934 Z20.088 
N66 X-133.780 Y-21.867 Z19.989 
N67 X-133.791 Y-21.800 Z19.889 
N68 X-133.802 Y-21.734 Z19.790 
N69 X-133.813 Y-21.667 Z19.692 
N70 X-133.824 Y-21.601 Z19.594 
N71 X-133.835 Y-21.535 Z19.496 
N72 X-133.846 Y-21.469 Z19.398 
N73 X-133.857 Y-21.402 Z19.299 
N74 X-133.869 Y-21.335 Z19.200 
N75 X-133.880 Y-21.268 Z19.100 
N76 X-133.891 Y-21.201 Z19.001 
N77 X-133.902 Y-21.134 Z18.902 
N78 X-133.913 Y-21.067 Z18.802 
N79 X-133.924 Y-21.000 Z18.703 
N80 X-133.935 Y-20.933 Z18.603 
N81 X-133.945 Y-20.866 Z18.504 
N82 X-133.956 Y-20.799 Z18.405 
N83 X-133.967 Y-20.732 Z18.305 
N84 X-133.978 Y-20.665 Z18.206 
N85 X-133.988 Y-20.598 Z18.106 
N86 X-133.999 Y-20.531 Z18.007 
N87 X-134.009 Y-20.464 Z17.908 
N88 X-134.020 Y-20.397 Z17.808 
N89 X-134.030 Y-20.330 Z17.709 
N90 X-134.041 Y-20.262 Z17.609 
N91 X-134.051 Y-20.195 Z17.510 
N92 X-134.061 Y-20.128 Z17.410 
N93 X-134.072 Y-20.061 Z17.311 
N94 X-134.082 Y-19.994 Z17.212 
N95 X-134.092 Y-19.927 Z17.112 
N96 X-134.102 Y-19.860 Z17.013 
N97 X-134.112 Y-19.793 Z16.913 
N98 X-134.122 Y-19.726 Z16.814 
N99 X-134.132 Y-19.659 Z16.714 
N100 X-134.142 Y-19.592 Z16.615 
N101 X-134.152 Y-19.525 Z16.516 
N102 X-134.162 Y-19.458 Z16.416 
N103 X-134.172 Y-19.390 Z16.317 
N104 X-134.181 Y-19.323 Z16.217 
N105 X-134.191 Y-19.256 Z16.118 
N106 X-134.201 Y-19.189 Z16.018 
N107 X-134.210 Y-19.122 Z15.919 
N108 X-134.220 Y-19.055 Z15.819 
N109 X-134.229 Y-18.988 Z15.720 
N110 X-134.239 Y-18.921 Z15.620 
N111 X-134.248 Y-18.854 Z15.521 
N112 X-134.258 Y-18.787 Z15.421 
N113 X-134.267 Y-18.719 Z15.322 
N114 X-134.276 Y-18.652 Z15.222 
N115 X-134.285 Y-18.585 Z15.123 
N116 X-134.295 Y-18.518 Z15.023 
N117 X-134.304 Y-18.451 Z14.924 
N118 X-134.313 Y-18.384 Z14.824 
N119 X-134.322 Y-18.317 Z14.725 
N120 X-134.331 Y-18.250 Z14.625 
N121 X-134.340 Y-18.183 Z14.526 
N122 X-134.349 Y-18.115 Z14.426 
N123 X-134.357 Y-18.048 Z14.327 
N124 X-134.366 Y-17.981 Z14.227 
N125 X-134.375 Y-17.914 Z14.128 
N126 X-134.384 Y-17.847 Z14.028 
N127 X-134.392 Y-17.780 Z13.929 
N128 X-134.401 Y-17.713 Z13.829 
N129 X-134.409 Y-17.645 Z13.729 
N130 X-134.418 Y-17.578 Z13.630 
N131 X-134.426 Y-17.511 Z13.530 
N132 X-134.435 Y-17.444 Z13.431 
N133 X-134.443 Y-17.377 Z13.331 
N134 X-134.451 Y-17.310 Z13.232 
N135 X-134.460 Y-17.243 Z13.132 
N136 X-134.468 Y-17.175 Z13.033 
N137 X-134.476 Y-17.108 Z12.933 
N138 X-134.484 Y-17.041 Z12.833 
N139 X-134.492 Y-16.974 Z12.734 
N140 X-134.500 Y-16.907 Z12.634 
N141 X-134.508 Y-16.840 Z12.535 
N142 X-134.516 Y-16.772 Z12.435 
N143 X-134.524 Y-16.705 Z12.336 
N144 X-134.532 Y-16.638 Z12.236 
N145 X-134.540 Y-16.571 Z12.136 
N146 X-134.547 Y-16.504 Z12.037 
N147 X-134.555 Y-16.437 Z11.937 
N148 X-134.563 Y-16.369 Z11.838 
N149 X-134.570 Y-16.302 Z11.738 
N150 X-134.578 Y-16.235 Z11.639 
N151 X-134.585 Y-16.168 Z11.539 
N152 X-134.593 Y-16.101 Z11.439 
N153 X-134.600 Y-16.034 Z11.340 
N154 X-134.607 Y-15.966 Z11.240 
N155 X-134.615 Y-15.899 Z11.140 
N156 X-134.622 Y-15.832 Z11.041 
N157 X-134.629 Y-15.765 Z10.941 
N158 X-134.636 Y-15.698 Z10.842 
N159 X-134.644 Y-15.630 Z10.742 
N160 X-134.651 Y-15.563 Z10.642 
N161 X-134.658 Y-15.496 Z10.543 
N162 X-134.665 Y-15.429 Z10.443 
N163 X-134.672 Y-15.362 Z10.344 
N164 X-134.678 Y-15.294 Z10.244 
N165 X-134.685 Y-15.227 Z10.144 
N166 X-134.692 Y-15.160 Z10.045 
N167 X-134.699 Y-15.093 Z9.945 
N168 X-134.705 Y-15.026 Z9.845 
N169 X-134.712 Y-14.958 Z9.746 
N170 X-134.719 Y-14.891 Z9.646 
N171 X-134.725 Y-14.824 Z9.546 
N172 X-134.732 Y-14.757 Z9.447 
N173 X-134.738 Y-14.690 Z9.347 
N174 X-134.744 Y-14.622 Z9.247 
N175 X-134.751 Y-14.555 Z9.148 
N176 X-134.757 Y-14.488 Z9.048 
N177 X-134.763 Y-14.421 Z8.949 
N178 X-134.770 Y-14.353 Z8.849 
N179 X-134.776 Y-14.286 Z8.749 
N180 X-134.782 Y-14.219 Z8.650 
N181 X-134.788 Y-14.152 Z8.550 
N182 X-134.794 Y-14.085 Z8.450 
N183 X-134.800 Y-14.017 Z8.351 
N184 X-134.806 Y-13.950 Z8.251 
N185 X-134.812 Y-13.883 Z8.151 
N186 X-134.817 Y-13.816 Z8.052 
N187 X-134.823 Y-13.748 Z7.952 
N188 X-134.829 Y-13.681 Z7.852 
N189 X-134.835 Y-13.614 Z7.752 
N190 X-134.840 Y-13.547 Z7.653 
N191 X-134.846 Y-13.479 Z7.553 
N192 X-134.851 Y-13.412 Z7.453 
N193 X-134.857 Y-13.345 Z7.354 
N194 X-134.862 Y-13.278 Z7.254 
N195 X-134.868 Y-13.210 Z7.154 
N196 X-134.873 Y-13.143 Z7.055 
N197 X-134.878 Y-13.076 Z6.955 
N198 X-134.884 Y-13.009 Z6.855 
N199 X-134.889 Y-12.941 Z6.756 
N200 X-134.894 Y-12.874 Z6.656 
N201 X-134.899 Y-12.807 Z6.556 
N202 X-134.904 Y-12.740 Z6.456 
N203 X-134.909 Y-12.672 Z6.357 
N204 X-134.914 Y-12.605 Z6.257 
N205 X-134.919 Y-12.538 Z6.157 
N206 X-134.924 Y-12.471 Z6.058 
N207 X-134.929 Y-12.403 Z5.958 
N208 X-134.933 Y-12.336 Z5.858 
N209 X-134.938 Y-12.269 Z5.758 
N210 X-134.943 Y-12.202 Z5.659 
N211 X-134.947 Y-12.134 Z5.559 
N212 X-134.952 Y-12.067 Z5.459 
N213 X-134.957 Y-12.000 Z5.360 
N214 X-134.961 Y-11.933 Z5.260 
N215 X-134.965 Y-11.865 Z5.160 
N216 X-134.970 Y-11.798 Z5.060 
N217 X-134.974 Y-11.731 Z4.961 
N218 X-134.978 Y-11.664 Z4.861 
N219 X-134.983 Y-11.596 Z4.761 
N220 X-134.987 Y-11.529 Z4.662 
N221 X-134.991 Y-11.462 Z4.562 
N222 X-134.995 Y-11.394 Z4.462 
N223 X-134.999 Y-11.327 Z4.362 
N224 X-135.003 Y-11.260 Z4.263 
N225 X-135.007 Y-11.193 Z4.163 
N226 X-135.011 Y-11.125 Z4.063 
N227 X-135.015 Y-11.058 Z3.963 
N228 X-135.019 Y-10.991 Z3.864 
N229 X-135.023 Y-10.924 Z3.764 
N230 X-135.026 Y-10.856 Z3.664 
N231 X-135.030 Y-10.789 Z3.564 
N232 X-135.033 Y-10.722 Z3.465 
N233 X-135.037 Y-10.654 Z3.365 
N234 X-135.041 Y-10.587 Z3.265 
N235 X-135.044 Y-10.520 Z3.165 
N236 X-135.047 Y-10.453 Z3.066 
N237 X-135.051 Y-10.385 Z2.966 
N238 X-135.054 Y-10.318 Z2.866 
N239 X-135.057 Y-10.251 Z2.766 
N240 X-135.061 Y-10.183 Z2.667 
N241 X-135.064 Y-10.116 Z2.567 
N242 X-135.067 Y-10.049 Z2.467 
N243 X-135.070 Y-9.982 Z2.367 
N244 X-135.073 Y-9.914 Z2.268 
N245 X-135.076 Y-9.847 Z2.168 
N246 X-135.079 Y-9.780 Z2.068 
N247 X-135.082 Y-9.712 Z1.968 
N248 X-135.085 Y-9.645 Z1.869 
N249 X-135.088 Y-9.578 Z1.769 
N250 X-135.090 Y-9.511 Z1.669 
N251 X-135.093 Y-9.443 Z1.569 
N252 X-135.096 Y-9.376 Z1.469 
N253 X-135.098 Y-9.309 Z1.370 
N254 X-135.101 Y-9.241 Z1.270 
N255 X-135.104 Y-9.174 Z1.170 
N256 X-135.106 Y-9.107 Z1.070 
N257 X-135.108 Y-9.039 Z0.971 
N258 X-135.111 Y-8.972 Z0.871 
N259 X-135.113 Y-8.905 Z0.771 
N260 X-135.115 Y-8.838 Z0.671 
N261 X-135.118 Y-8.770 Z0.572 
N262 X-135.120 Y-8.703 Z0.472 
N263 X-135.122 Y-8.636 Z0.372 
N264 X-135.124 Y-8.568 Z0.272 
N265 X-135.126 Y-8.501 Z0.172 
N266 X-135.128 Y-8.434 Z0.073 
N267 X-135.130 Y-8.366 Z-0.027 
N268 X-135.132 Y-8.299 Z-0.127 
N269 X-135.134 Y-8.232 Z-0.227 
N270 X-135.136 Y-8.165 Z-0.327 
N271 X-135.137 Y-8.097 Z-0.426 
N272 X-135.139 Y-8.030 Z-0.526 
N273 X-135.141 Y-7.963 Z-0.626 
N274 X-135.142 Y-7.895 Z-0.726 
N275 X-135.144 Y-7.828 Z-0.825 
N276 X-135.145 Y-7.761 Z-0.925 
N277 X-135.147 Y-7.693 Z-1.025 
N278 X-135.148 Y-7.626 Z-1.125 
N279 X-135.150 Y-7.559 Z-1.225 
N280 X-135.151 Y-7.492 Z-1.324 
N281 X-135.152 Y-7.424 Z-1.424 
N282 X-135.153 Y-7.357 Z-1.524 
N283 X-135.155 Y-7.290 Z-1.624 
N284 X-135.156 Y-7.222 Z-1.723 
N285 X-135.157 Y-7.155 Z-1.823 
N286 X-135.158 Y-7.088 Z-1.923 
N287 X-135.159 Y-7.020 Z-2.023 
N288 X-135.160 Y-6.953 Z-2.123 
N289 X-135.161 Y-6.886 Z-2.222 
N290 X-135.162 Y-6.818 Z-2.322 
N291 X-135.162 Y-6.751 Z-2.422 
N292 X-135.163 Y-6.684 Z-2.522 
N293 X-135.164 Y-6.617 Z-2.622 
N294 X-135.164 Y-6.549 Z-2.721 
N295 X-135.165 Y-6.482 Z-2.821 
N296 X-135.166 Y-6.415 Z-2.921 
N297 X-135.166 Y-6.347 Z-3.021 
N298 X-135.167 Y-6.280 Z-3.121 
N299 X-135.167 Y-6.213 Z-3.220 
N300 X-135.167 Y-6.145 Z-3.320 
N301 X-135.168 Y-6.078 Z-3.420 
N302 X-135.168 Y-6.012 Z-3.518 
N303 X-135.168 Y-5.945 Z-3.617 
N304 X-135.169 Y-5.879 Z-3.715 
N305 X-135.169 Y-5.812 Z-3.814 
N306 G40 X-135.172 Y-5.253 Z-4.643 F241
N307 X-135.172 Y-5.253 Z-4.643 
N308 G00 X-135.172 Y-30.124 Z-21.419 
N309 X-133.480 Y-48.834 Z6.320 
N310 X-133.480 Y-23.963 Z23.096 
N311 ;FSA_1
N312 G01 G41 X-133.573 Y-23.407 Z22.271 F241
N313 G01 X-133.573 Y-23.407 Z22.271 F241 
N314 X-133.584 Y-23.340 Z22.172 
N315 X-133.595 Y-23.273 Z22.073 
N316 X-133.607 Y-23.206 Z21.973 
N317 X-133.618 Y-23.139 Z21.874 
N318 X-133.629 Y-23.072 Z21.775 
N319 X-133.640 Y-23.006 Z21.676 
N320 X-133.651 Y-22.939 Z21.577 
N321 X-133.662 Y-22.872 Z21.478 
N322 X-133.673 Y-22.805 Z21.379 
N323 X-133.685 Y-22.738 Z21.280 
N324 X-133.696 Y-22.672 Z21.181 
N325 X-133.707 Y-22.605 Z21.082 
N326 X-133.718 Y-22.538 Z20.983 
N327 X-133.729 Y-22.471 Z20.884 
N328 X-133.740 Y-22.404 Z20.785 
N329 X-133.751 Y-22.338 Z20.686 
N330 X-133.763 Y-22.271 Z20.587 
N331 X-133.774 Y-22.204 Z20.488 
N332 X-133.785 Y-22.137 Z20.389 
N333 X-133.796 Y-22.070 Z20.290 
N334 X-133.807 Y-22.003 Z20.191 
N335 X-133.818 Y-21.937 Z20.091 
N336 X-133.829 Y-21.870 Z19.992 
N337 X-133.841 Y-21.803 Z19.893 
N338 X-133.852 Y-21.736 Z19.794 
N339 X-133.863 Y-21.670 Z19.696 
N340 X-133.874 Y-21.604 Z19.598 
N341 X-133.885 Y-21.538 Z19.500 
N342 X-133.896 Y-21.472 Z19.402 
N343 X-133.907 Y-21.405 Z19.303 
N344 X-133.918 Y-21.338 Z19.203 
N345 X-133.929 Y-21.271 Z19.104 
N346 X-133.940 Y-21.204 Z19.005 
N347 X-133.952 Y-21.137 Z18.905 
N348 X-133.962 Y-21.070 Z18.806 
N349 X-133.973 Y-21.003 Z18.707 
N350 X-133.984 Y-20.935 Z18.607 
N351 X-133.995 Y-20.868 Z18.508 
N352 X-134.006 Y-20.801 Z18.408 
N353 X-134.017 Y-20.734 Z18.309 
N354 X-134.027 Y-20.667 Z18.209 
N355 X-134.038 Y-20.600 Z18.110 
N356 X-134.049 Y-20.533 Z18.011 
N357 X-134.059 Y-20.466 Z17.911 
N358 X-134.070 Y-20.399 Z17.812 
N359 X-134.080 Y-20.332 Z17.712 
N360 X-134.091 Y-20.265 Z17.613 
N361 X-134.101 Y-20.198 Z17.513 
N362 X-134.111 Y-20.131 Z17.414 
N363 X-134.121 Y-20.064 Z17.315 
N364 X-134.132 Y-19.997 Z17.215 
N365 X-134.142 Y-19.929 Z17.116 
N366 X-134.152 Y-19.862 Z17.016 
N367 X-134.162 Y-19.795 Z16.917 
N368 X-134.172 Y-19.728 Z16.817 
N369 X-134.182 Y-19.661 Z16.718 
N370 X-134.192 Y-19.594 Z16.618 
N371 X-134.202 Y-19.527 Z16.519 
N372 X-134.212 Y-19.460 Z16.419 
N373 X-134.222 Y-19.393 Z16.320 
N374 X-134.231 Y-19.326 Z16.220 
N375 X-134.241 Y-19.259 Z16.121 
N376 X-134.251 Y-19.191 Z16.021 
N377 X-134.260 Y-19.124 Z15.922 
N378 X-134.270 Y-19.057 Z15.823 
N379 X-134.279 Y-18.990 Z15.723 
N380 X-134.289 Y-18.923 Z15.624 
N381 X-134.298 Y-18.856 Z15.524 
N382 X-134.307 Y-18.789 Z15.424 
N383 X-134.317 Y-18.722 Z15.325 
N384 X-134.326 Y-18.655 Z15.225 
N385 X-134.335 Y-18.587 Z15.126 
N386 X-134.344 Y-18.520 Z15.026 
N387 X-134.354 Y-18.453 Z14.927 
N388 X-134.363 Y-18.386 Z14.827 
N389 X-134.372 Y-18.319 Z14.728 
N390 X-134.381 Y-18.252 Z14.628 
N391 X-134.390 Y-18.185 Z14.529 
N392 X-134.398 Y-18.117 Z14.429 
N393 X-134.407 Y-18.050 Z14.330 
N394 X-134.416 Y-17.983 Z14.230 
N395 X-134.425 Y-17.916 Z14.131 
N396 X-134.433 Y-17.849 Z14.031 
N397 X-134.442 Y-17.782 Z13.932 
N398 X-134.451 Y-17.715 Z13.832 
N399 X-134.459 Y-17.647 Z13.732 
N400 X-134.468 Y-17.580 Z13.633 
N401 X-134.476 Y-17.513 Z13.533 
N402 X-134.485 Y-17.446 Z13.434 
N403 X-134.493 Y-17.379 Z13.334 
N404 X-134.501 Y-17.312 Z13.235 
N405 X-134.510 Y-17.244 Z13.135 
N406 X-134.518 Y-17.177 Z13.035 
N407 X-134.526 Y-17.110 Z12.936 
N408 X-134.534 Y-17.043 Z12.836 
N409 X-134.542 Y-16.976 Z12.737 
N410 X-134.550 Y-16.909 Z12.637 
N411 X-134.558 Y-16.841 Z12.538 
N412 X-134.566 Y-16.774 Z12.438 
N413 X-134.574 Y-16.707 Z12.338 
N414 X-134.582 Y-16.640 Z12.239 
N415 X-134.589 Y-16.573 Z12.139 
N416 X-134.597 Y-16.506 Z12.040 
N417 X-134.605 Y-16.438 Z11.940 
N418 X-134.613 Y-16.371 Z11.840 
N419 X-134.620 Y-16.304 Z11.741 
N420 X-134.628 Y-16.237 Z11.641 
N421 X-134.635 Y-16.170 Z11.541 
N422 X-134.643 Y-16.102 Z11.442 
N423 X-134.650 Y-16.035 Z11.342 
N424 X-134.657 Y-15.968 Z11.243 
N425 X-134.665 Y-15.901 Z11.143 
N426 X-134.672 Y-15.834 Z11.043 
N427 X-134.679 Y-15.766 Z10.944 
N428 X-134.686 Y-15.699 Z10.844 
N429 X-134.693 Y-15.632 Z10.744 
N430 X-134.701 Y-15.565 Z10.645 
N431 X-134.707 Y-15.498 Z10.545 
N432 X-134.714 Y-15.430 Z10.446 
N433 X-134.721 Y-15.363 Z10.346 
N434 X-134.728 Y-15.296 Z10.246 
N435 X-134.735 Y-15.229 Z10.147 
N436 X-134.742 Y-15.162 Z10.047 
N437 X-134.749 Y-15.094 Z9.947 
N438 X-134.755 Y-15.027 Z9.848 
N439 X-134.762 Y-14.960 Z9.748 
N440 X-134.769 Y-14.893 Z9.648 
N441 X-134.775 Y-14.825 Z9.549 
N442 X-134.782 Y-14.758 Z9.449 
N443 X-134.788 Y-14.691 Z9.349 
N444 X-134.794 Y-14.624 Z9.250 
N445 X-134.801 Y-14.557 Z9.150 
N446 X-134.807 Y-14.489 Z9.050 
N447 X-134.813 Y-14.422 Z8.951 
N448 X-134.819 Y-14.355 Z8.851 
N449 X-134.826 Y-14.288 Z8.751 
N450 X-134.832 Y-14.220 Z8.652 
N451 X-134.838 Y-14.153 Z8.552 
N452 X-134.844 Y-14.086 Z8.452 
N453 X-134.850 Y-14.019 Z8.353 
N454 X-134.856 Y-13.951 Z8.253 
N455 X-134.862 Y-13.884 Z8.153 
N456 X-134.867 Y-13.817 Z8.054 
N457 X-134.873 Y-13.750 Z7.954 
N458 X-134.879 Y-13.682 Z7.854 
N459 X-134.885 Y-13.615 Z7.754 
N460 X-134.890 Y-13.548 Z7.655 
N461 X-134.896 Y-13.481 Z7.555 
N462 X-134.901 Y-13.413 Z7.455 
N463 X-134.907 Y-13.346 Z7.356 
N464 X-134.912 Y-13.279 Z7.256 
N465 X-134.918 Y-13.212 Z7.156 
N466 X-134.923 Y-13.144 Z7.056 
N467 X-134.928 Y-13.077 Z6.957 
N468 X-134.933 Y-13.010 Z6.857 
N469 X-134.939 Y-12.943 Z6.757 
N470 X-134.944 Y-12.875 Z6.658 
N471 X-134.949 Y-12.808 Z6.558 
N472 X-134.954 Y-12.741 Z6.458 
N473 X-134.959 Y-12.674 Z6.358 
N474 X-134.964 Y-12.606 Z6.259 
N475 X-134.969 Y-12.539 Z6.159 
N476 X-134.974 Y-12.472 Z6.059 
N477 X-134.979 Y-12.405 Z5.960 
N478 X-134.983 Y-12.337 Z5.860 
N479 X-134.988 Y-12.270 Z5.760 
N480 X-134.993 Y-12.203 Z5.660 
N481 X-134.997 Y-12.135 Z5.561 
N482 X-135.002 Y-12.068 Z5.461 
N483 X-135.007 Y-12.001 Z5.361 
N484 X-135.011 Y-11.934 Z5.261 
N485 X-135.015 Y-11.866 Z5.162 
N486 X-135.020 Y-11.799 Z5.062 
N487 X-135.024 Y-11.732 Z4.962 
N488 X-135.028 Y-11.665 Z4.862 
N489 X-135.033 Y-11.597 Z4.763 
N490 X-135.037 Y-11.530 Z4.663 
N491 X-135.041 Y-11.463 Z4.563 
N492 X-135.045 Y-11.395 Z4.463 
N493 X-135.049 Y-11.328 Z4.364 
N494 X-135.053 Y-11.261 Z4.264 
N495 X-135.057 Y-11.194 Z4.164 
N496 X-135.061 Y-11.126 Z4.064 
N497 X-135.065 Y-11.059 Z3.965 
N498 X-135.069 Y-10.992 Z3.865 
N499 X-135.072 Y-10.924 Z3.765 
N500 X-135.076 Y-10.857 Z3.665 
N501 X-135.080 Y-10.790 Z3.566 
N502 X-135.083 Y-10.723 Z3.466 
N503 X-135.087 Y-10.655 Z3.366 
N504 X-135.091 Y-10.588 Z3.266 
N505 X-135.094 Y-10.521 Z3.167 
N506 X-135.097 Y-10.453 Z3.067 
N507 X-135.101 Y-10.386 Z2.967 
N508 X-135.104 Y-10.319 Z2.867 
N509 X-135.107 Y-10.251 Z2.767 
N510 X-135.111 Y-10.184 Z2.668 
N511 X-135.114 Y-10.117 Z2.568 
N512 X-135.117 Y-10.050 Z2.468 
N513 X-135.120 Y-9.982 Z2.368 
N514 X-135.123 Y-9.915 Z2.269 
N515 X-135.126 Y-9.848 Z2.169 
N516 X-135.129 Y-9.780 Z2.069 
N517 X-135.132 Y-9.713 Z1.969 
N518 X-135.135 Y-9.646 Z1.869 
N519 X-135.138 Y-9.578 Z1.770 
N520 X-135.140 Y-9.511 Z1.670 
N521 X-135.143 Y-9.444 Z1.570 
N522 X-135.146 Y-9.377 Z1.470 
N523 X-135.148 Y-9.309 Z1.371 
N524 X-135.151 Y-9.242 Z1.271 
N525 X-135.154 Y-9.175 Z1.171 
N526 X-135.156 Y-9.107 Z1.071 
N527 X-135.158 Y-9.040 Z0.971 
N528 X-135.161 Y-8.973 Z0.872 
N529 X-135.163 Y-8.905 Z0.772 
N530 X-135.165 Y-8.838 Z0.672 
N531 X-135.168 Y-8.771 Z0.572 
N532 X-135.170 Y-8.703 Z0.472 
N533 X-135.172 Y-8.636 Z0.373 
N534 X-135.174 Y-8.569 Z0.273 
N535 X-135.176 Y-8.502 Z0.173 
N536 X-135.178 Y-8.434 Z0.073 
N537 X-135.180 Y-8.367 Z-0.027 
N538 X-135.182 Y-8.300 Z-0.126 
N539 X-135.184 Y-8.232 Z-0.226 
N540 X-135.186 Y-8.165 Z-0.326 
N541 X-135.187 Y-8.098 Z-0.426 
N542 X-135.189 Y-8.030 Z-0.525 
N543 X-135.191 Y-7.963 Z-0.625 
N544 X-135.192 Y-7.896 Z-0.725 
N545 X-135.194 Y-7.828 Z-0.825 
N546 X-135.195 Y-7.761 Z-0.925 
N547 X-135.197 Y-7.694 Z-1.024 
N548 X-135.198 Y-7.626 Z-1.124 
N549 X-135.200 Y-7.559 Z-1.224 
N550 X-135.201 Y-7.492 Z-1.324 
N551 X-135.202 Y-7.425 Z-1.424 
N552 X-135.203 Y-7.357 Z-1.524 
N553 X-135.205 Y-7.290 Z-1.623 
N554 X-135.206 Y-7.223 Z-1.723 
N555 X-135.207 Y-7.155 Z-1.823 
N556 X-135.208 Y-7.088 Z-1.923 
N557 X-135.209 Y-7.021 Z-2.023 
N558 X-135.210 Y-6.953 Z-2.122 
N559 X-135.211 Y-6.886 Z-2.222 
N560 X-135.212 Y-6.819 Z-2.322 
N561 X-135.212 Y-6.751 Z-2.422 
N562 X-135.213 Y-6.684 Z-2.522 
N563 X-135.214 Y-6.617 Z-2.621 
N564 X-135.214 Y-6.549 Z-2.721 
N565 X-135.215 Y-6.482 Z-2.821 
N566 X-135.216 Y-6.415 Z-2.921 
N567 X-135.216 Y-6.347 Z-3.021 
N568 X-135.217 Y-6.280 Z-3.120 
N569 X-135.217 Y-6.213 Z-3.220 
N570 X-135.217 Y-6.145 Z-3.320 
N571 X-135.218 Y-6.078 Z-3.420 
N572 X-135.218 Y-6.012 Z-3.518 
N573 X-135.218 Y-5.945 Z-3.617 
N574 X-135.219 Y-5.879 Z-3.715 
N575 X-135.219 Y-5.812 Z-3.814 
N576 G40 X-135.222 Y-5.253 Z-4.643 F241
N577 X-135.222 Y-5.253 Z-4.643 
N578 G00 X-135.222 Y-46.705 Z-32.602 
RAPORT("TA000001","Side Milling:120 End")
;trailer : concat=None
; points cnt = 528
N580 M9 ; chlodziwo wyl.
N581 MSG (" --- KONIEC PODPROGRAMU --- ")
N582 FGROUP()
N583 TRAFOOF
N584 STOPRE
N585 G0 G53 D0 Z550.0 M9 M5
N586 G0 G53 Y150 A0 B0
N587 M17
