; PROGRAM NAME: A00000137
; ORDER       : A000001
; OPER. NAME  : Side Milling:105
; OPER. DESCR.: Side Milling/BF zgr
; OPER. TYPE  : sideMill
; GEO. OPTION : 1
; MACHINE     : HSTM_300_SIM840D_Py
;             : HSTM300/500 - HAMUEL: 5-axis milling machine-SIM840D Traori PP_Script
; CONTROL     : SINUMERIK 840D
; created:   2021-11-15 09:09:17.432955
;-------DODATKOWE DANE-------------------
; PROGRAMISTA : Mariusz Malec
; PARTID      : 138T005360P1002_-
;  ap         : 2.5
;  ae         : 30.0
;  lean_angle : 0.0
;  fin_offset : 0.5
;----------------------------------------
RAPORT("TA000001","Side Milling:105")
N10 TRAFOOF
N11 D0
N12 G90 G94
N13 G0 G53 D0 Z550
N14 STOPRE
M9 ; chlodziwo wyl
; --- Side Milling:105 - Side Milling/BF zgr ---
N16 ;ToolChange : concat=None ,current_tdmid=None, PP.tdmId=958058
N17 TRAFOOF
N18 G0 G53 D0 X-200 Y150 Z550 B0
N19 T="7758058"
RAPORT("TA000001","ToolChangeStart 7758058")
N20 M6
RAPORT("TA000001","ToolChangeEnd")
N21 STOPRE
N22 MSG(" TLID=958058 D=50.0 R=6.0 Ang=0.0 Len=90.0 ")
;---> in saveDoc :0:00:00.080832
;---> in saveDoc :0:00:00.048866
N23 S2005 M03
N24 STOPRE
N25 TOL(0.1,1,1)
N26 G0 G53 A304.0000 B-0.0000
N27 TRAORI
N28 G54 D5
N29 D5 
;---> in saveDoc :0:00:00.060836
N30 ; DELTA A > 40.1
N31 TRAFOOF
N32 D5
N33 STOPRE
N34 G00 G54 Z296.000
N35 G01 A304.0000 F10000
N36 TRAORI
N37 G54 D5
N38 STOPRE
N39 TRANS 
N40 G00 X-203.499 Y39.102 Z72.376 A304.0000 
N41 M346 ; chlodziwo mgla
N42 X-203.499 Y-2.350 Z44.417 
N43 G01 X-203.492 Y3.242 Z36.126 F2807 
N44 X-203.492 Y3.522 Z35.712 F1403 
N45 X-203.492 Y3.801 Z35.297 
N46 X-203.491 Y4.064 Z34.908 F1442 
N47 X-203.491 Y4.333 Z34.508 F1481 
N48 X-203.491 Y4.610 Z34.098 F1520 
N49 X-203.490 Y4.894 Z33.677 F1559 
N50 X-203.490 Y5.186 Z33.245 F1598 
N51 X-203.489 Y5.484 Z32.803 F1637 
N52 X-203.489 Y5.790 Z32.349 F1676 
N53 X-203.489 Y6.102 Z31.886 F1715 
N54 X-203.488 Y6.422 Z31.411 F1754 
N55 X-203.488 Y6.750 Z30.926 F1793 
N56 X-203.487 Y7.084 Z30.430 F1832 
N57 X-203.487 Y7.426 Z29.924 F1871 
N58 X-203.487 Y7.774 Z29.407 F1910 
N59 X-203.486 Y8.130 Z28.879 F1949 
N60 X-203.486 Y8.494 Z28.341 F1988 
N61 X-203.485 Y8.864 Z27.792 F2027 
N62 X-203.485 Y9.241 Z27.232 F2066 
N63 X-203.484 Y9.626 Z26.662 F2105 
N64 X-203.484 Y10.018 Z26.080 F2144 
N65 X-203.483 Y10.417 Z25.489 F2183 
N66 X-203.483 Y10.824 Z24.886 F2222 
N67 X-203.482 Y11.237 Z24.273 F2261 
N68 X-203.482 Y11.658 Z23.650 F2300 
N69 X-203.481 Y12.086 Z23.015 F2339 
N70 X-203.481 Y12.521 Z22.370 F2378 
N71 X-203.480 Y12.963 Z21.715 F2417 
N72 X-203.479 Y13.412 Z21.048 F2456 
N73 X-203.479 Y13.869 Z20.371 F2495 
N74 X-203.478 Y14.333 Z19.684 F2534 
N75 X-203.478 Y14.804 Z18.985 F2573 
N76 X-203.477 Y15.282 Z18.276 F2612 
N77 X-203.476 Y15.768 Z17.557 F2651 
N78 X-203.476 Y16.260 Z16.826 F2690 
N79 X-203.475 Y16.760 Z16.085 F2729 
N80 X-203.475 Y17.267 Z15.334 F2768 
N81 X-203.474 Y17.781 Z14.571 F2807 
N82 X-203.473 Y18.307 Z13.791 
N83 X-203.473 Y18.833 Z13.011 
N84 X-203.472 Y19.360 Z12.231 
N85 X-203.471 Y19.886 Z11.451 
N86 X-203.471 Y20.412 Z10.671 
N87 X-203.463 Y20.938 Z9.891 
N88 X-203.450 Y21.464 Z9.111 
N89 X-203.437 Y21.990 Z8.331 
N90 X-203.423 Y22.516 Z7.551 
N91 X-203.410 Y23.043 Z6.771 
N92 X-203.389 Y23.569 Z5.991 
N93 X-203.361 Y24.095 Z5.211 
N94 X-203.332 Y24.620 Z4.432 
N95 X-203.303 Y25.146 Z3.652 
N96 X-203.274 Y25.672 Z2.872 
N97 X-203.245 Y26.198 Z2.092 
N98 X-203.216 Y26.724 Z1.313 
N99 X-203.187 Y27.250 Z0.533 
N100 X-203.151 Y27.776 Z-0.246 
N101 X-203.105 Y28.301 Z-1.026 
N102 X-203.059 Y28.827 Z-1.805 
N103 X-203.014 Y29.352 Z-2.584 
N104 X-202.968 Y29.878 Z-3.363 
N105 X-202.922 Y30.404 Z-4.142 
N106 X-202.873 Y30.929 Z-4.921 
N107 X-202.814 Y31.454 Z-5.700 
N108 X-202.754 Y31.979 Z-6.478 
N109 X-202.695 Y32.504 Z-7.257 
N110 X-202.635 Y33.029 Z-8.035 
N111 X-202.576 Y33.555 Z-8.814 
N112 X-202.517 Y34.071 Z-9.580 
N113 X-202.458 Y34.588 Z-10.346 
N114 X-202.400 Y35.105 Z-11.112 
N115 X-202.341 Y35.622 Z-11.878 
N116 X-202.283 Y36.138 Z-12.644 
N117 X-202.224 Y36.655 Z-13.410 
N118 X-202.165 Y37.172 Z-14.176 
N119 X-202.107 Y37.688 Z-14.943 
N120 X-202.048 Y38.205 Z-15.709 
N121 X-201.989 Y38.722 Z-16.475 
N122 X-201.931 Y39.239 Z-17.241 
N123 X-201.872 Y39.755 Z-18.007 
N124 X-201.814 Y40.272 Z-18.773 
N125 X-201.755 Y40.789 Z-19.539 
N126 X-201.696 Y41.306 Z-20.305 
N127 X-201.638 Y41.822 Z-21.071 
N128 X-201.579 Y42.339 Z-21.837 
N129 X-201.521 Y42.856 Z-22.603 
N130 X-201.462 Y43.373 Z-23.370 
N131 X-201.403 Y43.889 Z-24.136 
N132 X-201.345 Y44.406 Z-24.902 
N133 X-201.286 Y44.923 Z-25.668 
N134 X-201.228 Y45.439 Z-26.434 
N135 X-201.169 Y45.956 Z-27.200 
N136 X-201.110 Y46.473 Z-27.966 
N137 X-201.052 Y46.990 Z-28.732 
N138 X-200.993 Y47.506 Z-29.498 
N139 X-200.936 Y48.139 Z-30.159 F2919 
N140 X-200.876 Y48.915 Z-30.772 F3257 
N141 X-200.809 Y49.856 Z-31.407 F3820 
N142 X-200.731 Y51.027 Z-32.081 F4608 
N143 X-200.635 Y52.522 Z-32.762 F5622 
N144 X-200.510 Y54.461 Z-33.248 F6861 
N145 X-200.283 Y56.668 Z-32.491 F8325 
N146 X-199.902 Y57.294 Z-29.716 F9789 
N147 X-199.425 Y56.711 Z-26.441 F11028 
N148 X-198.849 Y55.545 Z-22.946 F12041 
N149 X-198.182 Y53.998 Z-19.295 F12829 
N150 X-197.434 Y52.178 Z-15.539 F13392 
N151 X-196.621 Y50.161 Z-11.732 F13730 
N152 X-195.760 Y48.011 Z-7.922 F13843 
N153 X-194.845 Y45.717 Z-4.048 
N154 X-193.906 Y43.360 Z-0.218 
N155 X-192.950 Y40.952 Z3.576 
N156 X-191.982 Y38.498 Z7.338 
N157 X-191.007 Y36.003 Z11.070 
N158 X-190.030 Y33.467 Z14.774 
N159 X-189.055 Y30.889 Z18.450 
N160 X-188.086 Y28.263 Z22.093 
N161 X-187.130 Y25.583 Z25.700 
N162 X-186.190 Y22.837 Z29.261 
N163 X-185.247 Y19.923 Z32.867 F13716 
N164 X-184.351 Y16.949 Z36.321 F13335 
N165 X-183.524 Y13.942 Z39.523 F12701 
N166 X-182.788 Y10.913 Z42.349 F11812 
N167 X-182.158 Y7.851 Z44.607 F10669 
N168 X-181.657 Y4.697 Z45.743 F9273 
N169 X-181.424 Y2.529 Z44.147 F7623 
N170 X-181.390 Y2.163 Z41.863 F5973 
N171 X-181.384 Y2.256 Z40.067 F4576 
N172 X-181.382 Y2.461 Z38.717 F3434 
N173 X-181.381 Y2.682 Z37.723 F2545 
N174 X-181.381 Y2.892 Z36.998 F1911 
N175 X-181.380 Y3.091 Z36.454 F1530 
N176 X-181.380 Y3.317 Z36.015 F1403 
N177 X-181.380 Y3.597 Z35.600 
N178 X-181.379 Y3.876 Z35.186 
N179 X-181.379 Y4.139 Z34.797 F1442 
N180 X-181.379 Y4.409 Z34.397 F1481 
N181 X-181.378 Y4.686 Z33.986 F1520 
N182 X-181.378 Y4.970 Z33.565 F1559 
N183 X-181.378 Y5.261 Z33.133 F1598 
N184 X-181.377 Y5.559 Z32.691 F1637 
N185 X-181.377 Y5.865 Z32.238 F1676 
N186 X-181.376 Y6.178 Z31.774 F1715 
N187 X-181.376 Y6.498 Z31.300 F1754 
N188 X-181.376 Y6.825 Z30.815 F1793 
N189 X-181.375 Y7.159 Z30.319 F1832 
N190 X-181.375 Y7.501 Z29.812 F1871 
N191 X-181.374 Y7.850 Z29.295 F1910 
N192 X-181.374 Y8.206 Z28.768 F1949 
N193 X-181.373 Y8.569 Z28.229 F1988 
N194 X-181.373 Y8.939 Z27.680 F2027 
N195 X-181.373 Y9.317 Z27.120 F2066 
N196 X-181.372 Y9.701 Z26.550 F2105 
N197 X-181.372 Y10.093 Z25.969 F2144 
N198 X-181.371 Y10.492 Z25.377 F2183 
N199 X-181.371 Y10.899 Z24.775 F2222 
N200 X-181.370 Y11.312 Z24.162 F2261 
N201 X-181.369 Y11.733 Z23.538 F2300 
N202 X-181.369 Y12.161 Z22.904 F2339 
N203 X-181.368 Y12.596 Z22.259 F2378 
N204 X-181.368 Y13.038 Z21.603 F2417 
N205 X-181.367 Y13.488 Z20.937 F2456 
N206 X-181.367 Y13.944 Z20.260 F2495 
N207 X-181.366 Y14.408 Z19.572 F2534 
N208 X-181.366 Y14.879 Z18.874 F2573 
N209 X-181.365 Y15.357 Z18.165 F2612 
N210 X-181.364 Y15.843 Z17.445 F2651 
N211 X-181.364 Y16.335 Z16.715 F2690 
N212 X-181.363 Y16.835 Z15.974 F2729 
N213 X-181.362 Y17.342 Z15.222 F2768 
N214 X-181.362 Y17.856 Z14.460 F2807 
N215 X-181.361 Y18.387 Z13.674 
N216 X-181.360 Y18.917 Z12.888 
N217 X-181.360 Y19.447 Z12.101 
N218 X-181.359 Y19.977 Z11.315 
N219 X-181.358 Y20.508 Z10.529 
N220 X-181.346 Y21.038 Z9.743 
N221 X-181.333 Y21.568 Z8.957 
N222 X-181.320 Y22.098 Z8.171 
N223 X-181.306 Y22.628 Z7.385 
N224 X-181.290 Y23.159 Z6.599 
N225 X-181.261 Y23.689 Z5.813 
N226 X-181.232 Y24.219 Z5.027 
N227 X-181.203 Y24.749 Z4.241 
N228 X-181.174 Y25.279 Z3.456 
N229 X-181.145 Y25.809 Z2.670 
N230 X-181.115 Y26.339 Z1.884 
N231 X-181.086 Y26.869 Z1.098 
N232 X-181.046 Y27.399 Z0.313 
N233 X-181.000 Y27.928 Z-0.472 
N234 X-180.954 Y28.458 Z-1.258 
N235 X-180.907 Y28.987 Z-2.043 
N236 X-180.861 Y29.517 Z-2.828 
N237 X-180.815 Y30.047 Z-3.613 
N238 X-180.757 Y30.576 Z-4.398 
N239 X-180.697 Y31.105 Z-5.182 
N240 X-180.637 Y31.634 Z-5.967 
N241 X-180.577 Y32.164 Z-6.752 
N242 X-180.517 Y32.693 Z-7.536 
N243 X-180.458 Y33.210 Z-8.302 
N244 X-180.400 Y33.726 Z-9.068 
N245 X-180.341 Y34.243 Z-9.834 
N246 X-180.282 Y34.760 Z-10.600 
N247 X-180.224 Y35.276 Z-11.367 
N248 X-180.165 Y35.793 Z-12.133 
N249 X-180.107 Y36.310 Z-12.899 
N250 X-180.048 Y36.827 Z-13.665 
N251 X-179.989 Y37.343 Z-14.431 
N252 X-179.931 Y37.860 Z-15.197 
N253 X-179.872 Y38.377 Z-15.963 
N254 X-179.813 Y38.894 Z-16.729 
N255 X-179.755 Y39.410 Z-17.495 
N256 X-179.696 Y39.927 Z-18.261 
N257 X-179.638 Y40.444 Z-19.027 
N258 X-179.579 Y40.961 Z-19.794 
N259 X-179.520 Y41.477 Z-20.560 
N260 X-179.462 Y41.994 Z-21.326 
N261 X-179.403 Y42.511 Z-22.092 
N262 X-179.345 Y43.027 Z-22.858 
N263 X-179.286 Y43.544 Z-23.624 
N264 X-179.227 Y44.061 Z-24.390 
N265 X-179.169 Y44.578 Z-25.156 
N266 X-179.110 Y45.094 Z-25.922 
N267 X-179.052 Y45.611 Z-26.688 
N268 X-178.993 Y46.128 Z-27.454 
N269 X-178.934 Y46.645 Z-28.221 
N270 X-178.877 Y47.278 Z-28.881 F2919 
N271 X-178.817 Y48.055 Z-29.495 F3258 
N272 X-178.751 Y48.996 Z-30.131 F3822 
N273 X-178.675 Y50.170 Z-30.806 F4611 
N274 X-178.591 Y51.668 Z-31.488 F5627 
N275 X-178.522 Y53.613 Z-31.975 F6868 
N276 X-178.637 Y55.823 Z-31.205 F8334 
N277 X-179.169 Y56.410 Z-28.440 F9801 
N278 X-179.898 Y55.792 Z-25.210 F11042 
N279 X-180.760 Y54.595 Z-21.776 F12057 
N280 X-181.733 Y53.017 Z-18.198 F12847 
N281 X-182.795 Y51.164 Z-14.524 F13411 
N282 X-183.925 Y49.115 Z-10.804 F13749 
N283 X-185.099 Y46.932 Z-7.086 F13862 
N284 X-186.328 Y44.608 Z-3.313 
N285 X-187.572 Y42.221 Z0.417 
N286 X-188.827 Y39.784 Z4.110 
N287 X-190.086 Y37.302 Z7.773 
N288 X-191.347 Y34.781 Z11.407 
N289 X-192.603 Y32.220 Z15.016 
N290 X-193.851 Y29.620 Z18.598 
N291 X-195.086 Y26.976 Z22.154 
N292 X-196.301 Y24.280 Z25.677 
N293 X-197.492 Y21.524 Z29.160 
N294 X-198.687 Y18.600 Z32.697 F13735 
N295 X-199.820 Y15.622 Z36.090 F13353 
N296 X-200.863 Y12.614 Z39.241 F12718 
N297 X-201.791 Y9.583 Z42.021 F11828 
N298 X-202.583 Y6.506 Z44.219 F10684 
N299 X-203.202 Y3.317 Z45.167 F9285 
N300 X-203.454 Y1.278 Z43.345 F7633 
N301 X-203.489 Y0.873 Z41.061 F5980 
N302 X-203.494 Y0.900 Z39.259 F4581 
N303 X-203.494 Y1.052 Z37.899 F3437 
N304 X-203.494 Y1.236 Z36.896 F2547 
N305 X-203.493 Y1.420 Z36.164 F1912 
N306 X-203.493 Y1.605 Z35.614 F1530 
N307 X-203.492 Y1.825 Z35.171 F1403 
N308 X-203.492 Y2.105 Z34.756 
N309 X-203.492 Y2.384 Z34.341 
N310 X-203.491 Y2.647 Z33.952 F1442 
N311 X-203.491 Y2.916 Z33.553 F1481 
N312 X-203.491 Y3.193 Z33.142 F1520 
N313 X-203.490 Y3.477 Z32.721 F1559 
N314 X-203.490 Y3.768 Z32.289 F1598 
N315 X-203.489 Y4.067 Z31.847 F1637 
N316 X-203.489 Y4.373 Z31.394 F1676 
N317 X-203.489 Y4.685 Z30.930 F1715 
N318 X-203.488 Y5.005 Z30.455 F1754 
N319 X-203.488 Y5.333 Z29.970 F1793 
N320 X-203.487 Y5.667 Z29.475 F1832 
N321 X-203.487 Y6.009 Z28.968 F1871 
N322 X-203.487 Y6.357 Z28.451 F1910 
N323 X-203.486 Y6.713 Z27.923 F1949 
N324 X-203.486 Y7.076 Z27.385 F1988 
N325 X-203.485 Y7.447 Z26.836 F2027 
N326 X-203.485 Y7.824 Z26.276 F2066 
N327 X-203.484 Y8.209 Z25.706 F2105 
N328 X-203.484 Y8.601 Z25.125 F2144 
N329 X-203.483 Y9.000 Z24.533 F2183 
N330 X-203.483 Y9.406 Z23.931 F2222 
N331 X-203.482 Y9.820 Z23.318 F2261 
N332 X-203.482 Y10.241 Z22.694 F2300 
N333 X-203.481 Y10.669 Z22.059 F2339 
N334 X-203.481 Y11.104 Z21.414 F2378 
N335 X-203.480 Y11.546 Z20.759 F2417 
N336 X-203.479 Y11.995 Z20.092 F2456 
N337 X-203.479 Y12.452 Z19.415 F2495 
N338 X-203.478 Y12.916 Z18.728 F2534 
N339 X-203.478 Y13.387 Z18.029 F2573 
N340 X-203.477 Y13.865 Z17.320 F2612 
N341 X-203.476 Y14.350 Z16.601 F2651 
N342 X-203.476 Y14.843 Z15.870 F2690 
N343 X-203.475 Y15.343 Z15.129 F2729 
N344 X-203.475 Y15.850 Z14.378 F2768 
N345 X-203.474 Y16.364 Z13.616 F2807 
N346 X-203.473 Y16.890 Z12.835 
N347 X-203.473 Y17.416 Z12.055 
N348 X-203.472 Y17.943 Z11.275 
N349 X-203.471 Y18.469 Z10.495 
N350 X-203.471 Y18.995 Z9.715 
N351 X-203.463 Y19.521 Z8.935 
N352 X-203.450 Y20.047 Z8.155 
N353 X-203.437 Y20.573 Z7.375 
N354 X-203.423 Y21.099 Z6.595 
N355 X-203.410 Y21.625 Z5.815 
N356 X-203.389 Y22.152 Z5.035 
N357 X-203.361 Y22.677 Z4.255 
N358 X-203.332 Y23.203 Z3.476 
N359 X-203.303 Y23.729 Z2.696 
N360 X-203.274 Y24.255 Z1.916 
N361 X-203.245 Y24.781 Z1.137 
N362 X-203.216 Y25.307 Z0.357 
N363 X-203.187 Y25.833 Z-0.423 
N364 X-203.151 Y26.359 Z-1.202 
N365 X-203.105 Y26.884 Z-1.981 
N366 X-203.059 Y27.410 Z-2.761 
N367 X-203.014 Y27.935 Z-3.540 
N368 X-202.968 Y28.461 Z-4.319 
N369 X-202.922 Y28.986 Z-5.098 
N370 X-202.873 Y29.512 Z-5.877 
N371 X-202.814 Y30.037 Z-6.656 
N372 X-202.754 Y30.562 Z-7.434 
N373 X-202.695 Y31.087 Z-8.213 
N374 X-202.635 Y31.612 Z-8.991 
N375 X-202.576 Y32.138 Z-9.770 
N376 X-202.517 Y32.654 Z-10.536 
N377 X-202.458 Y33.171 Z-11.302 
N378 X-202.400 Y33.688 Z-12.068 
N379 X-202.341 Y34.204 Z-12.834 
N380 X-202.283 Y34.721 Z-13.600 
N381 X-202.224 Y35.238 Z-14.366 
N382 X-202.165 Y35.755 Z-15.132 
N383 X-202.107 Y36.271 Z-15.898 
N384 X-202.048 Y36.788 Z-16.664 
N385 X-201.989 Y37.305 Z-17.431 
N386 X-201.931 Y37.822 Z-18.197 
N387 X-201.872 Y38.338 Z-18.963 
N388 X-201.814 Y38.855 Z-19.729 
N389 X-201.755 Y39.372 Z-20.495 
N390 X-201.696 Y39.889 Z-21.261 
N391 X-201.638 Y40.405 Z-22.027 
N392 X-201.579 Y40.922 Z-22.793 
N393 X-201.521 Y41.439 Z-23.559 
N394 X-201.462 Y41.955 Z-24.325 
N395 X-201.403 Y42.472 Z-25.091 
N396 X-201.345 Y42.989 Z-25.858 
N397 X-201.286 Y43.506 Z-26.624 
N398 X-201.228 Y44.022 Z-27.390 
N399 X-201.169 Y44.539 Z-28.156 
N400 X-201.110 Y45.056 Z-28.922 
N401 X-201.052 Y45.573 Z-29.688 
N402 X-200.993 Y46.089 Z-30.454 
N403 X-200.936 Y46.740 Z-31.105 F2921 
N404 X-200.876 Y47.544 Z-31.695 F3263 
N405 X-200.810 Y48.519 Z-32.295 F3834 
N406 X-200.732 Y49.735 Z-32.922 F4633 
N407 X-200.639 Y51.282 Z-33.535 F5661 
N408 X-200.519 Y53.271 Z-33.941 F6917 
N409 X-200.323 Y55.598 Z-33.299 F8401 
N410 X-199.970 Y56.686 Z-30.632 F9885 
N411 X-199.502 Y56.373 Z-27.265 F11141 
N412 X-198.930 Y55.360 Z-23.655 F12168 
N413 X-198.260 Y53.904 Z-19.890 F12967 
N414 X-197.505 Y52.137 Z-16.027 F13538 
N415 X-196.681 Y50.145 Z-12.118 F13881 
N416 X-195.808 Y48.002 Z-8.215 F13995 
N417 X-194.884 Y45.715 Z-4.279 
N418 X-193.936 Y43.355 Z-0.393 
N419 X-192.970 Y40.935 Z3.452 
N420 X-191.992 Y38.462 Z7.261 
N421 X-191.006 Y35.942 Z11.036 
N422 X-190.018 Y33.375 Z14.778 
N423 X-189.032 Y30.759 Z18.487 
N424 X-188.053 Y28.088 Z22.160 
N425 X-187.087 Y25.355 Z25.789 
N426 X-186.139 Y22.547 Z29.364 
N427 X-185.182 Y19.536 Z32.995 F13866 
N428 X-184.275 Y16.450 Z36.454 F13481 
N429 X-183.442 Y13.308 Z39.632 F12838 
N430 X-182.703 Y10.120 Z42.388 F11939 
N431 X-182.080 Y6.866 Z44.481 F10783 
N432 X-181.609 Y3.546 Z45.201 F9369 
N433 X-181.420 Y1.455 Z43.323 F7699 
N434 X-181.390 Y0.982 Z41.020 F6029 
N435 X-181.384 Y0.984 Z39.193 F4615 
N436 X-181.382 Y1.127 Z37.816 F3459 
N437 X-181.381 Y1.308 Z36.801 F2559 
N438 X-181.381 Y1.493 Z36.060 F1917 
N439 X-181.380 Y1.679 Z35.505 F1531 
N440 X-181.380 Y1.900 Z35.059 F1403 
N441 X-181.380 Y2.180 Z34.644 
N442 X-181.379 Y2.459 Z34.230 
N443 X-181.379 Y2.722 Z33.841 F1442 
N444 X-181.379 Y2.992 Z33.441 F1481 
N445 X-181.378 Y3.268 Z33.031 F1520 
N446 X-181.378 Y3.552 Z32.609 F1559 
N447 X-181.378 Y3.844 Z32.178 F1598 
N448 X-181.377 Y4.142 Z31.735 F1637 
N449 X-181.377 Y4.448 Z31.282 F1676 
N450 X-181.376 Y4.761 Z30.818 F1715 
N451 X-181.376 Y5.081 Z30.344 F1754 
N452 X-181.376 Y5.408 Z29.859 F1793 
N453 X-181.375 Y5.742 Z29.363 F1832 
N454 X-181.375 Y6.084 Z28.857 F1871 
N455 X-181.374 Y6.433 Z28.339 F1910 
N456 X-181.374 Y6.789 Z27.812 F1949 
N457 X-181.373 Y7.152 Z27.273 F1988 
N458 X-181.373 Y7.522 Z26.724 F2027 
N459 X-181.373 Y7.900 Z26.165 F2066 
N460 X-181.372 Y8.284 Z25.594 F2105 
N461 X-181.372 Y8.676 Z25.013 F2144 
N462 X-181.371 Y9.075 Z24.421 F2183 
N463 X-181.371 Y9.482 Z23.819 F2222 
N464 X-181.370 Y9.895 Z23.206 F2261 
N465 X-181.369 Y10.316 Z22.582 F2300 
N466 X-181.369 Y10.744 Z21.948 F2339 
N467 X-181.368 Y11.179 Z21.303 F2378 
N468 X-181.368 Y11.621 Z20.647 F2417 
N469 X-181.367 Y12.071 Z19.981 F2456 
N470 X-181.367 Y12.527 Z19.304 F2495 
N471 X-181.366 Y12.991 Z18.616 F2534 
N472 X-181.366 Y13.462 Z17.918 F2573 
N473 X-181.365 Y13.940 Z17.209 F2612 
N474 X-181.364 Y14.426 Z16.489 F2651 
N475 X-181.364 Y14.918 Z15.759 F2690 
N476 X-181.363 Y15.418 Z15.018 F2729 
N477 X-181.362 Y15.925 Z14.266 F2768 
N478 X-181.362 Y16.439 Z13.504 F2807 
N479 X-181.361 Y16.970 Z12.718 
N480 X-181.360 Y17.500 Z11.932 
N481 X-181.360 Y18.030 Z11.146 
N482 X-181.359 Y18.560 Z10.359 
N483 X-181.358 Y19.091 Z9.573 
N484 X-181.346 Y19.621 Z8.787 
N485 X-181.333 Y20.151 Z8.001 
N486 X-181.320 Y20.681 Z7.215 
N487 X-181.306 Y21.211 Z6.429 
N488 X-181.290 Y21.742 Z5.643 
N489 X-181.261 Y22.272 Z4.857 
N490 X-181.232 Y22.802 Z4.071 
N491 X-181.203 Y23.332 Z3.286 
N492 X-181.174 Y23.862 Z2.500 
N493 X-181.145 Y24.392 Z1.714 
N494 X-181.115 Y24.922 Z0.928 
N495 X-181.086 Y25.452 Z0.142 
N496 X-181.046 Y25.981 Z-0.643 
N497 X-181.000 Y26.511 Z-1.428 
N498 X-180.954 Y27.041 Z-2.213 
N499 X-180.907 Y27.570 Z-2.999 
N500 X-180.861 Y28.100 Z-3.784 
N501 X-180.815 Y28.630 Z-4.569 
N502 X-180.757 Y29.159 Z-5.354 
N503 X-180.697 Y29.688 Z-6.138 
N504 X-180.637 Y30.217 Z-6.923 
N505 X-180.577 Y30.747 Z-7.707 
N506 X-180.517 Y31.276 Z-8.492 
N507 X-180.458 Y31.792 Z-9.258 
N508 X-180.400 Y32.309 Z-10.024 
N509 X-180.341 Y32.826 Z-10.790 
N510 X-180.282 Y33.343 Z-11.556 
N511 X-180.224 Y33.859 Z-12.322 
N512 X-180.165 Y34.376 Z-13.088 
N513 X-180.107 Y34.893 Z-13.855 
N514 X-180.048 Y35.410 Z-14.621 
N515 X-179.989 Y35.926 Z-15.387 
N516 X-179.931 Y36.443 Z-16.153 
N517 X-179.872 Y36.960 Z-16.919 
N518 X-179.813 Y37.476 Z-17.685 
N519 X-179.755 Y37.993 Z-18.451 
N520 X-179.696 Y38.510 Z-19.217 
N521 X-179.638 Y39.027 Z-19.983 
N522 X-179.579 Y39.543 Z-20.749 
N523 X-179.520 Y40.060 Z-21.515 
N524 X-179.462 Y40.577 Z-22.282 
N525 X-179.403 Y41.094 Z-23.048 
N526 X-179.345 Y41.610 Z-23.814 
N527 X-179.286 Y42.127 Z-24.580 
N528 X-179.227 Y42.644 Z-25.346 
N529 X-179.169 Y43.161 Z-26.112 
N530 X-179.110 Y43.677 Z-26.878 
N531 X-179.052 Y44.194 Z-27.644 
N532 X-178.993 Y44.711 Z-28.410 
N533 X-178.934 Y45.227 Z-29.176 
N534 X-178.877 Y45.879 Z-29.828 F2921 
N535 X-178.817 Y46.684 Z-30.418 F3264 
N536 X-178.751 Y47.660 Z-31.019 F3836 
N537 X-178.676 Y48.878 Z-31.647 F4636 
N538 X-178.594 Y50.428 Z-32.260 F5666 
N539 X-178.524 Y52.423 Z-32.668 F6924 
N540 X-178.596 Y54.757 Z-32.015 F8410 
N541 X-179.067 Y55.811 Z-29.348 F9897 
N542 X-179.781 Y55.461 Z-26.020 F11155 
N543 X-180.643 Y54.414 Z-22.469 F12185 
N544 X-181.624 Y52.925 Z-18.776 F12985 
N545 X-182.699 Y51.123 Z-14.994 F13557 
N546 X-183.845 Y49.098 Z-11.174 F13900 
N547 X-185.038 Y46.920 Z-7.364 F14014 
N548 X-186.279 Y44.601 Z-3.528 
N549 X-187.537 Y42.210 Z0.257 
N550 X-188.805 Y39.760 Z4.000 
N551 X-190.078 Y37.259 Z7.708 
N552 X-191.352 Y34.711 Z11.384 
N553 X-192.623 Y32.119 Z15.030 
N554 X-193.884 Y29.480 Z18.646 
N555 X-195.132 Y26.790 Z22.228 
N556 X-196.359 Y24.042 Z25.773 
N557 X-197.561 Y21.222 Z29.270 
N558 X-198.773 Y18.202 Z32.829 F13886 
N559 X-199.919 Y15.110 Z36.226 F13500 
N560 X-200.970 Y11.966 Z39.351 F12856 
N561 X-201.900 Y8.772 Z42.056 F11955 
N562 X-202.682 Y5.496 Z44.074 F10797 
N563 X-203.256 Y2.161 Z44.565 F9382 
N564 X-203.458 Y0.192 Z42.511 F7709 
N565 X-203.489 Y-0.316 Z40.208 F6036 
N566 X-203.494 Y-0.376 Z38.379 F4620 
N567 X-203.494 Y-0.283 Z36.995 F3462 
N568 X-203.494 Y-0.138 Z35.973 F2561 
N569 X-203.493 Y0.022 Z35.225 F1918 
N570 X-203.493 Y0.193 Z34.664 F1532 
N571 X-203.492 Y0.408 Z34.215 F1403 
N572 X-203.492 Y0.688 Z33.800 
N573 X-203.492 Y0.967 Z33.386 
N574 X-203.491 Y1.230 Z32.997 F1442 
N575 X-203.491 Y1.499 Z32.597 F1481 
N576 X-203.491 Y1.776 Z32.186 F1520 
N577 X-203.490 Y2.060 Z31.765 F1559 
N578 X-203.490 Y2.351 Z31.333 F1598 
N579 X-203.489 Y2.650 Z30.891 F1637 
N580 X-203.489 Y2.955 Z30.438 F1676 
N581 X-203.489 Y3.268 Z29.974 F1715 
N582 X-203.488 Y3.588 Z29.500 F1754 
N583 X-203.488 Y3.916 Z29.014 F1793 
N584 X-203.487 Y4.250 Z28.519 F1832 
N585 X-203.487 Y4.591 Z28.012 F1871 
N586 X-203.487 Y4.940 Z27.495 F1910 
N587 X-203.486 Y5.296 Z26.967 F1949 
N588 X-203.486 Y5.659 Z26.429 F1988 
N589 X-203.485 Y6.030 Z25.880 F2027 
N590 X-203.485 Y6.407 Z25.320 F2066 
N591 X-203.484 Y6.792 Z24.750 F2105 
N592 X-203.484 Y7.184 Z24.169 F2144 
N593 X-203.483 Y7.583 Z23.577 F2183 
N594 X-203.483 Y7.989 Z22.975 F2222 
N595 X-203.482 Y8.403 Z22.362 F2261 
N596 X-203.482 Y8.824 Z21.738 F2300 
N597 X-203.481 Y9.251 Z21.104 F2339 
N598 X-203.481 Y9.687 Z20.459 F2378 
N599 X-203.480 Y10.129 Z19.803 F2417 
N600 X-203.479 Y10.578 Z19.137 F2456 
N601 X-203.479 Y11.035 Z18.460 F2495 
N602 X-203.478 Y11.499 Z17.772 F2534 
N603 X-203.478 Y11.970 Z17.074 F2573 
N604 X-203.477 Y12.448 Z16.365 F2612 
N605 X-203.476 Y12.933 Z15.645 F2651 
N606 X-203.476 Y13.426 Z14.915 F2690 
N607 X-203.475 Y13.926 Z14.174 F2729 
N608 X-203.475 Y14.433 Z13.422 F2768 
N609 X-203.474 Y14.947 Z12.660 F2807 
N610 X-203.473 Y15.473 Z11.880 
N611 X-203.473 Y15.999 Z11.100 
N612 X-203.472 Y16.525 Z10.319 
N613 X-203.471 Y17.052 Z9.539 
N614 X-203.471 Y17.578 Z8.759 
N615 X-203.463 Y18.104 Z7.979 
N616 X-203.450 Y18.630 Z7.199 
N617 X-203.437 Y19.156 Z6.419 
N618 X-203.423 Y19.682 Z5.639 
N619 X-203.410 Y20.208 Z4.859 
N620 X-203.389 Y20.734 Z4.079 
N621 X-203.361 Y21.260 Z3.300 
N622 X-203.332 Y21.786 Z2.520 
N623 X-203.303 Y22.312 Z1.740 
N624 X-203.274 Y22.838 Z0.961 
N625 X-203.245 Y23.364 Z0.181 
N626 X-203.216 Y23.890 Z-0.599 
N627 X-203.187 Y24.416 Z-1.379 
N628 X-203.151 Y24.942 Z-2.158 
N629 X-203.105 Y25.467 Z-2.937 
N630 X-203.059 Y25.993 Z-3.716 
N631 X-203.014 Y26.518 Z-4.496 
N632 X-202.968 Y27.044 Z-5.275 
N633 X-202.922 Y27.569 Z-6.054 
N634 X-202.873 Y28.095 Z-6.833 
N635 X-202.814 Y28.620 Z-7.611 
N636 X-202.754 Y29.145 Z-8.390 
N637 X-202.695 Y29.670 Z-9.168 
N638 X-202.635 Y30.195 Z-9.947 
N639 X-202.576 Y30.720 Z-10.726 
N640 X-202.517 Y31.237 Z-11.492 
N641 X-202.458 Y31.754 Z-12.258 
N642 X-202.400 Y32.271 Z-13.024 
N643 X-202.341 Y32.787 Z-13.790 
N644 X-202.283 Y33.304 Z-14.556 
N645 X-202.224 Y33.821 Z-15.322 
N646 X-202.165 Y34.338 Z-16.088 
N647 X-202.107 Y34.854 Z-16.854 
N648 X-202.048 Y35.371 Z-17.620 
N649 X-201.989 Y35.888 Z-18.386 
N650 X-201.931 Y36.405 Z-19.152 
N651 X-201.872 Y36.921 Z-19.919 
N652 X-201.814 Y37.438 Z-20.685 
N653 X-201.755 Y37.955 Z-21.451 
N654 X-201.696 Y38.471 Z-22.217 
N655 X-201.638 Y38.988 Z-22.983 
N656 X-201.579 Y39.505 Z-23.749 
N657 X-201.521 Y40.022 Z-24.515 
N658 X-201.462 Y40.538 Z-25.281 
N659 X-201.403 Y41.055 Z-26.047 
N660 X-201.345 Y41.572 Z-26.813 
N661 X-201.286 Y42.089 Z-27.579 
N662 X-201.228 Y42.605 Z-28.346 
N663 X-201.169 Y43.122 Z-29.112 
N664 X-201.110 Y43.639 Z-29.878 
N665 X-201.052 Y44.156 Z-30.644 
N666 X-200.993 Y44.672 Z-31.410 
N667 X-200.937 Y45.327 Z-32.041 F2918 
N668 X-200.879 Y46.139 Z-32.597 F3253 
N669 X-200.814 Y47.120 Z-33.153 F3811 
N670 X-200.740 Y48.337 Z-33.721 F4593 
N671 X-200.652 Y49.872 Z-34.266 F5598 
N672 X-200.543 Y51.823 Z-34.633 F6826 
N673 X-200.382 Y54.179 Z-34.246 F8277 
N674 X-200.090 Y55.878 Z-32.021 F9729 
N675 X-199.666 Y56.060 Z-28.740 F10957 
N676 X-199.134 Y55.365 Z-25.158 F11962 
N677 X-198.504 Y54.149 Z-21.425 F12743 
N678 X-197.789 Y52.576 Z-17.605 F13302 
N679 X-197.006 Y50.751 Z-13.750 F13637 
N680 X-196.171 Y48.754 Z-9.910 F13748 
N681 X-195.276 Y46.576 Z-6.004 
N682 X-194.355 Y44.311 Z-2.154 
N683 X-193.414 Y41.976 Z1.649 
N684 X-192.458 Y39.582 Z5.412 
N685 X-191.493 Y37.134 Z9.137 
N686 X-190.524 Y34.636 Z12.828 
N687 X-189.554 Y32.086 Z16.483 
N688 X-188.588 Y29.483 Z20.101 
N689 X-187.632 Y26.818 Z23.677 
N690 X-186.691 Y24.081 Z27.202 
N691 X-185.769 Y21.256 Z30.662 
N692 X-184.850 Y18.242 Z34.123 F13622 
N693 X-183.983 Y15.131 Z37.392 F13244 
N694 X-183.191 Y11.939 Z40.348 F12615 
N695 X-182.496 Y8.665 Z42.822 F11733 
N696 X-181.923 Y5.288 Z44.486 F10599 
N697 X-181.535 Y2.005 Z44.404 F9213 
N698 X-181.411 Y0.256 Z42.211 F7576 
N699 X-181.389 Y-0.227 Z39.968 F5938 
N700 X-181.384 Y-0.288 Z38.186 F4552 
N701 X-181.382 Y-0.199 Z36.835 F3419 
N702 X-181.381 Y-0.057 Z35.835 F2537 
N703 X-181.381 Y0.101 Z35.101 F1907 
N704 X-181.380 Y0.270 Z34.548 F1529 
N705 X-181.380 Y0.483 Z34.103 F1403 
N706 X-181.380 Y0.763 Z33.689 
N707 X-181.379 Y1.042 Z33.274 
N708 X-181.379 Y1.305 Z32.885 F1442 
N709 X-181.379 Y1.575 Z32.485 F1481 
N710 X-181.378 Y1.851 Z32.075 F1520 
N711 X-181.378 Y2.135 Z31.654 F1559 
N712 X-181.378 Y2.427 Z31.222 F1598 
N713 X-181.377 Y2.725 Z30.779 F1637 
N714 X-181.377 Y3.031 Z30.326 F1676 
N715 X-181.376 Y3.344 Z29.862 F1715 
N716 X-181.376 Y3.664 Z29.388 F1754 
N717 X-181.376 Y3.991 Z28.903 F1793 
N718 X-181.375 Y4.325 Z28.407 F1832 
N719 X-181.375 Y4.667 Z27.901 F1871 
N720 X-181.374 Y5.016 Z27.384 F1910 
N721 X-181.374 Y5.371 Z26.856 F1949 
N722 X-181.373 Y5.735 Z26.317 F1988 
N723 X-181.373 Y6.105 Z25.768 F2027 
N724 X-181.373 Y6.483 Z25.209 F2066 
N725 X-181.372 Y6.867 Z24.638 F2105 
N726 X-181.372 Y7.259 Z24.057 F2144 
N727 X-181.371 Y7.658 Z23.466 F2183 
N728 X-181.371 Y8.065 Z22.863 F2222 
N729 X-181.370 Y8.478 Z22.250 F2261 
N730 X-181.369 Y8.899 Z21.626 F2300 
N731 X-181.369 Y9.327 Z20.992 F2339 
N732 X-181.368 Y9.762 Z20.347 F2378 
N733 X-181.368 Y10.204 Z19.691 F2417 
N734 X-181.367 Y10.653 Z19.025 F2456 
N735 X-181.367 Y11.110 Z18.348 F2495 
N736 X-181.366 Y11.574 Z17.660 F2534 
N737 X-181.366 Y12.045 Z16.962 F2573 
N738 X-181.365 Y12.523 Z16.253 F2612 
N739 X-181.364 Y13.009 Z15.533 F2651 
N740 X-181.364 Y13.501 Z14.803 F2690 
N741 X-181.363 Y14.001 Z14.062 F2729 
N742 X-181.362 Y14.508 Z13.310 F2768 
N743 X-181.362 Y15.022 Z12.548 F2807 
N744 X-181.361 Y15.552 Z11.762 
N745 X-181.360 Y16.083 Z10.976 
N746 X-181.360 Y16.613 Z10.190 
N747 X-181.359 Y17.143 Z9.404 
N748 X-181.358 Y17.673 Z8.617 
N749 X-181.346 Y18.204 Z7.831 
N750 X-181.333 Y18.734 Z7.045 
N751 X-181.320 Y19.264 Z6.259 
N752 X-181.306 Y19.794 Z5.473 
N753 X-181.290 Y20.325 Z4.687 
N754 X-181.261 Y20.855 Z3.901 
N755 X-181.232 Y21.385 Z3.116 
N756 X-181.203 Y21.915 Z2.330 
N757 X-181.174 Y22.445 Z1.544 
N758 X-181.145 Y22.975 Z0.758 
N759 X-181.115 Y23.505 Z-0.028 
N760 X-181.086 Y24.035 Z-0.813 
N761 X-181.046 Y24.564 Z-1.599 
N762 X-181.000 Y25.094 Z-2.384 
N763 X-180.954 Y25.624 Z-3.169 
N764 X-180.907 Y26.153 Z-3.954 
N765 X-180.861 Y26.683 Z-4.740 
N766 X-180.815 Y27.213 Z-5.525 
N767 X-180.757 Y27.742 Z-6.310 
N768 X-180.697 Y28.271 Z-7.094 
N769 X-180.637 Y28.800 Z-7.879 
N770 X-180.577 Y29.329 Z-8.663 
N771 X-180.517 Y29.859 Z-9.448 
N772 X-180.458 Y30.375 Z-10.214 
N773 X-180.400 Y30.892 Z-10.980 
N774 X-180.341 Y31.409 Z-11.746 
N775 X-180.282 Y31.926 Z-12.512 
N776 X-180.224 Y32.442 Z-13.278 
N777 X-180.165 Y32.959 Z-14.044 
N778 X-180.107 Y33.476 Z-14.810 
N779 X-180.048 Y33.992 Z-15.577 
N780 X-179.989 Y34.509 Z-16.343 
N781 X-179.931 Y35.026 Z-17.109 
N782 X-179.872 Y35.543 Z-17.875 
N783 X-179.813 Y36.059 Z-18.641 
N784 X-179.755 Y36.576 Z-19.407 
N785 X-179.696 Y37.093 Z-20.173 
N786 X-179.638 Y37.610 Z-20.939 
N787 X-179.579 Y38.126 Z-21.705 
N788 X-179.520 Y38.643 Z-22.471 
N789 X-179.462 Y39.160 Z-23.237 
N790 X-179.403 Y39.677 Z-24.003 
N791 X-179.345 Y40.193 Z-24.770 
N792 X-179.286 Y40.710 Z-25.536 
N793 X-179.227 Y41.227 Z-26.302 
N794 X-179.169 Y41.743 Z-27.068 
N795 X-179.110 Y42.260 Z-27.834 
N796 X-179.052 Y42.777 Z-28.600 
N797 X-178.993 Y43.294 Z-29.366 
N798 X-178.934 Y43.810 Z-30.132 
N799 X-178.301 Y49.391 Z-38.406 
N800 G00 X-178.301 Y90.843 Z-10.446 
RAPORT("TA000001","Side Milling:105 End")
;trailer : concat=None
; points cnt = 757
N802 MSG (" --- GROUPED OF SUBPROGRAM --- ")
N803 FGROUP()
N804 TRAFOOF
; PROGRAM NAME: A00000137
; ORDER       : A000001
; OPER. NAME  : Side Milling:106
; OPER. DESCR.: BF rough milling FEAB
; OPER. TYPE  : sideMill
; GEO. OPTION : 1
; MACHINE     : HSTM_300_SIM840D_Py
;             : HSTM300/500 - HAMUEL: 5-axis milling machine-SIM840D Traori PP_Script
; CONTROL     : SINUMERIK 840D
; created:   2021-11-15 09:09:19.616555
;-------DODATKOWE DANE-------------------
; PROGRAMISTA : Mariusz Malec
; PARTID      : 138T005360P1002_-
;  ap         : 2.5
;  ae         : 30.0
;  lean_angle : 0.0
;  fin_offset : 0.5
;----------------------------------------
RAPORT("TA000001","Side Milling:106")
N10 TRAFOOF
N11 D0
N12 G90 G94
N13 G0 G53 D0 Z550
N14 STOPRE
M9 ; chlodziwo wyl
; --- Side Milling:106 - BF rough milling FEAB ---
N16 ;ToolChange : concat=None ,current_tdmid=None, PP.tdmId=958058
N17 TRAFOOF
N18 G0 G53 D0 Z550 B0
N19 STOPRE
N20 MSG(" TLID=958058 D=50.0 R=6.0 Ang=0.0 Len=90.0 ")
N21 S2005 M03
N22 STOPRE
N23 TOL(0.1,1,1)
N24 G0 G53 A124.0000 B0.0000
N25 TRAORI
N26 G54 D6
N27 D6 
;---> in saveDoc :0:00:00.060069
N28 ; DELTA A > 40.1
N29 TRAFOOF
N30 D6
N31 STOPRE
N32 G00 G54 Z296.000
N33 G01 A124.0000 F10000
N34 TRAORI
N35 G54 D6
N36 STOPRE
N37 TRANS 
N38 G00 X-204.377 Y-39.896 Z-61.100 A124.0000 
N39 M346 ; chlodziwo mgla
N40 X-204.377 Y1.556 Z-33.140 
N41 G01 X-204.105 Y-4.034 Z-24.853 F2807 
N42 X-204.092 Y-4.314 Z-24.439 F1403 
N43 X-204.078 Y-4.593 Z-24.024 
N44 X-204.065 Y-4.855 Z-23.635 F1442 
N45 X-204.052 Y-5.125 Z-23.236 F1481 
N46 X-204.039 Y-5.402 Z-22.825 F1520 
N47 X-204.025 Y-5.686 Z-22.404 F1559 
N48 X-204.011 Y-5.977 Z-21.973 F1598 
N49 X-203.996 Y-6.275 Z-21.530 F1637 
N50 X-203.981 Y-6.581 Z-21.078 F1676 
N51 X-203.966 Y-6.893 Z-20.614 F1715 
N52 X-203.951 Y-7.213 Z-20.140 F1754 
N53 X-203.935 Y-7.540 Z-19.655 F1793 
N54 X-203.918 Y-7.875 Z-19.159 F1832 
N55 X-203.902 Y-8.216 Z-18.653 F1871 
N56 X-203.885 Y-8.565 Z-18.136 F1910 
N57 X-203.868 Y-8.921 Z-17.608 F1949 
N58 X-203.850 Y-9.284 Z-17.070 F1988 
N59 X-203.832 Y-9.654 Z-16.521 F2027 
N60 X-203.814 Y-10.031 Z-15.962 F2066 
N61 X-203.795 Y-10.416 Z-15.392 F2105 
N62 X-203.776 Y-10.808 Z-14.811 F2144 
N63 X-203.757 Y-11.207 Z-14.219 F2183 
N64 X-203.737 Y-11.613 Z-13.617 F2222 
N65 X-203.717 Y-12.026 Z-13.004 F2261 
N66 X-203.696 Y-12.447 Z-12.381 F2300 
N67 X-203.675 Y-12.874 Z-11.747 F2339 
N68 X-203.654 Y-13.309 Z-11.102 F2378 
N69 X-203.633 Y-13.751 Z-10.447 F2417 
N70 X-203.611 Y-14.201 Z-9.781 F2456 
N71 X-203.589 Y-14.657 Z-9.104 F2495 
N72 X-203.566 Y-15.121 Z-8.416 F2534 
N73 X-203.543 Y-15.592 Z-7.718 F2573 
N74 X-203.520 Y-16.070 Z-7.010 F2612 
N75 X-203.497 Y-16.555 Z-6.290 F2651 
N76 X-203.473 Y-17.047 Z-5.560 F2690 
N77 X-203.448 Y-17.547 Z-4.819 F2729 
N78 X-203.424 Y-18.054 Z-4.068 F2768 
N79 X-203.399 Y-18.568 Z-3.306 F2807 
N80 X-203.373 Y-19.093 Z-2.527 
N81 X-203.348 Y-19.619 Z-1.747 
N82 X-203.322 Y-20.145 Z-0.968 
N83 X-203.297 Y-20.671 Z-0.188 
N84 X-203.269 Y-21.196 Z0.591 
N85 X-203.232 Y-21.722 Z1.371 
N86 X-203.196 Y-22.248 Z2.150 
N87 X-203.159 Y-22.773 Z2.929 
N88 X-203.122 Y-23.299 Z3.708 
N89 X-203.075 Y-23.824 Z4.487 
N90 X-203.024 Y-24.349 Z5.265 
N91 X-202.973 Y-24.874 Z6.044 
N92 X-202.921 Y-25.400 Z6.823 
N93 X-202.870 Y-25.925 Z7.601 
N94 X-202.819 Y-26.450 Z8.380 
N95 X-202.767 Y-26.975 Z9.159 
N96 X-202.716 Y-27.500 Z9.937 
N97 X-202.650 Y-28.025 Z10.715 
N98 X-202.581 Y-28.550 Z11.493 
N99 X-202.512 Y-29.074 Z12.270 
N100 X-202.444 Y-29.599 Z13.048 
N101 X-202.375 Y-30.123 Z13.826 
N102 X-202.306 Y-30.648 Z14.603 
N103 X-202.237 Y-31.172 Z15.381 
N104 X-202.153 Y-31.696 Z16.158 
N105 X-202.069 Y-32.220 Z16.934 
N106 X-201.985 Y-32.744 Z17.711 
N107 X-201.900 Y-33.268 Z18.488 
N108 X-201.816 Y-33.792 Z19.264 
N109 X-201.732 Y-34.315 Z20.041 
N110 X-201.650 Y-34.831 Z20.806 
N111 X-201.567 Y-35.347 Z21.570 
N112 X-201.484 Y-35.863 Z22.335 
N113 X-201.401 Y-36.378 Z23.099 
N114 X-201.318 Y-36.894 Z23.864 
N115 X-201.236 Y-37.410 Z24.628 
N116 X-201.153 Y-37.925 Z25.393 
N117 X-201.070 Y-38.441 Z26.157 
N118 X-200.987 Y-38.957 Z26.922 
N119 X-200.904 Y-39.472 Z27.687 
N120 X-200.822 Y-39.988 Z28.451 
N121 X-200.739 Y-40.504 Z29.216 
N122 X-200.656 Y-41.020 Z29.980 
N123 X-200.573 Y-41.535 Z30.745 
N124 X-200.490 Y-42.051 Z31.509 
N125 X-200.408 Y-42.567 Z32.274 
N126 X-200.325 Y-43.082 Z33.038 
N127 X-200.242 Y-43.598 Z33.803 
N128 X-200.159 Y-44.114 Z34.567 
N129 X-200.077 Y-44.629 Z35.332 
N130 X-199.994 Y-45.145 Z36.097 
N131 X-199.911 Y-45.661 Z36.861 
N132 X-199.828 Y-46.176 Z37.626 
N133 X-199.745 Y-46.692 Z38.390 
N134 X-199.663 Y-47.208 Z39.155 
N135 X-199.580 Y-47.724 Z39.919 
N136 X-199.497 Y-48.239 Z40.684 
N137 X-199.416 Y-48.871 Z41.343 F2919 
N138 X-199.332 Y-49.646 Z41.954 F3257 
N139 X-199.237 Y-50.585 Z42.588 F3820 
N140 X-199.127 Y-51.756 Z43.260 F4608 
N141 X-198.995 Y-53.249 Z43.938 F5622 
N142 X-198.830 Y-55.186 Z44.421 F6861 
N143 X-198.589 Y-57.389 Z43.659 F8325 
N144 X-198.260 Y-58.010 Z40.876 F9789 
N145 X-197.863 Y-57.420 Z37.591 F11028 
N146 X-197.382 Y-56.246 Z34.084 F12041 
N147 X-196.818 Y-54.690 Z30.419 F12830 
N148 X-196.180 Y-52.859 Z26.649 F13393 
N149 X-195.481 Y-50.831 Z22.824 F13731 
N150 X-194.737 Y-48.669 Z18.997 F13843 
N151 X-193.941 Y-46.362 Z15.104 
N152 X-193.122 Y-43.992 Z11.254 
N153 X-192.286 Y-41.570 Z7.440 
N154 X-191.438 Y-39.103 Z3.658 
N155 X-190.583 Y-36.595 Z-0.094 
N156 X-189.725 Y-34.045 Z-3.819 
N157 X-188.870 Y-31.453 Z-7.515 
N158 X-188.022 Y-28.813 Z-11.178 
N159 X-187.185 Y-26.120 Z-14.805 
N160 X-186.365 Y-23.361 Z-18.386 
N161 X-185.545 Y-20.433 Z-22.011 F13716 
N162 X-184.770 Y-17.447 Z-25.484 F13336 
N163 X-184.059 Y-14.428 Z-28.703 F12701 
N164 X-183.430 Y-11.390 Z-31.545 F11812 
N165 X-182.896 Y-8.319 Z-33.815 F10670 
N166 X-182.467 Y-5.157 Z-34.961 F9273 
N167 X-182.232 Y-2.985 Z-33.371 F7623 
N168 X-182.153 Y-2.619 Z-31.089 F5973 
N169 X-182.106 Y-2.712 Z-29.292 F4577 
N170 X-182.072 Y-2.916 Z-27.943 F3434 
N171 X-182.046 Y-3.137 Z-26.949 F2545 
N172 X-182.026 Y-3.346 Z-26.224 F1911 
N173 X-182.011 Y-3.546 Z-25.681 F1530 
N174 X-181.998 Y-3.772 Z-25.242 F1403 
N175 X-181.984 Y-4.051 Z-24.827 
N176 X-181.970 Y-4.331 Z-24.413 
N177 X-181.958 Y-4.593 Z-24.024 F1442 
N178 X-181.945 Y-4.863 Z-23.624 F1481 
N179 X-181.931 Y-5.140 Z-23.214 F1520 
N180 X-181.917 Y-5.424 Z-22.793 F1559 
N181 X-181.903 Y-5.715 Z-22.361 F1598 
N182 X-181.889 Y-6.013 Z-21.919 F1637 
N183 X-181.874 Y-6.319 Z-21.466 F1676 
N184 X-181.859 Y-6.631 Z-21.003 F1715 
N185 X-181.843 Y-6.951 Z-20.528 F1754 
N186 X-181.827 Y-7.278 Z-20.043 F1793 
N187 X-181.811 Y-7.612 Z-19.548 F1832 
N188 X-181.794 Y-7.954 Z-19.042 F1871 
N189 X-181.777 Y-8.303 Z-18.525 F1910 
N190 X-181.760 Y-8.658 Z-17.997 F1949 
N191 X-181.742 Y-9.021 Z-17.459 F1988 
N192 X-181.724 Y-9.392 Z-16.910 F2027 
N193 X-181.706 Y-9.769 Z-16.350 F2066 
N194 X-181.687 Y-10.154 Z-15.780 F2105 
N195 X-181.668 Y-10.545 Z-15.199 F2144 
N196 X-181.649 Y-10.944 Z-14.608 F2183 
N197 X-181.629 Y-11.351 Z-14.006 F2222 
N198 X-181.609 Y-11.764 Z-13.393 F2261 
N199 X-181.589 Y-12.184 Z-12.770 F2300 
N200 X-181.568 Y-12.612 Z-12.135 F2339 
N201 X-181.547 Y-13.047 Z-11.491 F2378 
N202 X-181.525 Y-13.489 Z-10.835 F2417 
N203 X-181.503 Y-13.938 Z-10.169 F2456 
N204 X-181.481 Y-14.395 Z-9.492 F2495 
N205 X-181.459 Y-14.859 Z-8.805 F2534 
N206 X-181.436 Y-15.329 Z-8.107 F2573 
N207 X-181.413 Y-15.808 Z-7.398 F2612 
N208 X-181.389 Y-16.293 Z-6.679 F2651 
N209 X-181.365 Y-16.785 Z-5.949 F2690 
N210 X-181.341 Y-17.285 Z-5.208 F2729 
N211 X-181.316 Y-17.792 Z-4.457 F2768 
N212 X-181.291 Y-18.306 Z-3.695 F2807 
N213 X-181.265 Y-18.835 Z-2.909 
N214 X-181.240 Y-19.365 Z-2.124 
N215 X-181.214 Y-19.895 Z-1.338 
N216 X-181.188 Y-20.425 Z-0.552 
N217 X-181.157 Y-20.955 Z0.233 
N218 X-181.120 Y-21.484 Z1.018 
N219 X-181.083 Y-22.014 Z1.803 
N220 X-181.046 Y-22.544 Z2.589 
N221 X-181.004 Y-23.073 Z3.374 
N222 X-180.953 Y-23.602 Z4.158 
N223 X-180.901 Y-24.132 Z4.943 
N224 X-180.849 Y-24.661 Z5.728 
N225 X-180.797 Y-25.190 Z6.512 
N226 X-180.746 Y-25.720 Z7.297 
N227 X-180.694 Y-26.249 Z8.082 
N228 X-180.642 Y-26.778 Z8.866 
N229 X-180.573 Y-27.307 Z9.650 
N230 X-180.504 Y-27.835 Z10.434 
N231 X-180.434 Y-28.364 Z11.218 
N232 X-180.365 Y-28.893 Z12.001 
N233 X-180.296 Y-29.421 Z12.785 
N234 X-180.226 Y-29.950 Z13.569 
N235 X-180.148 Y-30.478 Z14.352 
N236 X-180.063 Y-31.006 Z15.135 
N237 X-179.978 Y-31.534 Z15.917 
N238 X-179.893 Y-32.062 Z16.700 
N239 X-179.809 Y-32.590 Z17.483 
N240 X-179.724 Y-33.118 Z18.265 
N241 X-179.641 Y-33.633 Z19.030 
N242 X-179.558 Y-34.149 Z19.794 
N243 X-179.475 Y-34.665 Z20.559 
N244 X-179.393 Y-35.181 Z21.324 
N245 X-179.310 Y-35.696 Z22.088 
N246 X-179.227 Y-36.212 Z22.853 
N247 X-179.144 Y-36.728 Z23.617 
N248 X-179.061 Y-37.243 Z24.382 
N249 X-178.979 Y-37.759 Z25.146 
N250 X-178.896 Y-38.275 Z25.911 
N251 X-178.813 Y-38.790 Z26.675 
N252 X-178.730 Y-39.306 Z27.440 
N253 X-178.647 Y-39.822 Z28.205 
N254 X-178.565 Y-40.338 Z28.969 
N255 X-178.482 Y-40.853 Z29.734 
N256 X-178.399 Y-41.369 Z30.498 
N257 X-178.316 Y-41.885 Z31.263 
N258 X-178.234 Y-42.400 Z32.027 
N259 X-178.151 Y-42.916 Z32.792 
N260 X-178.068 Y-43.432 Z33.556 
N261 X-177.985 Y-43.947 Z34.321 
N262 X-177.902 Y-44.463 Z35.086 
N263 X-177.820 Y-44.979 Z35.850 
N264 X-177.737 Y-45.494 Z36.615 
N265 X-177.654 Y-46.010 Z37.379 
N266 X-177.571 Y-46.526 Z38.144 
N267 X-177.488 Y-47.042 Z38.908 
N268 X-177.408 Y-47.674 Z39.568 F2919 
N269 X-177.323 Y-48.450 Z40.180 F3258 
N270 X-177.229 Y-49.390 Z40.813 F3822 
N271 X-177.121 Y-50.562 Z41.487 F4611 
N272 X-177.001 Y-52.058 Z42.166 F5626 
N273 X-176.892 Y-54.002 Z42.652 F6867 
N274 X-176.992 Y-56.213 Z41.885 F8333 
N275 X-177.576 Y-56.810 Z39.134 F9800 
N276 X-178.385 Y-56.205 Z35.921 F11040 
N277 X-179.340 Y-55.021 Z32.508 F12055 
N278 X-180.414 Y-53.459 Z28.953 F12845 
N279 X-181.585 Y-51.624 Z25.305 F13409 
N280 X-182.827 Y-49.593 Z21.612 F13747 
N281 X-184.114 Y-47.429 Z17.922 F13860 
N282 X-185.461 Y-45.124 Z14.177 
N283 X-186.822 Y-42.757 Z10.477 
N284 X-188.194 Y-40.340 Z6.813 
N285 X-189.571 Y-37.879 Z3.181 
N286 X-190.949 Y-35.377 Z-0.423 
N287 X-192.322 Y-32.837 Z-4.002 
N288 X-193.688 Y-30.257 Z-7.555 
N289 X-195.040 Y-27.632 Z-11.081 
N290 X-196.373 Y-24.956 Z-14.575 
N291 X-197.681 Y-22.219 Z-18.031 
N292 X-198.997 Y-19.314 Z-21.539 F13733 
N293 X-200.249 Y-16.355 Z-24.905 F13352 
N294 X-201.405 Y-13.363 Z-28.030 F12716 
N295 X-202.439 Y-10.347 Z-30.788 F11826 
N296 X-203.325 Y-7.283 Z-32.966 F10682 
N297 X-204.012 Y-4.104 Z-33.898 F9284 
N298 X-204.255 Y-2.070 Z-32.069 F7632 
N299 X-204.245 Y-1.666 Z-29.785 F5979 
N300 X-204.210 Y-1.693 Z-27.984 F4581 
N301 X-204.178 Y-1.844 Z-26.625 F3437 
N302 X-204.153 Y-2.028 Z-25.622 F2547 
N303 X-204.134 Y-2.212 Z-24.890 F1911 
N304 X-204.119 Y-2.397 Z-24.340 F1530 
N305 X-204.105 Y-2.617 Z-23.897 F1403 
N306 X-204.092 Y-2.896 Z-23.483 
N307 X-204.078 Y-3.176 Z-23.068 
N308 X-204.065 Y-3.438 Z-22.679 F1442 
N309 X-204.052 Y-3.708 Z-22.280 F1481 
N310 X-204.039 Y-3.985 Z-21.870 F1520 
N311 X-204.025 Y-4.269 Z-21.449 F1559 
N312 X-204.011 Y-4.560 Z-21.017 F1598 
N313 X-203.996 Y-4.858 Z-20.575 F1637 
N314 X-203.981 Y-5.164 Z-20.122 F1676 
N315 X-203.966 Y-5.476 Z-19.658 F1715 
N316 X-203.951 Y-5.796 Z-19.184 F1754 
N317 X-203.935 Y-6.123 Z-18.699 F1793 
N318 X-203.918 Y-6.458 Z-18.203 F1832 
N319 X-203.902 Y-6.799 Z-17.697 F1871 
N320 X-203.885 Y-7.148 Z-17.180 F1910 
N321 X-203.868 Y-7.503 Z-16.653 F1949 
N322 X-203.850 Y-7.867 Z-16.114 F1988 
N323 X-203.832 Y-8.237 Z-15.566 F2027 
N324 X-203.814 Y-8.614 Z-15.006 F2066 
N325 X-203.795 Y-8.999 Z-14.436 F2105 
N326 X-203.776 Y-9.390 Z-13.855 F2144 
N327 X-203.757 Y-9.789 Z-13.264 F2183 
N328 X-203.737 Y-10.196 Z-12.661 F2222 
N329 X-203.717 Y-10.609 Z-12.049 F2261 
N330 X-203.696 Y-11.030 Z-11.425 F2300 
N331 X-203.675 Y-11.457 Z-10.791 F2339 
N332 X-203.654 Y-11.892 Z-10.146 F2378 
N333 X-203.633 Y-12.334 Z-9.491 F2417 
N334 X-203.611 Y-12.784 Z-8.825 F2456 
N335 X-203.589 Y-13.240 Z-8.148 F2495 
N336 X-203.566 Y-13.704 Z-7.461 F2534 
N337 X-203.543 Y-14.175 Z-6.762 F2573 
N338 X-203.520 Y-14.653 Z-6.054 F2612 
N339 X-203.497 Y-15.138 Z-5.334 F2651 
N340 X-203.473 Y-15.630 Z-4.604 F2690 
N341 X-203.448 Y-16.130 Z-3.864 F2729 
N342 X-203.424 Y-16.637 Z-3.112 F2768 
N343 X-203.399 Y-17.151 Z-2.350 F2807 
N344 X-203.373 Y-17.676 Z-1.571 
N345 X-203.348 Y-18.202 Z-0.791 
N346 X-203.322 Y-18.728 Z-0.012 
N347 X-203.297 Y-19.254 Z0.768 
N348 X-203.269 Y-19.779 Z1.547 
N349 X-203.232 Y-20.305 Z2.326 
N350 X-203.196 Y-20.831 Z3.106 
N351 X-203.159 Y-21.356 Z3.885 
N352 X-203.122 Y-21.882 Z4.664 
N353 X-203.075 Y-22.407 Z5.443 
N354 X-203.024 Y-22.932 Z6.221 
N355 X-202.973 Y-23.457 Z7.000 
N356 X-202.921 Y-23.983 Z7.779 
N357 X-202.870 Y-24.508 Z8.557 
N358 X-202.819 Y-25.033 Z9.336 
N359 X-202.767 Y-25.558 Z10.114 
N360 X-202.716 Y-26.083 Z10.893 
N361 X-202.650 Y-26.608 Z11.671 
N362 X-202.581 Y-27.132 Z12.448 
N363 X-202.512 Y-27.657 Z13.226 
N364 X-202.444 Y-28.182 Z14.004 
N365 X-202.375 Y-28.706 Z14.782 
N366 X-202.306 Y-29.231 Z15.559 
N367 X-202.237 Y-29.755 Z16.337 
N368 X-202.153 Y-30.279 Z17.114 
N369 X-202.069 Y-30.803 Z17.890 
N370 X-201.985 Y-31.327 Z18.667 
N371 X-201.900 Y-31.851 Z19.444 
N372 X-201.816 Y-32.375 Z20.220 
N373 X-201.732 Y-32.898 Z20.997 
N374 X-201.650 Y-33.414 Z21.761 
N375 X-201.567 Y-33.930 Z22.526 
N376 X-201.484 Y-34.445 Z23.290 
N377 X-201.401 Y-34.961 Z24.055 
N378 X-201.318 Y-35.477 Z24.820 
N379 X-201.236 Y-35.993 Z25.584 
N380 X-201.153 Y-36.508 Z26.349 
N381 X-201.070 Y-37.024 Z27.113 
N382 X-200.987 Y-37.540 Z27.878 
N383 X-200.904 Y-38.055 Z28.642 
N384 X-200.822 Y-38.571 Z29.407 
N385 X-200.739 Y-39.087 Z30.171 
N386 X-200.656 Y-39.602 Z30.936 
N387 X-200.573 Y-40.118 Z31.701 
N388 X-200.490 Y-40.634 Z32.465 
N389 X-200.408 Y-41.150 Z33.230 
N390 X-200.325 Y-41.665 Z33.994 
N391 X-200.242 Y-42.181 Z34.759 
N392 X-200.159 Y-42.697 Z35.523 
N393 X-200.077 Y-43.212 Z36.288 
N394 X-199.994 Y-43.728 Z37.052 
N395 X-199.911 Y-44.244 Z37.817 
N396 X-199.828 Y-44.759 Z38.582 
N397 X-199.745 Y-45.275 Z39.346 
N398 X-199.663 Y-45.791 Z40.111 
N399 X-199.580 Y-46.307 Z40.875 
N400 X-199.497 Y-46.822 Z41.640 
N401 X-199.416 Y-47.472 Z42.289 F2921 
N402 X-199.332 Y-48.275 Z42.878 F3263 
N403 X-199.238 Y-49.249 Z43.476 F3834 
N404 X-199.129 Y-50.464 Z44.101 F4633 
N405 X-199.000 Y-52.009 Z44.711 F5661 
N406 X-198.843 Y-53.996 Z45.115 F6917 
N407 X-198.626 Y-56.320 Z44.468 F8401 
N408 X-198.317 Y-57.402 Z41.794 F9885 
N409 X-197.927 Y-57.083 Z38.416 F11141 
N410 X-197.449 Y-56.062 Z34.795 F12168 
N411 X-196.884 Y-54.597 Z31.016 F12968 
N412 X-196.241 Y-52.819 Z27.138 F13538 
N413 X-195.533 Y-50.816 Z23.212 F13881 
N414 X-194.778 Y-48.660 Z19.291 F13995 
N415 X-193.975 Y-46.361 Z15.336 
N416 X-193.148 Y-43.987 Z11.430 
N417 X-192.304 Y-41.554 Z7.564 
N418 X-191.447 Y-39.068 Z3.735 
N419 X-190.582 Y-36.534 Z-0.060 
N420 X-189.715 Y-33.952 Z-3.823 
N421 X-188.850 Y-31.322 Z-7.553 
N422 X-187.993 Y-28.638 Z-11.245 
N423 X-187.148 Y-25.891 Z-14.895 
N424 X-186.321 Y-23.069 Z-18.490 
N425 X-185.489 Y-20.045 Z-22.140 F13867 
N426 X-184.704 Y-16.947 Z-25.618 F13481 
N427 X-183.988 Y-13.793 Z-28.814 F12839 
N428 X-183.358 Y-10.595 Z-31.585 F11939 
N429 X-182.830 Y-7.332 Z-33.691 F10783 
N430 X-182.424 Y-4.006 Z-34.420 F9369 
N431 X-182.226 Y-1.912 Z-32.547 F7699 
N432 X-182.152 Y-1.438 Z-30.245 F6029 
N433 X-182.106 Y-1.439 Z-28.419 F4615 
N434 X-182.072 Y-1.582 Z-27.042 F3459 
N435 X-182.046 Y-1.763 Z-26.027 F2559 
N436 X-182.026 Y-1.948 Z-25.287 F1917 
N437 X-182.011 Y-2.134 Z-24.732 F1531 
N438 X-181.998 Y-2.355 Z-24.286 F1403 
N439 X-181.984 Y-2.634 Z-23.871 
N440 X-181.970 Y-2.914 Z-23.457 
N441 X-181.958 Y-3.176 Z-23.068 F1442 
N442 X-181.945 Y-3.446 Z-22.668 F1481 
N443 X-181.931 Y-3.723 Z-22.258 F1520 
N444 X-181.917 Y-4.006 Z-21.837 F1559 
N445 X-181.903 Y-4.298 Z-21.406 F1598 
N446 X-181.889 Y-4.596 Z-20.963 F1637 
N447 X-181.874 Y-4.901 Z-20.510 F1676 
N448 X-181.859 Y-5.214 Z-20.047 F1715 
N449 X-181.843 Y-5.534 Z-19.572 F1754 
N450 X-181.827 Y-5.861 Z-19.088 F1793 
N451 X-181.811 Y-6.195 Z-18.592 F1832 
N452 X-181.794 Y-6.537 Z-18.086 F1871 
N453 X-181.777 Y-6.886 Z-17.569 F1910 
N454 X-181.760 Y-7.241 Z-17.041 F1949 
N455 X-181.742 Y-7.604 Z-16.503 F1988 
N456 X-181.724 Y-7.975 Z-15.954 F2027 
N457 X-181.706 Y-8.352 Z-15.395 F2066 
N458 X-181.687 Y-8.737 Z-14.824 F2105 
N459 X-181.668 Y-9.128 Z-14.244 F2144 
N460 X-181.649 Y-9.527 Z-13.652 F2183 
N461 X-181.629 Y-9.934 Z-13.050 F2222 
N462 X-181.609 Y-10.347 Z-12.437 F2261 
N463 X-181.589 Y-10.767 Z-11.814 F2300 
N464 X-181.568 Y-11.195 Z-11.180 F2339 
N465 X-181.547 Y-11.630 Z-10.535 F2378 
N466 X-181.525 Y-12.072 Z-9.879 F2417 
N467 X-181.503 Y-12.521 Z-9.213 F2456 
N468 X-181.481 Y-12.978 Z-8.537 F2495 
N469 X-181.459 Y-13.442 Z-7.849 F2534 
N470 X-181.436 Y-13.912 Z-7.151 F2573 
N471 X-181.413 Y-14.390 Z-6.442 F2612 
N472 X-181.389 Y-14.876 Z-5.723 F2651 
N473 X-181.365 Y-15.368 Z-4.993 F2690 
N474 X-181.341 Y-15.868 Z-4.252 F2729 
N475 X-181.316 Y-16.374 Z-3.501 F2768 
N476 X-181.291 Y-16.888 Z-2.739 F2807 
N477 X-181.265 Y-17.418 Z-1.953 
N478 X-181.240 Y-17.948 Z-1.168 
N479 X-181.214 Y-18.478 Z-0.382 
N480 X-181.188 Y-19.008 Z0.403 
N481 X-181.157 Y-19.538 Z1.189 
N482 X-181.120 Y-20.067 Z1.974 
N483 X-181.083 Y-20.597 Z2.759 
N484 X-181.046 Y-21.127 Z3.544 
N485 X-181.004 Y-21.656 Z4.330 
N486 X-180.953 Y-22.185 Z5.114 
N487 X-180.901 Y-22.715 Z5.899 
N488 X-180.849 Y-23.244 Z6.684 
N489 X-180.797 Y-23.773 Z7.468 
N490 X-180.746 Y-24.302 Z8.253 
N491 X-180.694 Y-24.832 Z9.038 
N492 X-180.642 Y-25.361 Z9.822 
N493 X-180.573 Y-25.890 Z10.606 
N494 X-180.504 Y-26.418 Z11.390 
N495 X-180.434 Y-26.947 Z12.173 
N496 X-180.365 Y-27.476 Z12.957 
N497 X-180.296 Y-28.004 Z13.741 
N498 X-180.226 Y-28.533 Z14.525 
N499 X-180.148 Y-29.061 Z15.308 
N500 X-180.063 Y-29.589 Z16.090 
N501 X-179.978 Y-30.117 Z16.873 
N502 X-179.893 Y-30.645 Z17.656 
N503 X-179.809 Y-31.173 Z18.438 
N504 X-179.724 Y-31.701 Z19.221 
N505 X-179.641 Y-32.216 Z19.986 
N506 X-179.558 Y-32.732 Z20.750 
N507 X-179.475 Y-33.248 Z21.515 
N508 X-179.393 Y-33.763 Z22.279 
N509 X-179.310 Y-34.279 Z23.044 
N510 X-179.227 Y-34.795 Z23.808 
N511 X-179.144 Y-35.311 Z24.573 
N512 X-179.061 Y-35.826 Z25.338 
N513 X-178.979 Y-36.342 Z26.102 
N514 X-178.896 Y-36.858 Z26.867 
N515 X-178.813 Y-37.373 Z27.631 
N516 X-178.730 Y-37.889 Z28.396 
N517 X-178.647 Y-38.405 Z29.160 
N518 X-178.565 Y-38.920 Z29.925 
N519 X-178.482 Y-39.436 Z30.689 
N520 X-178.399 Y-39.952 Z31.454 
N521 X-178.316 Y-40.468 Z32.219 
N522 X-178.234 Y-40.983 Z32.983 
N523 X-178.151 Y-41.499 Z33.748 
N524 X-178.068 Y-42.015 Z34.512 
N525 X-177.985 Y-42.530 Z35.277 
N526 X-177.902 Y-43.046 Z36.041 
N527 X-177.820 Y-43.562 Z36.806 
N528 X-177.737 Y-44.077 Z37.570 
N529 X-177.654 Y-44.593 Z38.335 
N530 X-177.571 Y-45.109 Z39.100 
N531 X-177.488 Y-45.625 Z39.864 
N532 X-177.407 Y-46.275 Z40.514 F2921 
N533 X-177.323 Y-47.078 Z41.103 F3264 
N534 X-177.230 Y-48.054 Z41.702 F3836 
N535 X-177.123 Y-49.271 Z42.327 F4636 
N536 X-177.005 Y-50.819 Z42.939 F5665 
N537 X-176.897 Y-52.812 Z43.344 F6923 
N538 X-176.950 Y-55.147 Z42.694 F8410 
N539 X-177.463 Y-56.209 Z40.039 F9897 
N540 X-178.255 Y-55.871 Z36.727 F11154 
N541 X-179.210 Y-54.838 Z33.197 F12184 
N542 X-180.294 Y-53.364 Z29.527 F12984 
N543 X-181.479 Y-51.580 Z25.771 F13556 
N544 X-182.739 Y-49.573 Z21.977 F13899 
N545 X-184.048 Y-47.414 Z18.195 F14013 
N546 X-185.408 Y-45.116 Z14.390 
N547 X-186.784 Y-42.745 Z10.635 
N548 X-188.170 Y-40.315 Z6.922 
N549 X-189.562 Y-37.835 Z3.245 
N550 X-190.955 Y-35.308 Z-0.400 
N551 X-192.344 Y-32.736 Z-4.016 
N552 X-193.723 Y-30.118 Z-7.601 
N553 X-195.089 Y-27.449 Z-11.153 
N554 X-196.436 Y-24.720 Z-14.668 
N555 X-197.756 Y-21.920 Z-18.136 
N556 X-199.091 Y-18.919 Z-21.667 F13885 
N557 X-200.357 Y-15.846 Z-25.037 F13499 
N558 X-201.524 Y-12.718 Z-28.136 F12855 
N559 X-202.561 Y-9.539 Z-30.819 F11954 
N560 X-203.436 Y-6.276 Z-32.818 F10796 
N561 X-204.070 Y-2.950 Z-33.295 F9381 
N562 X-204.257 Y-0.984 Z-31.236 F7708 
N563 X-204.244 Y-0.477 Z-28.933 F6035 
N564 X-204.209 Y-0.417 Z-27.104 F4620 
N565 X-204.178 Y-0.509 Z-25.720 F3462 
N566 X-204.153 Y-0.654 Z-24.699 F2561 
N567 X-204.134 Y-0.815 Z-23.952 F1918 
N568 X-204.119 Y-0.985 Z-23.391 F1532 
N569 X-204.105 Y-1.200 Z-22.941 F1403 
N570 X-204.092 Y-1.479 Z-22.527 
N571 X-204.078 Y-1.759 Z-22.113 
N572 X-204.065 Y-2.021 Z-21.724 F1442 
N573 X-204.052 Y-2.291 Z-21.324 F1481 
N574 X-204.039 Y-2.568 Z-20.914 F1520 
N575 X-204.025 Y-2.852 Z-20.493 F1559 
N576 X-204.011 Y-3.143 Z-20.061 F1598 
N577 X-203.996 Y-3.441 Z-19.619 F1637 
N578 X-203.981 Y-3.747 Z-19.166 F1676 
N579 X-203.966 Y-4.059 Z-18.702 F1715 
N580 X-203.951 Y-4.379 Z-18.228 F1754 
N581 X-203.935 Y-4.706 Z-17.743 F1793 
N582 X-203.918 Y-5.040 Z-17.247 F1832 
N583 X-203.902 Y-5.382 Z-16.741 F1871 
N584 X-203.885 Y-5.731 Z-16.224 F1910 
N585 X-203.868 Y-6.086 Z-15.697 F1949 
N586 X-203.850 Y-6.449 Z-15.159 F1988 
N587 X-203.832 Y-6.820 Z-14.610 F2027 
N588 X-203.814 Y-7.197 Z-14.050 F2066 
N589 X-203.795 Y-7.582 Z-13.480 F2105 
N590 X-203.776 Y-7.973 Z-12.899 F2144 
N591 X-203.757 Y-8.372 Z-12.308 F2183 
N592 X-203.737 Y-8.779 Z-11.706 F2222 
N593 X-203.717 Y-9.192 Z-11.093 F2261 
N594 X-203.696 Y-9.612 Z-10.469 F2300 
N595 X-203.675 Y-10.040 Z-9.835 F2339 
N596 X-203.654 Y-10.475 Z-9.190 F2378 
N597 X-203.633 Y-10.917 Z-8.535 F2417 
N598 X-203.611 Y-11.366 Z-7.869 F2456 
N599 X-203.589 Y-11.823 Z-7.192 F2495 
N600 X-203.566 Y-12.287 Z-6.505 F2534 
N601 X-203.543 Y-12.757 Z-5.807 F2573 
N602 X-203.520 Y-13.235 Z-5.098 F2612 
N603 X-203.497 Y-13.721 Z-4.378 F2651 
N604 X-203.473 Y-14.213 Z-3.648 F2690 
N605 X-203.448 Y-14.713 Z-2.908 F2729 
N606 X-203.424 Y-15.220 Z-2.156 F2768 
N607 X-203.399 Y-15.734 Z-1.394 F2807 
N608 X-203.373 Y-16.259 Z-0.615 
N609 X-203.348 Y-16.785 Z0.165 
N610 X-203.322 Y-17.311 Z0.944 
N611 X-203.297 Y-17.837 Z1.724 
N612 X-203.269 Y-18.362 Z2.503 
N613 X-203.232 Y-18.888 Z3.282 
N614 X-203.196 Y-19.413 Z4.061 
N615 X-203.159 Y-19.939 Z4.841 
N616 X-203.122 Y-20.465 Z5.620 
N617 X-203.075 Y-20.990 Z6.399 
N618 X-203.024 Y-21.515 Z7.177 
N619 X-202.973 Y-22.040 Z7.956 
N620 X-202.921 Y-22.565 Z8.734 
N621 X-202.870 Y-23.091 Z9.513 
N622 X-202.819 Y-23.616 Z10.292 
N623 X-202.767 Y-24.141 Z11.070 
N624 X-202.716 Y-24.666 Z11.849 
N625 X-202.650 Y-25.191 Z12.627 
N626 X-202.581 Y-25.715 Z13.404 
N627 X-202.512 Y-26.240 Z14.182 
N628 X-202.444 Y-26.764 Z14.960 
N629 X-202.375 Y-27.289 Z15.737 
N630 X-202.306 Y-27.814 Z16.515 
N631 X-202.237 Y-28.338 Z17.293 
N632 X-202.153 Y-28.862 Z18.069 
N633 X-202.069 Y-29.386 Z18.846 
N634 X-201.985 Y-29.910 Z19.623 
N635 X-201.900 Y-30.434 Z20.399 
N636 X-201.816 Y-30.957 Z21.176 
N637 X-201.732 Y-31.481 Z21.953 
N638 X-201.650 Y-31.997 Z22.717 
N639 X-201.567 Y-32.513 Z23.482 
N640 X-201.484 Y-33.028 Z24.246 
N641 X-201.401 Y-33.544 Z25.011 
N642 X-201.318 Y-34.060 Z25.775 
N643 X-201.236 Y-34.575 Z26.540 
N644 X-201.153 Y-35.091 Z27.305 
N645 X-201.070 Y-35.607 Z28.069 
N646 X-200.987 Y-36.123 Z28.834 
N647 X-200.904 Y-36.638 Z29.598 
N648 X-200.822 Y-37.154 Z30.363 
N649 X-200.739 Y-37.670 Z31.127 
N650 X-200.656 Y-38.185 Z31.892 
N651 X-200.573 Y-38.701 Z32.656 
N652 X-200.490 Y-39.217 Z33.421 
N653 X-200.408 Y-39.732 Z34.185 
N654 X-200.325 Y-40.248 Z34.950 
N655 X-200.242 Y-40.764 Z35.715 
N656 X-200.159 Y-41.280 Z36.479 
N657 X-200.077 Y-41.795 Z37.244 
N658 X-199.994 Y-42.311 Z38.008 
N659 X-199.911 Y-42.827 Z38.773 
N660 X-199.828 Y-43.342 Z39.537 
N661 X-199.745 Y-43.858 Z40.302 
N662 X-199.663 Y-44.374 Z41.066 
N663 X-199.580 Y-44.889 Z41.831 
N664 X-199.497 Y-45.405 Z42.596 
N665 X-199.417 Y-46.059 Z43.225 F2918 
N666 X-199.335 Y-46.870 Z43.780 F3253 
N667 X-199.245 Y-47.850 Z44.334 F3811 
N668 X-199.140 Y-49.065 Z44.900 F4593 
N669 X-199.018 Y-50.599 Z45.443 F5598 
N670 X-198.872 Y-52.548 Z45.807 F6826 
N671 X-198.686 Y-54.902 Z45.416 F8278 
N672 X-198.418 Y-56.597 Z43.184 F9729 
N673 X-198.064 Y-56.772 Z39.895 F10957 
N674 X-197.621 Y-56.070 Z36.302 F11962 
N675 X-197.091 Y-54.845 Z32.557 F12744 
N676 X-196.484 Y-53.262 Z28.722 F13302 
N677 X-195.812 Y-51.427 Z24.851 F13637 
N678 X-195.093 Y-49.417 Z20.993 F13749 
N679 X-194.316 Y-47.227 Z17.069 
N680 X-193.514 Y-44.949 Z13.199 
N681 X-192.692 Y-42.601 Z9.377 
N682 X-191.855 Y-40.193 Z5.594 
N683 X-191.009 Y-37.732 Z1.849 
N684 X-190.159 Y-35.220 Z-1.862 
N685 X-189.308 Y-32.657 Z-5.538 
N686 X-188.461 Y-30.040 Z-9.176 
N687 X-187.624 Y-27.362 Z-12.771 
N688 X-186.802 Y-24.611 Z-16.316 
N689 X-185.999 Y-21.774 Z-19.795 
N690 X-185.202 Y-18.747 Z-23.276 F13623 
N691 X-184.453 Y-15.624 Z-26.562 F13245 
N692 X-183.774 Y-12.421 Z-29.535 F12615 
N693 X-183.183 Y-9.137 Z-32.023 F11733 
N694 X-182.697 Y-5.752 Z-33.699 F10599 
N695 X-182.355 Y-2.464 Z-33.625 F9213 
N696 X-182.210 Y-0.712 Z-31.435 F7576 
N697 X-182.146 Y-0.229 Z-29.193 F5938 
N698 X-182.102 Y-0.167 Z-27.411 F4552 
N699 X-182.070 Y-0.256 Z-26.061 F3419 
N700 X-182.045 Y-0.398 Z-25.061 F2537 
N701 X-182.026 Y-0.556 Z-24.327 F1907 
N702 X-182.011 Y-0.725 Z-23.774 F1529 
N703 X-181.998 Y-0.938 Z-23.330 F1403 
N704 X-181.984 Y-1.217 Z-22.916 
N705 X-181.970 Y-1.497 Z-22.501 
N706 X-181.958 Y-1.759 Z-22.112 F1442 
N707 X-181.945 Y-2.029 Z-21.713 F1481 
N708 X-181.931 Y-2.305 Z-21.302 F1520 
N709 X-181.917 Y-2.589 Z-20.881 F1559 
N710 X-181.903 Y-2.881 Z-20.450 F1598 
N711 X-181.889 Y-3.179 Z-20.007 F1637 
N712 X-181.874 Y-3.484 Z-19.554 F1676 
N713 X-181.859 Y-3.797 Z-19.091 F1715 
N714 X-181.843 Y-4.117 Z-18.617 F1754 
N715 X-181.827 Y-4.444 Z-18.132 F1793 
N716 X-181.811 Y-4.778 Z-17.636 F1832 
N717 X-181.794 Y-5.120 Z-17.130 F1871 
N718 X-181.777 Y-5.468 Z-16.613 F1910 
N719 X-181.760 Y-5.824 Z-16.085 F1949 
N720 X-181.742 Y-6.187 Z-15.547 F1988 
N721 X-181.724 Y-6.558 Z-14.998 F2027 
N722 X-181.706 Y-6.935 Z-14.439 F2066 
N723 X-181.687 Y-7.320 Z-13.869 F2105 
N724 X-181.668 Y-7.711 Z-13.288 F2144 
N725 X-181.649 Y-8.110 Z-12.696 F2183 
N726 X-181.629 Y-8.516 Z-12.094 F2222 
N727 X-181.609 Y-8.930 Z-11.481 F2261 
N728 X-181.589 Y-9.350 Z-10.858 F2300 
N729 X-181.568 Y-9.778 Z-10.224 F2339 
N730 X-181.547 Y-10.213 Z-9.579 F2378 
N731 X-181.525 Y-10.655 Z-8.924 F2417 
N732 X-181.503 Y-11.104 Z-8.257 F2456 
N733 X-181.481 Y-11.561 Z-7.581 F2495 
N734 X-181.459 Y-12.024 Z-6.893 F2534 
N735 X-181.436 Y-12.495 Z-6.195 F2573 
N736 X-181.413 Y-12.973 Z-5.486 F2612 
N737 X-181.389 Y-13.459 Z-4.767 F2651 
N738 X-181.365 Y-13.951 Z-4.037 F2690 
N739 X-181.341 Y-14.451 Z-3.296 F2729 
N740 X-181.316 Y-14.957 Z-2.545 F2768 
N741 X-181.291 Y-15.471 Z-1.783 F2807 
N742 X-181.265 Y-16.001 Z-0.997 
N743 X-181.240 Y-16.531 Z-0.212 
N744 X-181.214 Y-17.061 Z0.574 
N745 X-181.188 Y-17.591 Z1.359 
N746 X-181.157 Y-18.121 Z2.145 
N747 X-181.120 Y-18.650 Z2.930 
N748 X-181.083 Y-19.180 Z3.715 
N749 X-181.046 Y-19.710 Z4.500 
N750 X-181.004 Y-20.239 Z5.285 
N751 X-180.953 Y-20.768 Z6.070 
N752 X-180.901 Y-21.298 Z6.855 
N753 X-180.849 Y-21.827 Z7.639 
N754 X-180.797 Y-22.356 Z8.424 
N755 X-180.746 Y-22.885 Z9.209 
N756 X-180.694 Y-23.415 Z9.993 
N757 X-180.642 Y-23.944 Z10.778 
N758 X-180.573 Y-24.473 Z11.562 
N759 X-180.504 Y-25.001 Z12.346 
N760 X-180.434 Y-25.530 Z13.129 
N761 X-180.365 Y-26.058 Z13.913 
N762 X-180.296 Y-26.587 Z14.697 
N763 X-180.226 Y-27.116 Z15.480 
N764 X-180.148 Y-27.644 Z16.264 
N765 X-180.063 Y-28.172 Z17.046 
N766 X-179.978 Y-28.700 Z17.829 
N767 X-179.893 Y-29.228 Z18.612 
N768 X-179.809 Y-29.756 Z19.394 
N769 X-179.724 Y-30.284 Z20.177 
N770 X-179.641 Y-30.799 Z20.942 
N771 X-179.558 Y-31.315 Z21.706 
N772 X-179.475 Y-31.831 Z22.471 
N773 X-179.393 Y-32.346 Z23.235 
N774 X-179.310 Y-32.862 Z24.000 
N775 X-179.227 Y-33.378 Z24.764 
N776 X-179.144 Y-33.893 Z25.529 
N777 X-179.061 Y-34.409 Z26.293 
N778 X-178.979 Y-34.925 Z27.058 
N779 X-178.896 Y-35.441 Z27.823 
N780 X-178.813 Y-35.956 Z28.587 
N781 X-178.730 Y-36.472 Z29.352 
N782 X-178.647 Y-36.988 Z30.116 
N783 X-178.565 Y-37.503 Z30.881 
N784 X-178.482 Y-38.019 Z31.645 
N785 X-178.399 Y-38.535 Z32.410 
N786 X-178.316 Y-39.050 Z33.174 
N787 X-178.234 Y-39.566 Z33.939 
N788 X-178.151 Y-40.082 Z34.704 
N789 X-178.068 Y-40.598 Z35.468 
N790 X-177.985 Y-41.113 Z36.233 
N791 X-177.902 Y-41.629 Z36.997 
N792 X-177.820 Y-42.145 Z37.762 
N793 X-177.737 Y-42.660 Z38.526 
N794 X-177.654 Y-43.176 Z39.291 
N795 X-177.571 Y-43.692 Z40.055 
N796 X-177.488 Y-44.207 Z40.820 
N797 X-176.594 Y-49.777 Z49.077 
N798 G00 X-176.594 Y-91.229 Z21.117 
RAPORT("TA000001","Side Milling:106 End")
;trailer : concat=None
; points cnt = 757
N800 M347 ; mgla wyl
N801 MSG (" --- KONIEC PODPROGRAMU --- ")
N802 FGROUP()
N803 TRAFOOF
N804 STOPRE
N805 G0 G53 D0 Z550.0 M9 M5
N806 G0 G53 Y150 A0 B0
N807 M17
