; PROGRAM NAME: A33333341
; ORDER       : A333333
; OPER. NAME  : Side Milling:118
; OPER. DESCR.: Side Milling/HHU zgr
; OPER. TYPE  : sideMill
; GEO. OPTION : 1
; MACHINE     : HSTM_300_SIM840D_Py
;             : HSTM300/500 - HAMUEL: 5-axis milling machine-SIM840D Traori PP_Script
; CONTROL     : SINUMERIK 840D
; created:   2021-09-10 08:44:55.241669
;----------------------------------------
RAPORT("TA333333","Side Milling:118")
N10 TRAFOOF
N11 D0
N12 G90 G94
N13 G0 G53 D0 Z550
N14 STOPRE
M9 ; chlodziwo wyl
; --- Side Milling:118 - Side Milling/HHU zgr ---
N16 ;ToolChange : concat=None ,current_tdmid=None, PP.tdmId=940861
N17 TRAFOOF
N18 G0 G53 D0 X-200 Y150 Z550 B0
N19 T="7740861"
RAPORT("TA333333","ToolChangeStart 7740861")
N20 M6
RAPORT("TA333333","ToolChangeEnd")
N21 STOPRE
N22 MSG(" TLID=940861 D=12.0 R=4.0 Ang=0.0 Len=124.0 ")
N23 S4244 M03
N24 STOPRE
N25 TOL(0.1,1,1)
N26 G0 G53 A313.0000 B-0.0000
N27 TRAORI
N28 G54 D1
N29 D1 
STOPRE
E_ZDARZ=500002
;ACS_ROUGH_SLOT=7740861
STOPRE
N30 ; DELTA A > 40.1
N31 TRAFOOF
N32 D1
N33 STOPRE
N34 G00 G54 Z262.000
N35 G01 A313.0000 F10000
N36 TRAORI
N37 G54 D1
N38 STOPRE
N39 TRANS 
N40 G00 X-162.445 Y32.719 Z68.566 A313.0000 
N41 M342 ; chlodziwo woda
N42 X-162.445 Y-3.849 Z34.466 
N43 G01 X-162.444 Y-5.775 Z32.001 F594 
N44 X-162.441 Y-6.845 Z29.061 
N45 X-162.437 Y-6.954 Z25.934 
N46 X-162.431 Y-6.092 Z22.927 
N47 ;NTE
N48 D1 
N49 G01 G41 X-162.425 Y-4.342 Z20.333 F594
N50 X-162.425 Y-4.342 Z20.333 
N51 X-162.425 Y-4.206 Z20.186 
N52 X-162.424 Y-4.070 Z20.040 
N53 X-162.424 Y-3.933 Z19.894 
N54 X-162.424 Y-3.797 Z19.748 
N55 X-162.423 Y-3.660 Z19.601 
N56 X-162.423 Y-3.524 Z19.455 
N57 X-162.422 Y-3.388 Z19.309 
N58 X-162.422 Y-3.251 Z19.163 
N59 X-162.422 Y-3.115 Z19.016 
N60 X-162.421 Y-2.978 Z18.870 
N61 X-162.421 Y-2.842 Z18.724 
N62 X-162.420 Y-2.706 Z18.578 
N63 X-162.420 Y-2.569 Z18.431 
N64 X-162.420 Y-2.433 Z18.285 
N65 X-162.419 Y-2.296 Z18.139 
N66 X-162.419 Y-2.160 Z17.992 
N67 X-162.419 Y-2.024 Z17.846 
N68 X-162.418 Y-1.887 Z17.700 
N69 X-162.418 Y-1.751 Z17.554 
N70 X-162.417 Y-1.614 Z17.407 
N71 X-162.417 Y-1.478 Z17.261 
N72 X-162.417 Y-1.342 Z17.115 
N73 X-162.416 Y-1.205 Z16.969 
N74 X-162.416 Y-1.069 Z16.822 
N75 X-162.415 Y-0.932 Z16.676 
N76 X-162.415 Y-0.796 Z16.530 
N77 X-162.415 Y-0.660 Z16.383 
N78 X-162.414 Y-0.523 Z16.237 
N79 X-162.414 Y-0.387 Z16.091 
N80 X-162.413 Y-0.250 Z15.945 
N81 X-162.413 Y-0.114 Z15.798 
N82 X-162.413 Y0.022 Z15.652 
N83 X-162.412 Y0.159 Z15.506 
N84 X-162.412 Y0.295 Z15.360 
N85 X-162.411 Y0.432 Z15.213 
N86 X-162.411 Y0.567 Z15.069 
N87 X-162.411 Y0.701 Z14.924 
N88 X-162.410 Y0.836 Z14.779 
N89 X-162.410 Y0.971 Z14.635 
N90 X-162.410 Y1.106 Z14.490 
N91 X-162.409 Y1.241 Z14.345 
N92 X-162.409 Y1.376 Z14.200 
N93 X-162.408 Y1.511 Z14.056 
N94 X-162.408 Y1.646 Z13.911 
N95 X-162.408 Y1.781 Z13.766 
N96 X-162.407 Y1.916 Z13.622 
N97 X-162.407 Y2.051 Z13.477 
N98 X-162.406 Y2.186 Z13.332 
N99 X-162.406 Y2.321 Z13.188 
N100 X-162.406 Y2.456 Z13.043 
N101 X-162.405 Y2.590 Z12.898 
N102 X-162.405 Y2.725 Z12.754 
N103 X-162.404 Y2.860 Z12.609 
N104 X-162.404 Y2.995 Z12.464 
N105 X-162.404 Y3.130 Z12.320 
N106 X-162.403 Y3.265 Z12.175 
N107 X-162.403 Y3.400 Z12.030 
N108 X-162.403 Y3.535 Z11.885 
N109 X-162.402 Y3.670 Z11.741 
N110 X-162.402 Y3.805 Z11.596 
N111 X-162.401 Y3.940 Z11.451 
N112 X-162.401 Y4.075 Z11.307 
N113 X-162.401 Y4.210 Z11.162 
N114 X-162.400 Y4.344 Z11.017 
N115 X-162.400 Y4.479 Z10.873 
N116 X-162.399 Y4.614 Z10.728 
N117 X-162.399 Y4.749 Z10.583 
N118 X-162.399 Y4.884 Z10.439 
N119 X-162.398 Y5.019 Z10.294 
N120 X-162.398 Y5.154 Z10.149 
N121 X-162.397 Y5.289 Z10.005 
N122 X-162.397 Y5.424 Z9.860 
N123 X-162.397 Y5.559 Z9.715 
N124 X-162.396 Y5.694 Z9.570 
N125 X-162.396 Y5.829 Z9.426 
N126 X-162.396 Y5.964 Z9.281 
N127 X-162.395 Y6.098 Z9.136 
N128 X-162.392 Y6.233 Z8.992 
N129 X-162.389 Y6.368 Z8.847 
N130 X-162.386 Y6.503 Z8.702 
N131 X-162.383 Y6.638 Z8.558 
N132 X-162.380 Y6.773 Z8.413 
N133 X-162.377 Y6.908 Z8.268 
N134 X-162.374 Y7.043 Z8.124 
N135 X-162.371 Y7.178 Z7.979 
N136 X-162.368 Y7.313 Z7.834 
N137 X-162.365 Y7.448 Z7.690 
N138 X-162.362 Y7.582 Z7.545 
N139 X-162.359 Y7.717 Z7.400 
N140 X-162.356 Y7.852 Z7.256 
N141 X-162.353 Y7.987 Z7.111 
N142 X-162.350 Y8.122 Z6.966 
N143 X-162.347 Y8.257 Z6.822 
N144 X-162.344 Y8.392 Z6.677 
N145 X-162.341 Y8.527 Z6.532 
N146 X-162.338 Y8.662 Z6.388 
N147 X-162.335 Y8.797 Z6.243 
N148 X-162.332 Y8.932 Z6.098 
N149 X-162.329 Y9.066 Z5.954 
N150 X-162.326 Y9.201 Z5.809 
N151 X-162.323 Y9.336 Z5.664 
N152 X-162.320 Y9.471 Z5.520 
N153 X-162.317 Y9.606 Z5.375 
N154 X-162.314 Y9.741 Z5.230 
N155 X-162.311 Y9.876 Z5.086 
N156 X-162.308 Y10.011 Z4.941 
N157 X-162.305 Y10.146 Z4.796 
N158 X-162.302 Y10.281 Z4.652 
N159 X-162.299 Y10.416 Z4.507 
N160 X-162.296 Y10.550 Z4.362 
N161 X-162.293 Y10.685 Z4.218 
N162 X-162.290 Y10.820 Z4.073 
N163 X-162.287 Y10.955 Z3.928 
N164 X-162.284 Y11.090 Z3.784 
N165 X-162.282 Y11.225 Z3.639 
N166 X-162.277 Y11.360 Z3.494 
N167 X-162.272 Y11.495 Z3.350 
N168 X-162.267 Y11.630 Z3.205 
N169 X-162.261 Y11.764 Z3.060 
N170 X-162.256 Y11.899 Z2.916 
N171 X-162.251 Y12.034 Z2.771 
N172 X-162.246 Y12.169 Z2.626 
N173 X-162.240 Y12.304 Z2.482 
N174 X-162.235 Y12.439 Z2.337 
N175 X-162.230 Y12.574 Z2.193 
N176 X-162.224 Y12.709 Z2.048 
N177 X-162.219 Y12.843 Z1.903 
N178 X-162.214 Y12.978 Z1.759 
N179 X-162.208 Y13.113 Z1.614 
N180 X-162.203 Y13.248 Z1.469 
N181 X-162.198 Y13.383 Z1.325 
N182 X-162.192 Y13.518 Z1.180 
N183 X-162.187 Y13.653 Z1.035 
N184 X-162.182 Y13.788 Z0.891 
N185 X-162.177 Y13.922 Z0.746 
N186 X-162.171 Y14.057 Z0.602 
N187 X-162.166 Y14.192 Z0.457 
N188 X-162.161 Y14.327 Z0.312 
N189 X-162.155 Y14.462 Z0.168 
N190 X-162.150 Y14.597 Z0.023 
N191 X-162.145 Y14.732 Z-0.122 
N192 X-162.139 Y14.867 Z-0.266 
N193 X-162.134 Y15.001 Z-0.411 
N194 X-162.129 Y15.136 Z-0.556 
N195 X-162.124 Y15.271 Z-0.700 
N196 X-162.118 Y15.406 Z-0.845 
N197 X-162.113 Y15.541 Z-0.989 
N198 X-162.108 Y15.676 Z-1.134 
N199 X-162.102 Y15.811 Z-1.279 
N200 X-162.095 Y15.946 Z-1.423 
N201 X-162.087 Y16.080 Z-1.568 
N202 X-162.080 Y16.215 Z-1.713 
N203 X-162.073 Y16.350 Z-1.857 
N204 X-162.066 Y16.485 Z-2.002 
N205 X-162.058 Y16.620 Z-2.146 
N206 X-162.051 Y16.755 Z-2.291 
N207 X-162.044 Y16.889 Z-2.435 
N208 X-162.036 Y17.024 Z-2.580 
N209 X-162.029 Y17.159 Z-2.725 
N210 X-162.022 Y17.294 Z-2.869 
N211 X-162.014 Y17.429 Z-3.014 
N212 X-162.007 Y17.564 Z-3.158 
N213 X-162.000 Y17.698 Z-3.303 
N214 X-161.992 Y17.833 Z-3.448 
N215 X-161.985 Y17.968 Z-3.592 
N216 X-161.978 Y18.103 Z-3.737 
N217 X-161.970 Y18.238 Z-3.881 
N218 X-161.963 Y18.373 Z-4.026 
N219 X-161.956 Y18.507 Z-4.171 
N220 X-161.948 Y18.642 Z-4.315 
N221 X-161.941 Y18.777 Z-4.460 
N222 X-161.934 Y18.912 Z-4.604 
N223 X-161.927 Y19.047 Z-4.749 
N224 X-161.919 Y19.182 Z-4.893 
N225 X-161.912 Y19.316 Z-5.038 
N226 X-161.905 Y19.451 Z-5.183 
N227 X-161.897 Y19.586 Z-5.327 
N228 X-161.890 Y19.721 Z-5.472 
N229 X-161.880 Y19.856 Z-5.616 
N230 X-161.870 Y19.990 Z-5.761 
N231 X-161.860 Y20.125 Z-5.905 
N232 X-161.850 Y20.260 Z-6.050 
N233 X-161.840 Y20.395 Z-6.194 
N234 X-161.831 Y20.529 Z-6.339 
N235 X-161.821 Y20.664 Z-6.483 
N236 X-161.811 Y20.799 Z-6.628 
N237 X-161.801 Y20.934 Z-6.772 
N238 X-161.791 Y21.068 Z-6.917 
N239 X-161.782 Y21.203 Z-7.061 
N240 X-161.772 Y21.338 Z-7.206 
N241 X-161.762 Y21.473 Z-7.350 
N242 X-161.752 Y21.607 Z-7.495 
N243 X-161.742 Y21.742 Z-7.639 
N244 X-161.733 Y21.877 Z-7.784 
N245 X-161.723 Y22.012 Z-7.929 
N246 X-161.713 Y22.146 Z-8.073 
N247 X-161.703 Y22.281 Z-8.218 
N248 X-161.693 Y22.416 Z-8.362 
N249 X-161.683 Y22.551 Z-8.507 
N250 X-161.674 Y22.686 Z-8.651 
N251 X-161.664 Y22.820 Z-8.796 
N252 X-161.654 Y22.955 Z-8.940 
N253 X-161.644 Y23.090 Z-9.085 
N254 X-161.634 Y23.225 Z-9.229 
N255 X-161.625 Y23.359 Z-9.374 
N256 X-161.615 Y23.494 Z-9.518 
N257 X-161.605 Y23.629 Z-9.663 
N258 X-161.595 Y23.764 Z-9.807 
N259 X-161.585 Y23.898 Z-9.952 
N260 X-161.575 Y24.033 Z-10.096 
N261 X-161.566 Y24.168 Z-10.241 
N262 X-161.556 Y24.303 Z-10.385 
N263 X-161.546 Y24.437 Z-10.530 
N264 X-161.536 Y24.572 Z-10.674 
N265 X-161.526 Y24.707 Z-10.819 
N266 X-161.517 Y24.842 Z-10.963 
N267 X-161.507 Y24.976 Z-11.108 
N268 X-161.497 Y25.111 Z-11.252 
N269 X-161.487 Y25.246 Z-11.397 
N270 X-161.477 Y25.381 Z-11.541 
N271 X-161.468 Y25.515 Z-11.686 
N272 X-161.458 Y25.650 Z-11.830 
N273 X-161.448 Y25.785 Z-11.975 
N274 X-161.438 Y25.920 Z-12.119 
N275 X-161.428 Y26.054 Z-12.264 
N276 X-161.418 Y26.189 Z-12.408 
N277 X-161.407 Y26.324 Z-12.553 
N278 X-161.394 Y26.459 Z-12.697 
N279 X-161.382 Y26.593 Z-12.842 
N280 X-161.369 Y26.728 Z-12.986 
N281 X-161.356 Y26.862 Z-13.130 
N282 X-161.344 Y26.997 Z-13.275 
N283 X-161.331 Y27.132 Z-13.419 
N284 X-161.318 Y27.266 Z-13.563 
N285 X-161.306 Y27.401 Z-13.708 
N286 X-161.293 Y27.536 Z-13.852 
N287 X-161.280 Y27.670 Z-13.997 
N288 X-161.268 Y27.805 Z-14.141 
N289 X-161.255 Y27.940 Z-14.285 
N290 X-161.242 Y28.074 Z-14.430 
N291 X-161.230 Y28.209 Z-14.574 
N292 X-161.217 Y28.344 Z-14.719 
N293 X-161.204 Y28.478 Z-14.863 
N294 X-161.191 Y28.613 Z-15.007 
N295 X-161.179 Y28.748 Z-15.152 
N296 X-161.166 Y28.882 Z-15.296 
N297 X-161.153 Y29.017 Z-15.441 
N298 X-161.141 Y29.151 Z-15.585 
N299 X-161.128 Y29.286 Z-15.729 
N300 X-161.115 Y29.421 Z-15.874 
N301 X-161.103 Y29.555 Z-16.018 
N302 X-161.090 Y29.690 Z-16.163 
N303 X-161.077 Y29.825 Z-16.307 
N304 X-161.065 Y29.959 Z-16.451 
N305 X-161.052 Y30.094 Z-16.596 
N306 X-161.039 Y30.229 Z-16.740 
N307 X-161.027 Y30.363 Z-16.884 
N308 X-161.014 Y30.498 Z-17.029 
N309 X-161.001 Y30.633 Z-17.173 
N310 X-160.989 Y30.767 Z-17.318 
N311 X-160.976 Y30.902 Z-17.462 
N312 X-160.963 Y31.037 Z-17.606 
N313 X-160.950 Y31.171 Z-17.751 
N314 X-160.938 Y31.306 Z-17.895 
N315 X-160.925 Y31.440 Z-18.040 
N316 X-160.912 Y31.575 Z-18.184 
N317 X-160.900 Y31.710 Z-18.328 
N318 X-160.887 Y31.846 Z-18.474 
N319 X-160.874 Y31.982 Z-18.620 
N320 X-160.861 Y32.118 Z-18.766 
N321 X-160.848 Y32.254 Z-18.912 
N322 X-160.836 Y32.390 Z-19.058 
N323 X-160.823 Y32.526 Z-19.204 
N324 X-160.810 Y32.663 Z-19.350 
N325 X-160.797 Y32.799 Z-19.496 
N326 X-160.784 Y32.935 Z-19.642 
N327 X-160.771 Y33.071 Z-19.788 
N328 X-160.759 Y33.207 Z-19.934 
N329 X-160.746 Y33.343 Z-20.080 
N330 X-160.733 Y33.479 Z-20.226 
N331 X-160.720 Y33.615 Z-20.372 
N332 X-160.707 Y33.752 Z-20.518 
N333 X-160.695 Y33.888 Z-20.664 
N334 X-160.682 Y34.024 Z-20.810 
N335 X-160.669 Y34.160 Z-20.956 
N336 X-160.656 Y34.296 Z-21.102 
N337 X-160.643 Y34.432 Z-21.248 
N338 X-160.630 Y34.568 Z-21.394 
N339 X-160.618 Y34.704 Z-21.540 
N340 X-160.605 Y34.840 Z-21.686 
N341 X-160.592 Y34.977 Z-21.832 
N342 X-160.579 Y35.113 Z-21.978 
N343 X-160.566 Y35.249 Z-22.124 
N344 X-160.553 Y35.385 Z-22.270 
N345 X-160.541 Y35.521 Z-22.416 
N346 X-160.528 Y35.657 Z-22.561 
N347 X-160.515 Y35.793 Z-22.707 
N348 G40 X-159.874 Y42.599 Z-30.006 F594
N349 X-159.874 Y42.599 Z-30.006 
N350 G00 X-159.874 Y79.167 Z4.094 
RAPORT("TA333333","Side Milling:118 End")
;trailer : concat=None
; points cnt = 303
N352 MSG (" --- GROUPED OF SUBPROGRAM --- ")
N353 FGROUP()
N354 TRAFOOF
; PROGRAM NAME: A33333341
; ORDER       : A333333
; OPER. NAME  : Side Milling:119
; OPER. DESCR.: HHU rough milling NGA
; OPER. TYPE  : sideMill
; GEO. OPTION : 1
; MACHINE     : HSTM_300_SIM840D_Py
;             : HSTM300/500 - HAMUEL: 5-axis milling machine-SIM840D Traori PP_Script
; CONTROL     : SINUMERIK 840D
; created:   2021-09-10 08:45:03.637214
;----------------------------------------
RAPORT("TA333333","Side Milling:119")
N10 TRAFOOF
N11 D0
N12 G90 G94
N13 G0 G53 D0 Z550
N14 STOPRE
M9 ; chlodziwo wyl
; --- Side Milling:119 - HHU rough milling NGA ---
N16 ;ToolChange : concat=None ,current_tdmid=None, PP.tdmId=940861
N17 TRAFOOF
N18 G0 G53 D0 Z550 B0
N19 STOPRE
N20 MSG(" TLID=940861 D=12.0 R=4.0 Ang=0.0 Len=124.0 ")
N21 S4244 M03
N22 STOPRE
N23 TOL(0.1,1,1)
N24 G0 G53 A133.0000 B0.0000
N25 TRAORI
N26 G54 D3
N27 D3 
STOPRE
E_ZDARZ=500002
;ACS_ROUGH_SLOT=7740861
STOPRE
N28 ; DELTA A > 40.1
N29 TRAFOOF
N30 D3
N31 STOPRE
N32 G00 G54 Z262.000
N33 G01 A133.0000 F10000
N34 TRAORI
N35 G54 D3
N36 STOPRE
N37 TRANS 
N38 G00 X-162.394 Y-42.289 Z-58.036 A133.0000 
N39 M342 ; chlodziwo woda
N40 X-162.394 Y-5.722 Z-23.936 
N41 G01 X-162.394 Y-3.796 Z-21.470 F594 
N42 X-162.395 Y-2.725 Z-18.530 
N43 X-162.396 Y-2.616 Z-15.404 
N44 X-162.397 Y-3.479 Z-12.396 
N45 ;NTA
N46 D3 
N47 G01 G41 X-162.399 Y-5.228 Z-9.802 F594
N48 X-162.399 Y-5.228 Z-9.802 
N49 X-162.399 Y-5.365 Z-9.656 
N50 X-162.399 Y-5.501 Z-9.510 
N51 X-162.399 Y-5.637 Z-9.364 
N52 X-162.399 Y-5.774 Z-9.217 
N53 X-162.399 Y-5.910 Z-9.071 
N54 X-162.399 Y-6.047 Z-8.925 
N55 X-162.399 Y-6.183 Z-8.778 
N56 X-162.399 Y-6.319 Z-8.632 
N57 X-162.399 Y-6.456 Z-8.486 
N58 X-162.400 Y-6.592 Z-8.340 
N59 X-162.400 Y-6.729 Z-8.193 
N60 X-162.400 Y-6.865 Z-8.047 
N61 X-162.400 Y-7.001 Z-7.901 
N62 X-162.400 Y-7.138 Z-7.755 
N63 X-162.400 Y-7.274 Z-7.608 
N64 X-162.400 Y-7.411 Z-7.462 
N65 X-162.400 Y-7.547 Z-7.316 
N66 X-162.400 Y-7.683 Z-7.169 
N67 X-162.400 Y-7.820 Z-7.023 
N68 X-162.401 Y-7.956 Z-6.877 
N69 X-162.401 Y-8.093 Z-6.731 
N70 X-162.401 Y-8.229 Z-6.584 
N71 X-162.401 Y-8.365 Z-6.438 
N72 X-162.401 Y-8.502 Z-6.292 
N73 X-162.401 Y-8.638 Z-6.146 
N74 X-162.401 Y-8.775 Z-5.999 
N75 X-162.401 Y-8.911 Z-5.853 
N76 X-162.401 Y-9.047 Z-5.707 
N77 X-162.402 Y-9.184 Z-5.561 
N78 X-162.402 Y-9.320 Z-5.414 
N79 X-162.402 Y-9.457 Z-5.268 
N80 X-162.402 Y-9.593 Z-5.122 
N81 X-162.402 Y-9.729 Z-4.975 
N82 X-162.402 Y-9.866 Z-4.829 
N83 X-162.402 Y-10.002 Z-4.683 
N84 X-162.402 Y-10.137 Z-4.538 
N85 X-162.402 Y-10.272 Z-4.394 
N86 X-162.402 Y-10.407 Z-4.249 
N87 X-162.403 Y-10.542 Z-4.104 
N88 X-162.403 Y-10.677 Z-3.960 
N89 X-162.403 Y-10.812 Z-3.815 
N90 X-162.403 Y-10.947 Z-3.670 
N91 X-162.403 Y-11.081 Z-3.525 
N92 X-162.403 Y-11.216 Z-3.381 
N93 X-162.403 Y-11.351 Z-3.236 
N94 X-162.403 Y-11.486 Z-3.091 
N95 X-162.403 Y-11.621 Z-2.947 
N96 X-162.403 Y-11.756 Z-2.802 
N97 X-162.404 Y-11.891 Z-2.657 
N98 X-162.404 Y-12.026 Z-2.513 
N99 X-162.404 Y-12.161 Z-2.368 
N100 X-162.404 Y-12.296 Z-2.223 
N101 X-162.404 Y-12.431 Z-2.079 
N102 X-162.404 Y-12.566 Z-1.934 
N103 X-162.404 Y-12.700 Z-1.789 
N104 X-162.404 Y-12.835 Z-1.645 
N105 X-162.404 Y-12.970 Z-1.500 
N106 X-162.404 Y-13.105 Z-1.355 
N107 X-162.404 Y-13.240 Z-1.211 
N108 X-162.405 Y-13.375 Z-1.066 
N109 X-162.405 Y-13.510 Z-0.921 
N110 X-162.405 Y-13.645 Z-0.777 
N111 X-162.405 Y-13.780 Z-0.632 
N112 X-162.405 Y-13.915 Z-0.487 
N113 X-162.405 Y-14.050 Z-0.343 
N114 X-162.405 Y-14.184 Z-0.198 
N115 X-162.405 Y-14.319 Z-0.053 
N116 X-162.405 Y-14.454 Z0.091 
N117 X-162.405 Y-14.589 Z0.236 
N118 X-162.406 Y-14.724 Z0.381 
N119 X-162.406 Y-14.859 Z0.525 
N120 X-162.406 Y-14.994 Z0.670 
N121 X-162.406 Y-15.129 Z0.815 
N122 X-162.406 Y-15.264 Z0.959 
N123 X-162.406 Y-15.399 Z1.104 
N124 X-162.406 Y-15.534 Z1.249 
N125 X-162.406 Y-15.668 Z1.393 
N126 X-162.404 Y-15.803 Z1.538 
N127 X-162.402 Y-15.938 Z1.683 
N128 X-162.399 Y-16.073 Z1.827 
N129 X-162.397 Y-16.208 Z1.972 
N130 X-162.394 Y-16.343 Z2.117 
N131 X-162.392 Y-16.478 Z2.261 
N132 X-162.389 Y-16.613 Z2.406 
N133 X-162.387 Y-16.748 Z2.551 
N134 X-162.384 Y-16.883 Z2.695 
N135 X-162.382 Y-17.017 Z2.840 
N136 X-162.379 Y-17.152 Z2.985 
N137 X-162.376 Y-17.287 Z3.129 
N138 X-162.374 Y-17.422 Z3.274 
N139 X-162.371 Y-17.557 Z3.419 
N140 X-162.369 Y-17.692 Z3.563 
N141 X-162.366 Y-17.827 Z3.708 
N142 X-162.364 Y-17.962 Z3.853 
N143 X-162.361 Y-18.097 Z3.997 
N144 X-162.359 Y-18.232 Z4.142 
N145 X-162.356 Y-18.366 Z4.287 
N146 X-162.354 Y-18.501 Z4.431 
N147 X-162.351 Y-18.636 Z4.576 
N148 X-162.349 Y-18.771 Z4.721 
N149 X-162.346 Y-18.906 Z4.865 
N150 X-162.344 Y-19.041 Z5.010 
N151 X-162.341 Y-19.176 Z5.155 
N152 X-162.339 Y-19.311 Z5.299 
N153 X-162.336 Y-19.446 Z5.444 
N154 X-162.333 Y-19.581 Z5.589 
N155 X-162.331 Y-19.715 Z5.733 
N156 X-162.328 Y-19.850 Z5.878 
N157 X-162.326 Y-19.985 Z6.023 
N158 X-162.323 Y-20.120 Z6.167 
N159 X-162.321 Y-20.255 Z6.312 
N160 X-162.318 Y-20.390 Z6.457 
N161 X-162.316 Y-20.525 Z6.601 
N162 X-162.313 Y-20.660 Z6.746 
N163 X-162.311 Y-20.795 Z6.891 
N164 X-162.308 Y-20.930 Z7.035 
N165 X-162.305 Y-21.064 Z7.180 
N166 X-162.300 Y-21.199 Z7.325 
N167 X-162.295 Y-21.334 Z7.469 
N168 X-162.290 Y-21.469 Z7.614 
N169 X-162.285 Y-21.604 Z7.758 
N170 X-162.280 Y-21.739 Z7.903 
N171 X-162.275 Y-21.874 Z8.048 
N172 X-162.270 Y-22.009 Z8.192 
N173 X-162.266 Y-22.143 Z8.337 
N174 X-162.261 Y-22.278 Z8.482 
N175 X-162.256 Y-22.413 Z8.626 
N176 X-162.251 Y-22.548 Z8.771 
N177 X-162.246 Y-22.683 Z8.915 
N178 X-162.241 Y-22.818 Z9.060 
N179 X-162.236 Y-22.953 Z9.205 
N180 X-162.231 Y-23.087 Z9.349 
N181 X-162.226 Y-23.222 Z9.494 
N182 X-162.222 Y-23.357 Z9.639 
N183 X-162.217 Y-23.492 Z9.783 
N184 X-162.212 Y-23.627 Z9.928 
N185 X-162.207 Y-23.762 Z10.073 
N186 X-162.202 Y-23.897 Z10.217 
N187 X-162.197 Y-24.032 Z10.362 
N188 X-162.192 Y-24.166 Z10.506 
N189 X-162.187 Y-24.301 Z10.651 
N190 X-162.182 Y-24.436 Z10.796 
N191 X-162.178 Y-24.571 Z10.940 
N192 X-162.173 Y-24.706 Z11.085 
N193 X-162.168 Y-24.841 Z11.230 
N194 X-162.163 Y-24.976 Z11.374 
N195 X-162.158 Y-25.111 Z11.519 
N196 X-162.153 Y-25.245 Z11.663 
N197 X-162.148 Y-25.380 Z11.808 
N198 X-162.143 Y-25.515 Z11.953 
N199 X-162.137 Y-25.650 Z12.097 
N200 X-162.130 Y-25.785 Z12.242 
N201 X-162.123 Y-25.920 Z12.386 
N202 X-162.116 Y-26.054 Z12.531 
N203 X-162.109 Y-26.189 Z12.676 
N204 X-162.103 Y-26.324 Z12.820 
N205 X-162.096 Y-26.459 Z12.965 
N206 X-162.089 Y-26.594 Z13.109 
N207 X-162.082 Y-26.729 Z13.254 
N208 X-162.075 Y-26.863 Z13.399 
N209 X-162.068 Y-26.998 Z13.543 
N210 X-162.061 Y-27.133 Z13.688 
N211 X-162.054 Y-27.268 Z13.832 
N212 X-162.047 Y-27.403 Z13.977 
N213 X-162.040 Y-27.538 Z14.122 
N214 X-162.033 Y-27.672 Z14.266 
N215 X-162.027 Y-27.807 Z14.411 
N216 X-162.020 Y-27.942 Z14.555 
N217 X-162.013 Y-28.077 Z14.700 
N218 X-162.006 Y-28.212 Z14.844 
N219 X-161.999 Y-28.347 Z14.989 
N220 X-161.992 Y-28.481 Z15.134 
N221 X-161.985 Y-28.616 Z15.278 
N222 X-161.978 Y-28.751 Z15.423 
N223 X-161.971 Y-28.886 Z15.567 
N224 X-161.964 Y-29.021 Z15.712 
N225 X-161.957 Y-29.156 Z15.857 
N226 X-161.951 Y-29.290 Z16.001 
N227 X-161.944 Y-29.425 Z16.146 
N228 X-161.935 Y-29.560 Z16.290 
N229 X-161.925 Y-29.695 Z16.435 
N230 X-161.916 Y-29.829 Z16.579 
N231 X-161.907 Y-29.964 Z16.724 
N232 X-161.897 Y-30.099 Z16.868 
N233 X-161.888 Y-30.234 Z17.013 
N234 X-161.879 Y-30.369 Z17.157 
N235 X-161.869 Y-30.503 Z17.302 
N236 X-161.860 Y-30.638 Z17.446 
N237 X-161.850 Y-30.773 Z17.591 
N238 X-161.841 Y-30.908 Z17.735 
N239 X-161.832 Y-31.042 Z17.880 
N240 X-161.822 Y-31.177 Z18.024 
N241 X-161.813 Y-31.312 Z18.169 
N242 X-161.803 Y-31.447 Z18.313 
N243 X-161.794 Y-31.581 Z18.458 
N244 X-161.785 Y-31.716 Z18.602 
N245 X-161.775 Y-31.851 Z18.747 
N246 X-161.766 Y-31.986 Z18.891 
N247 X-161.757 Y-32.120 Z19.036 
N248 X-161.747 Y-32.255 Z19.180 
N249 X-161.738 Y-32.390 Z19.325 
N250 X-161.728 Y-32.525 Z19.469 
N251 X-161.719 Y-32.659 Z19.614 
N252 X-161.710 Y-32.794 Z19.759 
N253 X-161.700 Y-32.929 Z19.903 
N254 X-161.691 Y-33.064 Z20.048 
N255 X-161.681 Y-33.198 Z20.192 
N256 X-161.672 Y-33.333 Z20.337 
N257 X-161.663 Y-33.468 Z20.481 
N258 X-161.653 Y-33.603 Z20.626 
N259 X-161.644 Y-33.737 Z20.770 
N260 X-161.634 Y-33.872 Z20.915 
N261 X-161.625 Y-34.007 Z21.059 
N262 X-161.616 Y-34.142 Z21.204 
N263 X-161.606 Y-34.277 Z21.348 
N264 X-161.597 Y-34.411 Z21.493 
N265 X-161.588 Y-34.546 Z21.637 
N266 X-161.578 Y-34.681 Z21.782 
N267 X-161.569 Y-34.816 Z21.926 
N268 X-161.559 Y-34.950 Z22.071 
N269 X-161.550 Y-35.085 Z22.215 
N270 X-161.541 Y-35.220 Z22.360 
N271 X-161.531 Y-35.355 Z22.504 
N272 X-161.522 Y-35.489 Z22.649 
N273 X-161.512 Y-35.624 Z22.793 
N274 X-161.503 Y-35.759 Z22.938 
N275 X-161.494 Y-35.894 Z23.082 
N276 X-161.482 Y-36.028 Z23.227 
N277 X-161.470 Y-36.163 Z23.371 
N278 X-161.458 Y-36.298 Z23.515 
N279 X-161.446 Y-36.432 Z23.660 
N280 X-161.433 Y-36.567 Z23.804 
N281 X-161.421 Y-36.702 Z23.949 
N282 X-161.409 Y-36.836 Z24.093 
N283 X-161.397 Y-36.971 Z24.237 
N284 X-161.385 Y-37.106 Z24.382 
N285 X-161.372 Y-37.240 Z24.526 
N286 X-161.360 Y-37.375 Z24.671 
N287 X-161.348 Y-37.510 Z24.815 
N288 X-161.336 Y-37.644 Z24.959 
N289 X-161.323 Y-37.779 Z25.104 
N290 X-161.311 Y-37.913 Z25.248 
N291 X-161.299 Y-38.048 Z25.393 
N292 X-161.287 Y-38.183 Z25.537 
N293 X-161.275 Y-38.317 Z25.681 
N294 X-161.262 Y-38.452 Z25.826 
N295 X-161.250 Y-38.587 Z25.970 
N296 X-161.238 Y-38.721 Z26.115 
N297 X-161.226 Y-38.856 Z26.259 
N298 X-161.214 Y-38.991 Z26.403 
N299 X-161.201 Y-39.125 Z26.548 
N300 X-161.189 Y-39.260 Z26.692 
N301 X-161.177 Y-39.395 Z26.837 
N302 X-161.165 Y-39.529 Z26.981 
N303 X-161.153 Y-39.664 Z27.125 
N304 X-161.140 Y-39.799 Z27.270 
N305 X-161.128 Y-39.933 Z27.414 
N306 X-161.116 Y-40.068 Z27.559 
N307 X-161.104 Y-40.203 Z27.703 
N308 X-161.091 Y-40.337 Z27.847 
N309 X-161.079 Y-40.472 Z27.992 
N310 X-161.067 Y-40.607 Z28.136 
N311 X-161.055 Y-40.741 Z28.281 
N312 X-161.043 Y-40.876 Z28.425 
N313 X-161.030 Y-41.010 Z28.569 
N314 X-161.018 Y-41.145 Z28.714 
N315 X-161.006 Y-41.280 Z28.858 
N316 X-160.994 Y-41.416 Z29.004 
N317 X-160.981 Y-41.552 Z29.150 
N318 X-160.969 Y-41.688 Z29.296 
N319 X-160.957 Y-41.824 Z29.442 
N320 X-160.944 Y-41.961 Z29.588 
N321 X-160.932 Y-42.097 Z29.734 
N322 X-160.920 Y-42.233 Z29.880 
N323 X-160.907 Y-42.369 Z30.026 
N324 X-160.895 Y-42.505 Z30.172 
N325 X-160.883 Y-42.641 Z30.318 
N326 X-160.870 Y-42.777 Z30.464 
N327 X-160.858 Y-42.913 Z30.610 
N328 X-160.845 Y-43.050 Z30.756 
N329 X-160.833 Y-43.186 Z30.902 
N330 X-160.821 Y-43.322 Z31.048 
N331 X-160.808 Y-43.458 Z31.194 
N332 X-160.796 Y-43.594 Z31.340 
N333 X-160.784 Y-43.730 Z31.486 
N334 X-160.771 Y-43.866 Z31.632 
N335 X-160.759 Y-44.003 Z31.778 
N336 X-160.747 Y-44.139 Z31.924 
N337 X-160.734 Y-44.275 Z32.070 
N338 X-160.722 Y-44.411 Z32.216 
N339 X-160.710 Y-44.547 Z32.362 
N340 X-160.697 Y-44.683 Z32.508 
N341 X-160.685 Y-44.819 Z32.654 
N342 X-160.673 Y-44.956 Z32.800 
N343 X-160.660 Y-45.092 Z32.946 
N344 X-160.648 Y-45.228 Z33.092 
N345 X-160.636 Y-45.364 Z33.238 
N346 G40 X-160.018 Y-52.171 Z40.538 F594
N347 X-160.018 Y-52.171 Z40.538 
N348 G00 X-160.018 Y-88.739 Z6.438 
RAPORT("TA333333","Side Milling:119 End")
;trailer : concat=None
; points cnt = 303
N350 M9 ; chlodziwo wyl.
N351 MSG (" --- KONIEC PODPROGRAMU --- ")
N352 FGROUP()
N353 TRAFOOF
N354 STOPRE
N355 G0 G53 D0 Z550.0 M9 M5
N356 G0 G53 Y150 A0 B0
N357 M17
