; PROGRAM NAME: A33333339
; ORDER       : A333333
; OPER. NAME  : Side Milling:164
; OPER. DESCR.: Side Milling/czolo nozki po luku wk
; OPER. TYPE  : sideMill
; GEO. OPTION : 1
; MACHINE     : HSTM_300_SIM840D_Py
;             : HSTM300/500 - HAMUEL: 5-axis milling machine-SIM840D Traori PP_Script
; CONTROL     : SINUMERIK 840D
; created:   2021-09-10 09:37:17.088614
;----------------------------------------
RAPORT("TA333333","Side Milling:164")
N10 TRAFOOF
N11 D0
N12 G90 G94
N13 G0 G53 D0 Z550
N14 STOPRE
M9 ; chlodziwo wyl
; --- Side Milling:164 - Side Milling/czolo nozki po luku wk ---
N16 ;ToolChange : concat=None ,current_tdmid=None, PP.tdmId=958329
N17 TRAFOOF
N18 G0 G53 D0 X-200 Y150 Z550 B0
N19 T="7758329"
RAPORT("TA333333","ToolChangeStart 7758329")
N20 M6
RAPORT("TA333333","ToolChangeEnd")
N21 STOPRE
N22 MSG(" TLID=958329 D=9.5 R=1.0 Ang=0.0 Len=129.0 ")
N23 S5361 M03
N24 STOPRE
N25 TOL(0.1,1,1)
N26 G0 G53 A313.0000 B-0.0000
N27 TRAORI
N28 G54 D1
;tol5=0.15
N29 D1 
STOPRE
E_ZDARZ=300007
;ACS_FINISH_ROOT_FRONT=7758329
STOPRE
;UWAGA : ZMIENIONA TOLERANCJA OSI A i B, ruchy osi A i B beda usuniete : TOL5=0.15
N30 ; DELTA A > 40.1
N31 TRAFOOF
N32 D1
N33 STOPRE
N34 G00 G54 Z257.000
N35 G01 A313.0000 F10000
N36 TRAORI
N37 G54 D1
N38 STOPRE
N39 TRANS 
N40 G00 X-133.610 Y62.673 Z15.623 A313.0000 
N41 M342 ; chlodziwo woda
N42 X-133.610 Y26.106 Z-18.477 
N43 ;finish FSE
N44 G01 G41 X-133.670 Y25.425 Z-17.747 F643
N45 G01 X-133.670 Y25.425 Z-17.747 F643 
N46 X-133.690 Y25.198 Z-17.504 
N47 X-133.709 Y24.971 Z-17.260 
N48 X-133.729 Y24.744 Z-17.017 
N49 X-133.749 Y24.517 Z-16.774 
N50 X-133.769 Y24.290 Z-16.530 
N51 X-133.789 Y24.063 Z-16.287 
N52 X-133.809 Y23.836 Z-16.044 
N53 X-133.829 Y23.609 Z-15.800 
N54 X-133.848 Y23.383 Z-15.557 
N55 X-133.877 Y23.059 Z-15.210 
N56 X-133.896 Y22.841 Z-14.976 
N57 X-133.915 Y22.622 Z-14.742 
N58 X-133.934 Y22.404 Z-14.507 
N59 X-133.952 Y22.185 Z-14.273 
N60 X-133.971 Y21.967 Z-14.039 
N61 X-133.989 Y21.748 Z-13.804 
N62 X-134.007 Y21.530 Z-13.570 
N63 X-134.025 Y21.311 Z-13.336 
N64 X-134.043 Y21.093 Z-13.102 
N65 X-134.060 Y20.874 Z-12.867 
N66 X-134.078 Y20.656 Z-12.633 
N67 X-134.095 Y20.437 Z-12.399 
N68 X-134.112 Y20.219 Z-12.164 
N69 X-134.129 Y20.000 Z-11.930 
N70 X-134.145 Y19.782 Z-11.695 
N71 X-134.162 Y19.563 Z-11.461 
N72 X-134.178 Y19.345 Z-11.227 
N73 X-134.194 Y19.126 Z-10.992 
N74 X-134.210 Y18.907 Z-10.758 
N75 X-134.226 Y18.689 Z-10.524 
N76 X-134.242 Y18.470 Z-10.289 
N77 X-134.257 Y18.252 Z-10.055 
N78 X-134.272 Y18.033 Z-9.820 
N79 X-134.287 Y17.815 Z-9.586 
N80 X-134.302 Y17.596 Z-9.352 
N81 X-134.317 Y17.377 Z-9.117 
N82 X-134.331 Y17.159 Z-8.883 
N83 X-134.346 Y16.940 Z-8.648 
N84 X-134.360 Y16.721 Z-8.414 
N85 X-134.374 Y16.503 Z-8.179 
N86 X-134.388 Y16.284 Z-7.945 
N87 X-134.401 Y16.066 Z-7.710 
N88 X-134.415 Y15.847 Z-7.476 
N89 X-134.428 Y15.628 Z-7.241 
N90 X-134.441 Y15.410 Z-7.007 
N91 X-134.454 Y15.191 Z-6.773 
N92 X-134.467 Y14.972 Z-6.538 
N93 X-134.480 Y14.754 Z-6.304 
N94 X-134.492 Y14.535 Z-6.069 
N95 X-134.504 Y14.316 Z-5.835 
N96 X-134.516 Y14.098 Z-5.600 
N97 X-134.528 Y13.879 Z-5.366 
N98 X-134.540 Y13.660 Z-5.131 
N99 X-134.551 Y13.442 Z-4.896 
N100 X-134.563 Y13.223 Z-4.662 
N101 X-134.574 Y13.004 Z-4.427 
N102 X-134.585 Y12.785 Z-4.193 
N103 X-134.596 Y12.567 Z-3.958 
N104 X-134.606 Y12.348 Z-3.724 
N105 X-134.617 Y12.129 Z-3.489 
N106 X-134.627 Y11.911 Z-3.255 
N107 X-134.637 Y11.692 Z-3.020 
N108 X-134.647 Y11.473 Z-2.786 
N109 X-134.657 Y11.254 Z-2.551 
N110 X-134.666 Y11.036 Z-2.316 
N111 X-134.676 Y10.817 Z-2.082 
N112 X-134.685 Y10.598 Z-1.847 
N113 X-134.694 Y10.379 Z-1.613 
N114 X-134.703 Y10.161 Z-1.378 
N115 X-134.711 Y9.942 Z-1.144 
N116 X-134.720 Y9.723 Z-0.909 
N117 X-134.728 Y9.504 Z-0.674 
N118 X-134.736 Y9.286 Z-0.440 
N119 X-134.744 Y9.067 Z-0.205 
N120 X-134.752 Y8.848 Z0.029 
N121 X-134.760 Y8.629 Z0.264 
N122 X-134.767 Y8.410 Z0.499 
N123 X-134.774 Y8.192 Z0.733 
N124 X-134.781 Y7.973 Z0.968 
N125 X-134.788 Y7.754 Z1.203 
N126 X-134.795 Y7.535 Z1.437 
N127 X-134.802 Y7.317 Z1.672 
N128 X-134.808 Y7.098 Z1.906 
N129 X-134.814 Y6.879 Z2.141 
N130 X-134.820 Y6.660 Z2.376 
N131 X-134.826 Y6.441 Z2.610 
N132 X-134.832 Y6.223 Z2.845 
N133 X-134.837 Y6.004 Z3.080 
N134 X-134.842 Y5.785 Z3.314 
N135 X-134.847 Y5.566 Z3.549 
N136 X-134.852 Y5.347 Z3.784 
N137 X-134.857 Y5.128 Z4.018 
N138 X-134.862 Y4.910 Z4.253 
N139 X-134.866 Y4.691 Z4.488 
N140 X-134.870 Y4.472 Z4.722 
N141 X-134.874 Y4.253 Z4.957 
N142 X-134.878 Y4.034 Z5.191 
N143 X-134.882 Y3.816 Z5.426 
N144 X-134.886 Y3.597 Z5.661 
N145 X-134.889 Y3.378 Z5.895 
N146 X-134.892 Y3.159 Z6.130 
N147 X-134.895 Y2.940 Z6.365 
N148 X-134.898 Y2.721 Z6.599 
N149 X-134.900 Y2.503 Z6.834 
N150 X-134.903 Y2.284 Z7.069 
N151 X-134.905 Y2.065 Z7.303 
N152 X-134.907 Y1.846 Z7.538 
N153 X-134.909 Y1.627 Z7.773 
N154 X-134.911 Y1.408 Z8.007 
N155 X-134.913 Y1.190 Z8.242 
N156 X-134.914 Y0.971 Z8.477 
N157 X-134.915 Y0.752 Z8.711 
N158 X-134.916 Y0.533 Z8.946 
N159 X-134.917 Y0.314 Z9.181 
N160 X-134.918 Y0.095 Z9.416 
N161 X-134.918 Y-0.123 Z9.650 
N162 X-134.918 Y-0.342 Z9.885 
N163 X-134.919 Y-0.561 Z10.120 
N164 X-134.919 Y-0.780 Z10.354 
N165 X-134.918 Y-0.999 Z10.589 
N166 X-134.918 Y-1.218 Z10.824 
N167 X-134.917 Y-1.436 Z11.058 
N168 X-134.917 Y-1.655 Z11.293 
N169 X-134.916 Y-1.874 Z11.528 
N170 X-134.915 Y-2.093 Z11.762 
N171 X-134.913 Y-2.312 Z11.997 
N172 X-134.912 Y-2.531 Z12.232 
N173 X-134.910 Y-2.749 Z12.466 
N174 X-134.908 Y-2.968 Z12.701 
N175 X-134.906 Y-3.187 Z12.936 
N176 X-134.904 Y-3.406 Z13.170 
N177 X-134.902 Y-3.625 Z13.405 
N178 X-134.899 Y-3.844 Z13.640 
N179 X-134.897 Y-4.062 Z13.874 
N180 X-134.894 Y-4.281 Z14.109 
N181 X-134.891 Y-4.500 Z14.344 
N182 X-134.887 Y-4.719 Z14.578 
N183 X-134.884 Y-4.938 Z14.813 
N184 X-134.880 Y-5.157 Z15.048 
N185 X-134.877 Y-5.375 Z15.282 
N186 X-134.873 Y-5.594 Z15.517 
N187 X-134.869 Y-5.813 Z15.752 
N188 X-134.864 Y-6.032 Z15.986 
N189 X-134.860 Y-6.251 Z16.221 
N190 X-134.855 Y-6.470 Z16.456 
N191 X-134.850 Y-6.688 Z16.690 
N192 X-134.845 Y-6.907 Z16.925 
N193 X-134.840 Y-7.126 Z17.159 
N194 X-134.835 Y-7.345 Z17.394 
N195 X-134.829 Y-7.564 Z17.629 
N196 X-134.824 Y-7.782 Z17.863 
N197 X-134.815 Y-8.106 Z18.211 
N198 G40 X-134.797 Y-8.788 Z18.942 F643
N199 X-134.797 Y-8.788 Z18.942 
N200 G00 X-134.797 Y13.152 Z39.402 
N201 X-133.660 Y48.048 Z1.981 
N202 X-133.660 Y26.108 Z-18.479 
N203 ;finish FSE
N204 G01 G41 X-133.720 Y25.427 Z-17.749 F643
N205 G01 X-133.720 Y25.427 Z-17.749 F643 
N206 X-133.739 Y25.200 Z-17.506 
N207 X-133.759 Y24.973 Z-17.263 
N208 X-133.779 Y24.746 Z-17.019 
N209 X-133.799 Y24.519 Z-16.776 
N210 X-133.819 Y24.292 Z-16.532 
N211 X-133.839 Y24.065 Z-16.289 
N212 X-133.859 Y23.838 Z-16.046 
N213 X-133.879 Y23.612 Z-15.802 
N214 X-133.898 Y23.385 Z-15.559 
N215 X-133.927 Y23.061 Z-15.212 
N216 X-133.946 Y22.843 Z-14.978 
N217 X-133.965 Y22.624 Z-14.744 
N218 X-133.984 Y22.406 Z-14.509 
N219 X-134.002 Y22.187 Z-14.275 
N220 X-134.021 Y21.969 Z-14.041 
N221 X-134.039 Y21.750 Z-13.807 
N222 X-134.057 Y21.532 Z-13.572 
N223 X-134.075 Y21.313 Z-13.338 
N224 X-134.093 Y21.095 Z-13.104 
N225 X-134.110 Y20.876 Z-12.869 
N226 X-134.128 Y20.658 Z-12.635 
N227 X-134.145 Y20.439 Z-12.400 
N228 X-134.162 Y20.221 Z-12.166 
N229 X-134.179 Y20.002 Z-11.932 
N230 X-134.195 Y19.783 Z-11.697 
N231 X-134.212 Y19.565 Z-11.463 
N232 X-134.228 Y19.346 Z-11.229 
N233 X-134.244 Y19.128 Z-10.994 
N234 X-134.260 Y18.909 Z-10.760 
N235 X-134.276 Y18.691 Z-10.525 
N236 X-134.292 Y18.472 Z-10.291 
N237 X-134.307 Y18.253 Z-10.057 
N238 X-134.322 Y18.035 Z-9.822 
N239 X-134.337 Y17.816 Z-9.588 
N240 X-134.352 Y17.598 Z-9.353 
N241 X-134.367 Y17.379 Z-9.119 
N242 X-134.381 Y17.160 Z-8.884 
N243 X-134.396 Y16.942 Z-8.650 
N244 X-134.410 Y16.723 Z-8.415 
N245 X-134.424 Y16.504 Z-8.181 
N246 X-134.438 Y16.286 Z-7.946 
N247 X-134.451 Y16.067 Z-7.712 
N248 X-134.465 Y15.848 Z-7.477 
N249 X-134.478 Y15.630 Z-7.243 
N250 X-134.491 Y15.411 Z-7.008 
N251 X-134.504 Y15.192 Z-6.774 
N252 X-134.517 Y14.974 Z-6.539 
N253 X-134.530 Y14.755 Z-6.305 
N254 X-134.542 Y14.536 Z-6.070 
N255 X-134.554 Y14.318 Z-5.836 
N256 X-134.566 Y14.099 Z-5.601 
N257 X-134.578 Y13.880 Z-5.367 
N258 X-134.590 Y13.661 Z-5.132 
N259 X-134.601 Y13.443 Z-4.898 
N260 X-134.613 Y13.224 Z-4.663 
N261 X-134.624 Y13.005 Z-4.429 
N262 X-134.635 Y12.787 Z-4.194 
N263 X-134.646 Y12.568 Z-3.960 
N264 X-134.656 Y12.349 Z-3.725 
N265 X-134.667 Y12.130 Z-3.490 
N266 X-134.677 Y11.912 Z-3.256 
N267 X-134.687 Y11.693 Z-3.021 
N268 X-134.697 Y11.474 Z-2.787 
N269 X-134.707 Y11.255 Z-2.552 
N270 X-134.716 Y11.037 Z-2.317 
N271 X-134.726 Y10.818 Z-2.083 
N272 X-134.735 Y10.599 Z-1.848 
N273 X-134.744 Y10.380 Z-1.614 
N274 X-134.753 Y10.162 Z-1.379 
N275 X-134.761 Y9.943 Z-1.144 
N276 X-134.770 Y9.724 Z-0.910 
N277 X-134.778 Y9.505 Z-0.675 
N278 X-134.786 Y9.286 Z-0.441 
N279 X-134.794 Y9.068 Z-0.206 
N280 X-134.802 Y8.849 Z0.029 
N281 X-134.810 Y8.630 Z0.263 
N282 X-134.817 Y8.411 Z0.498 
N283 X-134.824 Y8.192 Z0.733 
N284 X-134.831 Y7.974 Z0.967 
N285 X-134.838 Y7.755 Z1.202 
N286 X-134.845 Y7.536 Z1.436 
N287 X-134.852 Y7.317 Z1.671 
N288 X-134.858 Y7.098 Z1.906 
N289 X-134.864 Y6.880 Z2.140 
N290 X-134.870 Y6.661 Z2.375 
N291 X-134.876 Y6.442 Z2.610 
N292 X-134.882 Y6.223 Z2.844 
N293 X-134.887 Y6.004 Z3.079 
N294 X-134.892 Y5.785 Z3.314 
N295 X-134.897 Y5.567 Z3.548 
N296 X-134.902 Y5.348 Z3.783 
N297 X-134.907 Y5.129 Z4.018 
N298 X-134.912 Y4.910 Z4.252 
N299 X-134.916 Y4.691 Z4.487 
N300 X-134.920 Y4.472 Z4.722 
N301 X-134.924 Y4.254 Z4.956 
N302 X-134.928 Y4.035 Z5.191 
N303 X-134.932 Y3.816 Z5.426 
N304 X-134.936 Y3.597 Z5.660 
N305 X-134.939 Y3.378 Z5.895 
N306 X-134.942 Y3.159 Z6.130 
N307 X-134.945 Y2.941 Z6.364 
N308 X-134.948 Y2.722 Z6.599 
N309 X-134.950 Y2.503 Z6.834 
N310 X-134.953 Y2.284 Z7.069 
N311 X-134.955 Y2.065 Z7.303 
N312 X-134.957 Y1.846 Z7.538 
N313 X-134.959 Y1.627 Z7.773 
N314 X-134.961 Y1.409 Z8.007 
N315 X-134.963 Y1.190 Z8.242 
N316 X-134.964 Y0.971 Z8.477 
N317 X-134.965 Y0.752 Z8.711 
N318 X-134.966 Y0.533 Z8.946 
N319 X-134.967 Y0.314 Z9.181 
N320 X-134.968 Y0.095 Z9.415 
N321 X-134.968 Y-0.123 Z9.650 
N322 X-134.968 Y-0.342 Z9.885 
N323 X-134.969 Y-0.561 Z10.120 
N324 X-134.969 Y-0.780 Z10.354 
N325 X-134.968 Y-0.999 Z10.589 
N326 X-134.968 Y-1.218 Z10.824 
N327 X-134.967 Y-1.437 Z11.058 
N328 X-134.967 Y-1.655 Z11.293 
N329 X-134.966 Y-1.874 Z11.528 
N330 X-134.965 Y-2.093 Z11.762 
N331 X-134.963 Y-2.312 Z11.997 
N332 X-134.962 Y-2.531 Z12.232 
N333 X-134.960 Y-2.750 Z12.466 
N334 X-134.958 Y-2.969 Z12.701 
N335 X-134.956 Y-3.187 Z12.936 
N336 X-134.954 Y-3.406 Z13.171 
N337 X-134.952 Y-3.625 Z13.405 
N338 X-134.949 Y-3.844 Z13.640 
N339 X-134.947 Y-4.063 Z13.875 
N340 X-134.944 Y-4.282 Z14.109 
N341 X-134.941 Y-4.500 Z14.344 
N342 X-134.937 Y-4.719 Z14.579 
N343 X-134.934 Y-4.938 Z14.813 
N344 X-134.930 Y-5.157 Z15.048 
N345 X-134.927 Y-5.376 Z15.283 
N346 X-134.923 Y-5.595 Z15.517 
N347 X-134.919 Y-5.814 Z15.752 
N348 X-134.914 Y-6.032 Z15.987 
N349 X-134.910 Y-6.251 Z16.221 
N350 X-134.905 Y-6.470 Z16.456 
N351 X-134.900 Y-6.689 Z16.691 
N352 X-134.895 Y-6.908 Z16.925 
N353 X-134.890 Y-7.127 Z17.160 
N354 X-134.885 Y-7.345 Z17.395 
N355 X-134.879 Y-7.564 Z17.629 
N356 X-134.874 Y-7.783 Z17.864 
N357 X-134.865 Y-8.107 Z18.211 
N358 G40 X-134.847 Y-8.789 Z18.943 F643
N359 X-134.847 Y-8.789 Z18.943 
N360 G00 X-134.847 Y27.779 Z53.043 
RAPORT("TA333333","Side Milling:164 End")
;trailer : concat=None
; points cnt = 308
N362 MSG (" --- GROUPED OF SUBPROGRAM --- ")
N363 FGROUP()
N364 TRAFOOF
; PROGRAM NAME: A33333339
; ORDER       : A333333
; OPER. NAME  : Side Milling:165
; OPER. DESCR.: finish face root outlet FSA
; OPER. TYPE  : sideMill
; GEO. OPTION : 1
; MACHINE     : HSTM_300_SIM840D_Py
;             : HSTM300/500 - HAMUEL: 5-axis milling machine-SIM840D Traori PP_Script
; CONTROL     : SINUMERIK 840D
; created:   2021-09-10 09:43:49.997570
;----------------------------------------
RAPORT("TA333333","Side Milling:165")
N10 TRAFOOF
N11 D0
N12 G90 G94
N13 G0 G53 D0 Z550
N14 STOPRE
M9 ; chlodziwo wyl
; --- Side Milling:165 - finish face root outlet FSA ---
N16 ;ToolChange : concat=None ,current_tdmid=None, PP.tdmId=958329
N17 TRAFOOF
N18 G0 G53 D0 Z550 B0
N19 STOPRE
N20 MSG(" TLID=958329 D=9.5 R=1.0 Ang=0.0 Len=129.0 ")
N21 S5361 M03
N22 STOPRE
N23 TOL(0.1,1,1)
N24 G0 G53 A133.0000 B0.0000
N25 TRAORI
N26 G54 D2
;tol5=0.15
N27 D2 
STOPRE
E_ZDARZ=300007
;ACS_FINISH_ROOT_FRONT=7758329
STOPRE
;UWAGA : ZMIENIONA TOLERANCJA OSI A i B, ruchy osi A i B beda usuniete : TOL5=0.15
N28 ; DELTA A > 40.1
N29 TRAFOOF
N30 D2
N31 STOPRE
N32 G00 G54 Z257.000
N33 G01 A133.0000 F10000
N34 TRAORI
N35 G54 D2
N36 STOPRE
N37 TRANS 
N38 G00 X-133.650 Y-72.884 Z-4.406 A133.0000 
N39 M342 ; chlodziwo woda
N40 X-133.650 Y-36.317 Z29.694 
N41 ;FSA_1
N42 G01 G41 X-133.708 Y-35.636 Z28.964 F643
N43 G01 X-133.708 Y-35.636 Z28.964 F643 
N44 X-133.728 Y-35.409 Z28.721 
N45 X-133.747 Y-35.182 Z28.477 
N46 X-133.767 Y-34.955 Z28.234 
N47 X-133.786 Y-34.728 Z27.991 
N48 X-133.806 Y-34.501 Z27.747 
N49 X-133.825 Y-34.274 Z27.504 
N50 X-133.845 Y-34.047 Z27.261 
N51 X-133.864 Y-33.820 Z27.017 
N52 X-133.884 Y-33.593 Z26.774 
N53 X-133.912 Y-33.270 Z26.427 
N54 X-133.931 Y-33.051 Z26.193 
N55 X-133.949 Y-32.833 Z25.958 
N56 X-133.968 Y-32.614 Z25.724 
N57 X-133.986 Y-32.396 Z25.490 
N58 X-134.004 Y-32.178 Z25.256 
N59 X-134.022 Y-31.959 Z25.021 
N60 X-134.040 Y-31.741 Z24.787 
N61 X-134.057 Y-31.522 Z24.553 
N62 X-134.075 Y-31.304 Z24.318 
N63 X-134.092 Y-31.085 Z24.084 
N64 X-134.109 Y-30.867 Z23.850 
N65 X-134.126 Y-30.648 Z23.615 
N66 X-134.143 Y-30.429 Z23.381 
N67 X-134.159 Y-30.211 Z23.147 
N68 X-134.175 Y-29.992 Z22.912 
N69 X-134.192 Y-29.774 Z22.678 
N70 X-134.208 Y-29.555 Z22.444 
N71 X-134.223 Y-29.337 Z22.209 
N72 X-134.239 Y-29.118 Z21.975 
N73 X-134.254 Y-28.900 Z21.740 
N74 X-134.270 Y-28.681 Z21.506 
N75 X-134.285 Y-28.462 Z21.272 
N76 X-134.300 Y-28.244 Z21.037 
N77 X-134.314 Y-28.025 Z20.803 
N78 X-134.329 Y-27.807 Z20.568 
N79 X-134.343 Y-27.588 Z20.334 
N80 X-134.358 Y-27.369 Z20.100 
N81 X-134.372 Y-27.151 Z19.865 
N82 X-134.385 Y-26.932 Z19.631 
N83 X-134.399 Y-26.714 Z19.396 
N84 X-134.413 Y-26.495 Z19.162 
N85 X-134.426 Y-26.276 Z18.927 
N86 X-134.439 Y-26.058 Z18.693 
N87 X-134.452 Y-25.839 Z18.458 
N88 X-134.465 Y-25.620 Z18.224 
N89 X-134.477 Y-25.402 Z17.989 
N90 X-134.490 Y-25.183 Z17.755 
N91 X-134.502 Y-24.964 Z17.520 
N92 X-134.514 Y-24.746 Z17.286 
N93 X-134.526 Y-24.527 Z17.051 
N94 X-134.538 Y-24.308 Z16.817 
N95 X-134.549 Y-24.090 Z16.582 
N96 X-134.561 Y-23.871 Z16.348 
N97 X-134.572 Y-23.652 Z16.113 
N98 X-134.583 Y-23.433 Z15.879 
N99 X-134.594 Y-23.215 Z15.644 
N100 X-134.604 Y-22.996 Z15.410 
N101 X-134.615 Y-22.777 Z15.175 
N102 X-134.625 Y-22.559 Z14.941 
N103 X-134.635 Y-22.340 Z14.706 
N104 X-134.645 Y-22.121 Z14.472 
N105 X-134.655 Y-21.902 Z14.237 
N106 X-134.665 Y-21.684 Z14.002 
N107 X-134.674 Y-21.465 Z13.768 
N108 X-134.683 Y-21.246 Z13.533 
N109 X-134.692 Y-21.028 Z13.299 
N110 X-134.701 Y-20.809 Z13.064 
N111 X-134.710 Y-20.590 Z12.830 
N112 X-134.718 Y-20.371 Z12.595 
N113 X-134.727 Y-20.153 Z12.360 
N114 X-134.735 Y-19.934 Z12.126 
N115 X-134.743 Y-19.715 Z11.891 
N116 X-134.751 Y-19.496 Z11.657 
N117 X-134.758 Y-19.277 Z11.422 
N118 X-134.766 Y-19.059 Z11.187 
N119 X-134.773 Y-18.840 Z10.953 
N120 X-134.780 Y-18.621 Z10.718 
N121 X-134.787 Y-18.402 Z10.484 
N122 X-134.794 Y-18.184 Z10.249 
N123 X-134.800 Y-17.965 Z10.014 
N124 X-134.807 Y-17.746 Z9.780 
N125 X-134.813 Y-17.527 Z9.545 
N126 X-134.819 Y-17.308 Z9.311 
N127 X-134.825 Y-17.090 Z9.076 
N128 X-134.831 Y-16.871 Z8.841 
N129 X-134.836 Y-16.652 Z8.607 
N130 X-134.842 Y-16.433 Z8.372 
N131 X-134.847 Y-16.215 Z8.137 
N132 X-134.852 Y-15.996 Z7.903 
N133 X-134.856 Y-15.777 Z7.668 
N134 X-134.861 Y-15.558 Z7.433 
N135 X-134.865 Y-15.339 Z7.199 
N136 X-134.870 Y-15.120 Z6.964 
N137 X-134.874 Y-14.902 Z6.730 
N138 X-134.878 Y-14.683 Z6.495 
N139 X-134.881 Y-14.464 Z6.260 
N140 X-134.885 Y-14.245 Z6.026 
N141 X-134.888 Y-14.026 Z5.791 
N142 X-134.892 Y-13.808 Z5.556 
N143 X-134.895 Y-13.589 Z5.322 
N144 X-134.897 Y-13.370 Z5.087 
N145 X-134.900 Y-13.151 Z4.852 
N146 X-134.902 Y-12.932 Z4.618 
N147 X-134.905 Y-12.713 Z4.383 
N148 X-134.907 Y-12.495 Z4.148 
N149 X-134.909 Y-12.276 Z3.914 
N150 X-134.911 Y-12.057 Z3.679 
N151 X-134.912 Y-11.838 Z3.444 
N152 X-134.914 Y-11.619 Z3.210 
N153 X-134.915 Y-11.401 Z2.975 
N154 X-134.916 Y-11.182 Z2.740 
N155 X-134.917 Y-10.963 Z2.506 
N156 X-134.918 Y-10.744 Z2.271 
N157 X-134.918 Y-10.525 Z2.036 
N158 X-134.918 Y-10.306 Z1.802 
N159 X-134.919 Y-10.088 Z1.567 
N160 X-134.919 Y-9.869 Z1.332 
N161 X-134.918 Y-9.650 Z1.098 
N162 X-134.918 Y-9.431 Z0.863 
N163 X-134.917 Y-9.212 Z0.628 
N164 X-134.917 Y-8.993 Z0.394 
N165 X-134.916 Y-8.775 Z0.159 
N166 X-134.915 Y-8.556 Z-0.076 
N167 X-134.914 Y-8.337 Z-0.310 
N168 X-134.912 Y-8.118 Z-0.545 
N169 X-134.911 Y-7.899 Z-0.780 
N170 X-134.909 Y-7.680 Z-1.014 
N171 X-134.907 Y-7.462 Z-1.249 
N172 X-134.905 Y-7.243 Z-1.484 
N173 X-134.902 Y-7.024 Z-1.718 
N174 X-134.900 Y-6.805 Z-1.953 
N175 X-134.897 Y-6.586 Z-2.188 
N176 X-134.894 Y-6.368 Z-2.422 
N177 X-134.891 Y-6.149 Z-2.657 
N178 X-134.888 Y-5.930 Z-2.892 
N179 X-134.885 Y-5.711 Z-3.126 
N180 X-134.881 Y-5.492 Z-3.361 
N181 X-134.877 Y-5.273 Z-3.595 
N182 X-134.873 Y-5.055 Z-3.830 
N183 X-134.869 Y-4.836 Z-4.065 
N184 X-134.865 Y-4.617 Z-4.299 
N185 X-134.861 Y-4.398 Z-4.534 
N186 X-134.856 Y-4.179 Z-4.769 
N187 X-134.851 Y-3.961 Z-5.003 
N188 X-134.846 Y-3.742 Z-5.238 
N189 X-134.841 Y-3.523 Z-5.473 
N190 X-134.836 Y-3.304 Z-5.707 
N191 X-134.830 Y-3.085 Z-5.942 
N192 X-134.825 Y-2.867 Z-6.176 
N193 X-134.819 Y-2.648 Z-6.411 
N194 X-134.813 Y-2.429 Z-6.646 
N195 X-134.804 Y-2.105 Z-6.993 
N196 G40 X-134.785 Y-1.423 Z-7.724 F643
N197 X-134.785 Y-1.423 Z-7.724 
N198 G00 X-134.785 Y-23.364 Z-28.184 
N199 X-133.699 Y-58.259 Z9.236 
N200 X-133.699 Y-36.319 Z29.696 
N201 ;FSA_1
N202 G01 G41 X-133.758 Y-35.638 Z28.966 F643
N203 G01 X-133.758 Y-35.638 Z28.966 F643 
N204 X-133.778 Y-35.411 Z28.723 
N205 X-133.797 Y-35.184 Z28.480 
N206 X-133.817 Y-34.957 Z28.236 
N207 X-133.836 Y-34.730 Z27.993 
N208 X-133.856 Y-34.503 Z27.749 
N209 X-133.875 Y-34.276 Z27.506 
N210 X-133.895 Y-34.049 Z27.263 
N211 X-133.914 Y-33.822 Z27.019 
N212 X-133.934 Y-33.595 Z26.776 
N213 X-133.962 Y-33.272 Z26.429 
N214 X-133.980 Y-33.053 Z26.195 
N215 X-133.999 Y-32.835 Z25.961 
N216 X-134.018 Y-32.616 Z25.726 
N217 X-134.036 Y-32.398 Z25.492 
N218 X-134.054 Y-32.179 Z25.258 
N219 X-134.072 Y-31.961 Z25.023 
N220 X-134.090 Y-31.742 Z24.789 
N221 X-134.107 Y-31.524 Z24.555 
N222 X-134.125 Y-31.305 Z24.320 
N223 X-134.142 Y-31.087 Z24.086 
N224 X-134.159 Y-30.868 Z23.852 
N225 X-134.176 Y-30.650 Z23.617 
N226 X-134.192 Y-30.431 Z23.383 
N227 X-134.209 Y-30.213 Z23.149 
N228 X-134.225 Y-29.994 Z22.914 
N229 X-134.242 Y-29.776 Z22.680 
N230 X-134.257 Y-29.557 Z22.445 
N231 X-134.273 Y-29.338 Z22.211 
N232 X-134.289 Y-29.120 Z21.977 
N233 X-134.304 Y-28.901 Z21.742 
N234 X-134.320 Y-28.683 Z21.508 
N235 X-134.335 Y-28.464 Z21.273 
N236 X-134.350 Y-28.245 Z21.039 
N237 X-134.364 Y-28.027 Z20.804 
N238 X-134.379 Y-27.808 Z20.570 
N239 X-134.393 Y-27.590 Z20.336 
N240 X-134.408 Y-27.371 Z20.101 
N241 X-134.422 Y-27.152 Z19.867 
N242 X-134.435 Y-26.934 Z19.632 
N243 X-134.449 Y-26.715 Z19.398 
N244 X-134.463 Y-26.496 Z19.163 
N245 X-134.476 Y-26.278 Z18.929 
N246 X-134.489 Y-26.059 Z18.694 
N247 X-134.502 Y-25.840 Z18.460 
N248 X-134.515 Y-25.622 Z18.225 
N249 X-134.527 Y-25.403 Z17.991 
N250 X-134.540 Y-25.184 Z17.756 
N251 X-134.552 Y-24.966 Z17.522 
N252 X-134.564 Y-24.747 Z17.287 
N253 X-134.576 Y-24.528 Z17.053 
N254 X-134.588 Y-24.310 Z16.818 
N255 X-134.599 Y-24.091 Z16.584 
N256 X-134.611 Y-23.872 Z16.349 
N257 X-134.622 Y-23.653 Z16.115 
N258 X-134.633 Y-23.435 Z15.880 
N259 X-134.644 Y-23.216 Z15.645 
N260 X-134.654 Y-22.997 Z15.411 
N261 X-134.665 Y-22.778 Z15.176 
N262 X-134.675 Y-22.560 Z14.942 
N263 X-134.685 Y-22.341 Z14.707 
N264 X-134.695 Y-22.122 Z14.473 
N265 X-134.705 Y-21.904 Z14.238 
N266 X-134.715 Y-21.685 Z14.004 
N267 X-134.724 Y-21.466 Z13.769 
N268 X-134.733 Y-21.247 Z13.534 
N269 X-134.742 Y-21.028 Z13.300 
N270 X-134.751 Y-20.810 Z13.065 
N271 X-134.760 Y-20.591 Z12.831 
N272 X-134.768 Y-20.372 Z12.596 
N273 X-134.777 Y-20.153 Z12.361 
N274 X-134.785 Y-19.935 Z12.127 
N275 X-134.793 Y-19.716 Z11.892 
N276 X-134.801 Y-19.497 Z11.658 
N277 X-134.808 Y-19.278 Z11.423 
N278 X-134.816 Y-19.060 Z11.188 
N279 X-134.823 Y-18.841 Z10.954 
N280 X-134.830 Y-18.622 Z10.719 
N281 X-134.837 Y-18.403 Z10.484 
N282 X-134.844 Y-18.184 Z10.250 
N283 X-134.850 Y-17.966 Z10.015 
N284 X-134.857 Y-17.747 Z9.780 
N285 X-134.863 Y-17.528 Z9.546 
N286 X-134.869 Y-17.309 Z9.311 
N287 X-134.875 Y-17.090 Z9.077 
N288 X-134.881 Y-16.871 Z8.842 
N289 X-134.886 Y-16.653 Z8.607 
N290 X-134.891 Y-16.434 Z8.373 
N291 X-134.897 Y-16.215 Z8.138 
N292 X-134.902 Y-15.996 Z7.903 
N293 X-134.906 Y-15.777 Z7.669 
N294 X-134.911 Y-15.559 Z7.434 
N295 X-134.915 Y-15.340 Z7.199 
N296 X-134.920 Y-15.121 Z6.965 
N297 X-134.924 Y-14.902 Z6.730 
N298 X-134.928 Y-14.683 Z6.495 
N299 X-134.931 Y-14.464 Z6.261 
N300 X-134.935 Y-14.246 Z6.026 
N301 X-134.938 Y-14.027 Z5.791 
N302 X-134.942 Y-13.808 Z5.557 
N303 X-134.945 Y-13.589 Z5.322 
N304 X-134.947 Y-13.370 Z5.087 
N305 X-134.950 Y-13.151 Z4.853 
N306 X-134.952 Y-12.933 Z4.618 
N307 X-134.955 Y-12.714 Z4.383 
N308 X-134.957 Y-12.495 Z4.149 
N309 X-134.959 Y-12.276 Z3.914 
N310 X-134.961 Y-12.057 Z3.679 
N311 X-134.962 Y-11.838 Z3.445 
N312 X-134.964 Y-11.619 Z3.210 
N313 X-134.965 Y-11.401 Z2.975 
N314 X-134.966 Y-11.182 Z2.740 
N315 X-134.967 Y-10.963 Z2.506 
N316 X-134.968 Y-10.744 Z2.271 
N317 X-134.968 Y-10.525 Z2.036 
N318 X-134.968 Y-10.306 Z1.802 
N319 X-134.969 Y-10.088 Z1.567 
N320 X-134.969 Y-9.869 Z1.332 
N321 X-134.968 Y-9.650 Z1.098 
N322 X-134.968 Y-9.431 Z0.863 
N323 X-134.967 Y-9.212 Z0.628 
N324 X-134.967 Y-8.993 Z0.394 
N325 X-134.966 Y-8.774 Z0.159 
N326 X-134.965 Y-8.556 Z-0.076 
N327 X-134.964 Y-8.337 Z-0.310 
N328 X-134.962 Y-8.118 Z-0.545 
N329 X-134.961 Y-7.899 Z-0.780 
N330 X-134.959 Y-7.680 Z-1.014 
N331 X-134.957 Y-7.461 Z-1.249 
N332 X-134.955 Y-7.243 Z-1.484 
N333 X-134.952 Y-7.024 Z-1.719 
N334 X-134.950 Y-6.805 Z-1.953 
N335 X-134.947 Y-6.586 Z-2.188 
N336 X-134.944 Y-6.367 Z-2.423 
N337 X-134.941 Y-6.148 Z-2.657 
N338 X-134.938 Y-5.930 Z-2.892 
N339 X-134.935 Y-5.711 Z-3.127 
N340 X-134.931 Y-5.492 Z-3.361 
N341 X-134.927 Y-5.273 Z-3.596 
N342 X-134.923 Y-5.054 Z-3.831 
N343 X-134.919 Y-4.835 Z-4.065 
N344 X-134.915 Y-4.617 Z-4.300 
N345 X-134.911 Y-4.398 Z-4.535 
N346 X-134.906 Y-4.179 Z-4.769 
N347 X-134.901 Y-3.960 Z-5.004 
N348 X-134.896 Y-3.741 Z-5.239 
N349 X-134.891 Y-3.522 Z-5.473 
N350 X-134.886 Y-3.304 Z-5.708 
N351 X-134.880 Y-3.085 Z-5.943 
N352 X-134.875 Y-2.866 Z-6.177 
N353 X-134.869 Y-2.647 Z-6.412 
N354 X-134.863 Y-2.428 Z-6.646 
N355 X-134.854 Y-2.104 Z-6.994 
N356 G40 X-134.835 Y-1.423 Z-7.725 F643
N357 X-134.835 Y-1.423 Z-7.725 
N358 G00 X-134.835 Y-37.990 Z-41.825 
RAPORT("TA333333","Side Milling:165 End")
;trailer : concat=None
; points cnt = 308
N360 M9 ; chlodziwo wyl.
N361 MSG (" --- KONIEC PODPROGRAMU --- ")
N362 FGROUP()
N363 TRAFOOF
N364 STOPRE
N365 G0 G53 D0 Z550.0 M9 M5
N366 G0 G53 Y150 A0 B0
N367 M17
