; PROGRAM NAME: A33333338
; ORDER       : A333333
; OPER. NAME  : Side Milling:149
; OPER. DESCR.: Side Milling/czolo nozki po luku zgr
; OPER. TYPE  : sideMill
; GEO. OPTION : 1
; MACHINE     : HSTM_300_SIM840D_Py
;             : HSTM300/500 - HAMUEL: 5-axis milling machine-SIM840D Traori PP_Script
; CONTROL     : SINUMERIK 840D
; created:   2021-09-10 08:59:45.382149
;----------------------------------------
RAPORT("TA333333","Side Milling:149")
N10 TRAFOOF
N11 D0
N12 G90 G94
N13 G0 G53 D0 Z550
N14 STOPRE
M9 ; chlodziwo wyl
; --- Side Milling:149 - Side Milling/czolo nozki po luku zgr ---
N16 ;ToolChange : concat=None ,current_tdmid=None, PP.tdmId=957774
N17 TRAFOOF
N18 G0 G53 D0 X-200 Y150 Z550 B0
N19 T="7757774"
RAPORT("TA333333","ToolChangeStart 7757774")
N20 M6
RAPORT("TA333333","ToolChangeEnd")
N21 STOPRE
N22 MSG(" TLID=957774 D=10.0 R=0.0 Ang=0.0 Len=129.0 ")
N23 S2864 M03
N24 STOPRE
N25 TOL(0.1,1,1)
N26 G0 G53 A313.0000 B-0.0000
N27 TRAORI
N28 G54 D1
;tol5=0.15
N29 D1 
STOPRE
E_ZDARZ=500001
;ACS_ROUGH_ROOT_FRONT=7757774
STOPRE
;UWAGA : ZMIENIONA TOLERANCJA OSI A i B, ruchy osi A i B beda usuniete : TOL5=0.15
N30 ; DELTA A > 40.1
N31 TRAFOOF
N32 D1
N33 STOPRE
N34 G00 G54 Z257.000
N35 G01 A313.0000 F10000
N36 TRAORI
N37 G54 D1
N38 STOPRE
N39 TRANS 
N40 G00 X-132.785 Y75.620 Z16.952 A313.0000 
N41 M342 ; chlodziwo woda
N42 X-132.785 Y39.053 Z-17.148 
N43 ;FSE_1
N44 G01 G41 X-132.844 Y38.372 Z-16.418 F458
N45 G01 X-132.844 Y38.372 Z-16.418 F458 
N46 X-132.853 Y38.270 Z-16.309 
N47 X-132.862 Y38.167 Z-16.199 
N48 X-132.870 Y38.065 Z-16.090 
N49 X-132.879 Y37.963 Z-15.980 
N50 X-132.888 Y37.861 Z-15.871 
N51 X-132.897 Y37.759 Z-15.761 
N52 X-132.906 Y37.657 Z-15.652 
N53 X-132.915 Y37.555 Z-15.542 
N54 X-132.923 Y37.453 Z-15.433 
N55 X-132.932 Y37.350 Z-15.323 
N56 X-132.941 Y37.248 Z-15.214 
N57 X-132.950 Y37.146 Z-15.104 
N58 X-132.959 Y37.044 Z-14.994 
N59 X-132.968 Y36.942 Z-14.885 
N60 X-132.977 Y36.840 Z-14.775 
N61 X-132.985 Y36.738 Z-14.666 
N62 X-132.994 Y36.636 Z-14.556 
N63 X-133.003 Y36.534 Z-14.447 
N64 X-133.012 Y36.431 Z-14.337 
N65 X-133.021 Y36.329 Z-14.228 
N66 X-133.030 Y36.226 Z-14.117 
N67 X-133.039 Y36.123 Z-14.007 
N68 X-133.048 Y36.020 Z-13.896 
N69 X-133.057 Y35.917 Z-13.785 
N70 X-133.065 Y35.814 Z-13.675 
N71 X-133.074 Y35.710 Z-13.564 
N72 X-133.083 Y35.607 Z-13.454 
N73 X-133.092 Y35.504 Z-13.343 
N74 X-133.101 Y35.401 Z-13.232 
N75 X-133.110 Y35.298 Z-13.122 
N76 X-133.119 Y35.195 Z-13.011 
N77 X-133.128 Y35.091 Z-12.900 
N78 X-133.137 Y34.988 Z-12.790 
N79 X-133.146 Y34.885 Z-12.679 
N80 X-133.155 Y34.782 Z-12.569 
N81 X-133.164 Y34.679 Z-12.458 
N82 X-133.173 Y34.576 Z-12.347 
N83 X-133.182 Y34.473 Z-12.237 
N84 X-133.191 Y34.369 Z-12.126 
N85 X-133.200 Y34.266 Z-12.016 
N86 X-133.208 Y34.163 Z-11.905 
N87 X-133.217 Y34.060 Z-11.794 
N88 X-133.226 Y33.957 Z-11.684 
N89 X-133.235 Y33.854 Z-11.573 
N90 X-133.244 Y33.750 Z-11.462 
N91 X-133.253 Y33.647 Z-11.352 
N92 X-133.262 Y33.544 Z-11.241 
N93 X-133.271 Y33.441 Z-11.131 
N94 X-133.280 Y33.338 Z-11.020 
N95 X-133.289 Y33.235 Z-10.909 
N96 X-133.298 Y33.132 Z-10.799 
N97 X-133.307 Y33.028 Z-10.688 
N98 X-133.316 Y32.925 Z-10.578 
N99 X-133.325 Y32.821 Z-10.466 
N100 X-133.334 Y32.717 Z-10.354 
N101 X-133.343 Y32.613 Z-10.243 
N102 X-133.352 Y32.509 Z-10.131 
N103 X-133.361 Y32.405 Z-10.020 
N104 X-133.370 Y32.301 Z-9.908 
N105 X-133.379 Y32.197 Z-9.797 
N106 X-133.388 Y32.093 Z-9.685 
N107 X-133.397 Y31.989 Z-9.574 
N108 X-133.406 Y31.885 Z-9.462 
N109 X-133.415 Y31.781 Z-9.351 
N110 X-133.424 Y31.677 Z-9.239 
N111 X-133.433 Y31.573 Z-9.128 
N112 X-133.442 Y31.469 Z-9.016 
N113 X-133.451 Y31.365 Z-8.904 
N114 X-133.460 Y31.261 Z-8.793 
N115 X-133.469 Y31.157 Z-8.681 
N116 X-133.478 Y31.053 Z-8.570 
N117 X-133.487 Y30.949 Z-8.458 
N118 X-133.496 Y30.845 Z-8.347 
N119 X-133.505 Y30.741 Z-8.235 
N120 X-133.514 Y30.637 Z-8.124 
N121 X-133.523 Y30.533 Z-8.012 
N122 X-133.532 Y30.429 Z-7.901 
N123 X-133.541 Y30.325 Z-7.789 
N124 X-133.550 Y30.221 Z-7.678 
N125 X-133.559 Y30.117 Z-7.566 
N126 X-133.568 Y30.013 Z-7.455 
N127 X-133.577 Y29.909 Z-7.343 
N128 X-133.586 Y29.805 Z-7.231 
N129 X-133.595 Y29.701 Z-7.120 
N130 X-133.604 Y29.597 Z-7.008 
N131 X-133.613 Y29.493 Z-6.897 
N132 X-133.622 Y29.389 Z-6.785 
N133 X-133.631 Y29.285 Z-6.674 
N134 X-133.640 Y29.181 Z-6.562 
N135 X-133.649 Y29.077 Z-6.451 
N136 X-133.658 Y28.973 Z-6.339 
N137 X-133.667 Y28.869 Z-6.228 
N138 X-133.676 Y28.765 Z-6.116 
N139 X-133.685 Y28.661 Z-6.005 
N140 X-133.694 Y28.557 Z-5.893 
N141 X-133.703 Y28.453 Z-5.782 
N142 X-133.712 Y28.349 Z-5.670 
N143 X-133.721 Y28.245 Z-5.558 
N144 X-133.730 Y28.141 Z-5.447 
N145 X-133.739 Y28.037 Z-5.335 
N146 X-133.748 Y27.933 Z-5.224 
N147 X-133.757 Y27.829 Z-5.112 
N148 X-133.766 Y27.725 Z-5.001 
N149 X-133.775 Y27.621 Z-4.889 
N150 X-133.783 Y27.517 Z-4.778 
N151 X-133.791 Y27.413 Z-4.666 
N152 X-133.798 Y27.309 Z-4.554 
N153 X-133.805 Y27.205 Z-4.443 
N154 X-133.813 Y27.101 Z-4.331 
N155 X-133.820 Y26.996 Z-4.220 
N156 X-133.828 Y26.892 Z-4.108 
N157 X-133.835 Y26.788 Z-3.996 
N158 X-133.842 Y26.684 Z-3.885 
N159 X-133.850 Y26.580 Z-3.773 
N160 X-133.857 Y26.476 Z-3.662 
N161 X-133.864 Y26.372 Z-3.550 
N162 X-133.872 Y26.268 Z-3.438 
N163 X-133.879 Y26.164 Z-3.327 
N164 X-133.886 Y26.060 Z-3.215 
N165 X-133.894 Y25.956 Z-3.104 
N166 X-133.901 Y25.852 Z-2.992 
N167 X-133.909 Y25.748 Z-2.880 
N168 X-133.916 Y25.644 Z-2.769 
N169 X-133.923 Y25.539 Z-2.657 
N170 X-133.931 Y25.435 Z-2.546 
N171 X-133.938 Y25.331 Z-2.434 
N172 X-133.945 Y25.227 Z-2.322 
N173 X-133.953 Y25.123 Z-2.211 
N174 X-133.960 Y25.019 Z-2.099 
N175 X-133.967 Y24.915 Z-1.988 
N176 X-133.975 Y24.811 Z-1.876 
N177 X-133.982 Y24.707 Z-1.764 
N178 X-133.990 Y24.603 Z-1.653 
N179 X-133.997 Y24.499 Z-1.541 
N180 X-134.004 Y24.395 Z-1.430 
N181 X-134.010 Y24.291 Z-1.318 
N182 X-134.016 Y24.187 Z-1.206 
N183 X-134.022 Y24.082 Z-1.095 
N184 X-134.028 Y23.978 Z-0.983 
N185 X-134.034 Y23.874 Z-0.871 
N186 X-134.040 Y23.770 Z-0.760 
N187 X-134.046 Y23.666 Z-0.648 
N188 X-134.052 Y23.562 Z-0.537 
N189 X-134.058 Y23.458 Z-0.425 
N190 X-134.064 Y23.354 Z-0.313 
N191 X-134.071 Y23.250 Z-0.202 
N192 X-134.077 Y23.145 Z-0.090 
N193 X-134.083 Y23.041 Z0.022 
N194 X-134.089 Y22.937 Z0.133 
N195 X-134.095 Y22.833 Z0.245 
N196 X-134.101 Y22.729 Z0.357 
N197 X-134.107 Y22.625 Z0.468 
N198 X-134.113 Y22.521 Z0.580 
N199 X-134.119 Y22.417 Z0.691 
N200 X-134.125 Y22.313 Z0.803 
N201 X-134.131 Y22.208 Z0.915 
N202 X-134.137 Y22.104 Z1.026 
N203 X-134.143 Y22.000 Z1.138 
N204 X-134.149 Y21.896 Z1.250 
N205 X-134.155 Y21.792 Z1.361 
N206 X-134.161 Y21.688 Z1.473 
N207 X-134.167 Y21.584 Z1.585 
N208 X-134.173 Y21.480 Z1.696 
N209 X-134.179 Y21.376 Z1.808 
N210 X-134.185 Y21.272 Z1.920 
N211 X-134.192 Y21.167 Z2.031 
N212 X-134.198 Y21.063 Z2.143 
N213 X-134.204 Y20.959 Z2.254 
N214 X-134.210 Y20.855 Z2.366 
N215 X-134.215 Y20.751 Z2.478 
N216 X-134.220 Y20.647 Z2.589 
N217 X-134.224 Y20.543 Z2.701 
N218 X-134.229 Y20.439 Z2.813 
N219 X-134.233 Y20.334 Z2.924 
N220 X-134.238 Y20.230 Z3.036 
N221 X-134.242 Y20.126 Z3.148 
N222 X-134.247 Y20.022 Z3.260 
N223 X-134.251 Y19.918 Z3.371 
N224 X-134.256 Y19.814 Z3.483 
N225 X-134.260 Y19.710 Z3.595 
N226 X-134.265 Y19.605 Z3.706 
N227 X-134.269 Y19.501 Z3.818 
N228 X-134.274 Y19.397 Z3.930 
N229 X-134.278 Y19.293 Z4.041 
N230 X-134.283 Y19.189 Z4.153 
N231 X-134.287 Y19.085 Z4.265 
N232 X-134.292 Y18.981 Z4.376 
N233 X-134.296 Y18.876 Z4.488 
N234 X-134.301 Y18.772 Z4.600 
N235 X-134.305 Y18.668 Z4.711 
N236 X-134.310 Y18.564 Z4.823 
N237 X-134.314 Y18.460 Z4.935 
N238 X-134.319 Y18.356 Z5.046 
N239 X-134.323 Y18.252 Z5.158 
N240 X-134.328 Y18.147 Z5.270 
N241 X-134.332 Y18.043 Z5.381 
N242 X-134.337 Y17.939 Z5.493 
N243 X-134.341 Y17.835 Z5.605 
N244 X-134.346 Y17.731 Z5.717 
N245 X-134.350 Y17.627 Z5.828 
N246 X-134.355 Y17.523 Z5.940 
N247 X-134.359 Y17.418 Z6.052 
N248 X-134.364 Y17.314 Z6.163 
N249 X-134.368 Y17.210 Z6.275 
N250 X-134.373 Y17.106 Z6.387 
N251 X-134.377 Y17.002 Z6.498 
N252 X-134.382 Y16.898 Z6.610 
N253 X-134.386 Y16.793 Z6.722 
N254 X-134.391 Y16.689 Z6.833 
N255 X-134.395 Y16.585 Z6.945 
N256 X-134.400 Y16.481 Z7.057 
N257 X-134.404 Y16.377 Z7.168 
N258 X-134.407 Y16.273 Z7.280 
N259 X-134.409 Y16.169 Z7.392 
N260 X-134.412 Y16.064 Z7.504 
N261 X-134.414 Y15.960 Z7.615 
N262 X-134.417 Y15.856 Z7.727 
N263 X-134.419 Y15.752 Z7.839 
N264 X-134.422 Y15.648 Z7.950 
N265 X-134.425 Y15.544 Z8.062 
N266 X-134.427 Y15.439 Z8.174 
N267 X-134.430 Y15.335 Z8.286 
N268 X-134.432 Y15.231 Z8.397 
N269 X-134.435 Y15.127 Z8.509 
N270 X-134.437 Y15.023 Z8.621 
N271 X-134.440 Y14.918 Z8.732 
N272 X-134.443 Y14.814 Z8.844 
N273 X-134.445 Y14.710 Z8.956 
N274 X-134.448 Y14.606 Z9.067 
N275 X-134.450 Y14.502 Z9.179 
N276 X-134.453 Y14.398 Z9.291 
N277 X-134.455 Y14.293 Z9.403 
N278 X-134.458 Y14.189 Z9.514 
N279 X-134.461 Y14.085 Z9.626 
N280 X-134.463 Y13.981 Z9.738 
N281 X-134.466 Y13.877 Z9.849 
N282 X-134.468 Y13.773 Z9.961 
N283 X-134.471 Y13.668 Z10.073 
N284 X-134.473 Y13.564 Z10.185 
N285 X-134.476 Y13.460 Z10.296 
N286 X-134.479 Y13.356 Z10.408 
N287 X-134.481 Y13.252 Z10.520 
N288 X-134.484 Y13.148 Z10.631 
N289 X-134.486 Y13.043 Z10.743 
N290 X-134.489 Y12.939 Z10.855 
N291 X-134.491 Y12.835 Z10.967 
N292 X-134.494 Y12.731 Z11.078 
N293 X-134.497 Y12.627 Z11.190 
N294 X-134.499 Y12.522 Z11.302 
N295 X-134.502 Y12.418 Z11.413 
N296 X-134.504 Y12.314 Z11.525 
N297 X-134.507 Y12.210 Z11.637 
N298 X-134.509 Y12.106 Z11.749 
N299 X-134.512 Y12.002 Z11.860 
N300 X-134.515 Y11.897 Z11.972 
N301 X-134.517 Y11.793 Z12.084 
N302 X-134.520 Y11.689 Z12.195 
N303 X-134.522 Y11.585 Z12.307 
N304 X-134.525 Y11.481 Z12.419 
N305 X-134.527 Y11.377 Z12.531 
N306 X-134.530 Y11.272 Z12.642 
N307 X-134.533 Y11.168 Z12.754 
N308 X-134.535 Y11.064 Z12.866 
N309 X-134.538 Y10.960 Z12.977 
N310 X-134.540 Y10.856 Z13.089 
N311 X-134.542 Y10.751 Z13.201 
N312 X-134.542 Y10.647 Z13.313 
N313 X-134.543 Y10.543 Z13.424 
N314 X-134.544 Y10.439 Z13.536 
N315 X-134.545 Y10.335 Z13.648 
N316 X-134.546 Y10.231 Z13.760 
N317 X-134.547 Y10.126 Z13.871 
N318 X-134.548 Y10.022 Z13.983 
N319 X-134.548 Y9.918 Z14.095 
N320 X-134.549 Y9.814 Z14.206 
N321 X-134.550 Y9.710 Z14.318 
N322 X-134.551 Y9.605 Z14.430 
N323 X-134.552 Y9.501 Z14.542 
N324 X-134.553 Y9.397 Z14.653 
N325 X-134.554 Y9.293 Z14.765 
N326 X-134.555 Y9.189 Z14.877 
N327 X-134.555 Y9.084 Z14.989 
N328 X-134.556 Y8.980 Z15.100 
N329 X-134.557 Y8.876 Z15.212 
N330 X-134.558 Y8.772 Z15.324 
N331 X-134.559 Y8.668 Z15.435 
N332 X-134.560 Y8.564 Z15.547 
N333 X-134.561 Y8.459 Z15.659 
N334 X-134.561 Y8.355 Z15.771 
N335 X-134.562 Y8.251 Z15.882 
N336 X-134.563 Y8.147 Z15.994 
N337 X-134.564 Y8.043 Z16.106 
N338 X-134.565 Y7.938 Z16.218 
N339 X-134.566 Y7.834 Z16.329 
N340 X-134.567 Y7.730 Z16.441 
N341 X-134.568 Y7.626 Z16.553 
N342 X-134.568 Y7.522 Z16.664 
N343 X-134.567 Y7.417 Z16.776 
N344 X-134.567 Y7.313 Z16.888 
N345 X-134.567 Y7.209 Z17.000 
N346 X-134.566 Y7.105 Z17.111 
N347 X-134.566 Y7.001 Z17.223 
N348 X-134.565 Y6.897 Z17.335 
N349 X-134.565 Y6.792 Z17.447 
N350 X-134.565 Y6.688 Z17.558 
N351 X-134.564 Y6.584 Z17.670 
N352 X-134.564 Y6.480 Z17.782 
N353 X-134.563 Y6.376 Z17.893 
N354 X-134.563 Y6.271 Z18.005 
N355 X-134.562 Y6.167 Z18.117 
N356 X-134.562 Y6.063 Z18.229 
N357 X-134.562 Y5.959 Z18.340 
N358 X-134.561 Y5.855 Z18.452 
N359 X-134.561 Y5.750 Z18.564 
N360 X-134.560 Y5.646 Z18.676 
N361 X-134.560 Y5.542 Z18.787 
N362 X-134.560 Y5.438 Z18.899 
N363 X-134.559 Y5.334 Z19.011 
N364 X-134.559 Y5.230 Z19.122 
N365 X-134.558 Y5.125 Z19.234 
N366 X-134.558 Y5.021 Z19.346 
N367 X-134.558 Y4.917 Z19.458 
N368 X-134.557 Y4.813 Z19.569 
N369 X-134.557 Y4.709 Z19.681 
N370 X-134.556 Y4.604 Z19.793 
N371 X-134.556 Y4.500 Z19.905 
N372 X-134.556 Y4.396 Z20.016 
N373 X-134.555 Y4.292 Z20.128 
N374 X-134.554 Y4.188 Z20.240 
N375 X-134.551 Y4.083 Z20.351 
N376 X-134.549 Y3.979 Z20.463 
N377 X-134.547 Y3.875 Z20.575 
N378 X-134.545 Y3.771 Z20.687 
N379 X-134.543 Y3.667 Z20.798 
N380 X-134.541 Y3.563 Z20.910 
N381 X-134.538 Y3.458 Z21.022 
N382 X-134.536 Y3.354 Z21.134 
N383 X-134.534 Y3.250 Z21.245 
N384 X-134.532 Y3.146 Z21.357 
N385 X-134.530 Y3.042 Z21.469 
N386 X-134.528 Y2.938 Z21.580 
N387 X-134.525 Y2.833 Z21.692 
N388 X-134.523 Y2.729 Z21.804 
N389 X-134.521 Y2.625 Z21.916 
N390 X-134.519 Y2.521 Z22.027 
N391 X-134.517 Y2.417 Z22.139 
N392 X-134.515 Y2.312 Z22.251 
N393 X-134.512 Y2.208 Z22.362 
N394 X-134.510 Y2.104 Z22.474 
N395 X-134.508 Y2.000 Z22.586 
N396 X-134.506 Y1.896 Z22.698 
N397 X-134.504 Y1.792 Z22.809 
N398 X-134.502 Y1.687 Z22.921 
N399 X-134.499 Y1.583 Z23.033 
N400 X-134.497 Y1.479 Z23.144 
N401 X-134.495 Y1.375 Z23.256 
N402 X-134.493 Y1.271 Z23.368 
N403 X-134.491 Y1.166 Z23.480 
N404 X-134.489 Y1.062 Z23.591 
N405 X-134.486 Y0.958 Z23.703 
N406 X-134.484 Y0.854 Z23.815 
N407 X-134.482 Y0.750 Z23.926 
N408 X-134.480 Y0.646 Z24.038 
N409 X-134.478 Y0.541 Z24.150 
N410 X-134.476 Y0.437 Z24.262 
N411 X-134.473 Y0.333 Z24.373 
N412 X-134.471 Y0.229 Z24.485 
N413 X-134.469 Y0.125 Z24.597 
N414 X-134.467 Y0.021 Z24.708 
N415 X-134.465 Y-0.084 Z24.820 
N416 X-134.463 Y-0.188 Z24.932 
N417 X-134.460 Y-0.292 Z25.044 
N418 X-134.458 Y-0.396 Z25.155 
N419 X-134.456 Y-0.500 Z25.267 
N420 X-134.454 Y-0.605 Z25.379 
N421 X-134.452 Y-0.709 Z25.490 
N422 X-134.449 Y-0.813 Z25.602 
N423 X-134.447 Y-0.917 Z25.714 
N424 X-134.445 Y-1.021 Z25.826 
N425 X-134.443 Y-1.125 Z25.937 
N426 X-134.441 Y-1.230 Z26.049 
N427 X-134.439 Y-1.334 Z26.161 
N428 X-134.436 Y-1.438 Z26.273 
N429 X-134.434 Y-1.542 Z26.384 
N430 X-134.432 Y-1.646 Z26.495 
N431 X-134.430 Y-1.749 Z26.606 
N432 X-134.428 Y-1.852 Z26.717 
N433 X-134.426 Y-1.955 Z26.827 
N434 X-134.424 Y-2.059 Z26.938 
N435 X-134.421 Y-2.162 Z27.049 
N436 X-134.419 Y-2.265 Z27.160 
N437 X-134.417 Y-2.369 Z27.271 
N438 X-134.415 Y-2.472 Z27.381 
N439 X-134.413 Y-2.575 Z27.492 
N440 X-134.411 Y-2.679 Z27.603 
N441 X-134.409 Y-2.782 Z27.714 
N442 X-134.406 Y-2.885 Z27.825 
N443 X-134.404 Y-2.989 Z27.935 
N444 X-134.402 Y-3.092 Z28.046 
N445 X-134.400 Y-3.195 Z28.157 
N446 X-134.398 Y-3.299 Z28.268 
N447 X-134.396 Y-3.402 Z28.379 
N448 X-134.393 Y-3.505 Z28.489 
N449 X-134.391 Y-3.609 Z28.600 
N450 X-134.389 Y-3.712 Z28.711 
N451 X-134.387 Y-3.815 Z28.822 
N452 X-134.385 Y-3.919 Z28.933 
N453 X-134.383 Y-4.022 Z29.043 
N454 X-134.381 Y-4.125 Z29.154 
N455 X-134.378 Y-4.229 Z29.265 
N456 X-134.376 Y-4.332 Z29.376 
N457 X-134.374 Y-4.435 Z29.487 
N458 X-134.372 Y-4.539 Z29.597 
N459 X-134.370 Y-4.642 Z29.708 
N460 X-134.368 Y-4.745 Z29.819 
N461 X-134.366 Y-4.849 Z29.930 
N462 X-134.363 Y-4.952 Z30.041 
N463 G40 X-134.349 Y-5.634 Z30.772 F458
N464 X-134.349 Y-5.634 Z30.772 
N465 G00 X-134.349 Y16.307 Z51.232 
N466 X-132.785 Y58.342 Z0.839 
N467 X-132.785 Y36.401 Z-19.620 
N468 ;FSE_1
N469 G01 G41 X-132.844 Y35.721 Z-18.890 F458
N470 G01 X-132.844 Y35.721 Z-18.890 F458 
N471 X-132.853 Y35.618 Z-18.781 
N472 X-132.862 Y35.516 Z-18.671 
N473 X-132.870 Y35.414 Z-18.562 
N474 X-132.879 Y35.312 Z-18.452 
N475 X-132.888 Y35.210 Z-18.343 
N476 X-132.897 Y35.108 Z-18.233 
N477 X-132.906 Y35.006 Z-18.124 
N478 X-132.915 Y34.904 Z-18.014 
N479 X-132.923 Y34.801 Z-17.905 
N480 X-132.932 Y34.699 Z-17.795 
N481 X-132.941 Y34.597 Z-17.686 
N482 X-132.950 Y34.495 Z-17.576 
N483 X-132.959 Y34.393 Z-17.467 
N484 X-132.968 Y34.291 Z-17.357 
N485 X-132.977 Y34.189 Z-17.248 
N486 X-132.985 Y34.087 Z-17.138 
N487 X-132.994 Y33.984 Z-17.029 
N488 X-133.003 Y33.882 Z-16.919 
N489 X-133.012 Y33.780 Z-16.810 
N490 X-133.021 Y33.678 Z-16.700 
N491 X-133.030 Y33.575 Z-16.590 
N492 X-133.039 Y33.472 Z-16.479 
N493 X-133.048 Y33.369 Z-16.368 
N494 X-133.057 Y33.265 Z-16.258 
N495 X-133.065 Y33.162 Z-16.147 
N496 X-133.074 Y33.059 Z-16.036 
N497 X-133.083 Y32.956 Z-15.926 
N498 X-133.092 Y32.853 Z-15.815 
N499 X-133.101 Y32.750 Z-15.705 
N500 X-133.110 Y32.647 Z-15.594 
N501 X-133.119 Y32.543 Z-15.483 
N502 X-133.128 Y32.440 Z-15.373 
N503 X-133.137 Y32.337 Z-15.262 
N504 X-133.146 Y32.234 Z-15.152 
N505 X-133.155 Y32.131 Z-15.041 
N506 X-133.164 Y32.028 Z-14.930 
N507 X-133.173 Y31.925 Z-14.820 
N508 X-133.182 Y31.821 Z-14.709 
N509 X-133.191 Y31.718 Z-14.598 
N510 X-133.200 Y31.615 Z-14.488 
N511 X-133.208 Y31.512 Z-14.377 
N512 X-133.217 Y31.409 Z-14.267 
N513 X-133.226 Y31.306 Z-14.156 
N514 X-133.235 Y31.202 Z-14.045 
N515 X-133.244 Y31.099 Z-13.935 
N516 X-133.253 Y30.996 Z-13.824 
N517 X-133.262 Y30.893 Z-13.713 
N518 X-133.271 Y30.790 Z-13.603 
N519 X-133.280 Y30.687 Z-13.492 
N520 X-133.289 Y30.584 Z-13.382 
N521 X-133.298 Y30.480 Z-13.271 
N522 X-133.307 Y30.377 Z-13.160 
N523 X-133.316 Y30.274 Z-13.050 
N524 X-133.325 Y30.170 Z-12.938 
N525 X-133.334 Y30.066 Z-12.827 
N526 X-133.343 Y29.962 Z-12.715 
N527 X-133.352 Y29.858 Z-12.604 
N528 X-133.361 Y29.754 Z-12.492 
N529 X-133.370 Y29.650 Z-12.381 
N530 X-133.379 Y29.546 Z-12.269 
N531 X-133.388 Y29.442 Z-12.157 
N532 X-133.397 Y29.338 Z-12.046 
N533 X-133.406 Y29.234 Z-11.934 
N534 X-133.415 Y29.130 Z-11.823 
N535 X-133.424 Y29.026 Z-11.711 
N536 X-133.433 Y28.922 Z-11.600 
N537 X-133.442 Y28.818 Z-11.488 
N538 X-133.451 Y28.714 Z-11.377 
N539 X-133.460 Y28.610 Z-11.265 
N540 X-133.469 Y28.506 Z-11.154 
N541 X-133.478 Y28.402 Z-11.042 
N542 X-133.487 Y28.298 Z-10.931 
N543 X-133.496 Y28.194 Z-10.819 
N544 X-133.505 Y28.090 Z-10.708 
N545 X-133.514 Y27.986 Z-10.596 
N546 X-133.523 Y27.882 Z-10.484 
N547 X-133.532 Y27.778 Z-10.373 
N548 X-133.541 Y27.674 Z-10.261 
N549 X-133.550 Y27.570 Z-10.150 
N550 X-133.559 Y27.466 Z-10.038 
N551 X-133.568 Y27.362 Z-9.927 
N552 X-133.577 Y27.258 Z-9.815 
N553 X-133.586 Y27.154 Z-9.704 
N554 X-133.595 Y27.050 Z-9.592 
N555 X-133.604 Y26.946 Z-9.481 
N556 X-133.613 Y26.842 Z-9.369 
N557 X-133.622 Y26.738 Z-9.258 
N558 X-133.631 Y26.634 Z-9.146 
N559 X-133.640 Y26.530 Z-9.035 
N560 X-133.649 Y26.426 Z-8.923 
N561 X-133.658 Y26.322 Z-8.811 
N562 X-133.667 Y26.218 Z-8.700 
N563 X-133.676 Y26.114 Z-8.588 
N564 X-133.685 Y26.010 Z-8.477 
N565 X-133.694 Y25.906 Z-8.365 
N566 X-133.703 Y25.802 Z-8.254 
N567 X-133.712 Y25.698 Z-8.142 
N568 X-133.721 Y25.594 Z-8.031 
N569 X-133.730 Y25.490 Z-7.919 
N570 X-133.739 Y25.386 Z-7.808 
N571 X-133.748 Y25.282 Z-7.696 
N572 X-133.757 Y25.178 Z-7.585 
N573 X-133.766 Y25.074 Z-7.473 
N574 X-133.775 Y24.970 Z-7.361 
N575 X-133.783 Y24.866 Z-7.250 
N576 X-133.791 Y24.762 Z-7.138 
N577 X-133.798 Y24.657 Z-7.027 
N578 X-133.805 Y24.553 Z-6.915 
N579 X-133.813 Y24.449 Z-6.804 
N580 X-133.820 Y24.345 Z-6.692 
N581 X-133.828 Y24.241 Z-6.580 
N582 X-133.835 Y24.137 Z-6.469 
N583 X-133.842 Y24.033 Z-6.357 
N584 X-133.850 Y23.929 Z-6.246 
N585 X-133.857 Y23.825 Z-6.134 
N586 X-133.864 Y23.721 Z-6.022 
N587 X-133.872 Y23.617 Z-5.911 
N588 X-133.879 Y23.513 Z-5.799 
N589 X-133.886 Y23.409 Z-5.688 
N590 X-133.894 Y23.305 Z-5.576 
N591 X-133.901 Y23.201 Z-5.464 
N592 X-133.909 Y23.096 Z-5.353 
N593 X-133.916 Y22.992 Z-5.241 
N594 X-133.923 Y22.888 Z-5.130 
N595 X-133.931 Y22.784 Z-5.018 
N596 X-133.938 Y22.680 Z-4.906 
N597 X-133.945 Y22.576 Z-4.795 
N598 X-133.953 Y22.472 Z-4.683 
N599 X-133.960 Y22.368 Z-4.572 
N600 X-133.967 Y22.264 Z-4.460 
N601 X-133.975 Y22.160 Z-4.348 
N602 X-133.982 Y22.056 Z-4.237 
N603 X-133.990 Y21.952 Z-4.125 
N604 X-133.997 Y21.848 Z-4.014 
N605 X-134.004 Y21.744 Z-3.902 
N606 X-134.010 Y21.639 Z-3.790 
N607 X-134.016 Y21.535 Z-3.679 
N608 X-134.022 Y21.431 Z-3.567 
N609 X-134.028 Y21.327 Z-3.455 
N610 X-134.034 Y21.223 Z-3.344 
N611 X-134.040 Y21.119 Z-3.232 
N612 X-134.046 Y21.015 Z-3.120 
N613 X-134.052 Y20.911 Z-3.009 
N614 X-134.058 Y20.807 Z-2.897 
N615 X-134.064 Y20.703 Z-2.786 
N616 X-134.071 Y20.598 Z-2.674 
N617 X-134.077 Y20.494 Z-2.562 
N618 X-134.083 Y20.390 Z-2.451 
N619 X-134.089 Y20.286 Z-2.339 
N620 X-134.095 Y20.182 Z-2.227 
N621 X-134.101 Y20.078 Z-2.116 
N622 X-134.107 Y19.974 Z-2.004 
N623 X-134.113 Y19.870 Z-1.892 
N624 X-134.119 Y19.766 Z-1.781 
N625 X-134.125 Y19.661 Z-1.669 
N626 X-134.131 Y19.557 Z-1.557 
N627 X-134.137 Y19.453 Z-1.446 
N628 X-134.143 Y19.349 Z-1.334 
N629 X-134.149 Y19.245 Z-1.223 
N630 X-134.155 Y19.141 Z-1.111 
N631 X-134.161 Y19.037 Z-0.999 
N632 X-134.167 Y18.933 Z-0.888 
N633 X-134.173 Y18.829 Z-0.776 
N634 X-134.179 Y18.724 Z-0.664 
N635 X-134.185 Y18.620 Z-0.553 
N636 X-134.192 Y18.516 Z-0.441 
N637 X-134.198 Y18.412 Z-0.329 
N638 X-134.204 Y18.308 Z-0.218 
N639 X-134.210 Y18.204 Z-0.106 
N640 X-134.215 Y18.100 Z0.006 
N641 X-134.220 Y17.996 Z0.117 
N642 X-134.224 Y17.892 Z0.229 
N643 X-134.229 Y17.787 Z0.341 
N644 X-134.233 Y17.683 Z0.452 
N645 X-134.238 Y17.579 Z0.564 
N646 X-134.242 Y17.475 Z0.676 
N647 X-134.247 Y17.371 Z0.787 
N648 X-134.251 Y17.267 Z0.899 
N649 X-134.256 Y17.163 Z1.011 
N650 X-134.260 Y17.058 Z1.122 
N651 X-134.265 Y16.954 Z1.234 
N652 X-134.269 Y16.850 Z1.346 
N653 X-134.274 Y16.746 Z1.457 
N654 X-134.278 Y16.642 Z1.569 
N655 X-134.283 Y16.538 Z1.681 
N656 X-134.287 Y16.434 Z1.792 
N657 X-134.292 Y16.329 Z1.904 
N658 X-134.296 Y16.225 Z2.016 
N659 X-134.301 Y16.121 Z2.127 
N660 X-134.305 Y16.017 Z2.239 
N661 X-134.310 Y15.913 Z2.351 
N662 X-134.314 Y15.809 Z2.463 
N663 X-134.319 Y15.704 Z2.574 
N664 X-134.323 Y15.600 Z2.686 
N665 X-134.328 Y15.496 Z2.798 
N666 X-134.332 Y15.392 Z2.909 
N667 X-134.337 Y15.288 Z3.021 
N668 X-134.341 Y15.184 Z3.133 
N669 X-134.346 Y15.080 Z3.244 
N670 X-134.350 Y14.975 Z3.356 
N671 X-134.355 Y14.871 Z3.468 
N672 X-134.359 Y14.767 Z3.579 
N673 X-134.364 Y14.663 Z3.691 
N674 X-134.368 Y14.559 Z3.803 
N675 X-134.373 Y14.455 Z3.914 
N676 X-134.377 Y14.351 Z4.026 
N677 X-134.382 Y14.246 Z4.138 
N678 X-134.386 Y14.142 Z4.249 
N679 X-134.391 Y14.038 Z4.361 
N680 X-134.395 Y13.934 Z4.473 
N681 X-134.400 Y13.830 Z4.584 
N682 X-134.404 Y13.726 Z4.696 
N683 X-134.407 Y13.622 Z4.808 
N684 X-134.409 Y13.517 Z4.920 
N685 X-134.412 Y13.413 Z5.031 
N686 X-134.414 Y13.309 Z5.143 
N687 X-134.417 Y13.205 Z5.255 
N688 X-134.419 Y13.101 Z5.366 
N689 X-134.422 Y12.997 Z5.478 
N690 X-134.425 Y12.892 Z5.590 
N691 X-134.427 Y12.788 Z5.702 
N692 X-134.430 Y12.684 Z5.813 
N693 X-134.432 Y12.580 Z5.925 
N694 X-134.435 Y12.476 Z6.037 
N695 X-134.437 Y12.371 Z6.148 
N696 X-134.440 Y12.267 Z6.260 
N697 X-134.443 Y12.163 Z6.372 
N698 X-134.445 Y12.059 Z6.484 
N699 X-134.448 Y11.955 Z6.595 
N700 X-134.450 Y11.851 Z6.707 
N701 X-134.453 Y11.746 Z6.819 
N702 X-134.455 Y11.642 Z6.930 
N703 X-134.458 Y11.538 Z7.042 
N704 X-134.461 Y11.434 Z7.154 
N705 X-134.463 Y11.330 Z7.266 
N706 X-134.466 Y11.226 Z7.377 
N707 X-134.468 Y11.121 Z7.489 
N708 X-134.471 Y11.017 Z7.601 
N709 X-134.473 Y10.913 Z7.712 
N710 X-134.476 Y10.809 Z7.824 
N711 X-134.479 Y10.705 Z7.936 
N712 X-134.481 Y10.601 Z8.048 
N713 X-134.484 Y10.496 Z8.159 
N714 X-134.486 Y10.392 Z8.271 
N715 X-134.489 Y10.288 Z8.383 
N716 X-134.491 Y10.184 Z8.494 
N717 X-134.494 Y10.080 Z8.606 
N718 X-134.497 Y9.975 Z8.718 
N719 X-134.499 Y9.871 Z8.830 
N720 X-134.502 Y9.767 Z8.941 
N721 X-134.504 Y9.663 Z9.053 
N722 X-134.507 Y9.559 Z9.165 
N723 X-134.509 Y9.455 Z9.276 
N724 X-134.512 Y9.350 Z9.388 
N725 X-134.515 Y9.246 Z9.500 
N726 X-134.517 Y9.142 Z9.612 
N727 X-134.520 Y9.038 Z9.723 
N728 X-134.522 Y8.934 Z9.835 
N729 X-134.525 Y8.830 Z9.947 
N730 X-134.527 Y8.725 Z10.058 
N731 X-134.530 Y8.621 Z10.170 
N732 X-134.533 Y8.517 Z10.282 
N733 X-134.535 Y8.413 Z10.394 
N734 X-134.538 Y8.309 Z10.505 
N735 X-134.540 Y8.205 Z10.617 
N736 X-134.542 Y8.100 Z10.729 
N737 X-134.542 Y7.996 Z10.840 
N738 X-134.543 Y7.892 Z10.952 
N739 X-134.544 Y7.788 Z11.064 
N740 X-134.545 Y7.684 Z11.176 
N741 X-134.546 Y7.579 Z11.287 
N742 X-134.547 Y7.475 Z11.399 
N743 X-134.548 Y7.371 Z11.511 
N744 X-134.548 Y7.267 Z11.622 
N745 X-134.549 Y7.163 Z11.734 
N746 X-134.550 Y7.058 Z11.846 
N747 X-134.551 Y6.954 Z11.958 
N748 X-134.552 Y6.850 Z12.069 
N749 X-134.553 Y6.746 Z12.181 
N750 X-134.554 Y6.642 Z12.293 
N751 X-134.555 Y6.538 Z12.405 
N752 X-134.555 Y6.433 Z12.516 
N753 X-134.556 Y6.329 Z12.628 
N754 X-134.557 Y6.225 Z12.740 
N755 X-134.558 Y6.121 Z12.851 
N756 X-134.559 Y6.017 Z12.963 
N757 X-134.560 Y5.912 Z13.075 
N758 X-134.561 Y5.808 Z13.187 
N759 X-134.561 Y5.704 Z13.298 
N760 X-134.562 Y5.600 Z13.410 
N761 X-134.563 Y5.496 Z13.522 
N762 X-134.564 Y5.391 Z13.634 
N763 X-134.565 Y5.287 Z13.745 
N764 X-134.566 Y5.183 Z13.857 
N765 X-134.567 Y5.079 Z13.969 
N766 X-134.568 Y4.975 Z14.080 
N767 X-134.568 Y4.871 Z14.192 
N768 X-134.567 Y4.766 Z14.304 
N769 X-134.567 Y4.662 Z14.416 
N770 X-134.567 Y4.558 Z14.527 
N771 X-134.566 Y4.454 Z14.639 
N772 X-134.566 Y4.350 Z14.751 
N773 X-134.565 Y4.245 Z14.863 
N774 X-134.565 Y4.141 Z14.974 
N775 X-134.565 Y4.037 Z15.086 
N776 X-134.564 Y3.933 Z15.198 
N777 X-134.564 Y3.829 Z15.309 
N778 X-134.563 Y3.724 Z15.421 
N779 X-134.563 Y3.620 Z15.533 
N780 X-134.562 Y3.516 Z15.645 
N781 X-134.562 Y3.412 Z15.756 
N782 X-134.562 Y3.308 Z15.868 
N783 X-134.561 Y3.204 Z15.980 
N784 X-134.561 Y3.099 Z16.092 
N785 X-134.560 Y2.995 Z16.203 
N786 X-134.560 Y2.891 Z16.315 
N787 X-134.560 Y2.787 Z16.427 
N788 X-134.559 Y2.683 Z16.539 
N789 X-134.559 Y2.578 Z16.650 
N790 X-134.558 Y2.474 Z16.762 
N791 X-134.558 Y2.370 Z16.874 
N792 X-134.558 Y2.266 Z16.985 
N793 X-134.557 Y2.162 Z17.097 
N794 X-134.557 Y2.057 Z17.209 
N795 X-134.556 Y1.953 Z17.321 
N796 X-134.556 Y1.849 Z17.432 
N797 X-134.556 Y1.745 Z17.544 
N798 X-134.555 Y1.641 Z17.656 
N799 X-134.554 Y1.536 Z17.768 
N800 X-134.551 Y1.432 Z17.879 
N801 X-134.549 Y1.328 Z17.991 
N802 X-134.547 Y1.224 Z18.103 
N803 X-134.545 Y1.120 Z18.214 
N804 X-134.543 Y1.016 Z18.326 
N805 X-134.541 Y0.911 Z18.438 
N806 X-134.538 Y0.807 Z18.550 
N807 X-134.536 Y0.703 Z18.661 
N808 X-134.534 Y0.599 Z18.773 
N809 X-134.532 Y0.495 Z18.885 
N810 X-134.530 Y0.391 Z18.996 
N811 X-134.528 Y0.286 Z19.108 
N812 X-134.525 Y0.182 Z19.220 
N813 X-134.523 Y0.078 Z19.332 
N814 X-134.521 Y-0.026 Z19.443 
N815 X-134.519 Y-0.130 Z19.555 
N816 X-134.517 Y-0.235 Z19.667 
N817 X-134.515 Y-0.339 Z19.778 
N818 X-134.512 Y-0.443 Z19.890 
N819 X-134.510 Y-0.547 Z20.002 
N820 X-134.508 Y-0.651 Z20.114 
N821 X-134.506 Y-0.755 Z20.225 
N822 X-134.504 Y-0.860 Z20.337 
N823 X-134.502 Y-0.964 Z20.449 
N824 X-134.499 Y-1.068 Z20.560 
N825 X-134.497 Y-1.172 Z20.672 
N826 X-134.495 Y-1.276 Z20.784 
N827 X-134.493 Y-1.381 Z20.896 
N828 X-134.491 Y-1.485 Z21.007 
N829 X-134.489 Y-1.589 Z21.119 
N830 X-134.486 Y-1.693 Z21.231 
N831 X-134.484 Y-1.797 Z21.342 
N832 X-134.482 Y-1.901 Z21.454 
N833 X-134.480 Y-2.006 Z21.566 
N834 X-134.478 Y-2.110 Z21.678 
N835 X-134.476 Y-2.214 Z21.789 
N836 X-134.473 Y-2.318 Z21.901 
N837 X-134.471 Y-2.422 Z22.013 
N838 X-134.469 Y-2.526 Z22.125 
N839 X-134.467 Y-2.631 Z22.236 
N840 X-134.465 Y-2.735 Z22.348 
N841 X-134.463 Y-2.839 Z22.460 
N842 X-134.460 Y-2.943 Z22.571 
N843 X-134.458 Y-3.047 Z22.683 
N844 X-134.456 Y-3.152 Z22.795 
N845 X-134.454 Y-3.256 Z22.907 
N846 X-134.452 Y-3.360 Z23.018 
N847 X-134.449 Y-3.464 Z23.130 
N848 X-134.447 Y-3.568 Z23.242 
N849 X-134.445 Y-3.672 Z23.353 
N850 X-134.443 Y-3.777 Z23.465 
N851 X-134.441 Y-3.881 Z23.577 
N852 X-134.439 Y-3.985 Z23.689 
N853 X-134.436 Y-4.089 Z23.800 
N854 X-134.434 Y-4.193 Z23.912 
N855 X-134.432 Y-4.297 Z24.023 
N856 X-134.430 Y-4.400 Z24.134 
N857 X-134.428 Y-4.503 Z24.244 
N858 X-134.426 Y-4.607 Z24.355 
N859 X-134.424 Y-4.710 Z24.466 
N860 X-134.421 Y-4.813 Z24.577 
N861 X-134.419 Y-4.917 Z24.688 
N862 X-134.417 Y-5.020 Z24.798 
N863 X-134.415 Y-5.123 Z24.909 
N864 X-134.413 Y-5.227 Z25.020 
N865 X-134.411 Y-5.330 Z25.131 
N866 X-134.409 Y-5.433 Z25.242 
N867 X-134.406 Y-5.537 Z25.352 
N868 X-134.404 Y-5.640 Z25.463 
N869 X-134.402 Y-5.743 Z25.574 
N870 X-134.400 Y-5.846 Z25.685 
N871 X-134.398 Y-5.950 Z25.796 
N872 X-134.396 Y-6.053 Z25.906 
N873 X-134.393 Y-6.156 Z26.017 
N874 X-134.391 Y-6.260 Z26.128 
N875 X-134.389 Y-6.363 Z26.239 
N876 X-134.387 Y-6.466 Z26.350 
N877 X-134.385 Y-6.570 Z26.460 
N878 X-134.383 Y-6.673 Z26.571 
N879 X-134.381 Y-6.776 Z26.682 
N880 X-134.378 Y-6.880 Z26.793 
N881 X-134.376 Y-6.983 Z26.904 
N882 X-134.374 Y-7.086 Z27.014 
N883 X-134.372 Y-7.190 Z27.125 
N884 X-134.370 Y-7.293 Z27.236 
N885 X-134.368 Y-7.396 Z27.347 
N886 X-134.366 Y-7.500 Z27.458 
N887 X-134.363 Y-7.603 Z27.568 
N888 G40 X-134.349 Y-8.285 Z28.300 F458
N889 X-134.349 Y-8.285 Z28.300 
N890 G00 X-134.349 Y13.656 Z48.760 
N891 X-132.785 Y55.691 Z-1.633 
N892 X-132.785 Y33.750 Z-22.093 
N893 ;FSE_1
N894 G01 G41 X-132.844 Y33.069 Z-21.363 F458
N895 G01 X-132.844 Y33.069 Z-21.363 F458 
N896 X-132.853 Y32.967 Z-21.253 
N897 X-132.862 Y32.865 Z-21.144 
N898 X-132.870 Y32.763 Z-21.034 
N899 X-132.879 Y32.661 Z-20.925 
N900 X-132.888 Y32.559 Z-20.815 
N901 X-132.897 Y32.457 Z-20.706 
N902 X-132.906 Y32.355 Z-20.596 
N903 X-132.915 Y32.252 Z-20.487 
N904 X-132.923 Y32.150 Z-20.377 
N905 X-132.932 Y32.048 Z-20.268 
N906 X-132.941 Y31.946 Z-20.158 
N907 X-132.950 Y31.844 Z-20.048 
N908 X-132.959 Y31.742 Z-19.939 
N909 X-132.968 Y31.640 Z-19.829 
N910 X-132.977 Y31.538 Z-19.720 
N911 X-132.985 Y31.435 Z-19.610 
N912 X-132.994 Y31.333 Z-19.501 
N913 X-133.003 Y31.231 Z-19.391 
N914 X-133.012 Y31.129 Z-19.282 
N915 X-133.021 Y31.027 Z-19.172 
N916 X-133.030 Y30.924 Z-19.062 
N917 X-133.039 Y30.821 Z-18.951 
N918 X-133.048 Y30.717 Z-18.841 
N919 X-133.057 Y30.614 Z-18.730 
N920 X-133.065 Y30.511 Z-18.619 
N921 X-133.074 Y30.408 Z-18.509 
N922 X-133.083 Y30.305 Z-18.398 
N923 X-133.092 Y30.202 Z-18.287 
N924 X-133.101 Y30.099 Z-18.177 
N925 X-133.110 Y29.995 Z-18.066 
N926 X-133.119 Y29.892 Z-17.956 
N927 X-133.128 Y29.789 Z-17.845 
N928 X-133.137 Y29.686 Z-17.734 
N929 X-133.146 Y29.583 Z-17.624 
N930 X-133.155 Y29.480 Z-17.513 
N931 X-133.164 Y29.377 Z-17.403 
N932 X-133.173 Y29.273 Z-17.292 
N933 X-133.182 Y29.170 Z-17.181 
N934 X-133.191 Y29.067 Z-17.071 
N935 X-133.200 Y28.964 Z-16.960 
N936 X-133.208 Y28.861 Z-16.849 
N937 X-133.217 Y28.758 Z-16.739 
N938 X-133.226 Y28.654 Z-16.628 
N939 X-133.235 Y28.551 Z-16.518 
N940 X-133.244 Y28.448 Z-16.407 
N941 X-133.253 Y28.345 Z-16.296 
N942 X-133.262 Y28.242 Z-16.186 
N943 X-133.271 Y28.139 Z-16.075 
N944 X-133.280 Y28.036 Z-15.964 
N945 X-133.289 Y27.932 Z-15.854 
N946 X-133.298 Y27.829 Z-15.743 
N947 X-133.307 Y27.726 Z-15.633 
N948 X-133.316 Y27.623 Z-15.522 
N949 X-133.325 Y27.519 Z-15.410 
N950 X-133.334 Y27.415 Z-15.299 
N951 X-133.343 Y27.311 Z-15.187 
N952 X-133.352 Y27.207 Z-15.076 
N953 X-133.361 Y27.103 Z-14.964 
N954 X-133.370 Y26.999 Z-14.853 
N955 X-133.379 Y26.895 Z-14.741 
N956 X-133.388 Y26.791 Z-14.630 
N957 X-133.397 Y26.687 Z-14.518 
N958 X-133.406 Y26.583 Z-14.407 
N959 X-133.415 Y26.479 Z-14.295 
N960 X-133.424 Y26.375 Z-14.184 
N961 X-133.433 Y26.271 Z-14.072 
N962 X-133.442 Y26.167 Z-13.961 
N963 X-133.451 Y26.063 Z-13.849 
N964 X-133.460 Y25.959 Z-13.737 
N965 X-133.469 Y25.855 Z-13.626 
N966 X-133.478 Y25.751 Z-13.514 
N967 X-133.487 Y25.647 Z-13.403 
N968 X-133.496 Y25.543 Z-13.291 
N969 X-133.505 Y25.439 Z-13.180 
N970 X-133.514 Y25.335 Z-13.068 
N971 X-133.523 Y25.231 Z-12.957 
N972 X-133.532 Y25.127 Z-12.845 
N973 X-133.541 Y25.023 Z-12.734 
N974 X-133.550 Y24.919 Z-12.622 
N975 X-133.559 Y24.815 Z-12.511 
N976 X-133.568 Y24.711 Z-12.399 
N977 X-133.577 Y24.607 Z-12.287 
N978 X-133.586 Y24.503 Z-12.176 
N979 X-133.595 Y24.399 Z-12.064 
N980 X-133.604 Y24.295 Z-11.953 
N981 X-133.613 Y24.191 Z-11.841 
N982 X-133.622 Y24.087 Z-11.730 
N983 X-133.631 Y23.983 Z-11.618 
N984 X-133.640 Y23.879 Z-11.507 
N985 X-133.649 Y23.775 Z-11.395 
N986 X-133.658 Y23.671 Z-11.284 
N987 X-133.667 Y23.567 Z-11.172 
N988 X-133.676 Y23.463 Z-11.061 
N989 X-133.685 Y23.359 Z-10.949 
N990 X-133.694 Y23.255 Z-10.838 
N991 X-133.703 Y23.151 Z-10.726 
N992 X-133.712 Y23.047 Z-10.614 
N993 X-133.721 Y22.943 Z-10.503 
N994 X-133.730 Y22.839 Z-10.391 
N995 X-133.739 Y22.735 Z-10.280 
N996 X-133.748 Y22.631 Z-10.168 
N997 X-133.757 Y22.527 Z-10.057 
N998 X-133.766 Y22.423 Z-9.945 
N999 X-133.775 Y22.319 Z-9.834 
N1000 X-133.783 Y22.214 Z-9.722 
N1001 X-133.791 Y22.110 Z-9.611 
N1002 X-133.798 Y22.006 Z-9.499 
N1003 X-133.805 Y21.902 Z-9.387 
N1004 X-133.813 Y21.798 Z-9.276 
N1005 X-133.820 Y21.694 Z-9.164 
N1006 X-133.828 Y21.590 Z-9.053 
N1007 X-133.835 Y21.486 Z-8.941 
N1008 X-133.842 Y21.382 Z-8.829 
N1009 X-133.850 Y21.278 Z-8.718 
N1010 X-133.857 Y21.174 Z-8.606 
N1011 X-133.864 Y21.070 Z-8.495 
N1012 X-133.872 Y20.966 Z-8.383 
N1013 X-133.879 Y20.862 Z-8.271 
N1014 X-133.886 Y20.758 Z-8.160 
N1015 X-133.894 Y20.653 Z-8.048 
N1016 X-133.901 Y20.549 Z-7.937 
N1017 X-133.909 Y20.445 Z-7.825 
N1018 X-133.916 Y20.341 Z-7.713 
N1019 X-133.923 Y20.237 Z-7.602 
N1020 X-133.931 Y20.133 Z-7.490 
N1021 X-133.938 Y20.029 Z-7.379 
N1022 X-133.945 Y19.925 Z-7.267 
N1023 X-133.953 Y19.821 Z-7.155 
N1024 X-133.960 Y19.717 Z-7.044 
N1025 X-133.967 Y19.613 Z-6.932 
N1026 X-133.975 Y19.509 Z-6.821 
N1027 X-133.982 Y19.405 Z-6.709 
N1028 X-133.990 Y19.301 Z-6.597 
N1029 X-133.997 Y19.196 Z-6.486 
N1030 X-134.004 Y19.092 Z-6.374 
N1031 X-134.010 Y18.988 Z-6.263 
N1032 X-134.016 Y18.884 Z-6.151 
N1033 X-134.022 Y18.780 Z-6.039 
N1034 X-134.028 Y18.676 Z-5.928 
N1035 X-134.034 Y18.572 Z-5.816 
N1036 X-134.040 Y18.468 Z-5.704 
N1037 X-134.046 Y18.364 Z-5.593 
N1038 X-134.052 Y18.260 Z-5.481 
N1039 X-134.058 Y18.155 Z-5.369 
N1040 X-134.064 Y18.051 Z-5.258 
N1041 X-134.071 Y17.947 Z-5.146 
N1042 X-134.077 Y17.843 Z-5.034 
N1043 X-134.083 Y17.739 Z-4.923 
N1044 X-134.089 Y17.635 Z-4.811 
N1045 X-134.095 Y17.531 Z-4.700 
N1046 X-134.101 Y17.427 Z-4.588 
N1047 X-134.107 Y17.323 Z-4.476 
N1048 X-134.113 Y17.218 Z-4.365 
N1049 X-134.119 Y17.114 Z-4.253 
N1050 X-134.125 Y17.010 Z-4.141 
N1051 X-134.131 Y16.906 Z-4.030 
N1052 X-134.137 Y16.802 Z-3.918 
N1053 X-134.143 Y16.698 Z-3.806 
N1054 X-134.149 Y16.594 Z-3.695 
N1055 X-134.155 Y16.490 Z-3.583 
N1056 X-134.161 Y16.386 Z-3.471 
N1057 X-134.167 Y16.282 Z-3.360 
N1058 X-134.173 Y16.177 Z-3.248 
N1059 X-134.179 Y16.073 Z-3.137 
N1060 X-134.185 Y15.969 Z-3.025 
N1061 X-134.192 Y15.865 Z-2.913 
N1062 X-134.198 Y15.761 Z-2.802 
N1063 X-134.204 Y15.657 Z-2.690 
N1064 X-134.210 Y15.553 Z-2.578 
N1065 X-134.215 Y15.449 Z-2.467 
N1066 X-134.220 Y15.345 Z-2.355 
N1067 X-134.224 Y15.240 Z-2.243 
N1068 X-134.229 Y15.136 Z-2.132 
N1069 X-134.233 Y15.032 Z-2.020 
N1070 X-134.238 Y14.928 Z-1.908 
N1071 X-134.242 Y14.824 Z-1.797 
N1072 X-134.247 Y14.720 Z-1.685 
N1073 X-134.251 Y14.615 Z-1.573 
N1074 X-134.256 Y14.511 Z-1.462 
N1075 X-134.260 Y14.407 Z-1.350 
N1076 X-134.265 Y14.303 Z-1.238 
N1077 X-134.269 Y14.199 Z-1.127 
N1078 X-134.274 Y14.095 Z-1.015 
N1079 X-134.278 Y13.991 Z-0.903 
N1080 X-134.283 Y13.886 Z-0.792 
N1081 X-134.287 Y13.782 Z-0.680 
N1082 X-134.292 Y13.678 Z-0.568 
N1083 X-134.296 Y13.574 Z-0.456 
N1084 X-134.301 Y13.470 Z-0.345 
N1085 X-134.305 Y13.366 Z-0.233 
N1086 X-134.310 Y13.262 Z-0.121 
N1087 X-134.314 Y13.157 Z-0.010 
N1088 X-134.319 Y13.053 Z0.102 
N1089 X-134.323 Y12.949 Z0.214 
N1090 X-134.328 Y12.845 Z0.325 
N1091 X-134.332 Y12.741 Z0.437 
N1092 X-134.337 Y12.637 Z0.549 
N1093 X-134.341 Y12.533 Z0.660 
N1094 X-134.346 Y12.428 Z0.772 
N1095 X-134.350 Y12.324 Z0.884 
N1096 X-134.355 Y12.220 Z0.995 
N1097 X-134.359 Y12.116 Z1.107 
N1098 X-134.364 Y12.012 Z1.219 
N1099 X-134.368 Y11.908 Z1.330 
N1100 X-134.373 Y11.804 Z1.442 
N1101 X-134.377 Y11.699 Z1.554 
N1102 X-134.382 Y11.595 Z1.665 
N1103 X-134.386 Y11.491 Z1.777 
N1104 X-134.391 Y11.387 Z1.889 
N1105 X-134.395 Y11.283 Z2.001 
N1106 X-134.400 Y11.179 Z2.112 
N1107 X-134.404 Y11.075 Z2.224 
N1108 X-134.407 Y10.970 Z2.336 
N1109 X-134.409 Y10.866 Z2.447 
N1110 X-134.412 Y10.762 Z2.559 
N1111 X-134.414 Y10.658 Z2.671 
N1112 X-134.417 Y10.554 Z2.782 
N1113 X-134.419 Y10.450 Z2.894 
N1114 X-134.422 Y10.345 Z3.006 
N1115 X-134.425 Y10.241 Z3.118 
N1116 X-134.427 Y10.137 Z3.229 
N1117 X-134.430 Y10.033 Z3.341 
N1118 X-134.432 Y9.929 Z3.453 
N1119 X-134.435 Y9.825 Z3.564 
N1120 X-134.437 Y9.720 Z3.676 
N1121 X-134.440 Y9.616 Z3.788 
N1122 X-134.443 Y9.512 Z3.900 
N1123 X-134.445 Y9.408 Z4.011 
N1124 X-134.448 Y9.304 Z4.123 
N1125 X-134.450 Y9.199 Z4.235 
N1126 X-134.453 Y9.095 Z4.346 
N1127 X-134.455 Y8.991 Z4.458 
N1128 X-134.458 Y8.887 Z4.570 
N1129 X-134.461 Y8.783 Z4.682 
N1130 X-134.463 Y8.679 Z4.793 
N1131 X-134.466 Y8.574 Z4.905 
N1132 X-134.468 Y8.470 Z5.017 
N1133 X-134.471 Y8.366 Z5.128 
N1134 X-134.473 Y8.262 Z5.240 
N1135 X-134.476 Y8.158 Z5.352 
N1136 X-134.479 Y8.054 Z5.464 
N1137 X-134.481 Y7.949 Z5.575 
N1138 X-134.484 Y7.845 Z5.687 
N1139 X-134.486 Y7.741 Z5.799 
N1140 X-134.489 Y7.637 Z5.910 
N1141 X-134.491 Y7.533 Z6.022 
N1142 X-134.494 Y7.428 Z6.134 
N1143 X-134.497 Y7.324 Z6.246 
N1144 X-134.499 Y7.220 Z6.357 
N1145 X-134.502 Y7.116 Z6.469 
N1146 X-134.504 Y7.012 Z6.581 
N1147 X-134.507 Y6.908 Z6.692 
N1148 X-134.509 Y6.803 Z6.804 
N1149 X-134.512 Y6.699 Z6.916 
N1150 X-134.515 Y6.595 Z7.028 
N1151 X-134.517 Y6.491 Z7.139 
N1152 X-134.520 Y6.387 Z7.251 
N1153 X-134.522 Y6.283 Z7.363 
N1154 X-134.525 Y6.178 Z7.474 
N1155 X-134.527 Y6.074 Z7.586 
N1156 X-134.530 Y5.970 Z7.698 
N1157 X-134.533 Y5.866 Z7.810 
N1158 X-134.535 Y5.762 Z7.921 
N1159 X-134.538 Y5.658 Z8.033 
N1160 X-134.540 Y5.553 Z8.145 
N1161 X-134.542 Y5.449 Z8.256 
N1162 X-134.542 Y5.345 Z8.368 
N1163 X-134.543 Y5.241 Z8.480 
N1164 X-134.544 Y5.137 Z8.592 
N1165 X-134.545 Y5.032 Z8.703 
N1166 X-134.546 Y4.928 Z8.815 
N1167 X-134.547 Y4.824 Z8.927 
N1168 X-134.548 Y4.720 Z9.039 
N1169 X-134.548 Y4.616 Z9.150 
N1170 X-134.549 Y4.511 Z9.262 
N1171 X-134.550 Y4.407 Z9.374 
N1172 X-134.551 Y4.303 Z9.485 
N1173 X-134.552 Y4.199 Z9.597 
N1174 X-134.553 Y4.095 Z9.709 
N1175 X-134.554 Y3.991 Z9.821 
N1176 X-134.555 Y3.886 Z9.932 
N1177 X-134.555 Y3.782 Z10.044 
N1178 X-134.556 Y3.678 Z10.156 
N1179 X-134.557 Y3.574 Z10.268 
N1180 X-134.558 Y3.470 Z10.379 
N1181 X-134.559 Y3.365 Z10.491 
N1182 X-134.560 Y3.261 Z10.603 
N1183 X-134.561 Y3.157 Z10.714 
N1184 X-134.561 Y3.053 Z10.826 
N1185 X-134.562 Y2.949 Z10.938 
N1186 X-134.563 Y2.844 Z11.050 
N1187 X-134.564 Y2.740 Z11.161 
N1188 X-134.565 Y2.636 Z11.273 
N1189 X-134.566 Y2.532 Z11.385 
N1190 X-134.567 Y2.428 Z11.497 
N1191 X-134.568 Y2.324 Z11.608 
N1192 X-134.568 Y2.219 Z11.720 
N1193 X-134.567 Y2.115 Z11.832 
N1194 X-134.567 Y2.011 Z11.943 
N1195 X-134.567 Y1.907 Z12.055 
N1196 X-134.566 Y1.803 Z12.167 
N1197 X-134.566 Y1.698 Z12.279 
N1198 X-134.565 Y1.594 Z12.390 
N1199 X-134.565 Y1.490 Z12.502 
N1200 X-134.565 Y1.386 Z12.614 
N1201 X-134.564 Y1.282 Z12.726 
N1202 X-134.564 Y1.177 Z12.837 
N1203 X-134.563 Y1.073 Z12.949 
N1204 X-134.563 Y0.969 Z13.061 
N1205 X-134.562 Y0.865 Z13.172 
N1206 X-134.562 Y0.761 Z13.284 
N1207 X-134.562 Y0.657 Z13.396 
N1208 X-134.561 Y0.552 Z13.508 
N1209 X-134.561 Y0.448 Z13.619 
N1210 X-134.560 Y0.344 Z13.731 
N1211 X-134.560 Y0.240 Z13.843 
N1212 X-134.560 Y0.136 Z13.955 
N1213 X-134.559 Y0.031 Z14.066 
N1214 X-134.559 Y-0.073 Z14.178 
N1215 X-134.558 Y-0.177 Z14.290 
N1216 X-134.558 Y-0.281 Z14.401 
N1217 X-134.558 Y-0.385 Z14.513 
N1218 X-134.557 Y-0.490 Z14.625 
N1219 X-134.557 Y-0.594 Z14.737 
N1220 X-134.556 Y-0.698 Z14.848 
N1221 X-134.556 Y-0.802 Z14.960 
N1222 X-134.556 Y-0.906 Z15.072 
N1223 X-134.555 Y-1.010 Z15.184 
N1224 X-134.554 Y-1.115 Z15.295 
N1225 X-134.551 Y-1.219 Z15.407 
N1226 X-134.549 Y-1.323 Z15.519 
N1227 X-134.547 Y-1.427 Z15.630 
N1228 X-134.545 Y-1.531 Z15.742 
N1229 X-134.543 Y-1.636 Z15.854 
N1230 X-134.541 Y-1.740 Z15.966 
N1231 X-134.538 Y-1.844 Z16.077 
N1232 X-134.536 Y-1.948 Z16.189 
N1233 X-134.534 Y-2.052 Z16.301 
N1234 X-134.532 Y-2.156 Z16.412 
N1235 X-134.530 Y-2.261 Z16.524 
N1236 X-134.528 Y-2.365 Z16.636 
N1237 X-134.525 Y-2.469 Z16.748 
N1238 X-134.523 Y-2.573 Z16.859 
N1239 X-134.521 Y-2.677 Z16.971 
N1240 X-134.519 Y-2.782 Z17.083 
N1241 X-134.517 Y-2.886 Z17.194 
N1242 X-134.515 Y-2.990 Z17.306 
N1243 X-134.512 Y-3.094 Z17.418 
N1244 X-134.510 Y-3.198 Z17.530 
N1245 X-134.508 Y-3.302 Z17.641 
N1246 X-134.506 Y-3.407 Z17.753 
N1247 X-134.504 Y-3.511 Z17.865 
N1248 X-134.502 Y-3.615 Z17.976 
N1249 X-134.499 Y-3.719 Z18.088 
N1250 X-134.497 Y-3.823 Z18.200 
N1251 X-134.495 Y-3.927 Z18.312 
N1252 X-134.493 Y-4.032 Z18.423 
N1253 X-134.491 Y-4.136 Z18.535 
N1254 X-134.489 Y-4.240 Z18.647 
N1255 X-134.486 Y-4.344 Z18.759 
N1256 X-134.484 Y-4.448 Z18.870 
N1257 X-134.482 Y-4.553 Z18.982 
N1258 X-134.480 Y-4.657 Z19.094 
N1259 X-134.478 Y-4.761 Z19.205 
N1260 X-134.476 Y-4.865 Z19.317 
N1261 X-134.473 Y-4.969 Z19.429 
N1262 X-134.471 Y-5.073 Z19.541 
N1263 X-134.469 Y-5.178 Z19.652 
N1264 X-134.467 Y-5.282 Z19.764 
N1265 X-134.465 Y-5.386 Z19.876 
N1266 X-134.463 Y-5.490 Z19.987 
N1267 X-134.460 Y-5.594 Z20.099 
N1268 X-134.458 Y-5.699 Z20.211 
N1269 X-134.456 Y-5.803 Z20.323 
N1270 X-134.454 Y-5.907 Z20.434 
N1271 X-134.452 Y-6.011 Z20.546 
N1272 X-134.449 Y-6.115 Z20.658 
N1273 X-134.447 Y-6.219 Z20.769 
N1274 X-134.445 Y-6.324 Z20.881 
N1275 X-134.443 Y-6.428 Z20.993 
N1276 X-134.441 Y-6.532 Z21.105 
N1277 X-134.439 Y-6.636 Z21.216 
N1278 X-134.436 Y-6.740 Z21.328 
N1279 X-134.434 Y-6.844 Z21.440 
N1280 X-134.432 Y-6.948 Z21.551 
N1281 X-134.430 Y-7.051 Z21.661 
N1282 X-134.428 Y-7.154 Z21.772 
N1283 X-134.426 Y-7.258 Z21.883 
N1284 X-134.424 Y-7.361 Z21.994 
N1285 X-134.421 Y-7.464 Z22.105 
N1286 X-134.419 Y-7.568 Z22.215 
N1287 X-134.417 Y-7.671 Z22.326 
N1288 X-134.415 Y-7.774 Z22.437 
N1289 X-134.413 Y-7.878 Z22.548 
N1290 X-134.411 Y-7.981 Z22.659 
N1291 X-134.409 Y-8.084 Z22.769 
N1292 X-134.406 Y-8.188 Z22.880 
N1293 X-134.404 Y-8.291 Z22.991 
N1294 X-134.402 Y-8.394 Z23.102 
N1295 X-134.400 Y-8.498 Z23.213 
N1296 X-134.398 Y-8.601 Z23.323 
N1297 X-134.396 Y-8.704 Z23.434 
N1298 X-134.393 Y-8.808 Z23.545 
N1299 X-134.391 Y-8.911 Z23.656 
N1300 X-134.389 Y-9.014 Z23.767 
N1301 X-134.387 Y-9.118 Z23.877 
N1302 X-134.385 Y-9.221 Z23.988 
N1303 X-134.383 Y-9.324 Z24.099 
N1304 X-134.381 Y-9.428 Z24.210 
N1305 X-134.378 Y-9.531 Z24.321 
N1306 X-134.376 Y-9.634 Z24.431 
N1307 X-134.374 Y-9.738 Z24.542 
N1308 X-134.372 Y-9.841 Z24.653 
N1309 X-134.370 Y-9.944 Z24.764 
N1310 X-134.368 Y-10.047 Z24.875 
N1311 X-134.366 Y-10.151 Z24.985 
N1312 X-134.363 Y-10.254 Z25.096 
N1313 G40 X-134.349 Y-10.936 Z25.827 F458
N1314 X-134.349 Y-10.936 Z25.827 
N1315 G00 X-134.349 Y11.005 Z46.287 
N1316 X-132.785 Y53.040 Z-4.105 
N1317 X-132.785 Y31.099 Z-24.565 
N1318 ;FSE_1
N1319 G01 G41 X-132.844 Y30.418 Z-23.835 F458
N1320 G01 X-132.844 Y30.418 Z-23.835 F458 
N1321 X-132.853 Y30.316 Z-23.725 
N1322 X-132.862 Y30.214 Z-23.616 
N1323 X-132.870 Y30.112 Z-23.506 
N1324 X-132.879 Y30.010 Z-23.397 
N1325 X-132.888 Y29.908 Z-23.287 
N1326 X-132.897 Y29.806 Z-23.178 
N1327 X-132.906 Y29.703 Z-23.068 
N1328 X-132.915 Y29.601 Z-22.959 
N1329 X-132.923 Y29.499 Z-22.849 
N1330 X-132.932 Y29.397 Z-22.740 
N1331 X-132.941 Y29.295 Z-22.630 
N1332 X-132.950 Y29.193 Z-22.521 
N1333 X-132.959 Y29.091 Z-22.411 
N1334 X-132.968 Y28.989 Z-22.302 
N1335 X-132.977 Y28.886 Z-22.192 
N1336 X-132.985 Y28.784 Z-22.083 
N1337 X-132.994 Y28.682 Z-21.973 
N1338 X-133.003 Y28.580 Z-21.864 
N1339 X-133.012 Y28.478 Z-21.754 
N1340 X-133.021 Y28.376 Z-21.645 
N1341 X-133.030 Y28.273 Z-21.534 
N1342 X-133.039 Y28.169 Z-21.423 
N1343 X-133.048 Y28.066 Z-21.313 
N1344 X-133.057 Y27.963 Z-21.202 
N1345 X-133.065 Y27.860 Z-21.092 
N1346 X-133.074 Y27.757 Z-20.981 
N1347 X-133.083 Y27.654 Z-20.870 
N1348 X-133.092 Y27.551 Z-20.760 
N1349 X-133.101 Y27.447 Z-20.649 
N1350 X-133.110 Y27.344 Z-20.538 
N1351 X-133.119 Y27.241 Z-20.428 
N1352 X-133.128 Y27.138 Z-20.317 
N1353 X-133.137 Y27.035 Z-20.207 
N1354 X-133.146 Y26.932 Z-20.096 
N1355 X-133.155 Y26.828 Z-19.985 
N1356 X-133.164 Y26.725 Z-19.875 
N1357 X-133.173 Y26.622 Z-19.764 
N1358 X-133.182 Y26.519 Z-19.654 
N1359 X-133.191 Y26.416 Z-19.543 
N1360 X-133.200 Y26.313 Z-19.432 
N1361 X-133.208 Y26.210 Z-19.322 
N1362 X-133.217 Y26.106 Z-19.211 
N1363 X-133.226 Y26.003 Z-19.100 
N1364 X-133.235 Y25.900 Z-18.990 
N1365 X-133.244 Y25.797 Z-18.879 
N1366 X-133.253 Y25.694 Z-18.769 
N1367 X-133.262 Y25.591 Z-18.658 
N1368 X-133.271 Y25.488 Z-18.547 
N1369 X-133.280 Y25.384 Z-18.437 
N1370 X-133.289 Y25.281 Z-18.326 
N1371 X-133.298 Y25.178 Z-18.215 
N1372 X-133.307 Y25.075 Z-18.105 
N1373 X-133.316 Y24.972 Z-17.994 
N1374 X-133.325 Y24.868 Z-17.883 
N1375 X-133.334 Y24.764 Z-17.771 
N1376 X-133.343 Y24.660 Z-17.660 
N1377 X-133.352 Y24.556 Z-17.548 
N1378 X-133.361 Y24.452 Z-17.437 
N1379 X-133.370 Y24.348 Z-17.325 
N1380 X-133.379 Y24.244 Z-17.214 
N1381 X-133.388 Y24.140 Z-17.102 
N1382 X-133.397 Y24.036 Z-16.990 
N1383 X-133.406 Y23.932 Z-16.879 
N1384 X-133.415 Y23.828 Z-16.767 
N1385 X-133.424 Y23.724 Z-16.656 
N1386 X-133.433 Y23.620 Z-16.544 
N1387 X-133.442 Y23.516 Z-16.433 
N1388 X-133.451 Y23.412 Z-16.321 
N1389 X-133.460 Y23.308 Z-16.210 
N1390 X-133.469 Y23.204 Z-16.098 
N1391 X-133.478 Y23.100 Z-15.987 
N1392 X-133.487 Y22.996 Z-15.875 
N1393 X-133.496 Y22.892 Z-15.764 
N1394 X-133.505 Y22.788 Z-15.652 
N1395 X-133.514 Y22.684 Z-15.540 
N1396 X-133.523 Y22.580 Z-15.429 
N1397 X-133.532 Y22.476 Z-15.317 
N1398 X-133.541 Y22.372 Z-15.206 
N1399 X-133.550 Y22.268 Z-15.094 
N1400 X-133.559 Y22.164 Z-14.983 
N1401 X-133.568 Y22.060 Z-14.871 
N1402 X-133.577 Y21.956 Z-14.760 
N1403 X-133.586 Y21.852 Z-14.648 
N1404 X-133.595 Y21.748 Z-14.537 
N1405 X-133.604 Y21.643 Z-14.425 
N1406 X-133.613 Y21.539 Z-14.314 
N1407 X-133.622 Y21.435 Z-14.202 
N1408 X-133.631 Y21.331 Z-14.091 
N1409 X-133.640 Y21.227 Z-13.979 
N1410 X-133.649 Y21.123 Z-13.867 
N1411 X-133.658 Y21.019 Z-13.756 
N1412 X-133.667 Y20.915 Z-13.644 
N1413 X-133.676 Y20.811 Z-13.533 
N1414 X-133.685 Y20.707 Z-13.421 
N1415 X-133.694 Y20.603 Z-13.310 
N1416 X-133.703 Y20.499 Z-13.198 
N1417 X-133.712 Y20.395 Z-13.087 
N1418 X-133.721 Y20.291 Z-12.975 
N1419 X-133.730 Y20.187 Z-12.864 
N1420 X-133.739 Y20.083 Z-12.752 
N1421 X-133.748 Y19.979 Z-12.641 
N1422 X-133.757 Y19.875 Z-12.529 
N1423 X-133.766 Y19.771 Z-12.418 
N1424 X-133.775 Y19.667 Z-12.306 
N1425 X-133.783 Y19.563 Z-12.194 
N1426 X-133.791 Y19.459 Z-12.083 
N1427 X-133.798 Y19.355 Z-11.971 
N1428 X-133.805 Y19.251 Z-11.860 
N1429 X-133.813 Y19.147 Z-11.748 
N1430 X-133.820 Y19.043 Z-11.636 
N1431 X-133.828 Y18.939 Z-11.525 
N1432 X-133.835 Y18.835 Z-11.413 
N1433 X-133.842 Y18.731 Z-11.302 
N1434 X-133.850 Y18.627 Z-11.190 
N1435 X-133.857 Y18.523 Z-11.078 
N1436 X-133.864 Y18.419 Z-10.967 
N1437 X-133.872 Y18.314 Z-10.855 
N1438 X-133.879 Y18.210 Z-10.744 
N1439 X-133.886 Y18.106 Z-10.632 
N1440 X-133.894 Y18.002 Z-10.520 
N1441 X-133.901 Y17.898 Z-10.409 
N1442 X-133.909 Y17.794 Z-10.297 
N1443 X-133.916 Y17.690 Z-10.186 
N1444 X-133.923 Y17.586 Z-10.074 
N1445 X-133.931 Y17.482 Z-9.962 
N1446 X-133.938 Y17.378 Z-9.851 
N1447 X-133.945 Y17.274 Z-9.739 
N1448 X-133.953 Y17.170 Z-9.628 
N1449 X-133.960 Y17.066 Z-9.516 
N1450 X-133.967 Y16.962 Z-9.404 
N1451 X-133.975 Y16.858 Z-9.293 
N1452 X-133.982 Y16.753 Z-9.181 
N1453 X-133.990 Y16.649 Z-9.070 
N1454 X-133.997 Y16.545 Z-8.958 
N1455 X-134.004 Y16.441 Z-8.846 
N1456 X-134.010 Y16.337 Z-8.735 
N1457 X-134.016 Y16.233 Z-8.623 
N1458 X-134.022 Y16.129 Z-8.511 
N1459 X-134.028 Y16.025 Z-8.400 
N1460 X-134.034 Y15.921 Z-8.288 
N1461 X-134.040 Y15.817 Z-8.177 
N1462 X-134.046 Y15.713 Z-8.065 
N1463 X-134.052 Y15.608 Z-7.953 
N1464 X-134.058 Y15.504 Z-7.842 
N1465 X-134.064 Y15.400 Z-7.730 
N1466 X-134.071 Y15.296 Z-7.618 
N1467 X-134.077 Y15.192 Z-7.507 
N1468 X-134.083 Y15.088 Z-7.395 
N1469 X-134.089 Y14.984 Z-7.283 
N1470 X-134.095 Y14.880 Z-7.172 
N1471 X-134.101 Y14.776 Z-7.060 
N1472 X-134.107 Y14.671 Z-6.949 
N1473 X-134.113 Y14.567 Z-6.837 
N1474 X-134.119 Y14.463 Z-6.725 
N1475 X-134.125 Y14.359 Z-6.614 
N1476 X-134.131 Y14.255 Z-6.502 
N1477 X-134.137 Y14.151 Z-6.390 
N1478 X-134.143 Y14.047 Z-6.279 
N1479 X-134.149 Y13.943 Z-6.167 
N1480 X-134.155 Y13.839 Z-6.055 
N1481 X-134.161 Y13.734 Z-5.944 
N1482 X-134.167 Y13.630 Z-5.832 
N1483 X-134.173 Y13.526 Z-5.720 
N1484 X-134.179 Y13.422 Z-5.609 
N1485 X-134.185 Y13.318 Z-5.497 
N1486 X-134.192 Y13.214 Z-5.386 
N1487 X-134.198 Y13.110 Z-5.274 
N1488 X-134.204 Y13.006 Z-5.162 
N1489 X-134.210 Y12.902 Z-5.051 
N1490 X-134.215 Y12.797 Z-4.939 
N1491 X-134.220 Y12.693 Z-4.827 
N1492 X-134.224 Y12.589 Z-4.716 
N1493 X-134.229 Y12.485 Z-4.604 
N1494 X-134.233 Y12.381 Z-4.492 
N1495 X-134.238 Y12.277 Z-4.381 
N1496 X-134.242 Y12.173 Z-4.269 
N1497 X-134.247 Y12.068 Z-4.157 
N1498 X-134.251 Y11.964 Z-4.046 
N1499 X-134.256 Y11.860 Z-3.934 
N1500 X-134.260 Y11.756 Z-3.822 
N1501 X-134.265 Y11.652 Z-3.710 
N1502 X-134.269 Y11.548 Z-3.599 
N1503 X-134.274 Y11.444 Z-3.487 
N1504 X-134.278 Y11.339 Z-3.375 
N1505 X-134.283 Y11.235 Z-3.264 
N1506 X-134.287 Y11.131 Z-3.152 
N1507 X-134.292 Y11.027 Z-3.040 
N1508 X-134.296 Y10.923 Z-2.929 
N1509 X-134.301 Y10.819 Z-2.817 
N1510 X-134.305 Y10.715 Z-2.705 
N1511 X-134.310 Y10.610 Z-2.594 
N1512 X-134.314 Y10.506 Z-2.482 
N1513 X-134.319 Y10.402 Z-2.370 
N1514 X-134.323 Y10.298 Z-2.259 
N1515 X-134.328 Y10.194 Z-2.147 
N1516 X-134.332 Y10.090 Z-2.035 
N1517 X-134.337 Y9.986 Z-1.924 
N1518 X-134.341 Y9.881 Z-1.812 
N1519 X-134.346 Y9.777 Z-1.700 
N1520 X-134.350 Y9.673 Z-1.589 
N1521 X-134.355 Y9.569 Z-1.477 
N1522 X-134.359 Y9.465 Z-1.365 
N1523 X-134.364 Y9.361 Z-1.253 
N1524 X-134.368 Y9.257 Z-1.142 
N1525 X-134.373 Y9.152 Z-1.030 
N1526 X-134.377 Y9.048 Z-0.918 
N1527 X-134.382 Y8.944 Z-0.807 
N1528 X-134.386 Y8.840 Z-0.695 
N1529 X-134.391 Y8.736 Z-0.583 
N1530 X-134.395 Y8.632 Z-0.472 
N1531 X-134.400 Y8.528 Z-0.360 
N1532 X-134.404 Y8.423 Z-0.248 
N1533 X-134.407 Y8.319 Z-0.137 
N1534 X-134.409 Y8.215 Z-0.025 
N1535 X-134.412 Y8.111 Z0.087 
N1536 X-134.414 Y8.007 Z0.198 
N1537 X-134.417 Y7.903 Z0.310 
N1538 X-134.419 Y7.798 Z0.422 
N1539 X-134.422 Y7.694 Z0.534 
N1540 X-134.425 Y7.590 Z0.645 
N1541 X-134.427 Y7.486 Z0.757 
N1542 X-134.430 Y7.382 Z0.869 
N1543 X-134.432 Y7.278 Z0.980 
N1544 X-134.435 Y7.173 Z1.092 
N1545 X-134.437 Y7.069 Z1.204 
N1546 X-134.440 Y6.965 Z1.316 
N1547 X-134.443 Y6.861 Z1.427 
N1548 X-134.445 Y6.757 Z1.539 
N1549 X-134.448 Y6.652 Z1.651 
N1550 X-134.450 Y6.548 Z1.762 
N1551 X-134.453 Y6.444 Z1.874 
N1552 X-134.455 Y6.340 Z1.986 
N1553 X-134.458 Y6.236 Z2.098 
N1554 X-134.461 Y6.132 Z2.209 
N1555 X-134.463 Y6.027 Z2.321 
N1556 X-134.466 Y5.923 Z2.433 
N1557 X-134.468 Y5.819 Z2.544 
N1558 X-134.471 Y5.715 Z2.656 
N1559 X-134.473 Y5.611 Z2.768 
N1560 X-134.476 Y5.507 Z2.880 
N1561 X-134.479 Y5.402 Z2.991 
N1562 X-134.481 Y5.298 Z3.103 
N1563 X-134.484 Y5.194 Z3.215 
N1564 X-134.486 Y5.090 Z3.326 
N1565 X-134.489 Y4.986 Z3.438 
N1566 X-134.491 Y4.882 Z3.550 
N1567 X-134.494 Y4.777 Z3.662 
N1568 X-134.497 Y4.673 Z3.773 
N1569 X-134.499 Y4.569 Z3.885 
N1570 X-134.502 Y4.465 Z3.997 
N1571 X-134.504 Y4.361 Z4.108 
N1572 X-134.507 Y4.256 Z4.220 
N1573 X-134.509 Y4.152 Z4.332 
N1574 X-134.512 Y4.048 Z4.444 
N1575 X-134.515 Y3.944 Z4.555 
N1576 X-134.517 Y3.840 Z4.667 
N1577 X-134.520 Y3.736 Z4.779 
N1578 X-134.522 Y3.631 Z4.890 
N1579 X-134.525 Y3.527 Z5.002 
N1580 X-134.527 Y3.423 Z5.114 
N1581 X-134.530 Y3.319 Z5.226 
N1582 X-134.533 Y3.215 Z5.337 
N1583 X-134.535 Y3.111 Z5.449 
N1584 X-134.538 Y3.006 Z5.561 
N1585 X-134.540 Y2.902 Z5.672 
N1586 X-134.542 Y2.798 Z5.784 
N1587 X-134.542 Y2.694 Z5.896 
N1588 X-134.543 Y2.590 Z6.008 
N1589 X-134.544 Y2.485 Z6.119 
N1590 X-134.545 Y2.381 Z6.231 
N1591 X-134.546 Y2.277 Z6.343 
N1592 X-134.547 Y2.173 Z6.455 
N1593 X-134.548 Y2.069 Z6.566 
N1594 X-134.548 Y1.965 Z6.678 
N1595 X-134.549 Y1.860 Z6.790 
N1596 X-134.550 Y1.756 Z6.901 
N1597 X-134.551 Y1.652 Z7.013 
N1598 X-134.552 Y1.548 Z7.125 
N1599 X-134.553 Y1.444 Z7.237 
N1600 X-134.554 Y1.339 Z7.348 
N1601 X-134.555 Y1.235 Z7.460 
N1602 X-134.555 Y1.131 Z7.572 
N1603 X-134.556 Y1.027 Z7.684 
N1604 X-134.557 Y0.923 Z7.795 
N1605 X-134.558 Y0.818 Z7.907 
N1606 X-134.559 Y0.714 Z8.019 
N1607 X-134.560 Y0.610 Z8.130 
N1608 X-134.561 Y0.506 Z8.242 
N1609 X-134.561 Y0.402 Z8.354 
N1610 X-134.562 Y0.298 Z8.466 
N1611 X-134.563 Y0.193 Z8.577 
N1612 X-134.564 Y0.089 Z8.689 
N1613 X-134.565 Y-0.015 Z8.801 
N1614 X-134.566 Y-0.119 Z8.913 
N1615 X-134.567 Y-0.223 Z9.024 
N1616 X-134.568 Y-0.328 Z9.136 
N1617 X-134.568 Y-0.432 Z9.248 
N1618 X-134.567 Y-0.536 Z9.359 
N1619 X-134.567 Y-0.640 Z9.471 
N1620 X-134.567 Y-0.744 Z9.583 
N1621 X-134.566 Y-0.849 Z9.695 
N1622 X-134.566 Y-0.953 Z9.806 
N1623 X-134.565 Y-1.057 Z9.918 
N1624 X-134.565 Y-1.161 Z10.030 
N1625 X-134.565 Y-1.265 Z10.142 
N1626 X-134.564 Y-1.369 Z10.253 
N1627 X-134.564 Y-1.474 Z10.365 
N1628 X-134.563 Y-1.578 Z10.477 
N1629 X-134.563 Y-1.682 Z10.588 
N1630 X-134.562 Y-1.786 Z10.700 
N1631 X-134.562 Y-1.890 Z10.812 
N1632 X-134.562 Y-1.995 Z10.924 
N1633 X-134.561 Y-2.099 Z11.035 
N1634 X-134.561 Y-2.203 Z11.147 
N1635 X-134.560 Y-2.307 Z11.259 
N1636 X-134.560 Y-2.411 Z11.371 
N1637 X-134.560 Y-2.516 Z11.482 
N1638 X-134.559 Y-2.620 Z11.594 
N1639 X-134.559 Y-2.724 Z11.706 
N1640 X-134.558 Y-2.828 Z11.817 
N1641 X-134.558 Y-2.932 Z11.929 
N1642 X-134.558 Y-3.037 Z12.041 
N1643 X-134.557 Y-3.141 Z12.153 
N1644 X-134.557 Y-3.245 Z12.264 
N1645 X-134.556 Y-3.349 Z12.376 
N1646 X-134.556 Y-3.453 Z12.488 
N1647 X-134.556 Y-3.557 Z12.600 
N1648 X-134.555 Y-3.662 Z12.711 
N1649 X-134.554 Y-3.766 Z12.823 
N1650 X-134.551 Y-3.870 Z12.935 
N1651 X-134.549 Y-3.974 Z13.046 
N1652 X-134.547 Y-4.078 Z13.158 
N1653 X-134.545 Y-4.183 Z13.270 
N1654 X-134.543 Y-4.287 Z13.382 
N1655 X-134.541 Y-4.391 Z13.493 
N1656 X-134.538 Y-4.495 Z13.605 
N1657 X-134.536 Y-4.599 Z13.717 
N1658 X-134.534 Y-4.703 Z13.828 
N1659 X-134.532 Y-4.808 Z13.940 
N1660 X-134.530 Y-4.912 Z14.052 
N1661 X-134.528 Y-5.016 Z14.164 
N1662 X-134.525 Y-5.120 Z14.275 
N1663 X-134.523 Y-5.224 Z14.387 
N1664 X-134.521 Y-5.329 Z14.499 
N1665 X-134.519 Y-5.433 Z14.611 
N1666 X-134.517 Y-5.537 Z14.722 
N1667 X-134.515 Y-5.641 Z14.834 
N1668 X-134.512 Y-5.745 Z14.946 
N1669 X-134.510 Y-5.849 Z15.057 
N1670 X-134.508 Y-5.954 Z15.169 
N1671 X-134.506 Y-6.058 Z15.281 
N1672 X-134.504 Y-6.162 Z15.393 
N1673 X-134.502 Y-6.266 Z15.504 
N1674 X-134.499 Y-6.370 Z15.616 
N1675 X-134.497 Y-6.474 Z15.728 
N1676 X-134.495 Y-6.579 Z15.839 
N1677 X-134.493 Y-6.683 Z15.951 
N1678 X-134.491 Y-6.787 Z16.063 
N1679 X-134.489 Y-6.891 Z16.175 
N1680 X-134.486 Y-6.995 Z16.286 
N1681 X-134.484 Y-7.100 Z16.398 
N1682 X-134.482 Y-7.204 Z16.510 
N1683 X-134.480 Y-7.308 Z16.621 
N1684 X-134.478 Y-7.412 Z16.733 
N1685 X-134.476 Y-7.516 Z16.845 
N1686 X-134.473 Y-7.620 Z16.957 
N1687 X-134.471 Y-7.725 Z17.068 
N1688 X-134.469 Y-7.829 Z17.180 
N1689 X-134.467 Y-7.933 Z17.292 
N1690 X-134.465 Y-8.037 Z17.403 
N1691 X-134.463 Y-8.141 Z17.515 
N1692 X-134.460 Y-8.246 Z17.627 
N1693 X-134.458 Y-8.350 Z17.739 
N1694 X-134.456 Y-8.454 Z17.850 
N1695 X-134.454 Y-8.558 Z17.962 
N1696 X-134.452 Y-8.662 Z18.074 
N1697 X-134.449 Y-8.766 Z18.185 
N1698 X-134.447 Y-8.871 Z18.297 
N1699 X-134.445 Y-8.975 Z18.409 
N1700 X-134.443 Y-9.079 Z18.521 
N1701 X-134.441 Y-9.183 Z18.632 
N1702 X-134.439 Y-9.287 Z18.744 
N1703 X-134.436 Y-9.391 Z18.856 
N1704 X-134.434 Y-9.496 Z18.968 
N1705 X-134.432 Y-9.599 Z19.078 
N1706 X-134.430 Y-9.702 Z19.189 
N1707 X-134.428 Y-9.806 Z19.300 
N1708 X-134.426 Y-9.909 Z19.411 
N1709 X-134.424 Y-10.012 Z19.522 
N1710 X-134.421 Y-10.116 Z19.632 
N1711 X-134.419 Y-10.219 Z19.743 
N1712 X-134.417 Y-10.322 Z19.854 
N1713 X-134.415 Y-10.426 Z19.965 
N1714 X-134.413 Y-10.529 Z20.076 
N1715 X-134.411 Y-10.632 Z20.186 
N1716 X-134.409 Y-10.736 Z20.297 
N1717 X-134.406 Y-10.839 Z20.408 
N1718 X-134.404 Y-10.942 Z20.519 
N1719 X-134.402 Y-11.045 Z20.630 
N1720 X-134.400 Y-11.149 Z20.740 
N1721 X-134.398 Y-11.252 Z20.851 
N1722 X-134.396 Y-11.355 Z20.962 
N1723 X-134.393 Y-11.459 Z21.073 
N1724 X-134.391 Y-11.562 Z21.184 
N1725 X-134.389 Y-11.665 Z21.294 
N1726 X-134.387 Y-11.769 Z21.405 
N1727 X-134.385 Y-11.872 Z21.516 
N1728 X-134.383 Y-11.975 Z21.627 
N1729 X-134.381 Y-12.079 Z21.738 
N1730 X-134.378 Y-12.182 Z21.848 
N1731 X-134.376 Y-12.285 Z21.959 
N1732 X-134.374 Y-12.389 Z22.070 
N1733 X-134.372 Y-12.492 Z22.181 
N1734 X-134.370 Y-12.595 Z22.292 
N1735 X-134.368 Y-12.699 Z22.402 
N1736 X-134.366 Y-12.802 Z22.513 
N1737 X-134.363 Y-12.905 Z22.624 
N1738 G40 X-134.349 Y-13.587 Z23.355 F458
N1739 X-134.349 Y-13.587 Z23.355 
N1740 G00 X-134.349 Y22.980 Z57.455 
RAPORT("TA333333","Side Milling:149 End")
;trailer : concat=None
; points cnt = 1676
N1742 MSG (" --- GROUPED OF SUBPROGRAM --- ")
N1743 FGROUP()
N1744 TRAFOOF
; PROGRAM NAME: A33333338
; ORDER       : A333333
; OPER. NAME  : Side Milling:150
; OPER. DESCR.: rough face root outlet FSA
; OPER. TYPE  : sideMill
; GEO. OPTION : 1
; MACHINE     : HSTM_300_SIM840D_Py
;             : HSTM300/500 - HAMUEL: 5-axis milling machine-SIM840D Traori PP_Script
; CONTROL     : SINUMERIK 840D
; created:   2021-09-10 09:01:53.747623
;----------------------------------------
RAPORT("TA333333","Side Milling:150")
N10 TRAFOOF
N11 D0
N12 G90 G94
N13 G0 G53 D0 Z550
N14 STOPRE
M9 ; chlodziwo wyl
; --- Side Milling:150 - rough face root outlet FSA ---
N16 ;ToolChange : concat=None ,current_tdmid=None, PP.tdmId=957774
N17 TRAFOOF
N18 G0 G53 D0 Z550 B0
N19 STOPRE
N20 MSG(" TLID=957774 D=10.0 R=0.0 Ang=0.0 Len=129.0 ")
N21 S2864 M03
N22 STOPRE
N23 TOL(0.1,1,1)
N24 G0 G53 A133.0000 B0.0000
N25 TRAORI
N26 G54 D2
;tol5=0.15
N27 D2 
STOPRE
E_ZDARZ=500001
;ACS_ROUGH_ROOT_FRONT=7757774
STOPRE
;UWAGA : ZMIENIONA TOLERANCJA OSI A i B, ruchy osi A i B beda usuniete : TOL5=0.15
N28 ; DELTA A > 40.1
N29 TRAFOOF
N30 D2
N31 STOPRE
N32 G00 G54 Z257.000
N33 G01 A133.0000 F10000
N34 TRAORI
N35 G54 D2
N36 STOPRE
N37 TRANS 
N38 G00 X-132.832 Y-85.832 Z-5.734 A133.0000 
N39 M342 ; chlodziwo woda
N40 X-132.832 Y-49.264 Z28.366 
N41 ;FSA_1
N42 G01 G41 X-132.890 Y-48.583 Z27.636 F458
N43 G01 X-132.890 Y-48.583 Z27.636 F458 
N44 X-132.899 Y-48.481 Z27.526 
N45 X-132.907 Y-48.379 Z27.417 
N46 X-132.916 Y-48.277 Z27.307 
N47 X-132.925 Y-48.175 Z27.198 
N48 X-132.934 Y-48.072 Z27.088 
N49 X-132.942 Y-47.970 Z26.979 
N50 X-132.951 Y-47.868 Z26.869 
N51 X-132.960 Y-47.766 Z26.760 
N52 X-132.968 Y-47.664 Z26.650 
N53 X-132.977 Y-47.562 Z26.541 
N54 X-132.986 Y-47.460 Z26.431 
N55 X-132.994 Y-47.358 Z26.322 
N56 X-133.003 Y-47.255 Z26.212 
N57 X-133.012 Y-47.153 Z26.103 
N58 X-133.021 Y-47.051 Z25.993 
N59 X-133.029 Y-46.949 Z25.883 
N60 X-133.038 Y-46.847 Z25.774 
N61 X-133.047 Y-46.745 Z25.664 
N62 X-133.055 Y-46.643 Z25.555 
N63 X-133.064 Y-46.541 Z25.445 
N64 X-133.073 Y-46.437 Z25.335 
N65 X-133.082 Y-46.334 Z25.224 
N66 X-133.090 Y-46.231 Z25.114 
N67 X-133.099 Y-46.128 Z25.003 
N68 X-133.108 Y-46.025 Z24.892 
N69 X-133.117 Y-45.922 Z24.782 
N70 X-133.126 Y-45.818 Z24.671 
N71 X-133.134 Y-45.715 Z24.560 
N72 X-133.143 Y-45.612 Z24.450 
N73 X-133.152 Y-45.509 Z24.339 
N74 X-133.161 Y-45.406 Z24.229 
N75 X-133.169 Y-45.303 Z24.118 
N76 X-133.178 Y-45.199 Z24.007 
N77 X-133.187 Y-45.096 Z23.897 
N78 X-133.196 Y-44.993 Z23.786 
N79 X-133.205 Y-44.890 Z23.675 
N80 X-133.213 Y-44.787 Z23.565 
N81 X-133.222 Y-44.684 Z23.454 
N82 X-133.231 Y-44.581 Z23.344 
N83 X-133.240 Y-44.477 Z23.233 
N84 X-133.249 Y-44.374 Z23.122 
N85 X-133.257 Y-44.271 Z23.012 
N86 X-133.266 Y-44.168 Z22.901 
N87 X-133.275 Y-44.065 Z22.790 
N88 X-133.284 Y-43.962 Z22.680 
N89 X-133.293 Y-43.858 Z22.569 
N90 X-133.301 Y-43.755 Z22.459 
N91 X-133.310 Y-43.652 Z22.348 
N92 X-133.319 Y-43.549 Z22.237 
N93 X-133.328 Y-43.446 Z22.127 
N94 X-133.336 Y-43.343 Z22.016 
N95 X-133.345 Y-43.239 Z21.905 
N96 X-133.354 Y-43.136 Z21.795 
N97 X-133.363 Y-43.032 Z21.683 
N98 X-133.372 Y-42.928 Z21.572 
N99 X-133.381 Y-42.824 Z21.460 
N100 X-133.389 Y-42.720 Z21.349 
N101 X-133.398 Y-42.616 Z21.237 
N102 X-133.407 Y-42.512 Z21.126 
N103 X-133.416 Y-42.408 Z21.014 
N104 X-133.425 Y-42.304 Z20.903 
N105 X-133.434 Y-42.200 Z20.791 
N106 X-133.443 Y-42.096 Z20.679 
N107 X-133.452 Y-41.992 Z20.568 
N108 X-133.460 Y-41.888 Z20.456 
N109 X-133.469 Y-41.784 Z20.345 
N110 X-133.478 Y-41.680 Z20.233 
N111 X-133.487 Y-41.576 Z20.122 
N112 X-133.496 Y-41.472 Z20.010 
N113 X-133.505 Y-41.368 Z19.899 
N114 X-133.514 Y-41.264 Z19.787 
N115 X-133.522 Y-41.160 Z19.676 
N116 X-133.531 Y-41.056 Z19.564 
N117 X-133.540 Y-40.952 Z19.453 
N118 X-133.549 Y-40.848 Z19.341 
N119 X-133.558 Y-40.744 Z19.229 
N120 X-133.567 Y-40.640 Z19.118 
N121 X-133.576 Y-40.536 Z19.006 
N122 X-133.584 Y-40.432 Z18.895 
N123 X-133.593 Y-40.328 Z18.783 
N124 X-133.602 Y-40.224 Z18.672 
N125 X-133.611 Y-40.120 Z18.560 
N126 X-133.620 Y-40.016 Z18.449 
N127 X-133.629 Y-39.912 Z18.337 
N128 X-133.638 Y-39.808 Z18.226 
N129 X-133.646 Y-39.704 Z18.114 
N130 X-133.655 Y-39.600 Z18.003 
N131 X-133.664 Y-39.496 Z17.891 
N132 X-133.673 Y-39.392 Z17.779 
N133 X-133.682 Y-39.288 Z17.668 
N134 X-133.691 Y-39.184 Z17.556 
N135 X-133.700 Y-39.080 Z17.445 
N136 X-133.708 Y-38.976 Z17.333 
N137 X-133.717 Y-38.872 Z17.222 
N138 X-133.726 Y-38.768 Z17.110 
N139 X-133.735 Y-38.664 Z16.999 
N140 X-133.744 Y-38.560 Z16.887 
N141 X-133.753 Y-38.456 Z16.776 
N142 X-133.762 Y-38.352 Z16.664 
N143 X-133.771 Y-38.248 Z16.553 
N144 X-133.779 Y-38.144 Z16.441 
N145 X-133.788 Y-38.040 Z16.330 
N146 X-133.797 Y-37.936 Z16.218 
N147 X-133.806 Y-37.832 Z16.106 
N148 X-133.813 Y-37.728 Z15.995 
N149 X-133.821 Y-37.624 Z15.883 
N150 X-133.828 Y-37.520 Z15.772 
N151 X-133.835 Y-37.416 Z15.660 
N152 X-133.842 Y-37.311 Z15.548 
N153 X-133.850 Y-37.207 Z15.437 
N154 X-133.857 Y-37.103 Z15.325 
N155 X-133.864 Y-36.999 Z15.214 
N156 X-133.871 Y-36.895 Z15.102 
N157 X-133.878 Y-36.791 Z14.990 
N158 X-133.886 Y-36.687 Z14.879 
N159 X-133.893 Y-36.583 Z14.767 
N160 X-133.900 Y-36.479 Z14.656 
N161 X-133.907 Y-36.375 Z14.544 
N162 X-133.915 Y-36.271 Z14.432 
N163 X-133.922 Y-36.167 Z14.321 
N164 X-133.929 Y-36.063 Z14.209 
N165 X-133.936 Y-35.959 Z14.098 
N166 X-133.943 Y-35.855 Z13.986 
N167 X-133.951 Y-35.750 Z13.874 
N168 X-133.958 Y-35.646 Z13.763 
N169 X-133.965 Y-35.542 Z13.651 
N170 X-133.972 Y-35.438 Z13.540 
N171 X-133.980 Y-35.334 Z13.428 
N172 X-133.987 Y-35.230 Z13.316 
N173 X-133.994 Y-35.126 Z13.205 
N174 X-134.001 Y-35.022 Z13.093 
N175 X-134.008 Y-34.918 Z12.982 
N176 X-134.016 Y-34.814 Z12.870 
N177 X-134.023 Y-34.710 Z12.758 
N178 X-134.029 Y-34.606 Z12.647 
N179 X-134.035 Y-34.502 Z12.535 
N180 X-134.041 Y-34.397 Z12.424 
N181 X-134.047 Y-34.293 Z12.312 
N182 X-134.053 Y-34.189 Z12.200 
N183 X-134.059 Y-34.085 Z12.089 
N184 X-134.065 Y-33.981 Z11.977 
N185 X-134.071 Y-33.877 Z11.865 
N186 X-134.077 Y-33.773 Z11.754 
N187 X-134.083 Y-33.669 Z11.642 
N188 X-134.088 Y-33.565 Z11.530 
N189 X-134.094 Y-33.461 Z11.419 
N190 X-134.100 Y-33.356 Z11.307 
N191 X-134.106 Y-33.252 Z11.196 
N192 X-134.112 Y-33.148 Z11.084 
N193 X-134.118 Y-33.044 Z10.972 
N194 X-134.124 Y-32.940 Z10.861 
N195 X-134.130 Y-32.836 Z10.749 
N196 X-134.136 Y-32.732 Z10.637 
N197 X-134.142 Y-32.628 Z10.526 
N198 X-134.148 Y-32.524 Z10.414 
N199 X-134.153 Y-32.419 Z10.302 
N200 X-134.159 Y-32.315 Z10.191 
N201 X-134.165 Y-32.211 Z10.079 
N202 X-134.171 Y-32.107 Z9.967 
N203 X-134.177 Y-32.003 Z9.856 
N204 X-134.183 Y-31.899 Z9.744 
N205 X-134.189 Y-31.795 Z9.633 
N206 X-134.195 Y-31.691 Z9.521 
N207 X-134.201 Y-31.587 Z9.409 
N208 X-134.207 Y-31.482 Z9.298 
N209 X-134.213 Y-31.378 Z9.186 
N210 X-134.218 Y-31.274 Z9.074 
N211 X-134.224 Y-31.170 Z8.963 
N212 X-134.230 Y-31.066 Z8.851 
N213 X-134.235 Y-30.962 Z8.739 
N214 X-134.240 Y-30.858 Z8.628 
N215 X-134.244 Y-30.754 Z8.516 
N216 X-134.248 Y-30.649 Z8.404 
N217 X-134.253 Y-30.545 Z8.293 
N218 X-134.257 Y-30.441 Z8.181 
N219 X-134.261 Y-30.337 Z8.069 
N220 X-134.266 Y-30.233 Z7.958 
N221 X-134.270 Y-30.129 Z7.846 
N222 X-134.274 Y-30.025 Z7.734 
N223 X-134.279 Y-29.920 Z7.623 
N224 X-134.283 Y-29.816 Z7.511 
N225 X-134.287 Y-29.712 Z7.399 
N226 X-134.292 Y-29.608 Z7.288 
N227 X-134.296 Y-29.504 Z7.176 
N228 X-134.300 Y-29.400 Z7.064 
N229 X-134.305 Y-29.296 Z6.953 
N230 X-134.309 Y-29.191 Z6.841 
N231 X-134.314 Y-29.087 Z6.729 
N232 X-134.318 Y-28.983 Z6.617 
N233 X-134.322 Y-28.879 Z6.506 
N234 X-134.327 Y-28.775 Z6.394 
N235 X-134.331 Y-28.671 Z6.282 
N236 X-134.335 Y-28.567 Z6.171 
N237 X-134.340 Y-28.462 Z6.059 
N238 X-134.344 Y-28.358 Z5.947 
N239 X-134.348 Y-28.254 Z5.836 
N240 X-134.353 Y-28.150 Z5.724 
N241 X-134.357 Y-28.046 Z5.612 
N242 X-134.361 Y-27.942 Z5.501 
N243 X-134.366 Y-27.838 Z5.389 
N244 X-134.370 Y-27.733 Z5.277 
N245 X-134.374 Y-27.629 Z5.166 
N246 X-134.379 Y-27.525 Z5.054 
N247 X-134.383 Y-27.421 Z4.942 
N248 X-134.387 Y-27.317 Z4.831 
N249 X-134.392 Y-27.213 Z4.719 
N250 X-134.396 Y-27.109 Z4.607 
N251 X-134.401 Y-27.004 Z4.496 
N252 X-134.405 Y-26.900 Z4.384 
N253 X-134.409 Y-26.796 Z4.272 
N254 X-134.414 Y-26.692 Z4.161 
N255 X-134.418 Y-26.588 Z4.049 
N256 X-134.420 Y-26.484 Z3.937 
N257 X-134.422 Y-26.380 Z3.825 
N258 X-134.425 Y-26.275 Z3.714 
N259 X-134.427 Y-26.171 Z3.602 
N260 X-134.430 Y-26.067 Z3.490 
N261 X-134.432 Y-25.963 Z3.379 
N262 X-134.434 Y-25.859 Z3.267 
N263 X-134.437 Y-25.755 Z3.155 
N264 X-134.439 Y-25.650 Z3.043 
N265 X-134.442 Y-25.546 Z2.932 
N266 X-134.444 Y-25.442 Z2.820 
N267 X-134.446 Y-25.338 Z2.708 
N268 X-134.449 Y-25.234 Z2.597 
N269 X-134.451 Y-25.129 Z2.485 
N270 X-134.454 Y-25.025 Z2.373 
N271 X-134.456 Y-24.921 Z2.261 
N272 X-134.458 Y-24.817 Z2.150 
N273 X-134.461 Y-24.713 Z2.038 
N274 X-134.463 Y-24.609 Z1.926 
N275 X-134.466 Y-24.504 Z1.815 
N276 X-134.468 Y-24.400 Z1.703 
N277 X-134.470 Y-24.296 Z1.591 
N278 X-134.473 Y-24.192 Z1.479 
N279 X-134.475 Y-24.088 Z1.368 
N280 X-134.478 Y-23.984 Z1.256 
N281 X-134.480 Y-23.879 Z1.144 
N282 X-134.482 Y-23.775 Z1.033 
N283 X-134.485 Y-23.671 Z0.921 
N284 X-134.487 Y-23.567 Z0.809 
N285 X-134.490 Y-23.463 Z0.698 
N286 X-134.492 Y-23.359 Z0.586 
N287 X-134.494 Y-23.254 Z0.474 
N288 X-134.497 Y-23.150 Z0.362 
N289 X-134.499 Y-23.046 Z0.251 
N290 X-134.502 Y-22.942 Z0.139 
N291 X-134.504 Y-22.838 Z0.027 
N292 X-134.506 Y-22.734 Z-0.084 
N293 X-134.509 Y-22.629 Z-0.196 
N294 X-134.511 Y-22.525 Z-0.308 
N295 X-134.514 Y-22.421 Z-0.420 
N296 X-134.516 Y-22.317 Z-0.531 
N297 X-134.518 Y-22.213 Z-0.643 
N298 X-134.521 Y-22.109 Z-0.755 
N299 X-134.523 Y-22.004 Z-0.866 
N300 X-134.526 Y-21.900 Z-0.978 
N301 X-134.528 Y-21.796 Z-1.090 
N302 X-134.530 Y-21.692 Z-1.202 
N303 X-134.533 Y-21.588 Z-1.313 
N304 X-134.535 Y-21.483 Z-1.425 
N305 X-134.538 Y-21.379 Z-1.537 
N306 X-134.540 Y-21.275 Z-1.648 
N307 X-134.543 Y-21.171 Z-1.760 
N308 X-134.545 Y-21.067 Z-1.872 
N309 X-134.547 Y-20.963 Z-1.984 
N310 X-134.548 Y-20.858 Z-2.095 
N311 X-134.549 Y-20.754 Z-2.207 
N312 X-134.549 Y-20.650 Z-2.319 
N313 X-134.550 Y-20.546 Z-2.430 
N314 X-134.551 Y-20.442 Z-2.542 
N315 X-134.551 Y-20.338 Z-2.654 
N316 X-134.552 Y-20.233 Z-2.766 
N317 X-134.553 Y-20.129 Z-2.877 
N318 X-134.553 Y-20.025 Z-2.989 
N319 X-134.554 Y-19.921 Z-3.101 
N320 X-134.555 Y-19.817 Z-3.213 
N321 X-134.555 Y-19.712 Z-3.324 
N322 X-134.556 Y-19.608 Z-3.436 
N323 X-134.557 Y-19.504 Z-3.548 
N324 X-134.557 Y-19.400 Z-3.659 
N325 X-134.558 Y-19.296 Z-3.771 
N326 X-134.559 Y-19.191 Z-3.883 
N327 X-134.559 Y-19.087 Z-3.995 
N328 X-134.560 Y-18.983 Z-4.106 
N329 X-134.561 Y-18.879 Z-4.218 
N330 X-134.561 Y-18.775 Z-4.330 
N331 X-134.562 Y-18.671 Z-4.441 
N332 X-134.563 Y-18.566 Z-4.553 
N333 X-134.563 Y-18.462 Z-4.665 
N334 X-134.564 Y-18.358 Z-4.777 
N335 X-134.565 Y-18.254 Z-4.888 
N336 X-134.565 Y-18.150 Z-5.000 
N337 X-134.566 Y-18.045 Z-5.112 
N338 X-134.567 Y-17.941 Z-5.224 
N339 X-134.567 Y-17.837 Z-5.335 
N340 X-134.568 Y-17.733 Z-5.447 
N341 X-134.568 Y-17.629 Z-5.559 
N342 X-134.568 Y-17.525 Z-5.670 
N343 X-134.567 Y-17.420 Z-5.782 
N344 X-134.567 Y-17.316 Z-5.894 
N345 X-134.566 Y-17.212 Z-6.006 
N346 X-134.565 Y-17.108 Z-6.117 
N347 X-134.565 Y-17.004 Z-6.229 
N348 X-134.564 Y-16.899 Z-6.341 
N349 X-134.564 Y-16.795 Z-6.453 
N350 X-134.563 Y-16.691 Z-6.564 
N351 X-134.562 Y-16.587 Z-6.676 
N352 X-134.562 Y-16.483 Z-6.788 
N353 X-134.561 Y-16.379 Z-6.899 
N354 X-134.561 Y-16.274 Z-7.011 
N355 X-134.560 Y-16.170 Z-7.123 
N356 X-134.559 Y-16.066 Z-7.235 
N357 X-134.559 Y-15.962 Z-7.346 
N358 X-134.558 Y-15.858 Z-7.458 
N359 X-134.558 Y-15.753 Z-7.570 
N360 X-134.557 Y-15.649 Z-7.681 
N361 X-134.556 Y-15.545 Z-7.793 
N362 X-134.556 Y-15.441 Z-7.905 
N363 X-134.555 Y-15.337 Z-8.017 
N364 X-134.554 Y-15.232 Z-8.128 
N365 X-134.554 Y-15.128 Z-8.240 
N366 X-134.553 Y-15.024 Z-8.352 
N367 X-134.553 Y-14.920 Z-8.464 
N368 X-134.552 Y-14.816 Z-8.575 
N369 X-134.551 Y-14.712 Z-8.687 
N370 X-134.551 Y-14.607 Z-8.799 
N371 X-134.550 Y-14.503 Z-8.910 
N372 X-134.550 Y-14.399 Z-9.022 
N373 X-134.548 Y-14.295 Z-9.134 
N374 X-134.546 Y-14.191 Z-9.246 
N375 X-134.543 Y-14.086 Z-9.357 
N376 X-134.541 Y-13.982 Z-9.469 
N377 X-134.539 Y-13.878 Z-9.581 
N378 X-134.536 Y-13.774 Z-9.692 
N379 X-134.534 Y-13.670 Z-9.804 
N380 X-134.532 Y-13.566 Z-9.916 
N381 X-134.529 Y-13.461 Z-10.028 
N382 X-134.527 Y-13.357 Z-10.139 
N383 X-134.525 Y-13.253 Z-10.251 
N384 X-134.522 Y-13.149 Z-10.363 
N385 X-134.520 Y-13.045 Z-10.474 
N386 X-134.518 Y-12.941 Z-10.586 
N387 X-134.515 Y-12.836 Z-10.698 
N388 X-134.513 Y-12.732 Z-10.810 
N389 X-134.511 Y-12.628 Z-10.921 
N390 X-134.508 Y-12.524 Z-11.033 
N391 X-134.506 Y-12.420 Z-11.145 
N392 X-134.504 Y-12.316 Z-11.256 
N393 X-134.501 Y-12.211 Z-11.368 
N394 X-134.499 Y-12.107 Z-11.480 
N395 X-134.496 Y-12.003 Z-11.592 
N396 X-134.494 Y-11.899 Z-11.703 
N397 X-134.492 Y-11.795 Z-11.815 
N398 X-134.489 Y-11.691 Z-11.927 
N399 X-134.487 Y-11.586 Z-12.038 
N400 X-134.485 Y-11.482 Z-12.150 
N401 X-134.482 Y-11.378 Z-12.262 
N402 X-134.480 Y-11.274 Z-12.374 
N403 X-134.478 Y-11.170 Z-12.485 
N404 X-134.475 Y-11.065 Z-12.597 
N405 X-134.473 Y-10.961 Z-12.709 
N406 X-134.471 Y-10.857 Z-12.820 
N407 X-134.468 Y-10.753 Z-12.932 
N408 X-134.466 Y-10.649 Z-13.044 
N409 X-134.464 Y-10.545 Z-13.155 
N410 X-134.461 Y-10.440 Z-13.267 
N411 X-134.459 Y-10.336 Z-13.379 
N412 X-134.457 Y-10.232 Z-13.491 
N413 X-134.454 Y-10.128 Z-13.602 
N414 X-134.452 Y-10.024 Z-13.714 
N415 X-134.450 Y-9.920 Z-13.826 
N416 X-134.447 Y-9.815 Z-13.937 
N417 X-134.445 Y-9.711 Z-14.049 
N418 X-134.443 Y-9.607 Z-14.161 
N419 X-134.440 Y-9.503 Z-14.273 
N420 X-134.438 Y-9.399 Z-14.384 
N421 X-134.435 Y-9.295 Z-14.496 
N422 X-134.433 Y-9.190 Z-14.608 
N423 X-134.431 Y-9.086 Z-14.719 
N424 X-134.428 Y-8.982 Z-14.831 
N425 X-134.426 Y-8.878 Z-14.943 
N426 X-134.424 Y-8.774 Z-15.055 
N427 X-134.421 Y-8.670 Z-15.166 
N428 X-134.419 Y-8.566 Z-15.277 
N429 X-134.417 Y-8.463 Z-15.388 
N430 X-134.414 Y-8.360 Z-15.499 
N431 X-134.412 Y-8.256 Z-15.609 
N432 X-134.410 Y-8.153 Z-15.720 
N433 X-134.407 Y-8.050 Z-15.831 
N434 X-134.405 Y-7.946 Z-15.942 
N435 X-134.403 Y-7.843 Z-16.053 
N436 X-134.400 Y-7.740 Z-16.163 
N437 X-134.398 Y-7.636 Z-16.274 
N438 X-134.396 Y-7.533 Z-16.385 
N439 X-134.393 Y-7.430 Z-16.496 
N440 X-134.391 Y-7.326 Z-16.607 
N441 X-134.389 Y-7.223 Z-16.717 
N442 X-134.387 Y-7.120 Z-16.828 
N443 X-134.384 Y-7.016 Z-16.939 
N444 X-134.382 Y-6.913 Z-17.050 
N445 X-134.380 Y-6.810 Z-17.161 
N446 X-134.377 Y-6.706 Z-17.271 
N447 X-134.375 Y-6.603 Z-17.382 
N448 X-134.373 Y-6.500 Z-17.493 
N449 X-134.370 Y-6.396 Z-17.604 
N450 X-134.368 Y-6.293 Z-17.715 
N451 X-134.366 Y-6.190 Z-17.825 
N452 X-134.363 Y-6.086 Z-17.936 
N453 X-134.361 Y-5.983 Z-18.047 
N454 X-134.359 Y-5.880 Z-18.158 
N455 X-134.356 Y-5.777 Z-18.269 
N456 X-134.354 Y-5.673 Z-18.379 
N457 X-134.352 Y-5.570 Z-18.490 
N458 X-134.349 Y-5.467 Z-18.601 
N459 X-134.347 Y-5.363 Z-18.712 
N460 X-134.345 Y-5.260 Z-18.823 
N461 G40 X-134.329 Y-4.578 Z-19.554 F458
N462 X-134.329 Y-4.578 Z-19.554 
N463 G00 X-134.329 Y-26.519 Z-40.014 
N464 X-132.832 Y-68.553 Z10.378 
N465 X-132.832 Y-46.613 Z30.838 
N466 ;FSA_1
N467 G01 G41 X-132.890 Y-45.932 Z30.108 F458
N468 G01 X-132.890 Y-45.932 Z30.108 F458 
N469 X-132.899 Y-45.830 Z29.999 
N470 X-132.907 Y-45.728 Z29.889 
N471 X-132.916 Y-45.626 Z29.779 
N472 X-132.925 Y-45.523 Z29.670 
N473 X-132.934 Y-45.421 Z29.560 
N474 X-132.942 Y-45.319 Z29.451 
N475 X-132.951 Y-45.217 Z29.341 
N476 X-132.960 Y-45.115 Z29.232 
N477 X-132.968 Y-45.013 Z29.122 
N478 X-132.977 Y-44.911 Z29.013 
N479 X-132.986 Y-44.809 Z28.903 
N480 X-132.994 Y-44.706 Z28.794 
N481 X-133.003 Y-44.604 Z28.684 
N482 X-133.012 Y-44.502 Z28.575 
N483 X-133.021 Y-44.400 Z28.465 
N484 X-133.029 Y-44.298 Z28.356 
N485 X-133.038 Y-44.196 Z28.246 
N486 X-133.047 Y-44.094 Z28.137 
N487 X-133.055 Y-43.992 Z28.027 
N488 X-133.064 Y-43.889 Z27.918 
N489 X-133.073 Y-43.786 Z27.807 
N490 X-133.082 Y-43.683 Z27.696 
N491 X-133.090 Y-43.580 Z27.586 
N492 X-133.099 Y-43.477 Z27.475 
N493 X-133.108 Y-43.374 Z27.365 
N494 X-133.117 Y-43.270 Z27.254 
N495 X-133.126 Y-43.167 Z27.143 
N496 X-133.134 Y-43.064 Z27.033 
N497 X-133.143 Y-42.961 Z26.922 
N498 X-133.152 Y-42.858 Z26.811 
N499 X-133.161 Y-42.755 Z26.701 
N500 X-133.169 Y-42.651 Z26.590 
N501 X-133.178 Y-42.548 Z26.480 
N502 X-133.187 Y-42.445 Z26.369 
N503 X-133.196 Y-42.342 Z26.258 
N504 X-133.205 Y-42.239 Z26.148 
N505 X-133.213 Y-42.136 Z26.037 
N506 X-133.222 Y-42.033 Z25.926 
N507 X-133.231 Y-41.929 Z25.816 
N508 X-133.240 Y-41.826 Z25.705 
N509 X-133.249 Y-41.723 Z25.595 
N510 X-133.257 Y-41.620 Z25.484 
N511 X-133.266 Y-41.517 Z25.373 
N512 X-133.275 Y-41.414 Z25.263 
N513 X-133.284 Y-41.310 Z25.152 
N514 X-133.293 Y-41.207 Z25.041 
N515 X-133.301 Y-41.104 Z24.931 
N516 X-133.310 Y-41.001 Z24.820 
N517 X-133.319 Y-40.898 Z24.710 
N518 X-133.328 Y-40.795 Z24.599 
N519 X-133.336 Y-40.691 Z24.488 
N520 X-133.345 Y-40.588 Z24.378 
N521 X-133.354 Y-40.485 Z24.267 
N522 X-133.363 Y-40.381 Z24.156 
N523 X-133.372 Y-40.277 Z24.044 
N524 X-133.381 Y-40.173 Z23.932 
N525 X-133.389 Y-40.069 Z23.821 
N526 X-133.398 Y-39.965 Z23.709 
N527 X-133.407 Y-39.861 Z23.598 
N528 X-133.416 Y-39.757 Z23.486 
N529 X-133.425 Y-39.653 Z23.375 
N530 X-133.434 Y-39.549 Z23.263 
N531 X-133.443 Y-39.445 Z23.152 
N532 X-133.452 Y-39.341 Z23.040 
N533 X-133.460 Y-39.237 Z22.929 
N534 X-133.469 Y-39.133 Z22.817 
N535 X-133.478 Y-39.029 Z22.706 
N536 X-133.487 Y-38.925 Z22.594 
N537 X-133.496 Y-38.821 Z22.482 
N538 X-133.505 Y-38.717 Z22.371 
N539 X-133.514 Y-38.613 Z22.259 
N540 X-133.522 Y-38.509 Z22.148 
N541 X-133.531 Y-38.405 Z22.036 
N542 X-133.540 Y-38.301 Z21.925 
N543 X-133.549 Y-38.197 Z21.813 
N544 X-133.558 Y-38.093 Z21.702 
N545 X-133.567 Y-37.989 Z21.590 
N546 X-133.576 Y-37.885 Z21.479 
N547 X-133.584 Y-37.781 Z21.367 
N548 X-133.593 Y-37.677 Z21.256 
N549 X-133.602 Y-37.573 Z21.144 
N550 X-133.611 Y-37.469 Z21.032 
N551 X-133.620 Y-37.365 Z20.921 
N552 X-133.629 Y-37.261 Z20.809 
N553 X-133.638 Y-37.157 Z20.698 
N554 X-133.646 Y-37.053 Z20.586 
N555 X-133.655 Y-36.949 Z20.475 
N556 X-133.664 Y-36.845 Z20.363 
N557 X-133.673 Y-36.741 Z20.252 
N558 X-133.682 Y-36.637 Z20.140 
N559 X-133.691 Y-36.533 Z20.029 
N560 X-133.700 Y-36.429 Z19.917 
N561 X-133.708 Y-36.325 Z19.806 
N562 X-133.717 Y-36.221 Z19.694 
N563 X-133.726 Y-36.117 Z19.583 
N564 X-133.735 Y-36.013 Z19.471 
N565 X-133.744 Y-35.909 Z19.359 
N566 X-133.753 Y-35.805 Z19.248 
N567 X-133.762 Y-35.701 Z19.136 
N568 X-133.771 Y-35.597 Z19.025 
N569 X-133.779 Y-35.493 Z18.913 
N570 X-133.788 Y-35.389 Z18.802 
N571 X-133.797 Y-35.285 Z18.690 
N572 X-133.806 Y-35.181 Z18.579 
N573 X-133.813 Y-35.077 Z18.467 
N574 X-133.821 Y-34.973 Z18.356 
N575 X-133.828 Y-34.868 Z18.244 
N576 X-133.835 Y-34.764 Z18.132 
N577 X-133.842 Y-34.660 Z18.021 
N578 X-133.850 Y-34.556 Z17.909 
N579 X-133.857 Y-34.452 Z17.798 
N580 X-133.864 Y-34.348 Z17.686 
N581 X-133.871 Y-34.244 Z17.574 
N582 X-133.878 Y-34.140 Z17.463 
N583 X-133.886 Y-34.036 Z17.351 
N584 X-133.893 Y-33.932 Z17.240 
N585 X-133.900 Y-33.828 Z17.128 
N586 X-133.907 Y-33.724 Z17.016 
N587 X-133.915 Y-33.620 Z16.905 
N588 X-133.922 Y-33.516 Z16.793 
N589 X-133.929 Y-33.412 Z16.682 
N590 X-133.936 Y-33.307 Z16.570 
N591 X-133.943 Y-33.203 Z16.458 
N592 X-133.951 Y-33.099 Z16.347 
N593 X-133.958 Y-32.995 Z16.235 
N594 X-133.965 Y-32.891 Z16.124 
N595 X-133.972 Y-32.787 Z16.012 
N596 X-133.980 Y-32.683 Z15.900 
N597 X-133.987 Y-32.579 Z15.789 
N598 X-133.994 Y-32.475 Z15.677 
N599 X-134.001 Y-32.371 Z15.566 
N600 X-134.008 Y-32.267 Z15.454 
N601 X-134.016 Y-32.163 Z15.342 
N602 X-134.023 Y-32.059 Z15.231 
N603 X-134.029 Y-31.955 Z15.119 
N604 X-134.035 Y-31.850 Z15.007 
N605 X-134.041 Y-31.746 Z14.896 
N606 X-134.047 Y-31.642 Z14.784 
N607 X-134.053 Y-31.538 Z14.673 
N608 X-134.059 Y-31.434 Z14.561 
N609 X-134.065 Y-31.330 Z14.449 
N610 X-134.071 Y-31.226 Z14.338 
N611 X-134.077 Y-31.122 Z14.226 
N612 X-134.083 Y-31.018 Z14.114 
N613 X-134.088 Y-30.913 Z14.003 
N614 X-134.094 Y-30.809 Z13.891 
N615 X-134.100 Y-30.705 Z13.779 
N616 X-134.106 Y-30.601 Z13.668 
N617 X-134.112 Y-30.497 Z13.556 
N618 X-134.118 Y-30.393 Z13.444 
N619 X-134.124 Y-30.289 Z13.333 
N620 X-134.130 Y-30.185 Z13.221 
N621 X-134.136 Y-30.081 Z13.110 
N622 X-134.142 Y-29.976 Z12.998 
N623 X-134.148 Y-29.872 Z12.886 
N624 X-134.153 Y-29.768 Z12.775 
N625 X-134.159 Y-29.664 Z12.663 
N626 X-134.165 Y-29.560 Z12.551 
N627 X-134.171 Y-29.456 Z12.440 
N628 X-134.177 Y-29.352 Z12.328 
N629 X-134.183 Y-29.248 Z12.216 
N630 X-134.189 Y-29.144 Z12.105 
N631 X-134.195 Y-29.040 Z11.993 
N632 X-134.201 Y-28.935 Z11.881 
N633 X-134.207 Y-28.831 Z11.770 
N634 X-134.213 Y-28.727 Z11.658 
N635 X-134.218 Y-28.623 Z11.547 
N636 X-134.224 Y-28.519 Z11.435 
N637 X-134.230 Y-28.415 Z11.323 
N638 X-134.235 Y-28.311 Z11.212 
N639 X-134.240 Y-28.207 Z11.100 
N640 X-134.244 Y-28.102 Z10.988 
N641 X-134.248 Y-27.998 Z10.877 
N642 X-134.253 Y-27.894 Z10.765 
N643 X-134.257 Y-27.790 Z10.653 
N644 X-134.261 Y-27.686 Z10.542 
N645 X-134.266 Y-27.582 Z10.430 
N646 X-134.270 Y-27.478 Z10.318 
N647 X-134.274 Y-27.373 Z10.207 
N648 X-134.279 Y-27.269 Z10.095 
N649 X-134.283 Y-27.165 Z9.983 
N650 X-134.287 Y-27.061 Z9.871 
N651 X-134.292 Y-26.957 Z9.760 
N652 X-134.296 Y-26.853 Z9.648 
N653 X-134.300 Y-26.749 Z9.536 
N654 X-134.305 Y-26.644 Z9.425 
N655 X-134.309 Y-26.540 Z9.313 
N656 X-134.314 Y-26.436 Z9.201 
N657 X-134.318 Y-26.332 Z9.090 
N658 X-134.322 Y-26.228 Z8.978 
N659 X-134.327 Y-26.124 Z8.866 
N660 X-134.331 Y-26.020 Z8.755 
N661 X-134.335 Y-25.915 Z8.643 
N662 X-134.340 Y-25.811 Z8.531 
N663 X-134.344 Y-25.707 Z8.420 
N664 X-134.348 Y-25.603 Z8.308 
N665 X-134.353 Y-25.499 Z8.196 
N666 X-134.357 Y-25.395 Z8.085 
N667 X-134.361 Y-25.291 Z7.973 
N668 X-134.366 Y-25.186 Z7.861 
N669 X-134.370 Y-25.082 Z7.750 
N670 X-134.374 Y-24.978 Z7.638 
N671 X-134.379 Y-24.874 Z7.526 
N672 X-134.383 Y-24.770 Z7.415 
N673 X-134.387 Y-24.666 Z7.303 
N674 X-134.392 Y-24.562 Z7.191 
N675 X-134.396 Y-24.457 Z7.079 
N676 X-134.401 Y-24.353 Z6.968 
N677 X-134.405 Y-24.249 Z6.856 
N678 X-134.409 Y-24.145 Z6.744 
N679 X-134.414 Y-24.041 Z6.633 
N680 X-134.418 Y-23.937 Z6.521 
N681 X-134.420 Y-23.833 Z6.409 
N682 X-134.422 Y-23.728 Z6.298 
N683 X-134.425 Y-23.624 Z6.186 
N684 X-134.427 Y-23.520 Z6.074 
N685 X-134.430 Y-23.416 Z5.963 
N686 X-134.432 Y-23.312 Z5.851 
N687 X-134.434 Y-23.208 Z5.739 
N688 X-134.437 Y-23.103 Z5.627 
N689 X-134.439 Y-22.999 Z5.516 
N690 X-134.442 Y-22.895 Z5.404 
N691 X-134.444 Y-22.791 Z5.292 
N692 X-134.446 Y-22.687 Z5.181 
N693 X-134.449 Y-22.583 Z5.069 
N694 X-134.451 Y-22.478 Z4.957 
N695 X-134.454 Y-22.374 Z4.845 
N696 X-134.456 Y-22.270 Z4.734 
N697 X-134.458 Y-22.166 Z4.622 
N698 X-134.461 Y-22.062 Z4.510 
N699 X-134.463 Y-21.957 Z4.399 
N700 X-134.466 Y-21.853 Z4.287 
N701 X-134.468 Y-21.749 Z4.175 
N702 X-134.470 Y-21.645 Z4.063 
N703 X-134.473 Y-21.541 Z3.952 
N704 X-134.475 Y-21.437 Z3.840 
N705 X-134.478 Y-21.332 Z3.728 
N706 X-134.480 Y-21.228 Z3.617 
N707 X-134.482 Y-21.124 Z3.505 
N708 X-134.485 Y-21.020 Z3.393 
N709 X-134.487 Y-20.916 Z3.281 
N710 X-134.490 Y-20.812 Z3.170 
N711 X-134.492 Y-20.707 Z3.058 
N712 X-134.494 Y-20.603 Z2.946 
N713 X-134.497 Y-20.499 Z2.835 
N714 X-134.499 Y-20.395 Z2.723 
N715 X-134.502 Y-20.291 Z2.611 
N716 X-134.504 Y-20.187 Z2.499 
N717 X-134.506 Y-20.082 Z2.388 
N718 X-134.509 Y-19.978 Z2.276 
N719 X-134.511 Y-19.874 Z2.164 
N720 X-134.514 Y-19.770 Z2.053 
N721 X-134.516 Y-19.666 Z1.941 
N722 X-134.518 Y-19.562 Z1.829 
N723 X-134.521 Y-19.457 Z1.718 
N724 X-134.523 Y-19.353 Z1.606 
N725 X-134.526 Y-19.249 Z1.494 
N726 X-134.528 Y-19.145 Z1.382 
N727 X-134.530 Y-19.041 Z1.271 
N728 X-134.533 Y-18.936 Z1.159 
N729 X-134.535 Y-18.832 Z1.047 
N730 X-134.538 Y-18.728 Z0.936 
N731 X-134.540 Y-18.624 Z0.824 
N732 X-134.543 Y-18.520 Z0.712 
N733 X-134.545 Y-18.416 Z0.600 
N734 X-134.547 Y-18.311 Z0.489 
N735 X-134.548 Y-18.207 Z0.377 
N736 X-134.549 Y-18.103 Z0.265 
N737 X-134.549 Y-17.999 Z0.154 
N738 X-134.550 Y-17.895 Z0.042 
N739 X-134.551 Y-17.791 Z-0.070 
N740 X-134.551 Y-17.686 Z-0.182 
N741 X-134.552 Y-17.582 Z-0.293 
N742 X-134.553 Y-17.478 Z-0.405 
N743 X-134.553 Y-17.374 Z-0.517 
N744 X-134.554 Y-17.270 Z-0.629 
N745 X-134.555 Y-17.165 Z-0.740 
N746 X-134.555 Y-17.061 Z-0.852 
N747 X-134.556 Y-16.957 Z-0.964 
N748 X-134.557 Y-16.853 Z-1.075 
N749 X-134.557 Y-16.749 Z-1.187 
N750 X-134.558 Y-16.645 Z-1.299 
N751 X-134.559 Y-16.540 Z-1.411 
N752 X-134.559 Y-16.436 Z-1.522 
N753 X-134.560 Y-16.332 Z-1.634 
N754 X-134.561 Y-16.228 Z-1.746 
N755 X-134.561 Y-16.124 Z-1.858 
N756 X-134.562 Y-16.019 Z-1.969 
N757 X-134.563 Y-15.915 Z-2.081 
N758 X-134.563 Y-15.811 Z-2.193 
N759 X-134.564 Y-15.707 Z-2.304 
N760 X-134.565 Y-15.603 Z-2.416 
N761 X-134.565 Y-15.498 Z-2.528 
N762 X-134.566 Y-15.394 Z-2.640 
N763 X-134.567 Y-15.290 Z-2.751 
N764 X-134.567 Y-15.186 Z-2.863 
N765 X-134.568 Y-15.082 Z-2.975 
N766 X-134.568 Y-14.978 Z-3.086 
N767 X-134.568 Y-14.873 Z-3.198 
N768 X-134.567 Y-14.769 Z-3.310 
N769 X-134.567 Y-14.665 Z-3.422 
N770 X-134.566 Y-14.561 Z-3.533 
N771 X-134.565 Y-14.457 Z-3.645 
N772 X-134.565 Y-14.352 Z-3.757 
N773 X-134.564 Y-14.248 Z-3.869 
N774 X-134.564 Y-14.144 Z-3.980 
N775 X-134.563 Y-14.040 Z-4.092 
N776 X-134.562 Y-13.936 Z-4.204 
N777 X-134.562 Y-13.832 Z-4.315 
N778 X-134.561 Y-13.727 Z-4.427 
N779 X-134.561 Y-13.623 Z-4.539 
N780 X-134.560 Y-13.519 Z-4.651 
N781 X-134.559 Y-13.415 Z-4.762 
N782 X-134.559 Y-13.311 Z-4.874 
N783 X-134.558 Y-13.206 Z-4.986 
N784 X-134.558 Y-13.102 Z-5.098 
N785 X-134.557 Y-12.998 Z-5.209 
N786 X-134.556 Y-12.894 Z-5.321 
N787 X-134.556 Y-12.790 Z-5.433 
N788 X-134.555 Y-12.686 Z-5.544 
N789 X-134.554 Y-12.581 Z-5.656 
N790 X-134.554 Y-12.477 Z-5.768 
N791 X-134.553 Y-12.373 Z-5.880 
N792 X-134.553 Y-12.269 Z-5.991 
N793 X-134.552 Y-12.165 Z-6.103 
N794 X-134.551 Y-12.060 Z-6.215 
N795 X-134.551 Y-11.956 Z-6.326 
N796 X-134.550 Y-11.852 Z-6.438 
N797 X-134.550 Y-11.748 Z-6.550 
N798 X-134.548 Y-11.644 Z-6.662 
N799 X-134.546 Y-11.540 Z-6.773 
N800 X-134.543 Y-11.435 Z-6.885 
N801 X-134.541 Y-11.331 Z-6.997 
N802 X-134.539 Y-11.227 Z-7.108 
N803 X-134.536 Y-11.123 Z-7.220 
N804 X-134.534 Y-11.019 Z-7.332 
N805 X-134.532 Y-10.914 Z-7.444 
N806 X-134.529 Y-10.810 Z-7.555 
N807 X-134.527 Y-10.706 Z-7.667 
N808 X-134.525 Y-10.602 Z-7.779 
N809 X-134.522 Y-10.498 Z-7.890 
N810 X-134.520 Y-10.394 Z-8.002 
N811 X-134.518 Y-10.289 Z-8.114 
N812 X-134.515 Y-10.185 Z-8.226 
N813 X-134.513 Y-10.081 Z-8.337 
N814 X-134.511 Y-9.977 Z-8.449 
N815 X-134.508 Y-9.873 Z-8.561 
N816 X-134.506 Y-9.769 Z-8.672 
N817 X-134.504 Y-9.664 Z-8.784 
N818 X-134.501 Y-9.560 Z-8.896 
N819 X-134.499 Y-9.456 Z-9.008 
N820 X-134.496 Y-9.352 Z-9.119 
N821 X-134.494 Y-9.248 Z-9.231 
N822 X-134.492 Y-9.144 Z-9.343 
N823 X-134.489 Y-9.039 Z-9.454 
N824 X-134.487 Y-8.935 Z-9.566 
N825 X-134.485 Y-8.831 Z-9.678 
N826 X-134.482 Y-8.727 Z-9.790 
N827 X-134.480 Y-8.623 Z-9.901 
N828 X-134.478 Y-8.518 Z-10.013 
N829 X-134.475 Y-8.414 Z-10.125 
N830 X-134.473 Y-8.310 Z-10.236 
N831 X-134.471 Y-8.206 Z-10.348 
N832 X-134.468 Y-8.102 Z-10.460 
N833 X-134.466 Y-7.998 Z-10.572 
N834 X-134.464 Y-7.893 Z-10.683 
N835 X-134.461 Y-7.789 Z-10.795 
N836 X-134.459 Y-7.685 Z-10.907 
N837 X-134.457 Y-7.581 Z-11.018 
N838 X-134.454 Y-7.477 Z-11.130 
N839 X-134.452 Y-7.373 Z-11.242 
N840 X-134.450 Y-7.268 Z-11.354 
N841 X-134.447 Y-7.164 Z-11.465 
N842 X-134.445 Y-7.060 Z-11.577 
N843 X-134.443 Y-6.956 Z-11.689 
N844 X-134.440 Y-6.852 Z-11.800 
N845 X-134.438 Y-6.748 Z-11.912 
N846 X-134.435 Y-6.643 Z-12.024 
N847 X-134.433 Y-6.539 Z-12.135 
N848 X-134.431 Y-6.435 Z-12.247 
N849 X-134.428 Y-6.331 Z-12.359 
N850 X-134.426 Y-6.227 Z-12.471 
N851 X-134.424 Y-6.123 Z-12.582 
N852 X-134.421 Y-6.018 Z-12.694 
N853 X-134.419 Y-5.915 Z-12.805 
N854 X-134.417 Y-5.812 Z-12.916 
N855 X-134.414 Y-5.708 Z-13.026 
N856 X-134.412 Y-5.605 Z-13.137 
N857 X-134.410 Y-5.502 Z-13.248 
N858 X-134.407 Y-5.398 Z-13.359 
N859 X-134.405 Y-5.295 Z-13.470 
N860 X-134.403 Y-5.192 Z-13.580 
N861 X-134.400 Y-5.088 Z-13.691 
N862 X-134.398 Y-4.985 Z-13.802 
N863 X-134.396 Y-4.882 Z-13.913 
N864 X-134.393 Y-4.779 Z-14.024 
N865 X-134.391 Y-4.675 Z-14.134 
N866 X-134.389 Y-4.572 Z-14.245 
N867 X-134.387 Y-4.469 Z-14.356 
N868 X-134.384 Y-4.365 Z-14.467 
N869 X-134.382 Y-4.262 Z-14.578 
N870 X-134.380 Y-4.159 Z-14.688 
N871 X-134.377 Y-4.055 Z-14.799 
N872 X-134.375 Y-3.952 Z-14.910 
N873 X-134.373 Y-3.849 Z-15.021 
N874 X-134.370 Y-3.745 Z-15.132 
N875 X-134.368 Y-3.642 Z-15.242 
N876 X-134.366 Y-3.539 Z-15.353 
N877 X-134.363 Y-3.435 Z-15.464 
N878 X-134.361 Y-3.332 Z-15.575 
N879 X-134.359 Y-3.229 Z-15.686 
N880 X-134.356 Y-3.125 Z-15.796 
N881 X-134.354 Y-3.022 Z-15.907 
N882 X-134.352 Y-2.919 Z-16.018 
N883 X-134.349 Y-2.815 Z-16.129 
N884 X-134.347 Y-2.712 Z-16.240 
N885 X-134.345 Y-2.609 Z-16.350 
N886 G40 X-134.329 Y-1.927 Z-17.082 F458
N887 X-134.329 Y-1.927 Z-17.082 
N888 G00 X-134.329 Y-23.867 Z-37.542 
N889 X-132.832 Y-65.902 Z12.850 
N890 X-132.832 Y-43.962 Z33.310 
N891 ;FSA_1
N892 G01 G41 X-132.890 Y-43.281 Z32.580 F458
N893 G01 X-132.890 Y-43.281 Z32.580 F458 
N894 X-132.899 Y-43.179 Z32.471 
N895 X-132.907 Y-43.077 Z32.361 
N896 X-132.916 Y-42.974 Z32.252 
N897 X-132.925 Y-42.872 Z32.142 
N898 X-132.934 Y-42.770 Z32.033 
N899 X-132.942 Y-42.668 Z31.923 
N900 X-132.951 Y-42.566 Z31.814 
N901 X-132.960 Y-42.464 Z31.704 
N902 X-132.968 Y-42.362 Z31.595 
N903 X-132.977 Y-42.260 Z31.485 
N904 X-132.986 Y-42.157 Z31.376 
N905 X-132.994 Y-42.055 Z31.266 
N906 X-133.003 Y-41.953 Z31.157 
N907 X-133.012 Y-41.851 Z31.047 
N908 X-133.021 Y-41.749 Z30.938 
N909 X-133.029 Y-41.647 Z30.828 
N910 X-133.038 Y-41.545 Z30.718 
N911 X-133.047 Y-41.442 Z30.609 
N912 X-133.055 Y-41.340 Z30.499 
N913 X-133.064 Y-41.238 Z30.390 
N914 X-133.073 Y-41.135 Z30.279 
N915 X-133.082 Y-41.032 Z30.169 
N916 X-133.090 Y-40.929 Z30.058 
N917 X-133.099 Y-40.826 Z29.947 
N918 X-133.108 Y-40.722 Z29.837 
N919 X-133.117 Y-40.619 Z29.726 
N920 X-133.126 Y-40.516 Z29.616 
N921 X-133.134 Y-40.413 Z29.505 
N922 X-133.143 Y-40.310 Z29.394 
N923 X-133.152 Y-40.207 Z29.284 
N924 X-133.161 Y-40.103 Z29.173 
N925 X-133.169 Y-40.000 Z29.062 
N926 X-133.178 Y-39.897 Z28.952 
N927 X-133.187 Y-39.794 Z28.841 
N928 X-133.196 Y-39.691 Z28.731 
N929 X-133.205 Y-39.588 Z28.620 
N930 X-133.213 Y-39.485 Z28.509 
N931 X-133.222 Y-39.381 Z28.399 
N932 X-133.231 Y-39.278 Z28.288 
N933 X-133.240 Y-39.175 Z28.177 
N934 X-133.249 Y-39.072 Z28.067 
N935 X-133.257 Y-38.969 Z27.956 
N936 X-133.266 Y-38.866 Z27.846 
N937 X-133.275 Y-38.762 Z27.735 
N938 X-133.284 Y-38.659 Z27.624 
N939 X-133.293 Y-38.556 Z27.514 
N940 X-133.301 Y-38.453 Z27.403 
N941 X-133.310 Y-38.350 Z27.292 
N942 X-133.319 Y-38.247 Z27.182 
N943 X-133.328 Y-38.143 Z27.071 
N944 X-133.336 Y-38.040 Z26.961 
N945 X-133.345 Y-37.937 Z26.850 
N946 X-133.354 Y-37.834 Z26.739 
N947 X-133.363 Y-37.730 Z26.628 
N948 X-133.372 Y-37.626 Z26.516 
N949 X-133.381 Y-37.522 Z26.405 
N950 X-133.389 Y-37.418 Z26.293 
N951 X-133.398 Y-37.314 Z26.182 
N952 X-133.407 Y-37.210 Z26.070 
N953 X-133.416 Y-37.106 Z25.959 
N954 X-133.425 Y-37.002 Z25.847 
N955 X-133.434 Y-36.898 Z25.735 
N956 X-133.443 Y-36.794 Z25.624 
N957 X-133.452 Y-36.690 Z25.512 
N958 X-133.460 Y-36.586 Z25.401 
N959 X-133.469 Y-36.482 Z25.289 
N960 X-133.478 Y-36.378 Z25.178 
N961 X-133.487 Y-36.274 Z25.066 
N962 X-133.496 Y-36.170 Z24.955 
N963 X-133.505 Y-36.066 Z24.843 
N964 X-133.514 Y-35.962 Z24.732 
N965 X-133.522 Y-35.858 Z24.620 
N966 X-133.531 Y-35.754 Z24.509 
N967 X-133.540 Y-35.650 Z24.397 
N968 X-133.549 Y-35.546 Z24.285 
N969 X-133.558 Y-35.442 Z24.174 
N970 X-133.567 Y-35.338 Z24.062 
N971 X-133.576 Y-35.234 Z23.951 
N972 X-133.584 Y-35.130 Z23.839 
N973 X-133.593 Y-35.026 Z23.728 
N974 X-133.602 Y-34.922 Z23.616 
N975 X-133.611 Y-34.818 Z23.505 
N976 X-133.620 Y-34.714 Z23.393 
N977 X-133.629 Y-34.610 Z23.282 
N978 X-133.638 Y-34.506 Z23.170 
N979 X-133.646 Y-34.402 Z23.059 
N980 X-133.655 Y-34.298 Z22.947 
N981 X-133.664 Y-34.194 Z22.836 
N982 X-133.673 Y-34.090 Z22.724 
N983 X-133.682 Y-33.986 Z22.612 
N984 X-133.691 Y-33.882 Z22.501 
N985 X-133.700 Y-33.778 Z22.389 
N986 X-133.708 Y-33.674 Z22.278 
N987 X-133.717 Y-33.570 Z22.166 
N988 X-133.726 Y-33.466 Z22.055 
N989 X-133.735 Y-33.362 Z21.943 
N990 X-133.744 Y-33.258 Z21.832 
N991 X-133.753 Y-33.154 Z21.720 
N992 X-133.762 Y-33.050 Z21.609 
N993 X-133.771 Y-32.946 Z21.497 
N994 X-133.779 Y-32.842 Z21.386 
N995 X-133.788 Y-32.738 Z21.274 
N996 X-133.797 Y-32.634 Z21.162 
N997 X-133.806 Y-32.530 Z21.051 
N998 X-133.813 Y-32.425 Z20.939 
N999 X-133.821 Y-32.321 Z20.828 
N1000 X-133.828 Y-32.217 Z20.716 
N1001 X-133.835 Y-32.113 Z20.605 
N1002 X-133.842 Y-32.009 Z20.493 
N1003 X-133.850 Y-31.905 Z20.381 
N1004 X-133.857 Y-31.801 Z20.270 
N1005 X-133.864 Y-31.697 Z20.158 
N1006 X-133.871 Y-31.593 Z20.047 
N1007 X-133.878 Y-31.489 Z19.935 
N1008 X-133.886 Y-31.385 Z19.823 
N1009 X-133.893 Y-31.281 Z19.712 
N1010 X-133.900 Y-31.177 Z19.600 
N1011 X-133.907 Y-31.073 Z19.489 
N1012 X-133.915 Y-30.968 Z19.377 
N1013 X-133.922 Y-30.864 Z19.265 
N1014 X-133.929 Y-30.760 Z19.154 
N1015 X-133.936 Y-30.656 Z19.042 
N1016 X-133.943 Y-30.552 Z18.931 
N1017 X-133.951 Y-30.448 Z18.819 
N1018 X-133.958 Y-30.344 Z18.707 
N1019 X-133.965 Y-30.240 Z18.596 
N1020 X-133.972 Y-30.136 Z18.484 
N1021 X-133.980 Y-30.032 Z18.373 
N1022 X-133.987 Y-29.928 Z18.261 
N1023 X-133.994 Y-29.824 Z18.149 
N1024 X-134.001 Y-29.720 Z18.038 
N1025 X-134.008 Y-29.616 Z17.926 
N1026 X-134.016 Y-29.512 Z17.815 
N1027 X-134.023 Y-29.407 Z17.703 
N1028 X-134.029 Y-29.303 Z17.591 
N1029 X-134.035 Y-29.199 Z17.480 
N1030 X-134.041 Y-29.095 Z17.368 
N1031 X-134.047 Y-28.991 Z17.256 
N1032 X-134.053 Y-28.887 Z17.145 
N1033 X-134.059 Y-28.783 Z17.033 
N1034 X-134.065 Y-28.679 Z16.921 
N1035 X-134.071 Y-28.575 Z16.810 
N1036 X-134.077 Y-28.471 Z16.698 
N1037 X-134.083 Y-28.366 Z16.587 
N1038 X-134.088 Y-28.262 Z16.475 
N1039 X-134.094 Y-28.158 Z16.363 
N1040 X-134.100 Y-28.054 Z16.252 
N1041 X-134.106 Y-27.950 Z16.140 
N1042 X-134.112 Y-27.846 Z16.028 
N1043 X-134.118 Y-27.742 Z15.917 
N1044 X-134.124 Y-27.638 Z15.805 
N1045 X-134.130 Y-27.534 Z15.693 
N1046 X-134.136 Y-27.429 Z15.582 
N1047 X-134.142 Y-27.325 Z15.470 
N1048 X-134.148 Y-27.221 Z15.359 
N1049 X-134.153 Y-27.117 Z15.247 
N1050 X-134.159 Y-27.013 Z15.135 
N1051 X-134.165 Y-26.909 Z15.024 
N1052 X-134.171 Y-26.805 Z14.912 
N1053 X-134.177 Y-26.701 Z14.800 
N1054 X-134.183 Y-26.597 Z14.689 
N1055 X-134.189 Y-26.492 Z14.577 
N1056 X-134.195 Y-26.388 Z14.465 
N1057 X-134.201 Y-26.284 Z14.354 
N1058 X-134.207 Y-26.180 Z14.242 
N1059 X-134.213 Y-26.076 Z14.130 
N1060 X-134.218 Y-25.972 Z14.019 
N1061 X-134.224 Y-25.868 Z13.907 
N1062 X-134.230 Y-25.764 Z13.796 
N1063 X-134.235 Y-25.660 Z13.684 
N1064 X-134.240 Y-25.555 Z13.572 
N1065 X-134.244 Y-25.451 Z13.461 
N1066 X-134.248 Y-25.347 Z13.349 
N1067 X-134.253 Y-25.243 Z13.237 
N1068 X-134.257 Y-25.139 Z13.125 
N1069 X-134.261 Y-25.035 Z13.014 
N1070 X-134.266 Y-24.931 Z12.902 
N1071 X-134.270 Y-24.826 Z12.790 
N1072 X-134.274 Y-24.722 Z12.679 
N1073 X-134.279 Y-24.618 Z12.567 
N1074 X-134.283 Y-24.514 Z12.455 
N1075 X-134.287 Y-24.410 Z12.344 
N1076 X-134.292 Y-24.306 Z12.232 
N1077 X-134.296 Y-24.202 Z12.120 
N1078 X-134.300 Y-24.097 Z12.009 
N1079 X-134.305 Y-23.993 Z11.897 
N1080 X-134.309 Y-23.889 Z11.785 
N1081 X-134.314 Y-23.785 Z11.674 
N1082 X-134.318 Y-23.681 Z11.562 
N1083 X-134.322 Y-23.577 Z11.450 
N1084 X-134.327 Y-23.473 Z11.339 
N1085 X-134.331 Y-23.368 Z11.227 
N1086 X-134.335 Y-23.264 Z11.115 
N1087 X-134.340 Y-23.160 Z11.004 
N1088 X-134.344 Y-23.056 Z10.892 
N1089 X-134.348 Y-22.952 Z10.780 
N1090 X-134.353 Y-22.848 Z10.669 
N1091 X-134.357 Y-22.744 Z10.557 
N1092 X-134.361 Y-22.639 Z10.445 
N1093 X-134.366 Y-22.535 Z10.333 
N1094 X-134.370 Y-22.431 Z10.222 
N1095 X-134.374 Y-22.327 Z10.110 
N1096 X-134.379 Y-22.223 Z9.998 
N1097 X-134.383 Y-22.119 Z9.887 
N1098 X-134.387 Y-22.015 Z9.775 
N1099 X-134.392 Y-21.910 Z9.663 
N1100 X-134.396 Y-21.806 Z9.552 
N1101 X-134.401 Y-21.702 Z9.440 
N1102 X-134.405 Y-21.598 Z9.328 
N1103 X-134.409 Y-21.494 Z9.217 
N1104 X-134.414 Y-21.390 Z9.105 
N1105 X-134.418 Y-21.286 Z8.993 
N1106 X-134.420 Y-21.181 Z8.882 
N1107 X-134.422 Y-21.077 Z8.770 
N1108 X-134.425 Y-20.973 Z8.658 
N1109 X-134.427 Y-20.869 Z8.546 
N1110 X-134.430 Y-20.765 Z8.435 
N1111 X-134.432 Y-20.661 Z8.323 
N1112 X-134.434 Y-20.556 Z8.211 
N1113 X-134.437 Y-20.452 Z8.100 
N1114 X-134.439 Y-20.348 Z7.988 
N1115 X-134.442 Y-20.244 Z7.876 
N1116 X-134.444 Y-20.140 Z7.764 
N1117 X-134.446 Y-20.036 Z7.653 
N1118 X-134.449 Y-19.931 Z7.541 
N1119 X-134.451 Y-19.827 Z7.429 
N1120 X-134.454 Y-19.723 Z7.318 
N1121 X-134.456 Y-19.619 Z7.206 
N1122 X-134.458 Y-19.515 Z7.094 
N1123 X-134.461 Y-19.410 Z6.983 
N1124 X-134.463 Y-19.306 Z6.871 
N1125 X-134.466 Y-19.202 Z6.759 
N1126 X-134.468 Y-19.098 Z6.647 
N1127 X-134.470 Y-18.994 Z6.536 
N1128 X-134.473 Y-18.890 Z6.424 
N1129 X-134.475 Y-18.785 Z6.312 
N1130 X-134.478 Y-18.681 Z6.201 
N1131 X-134.480 Y-18.577 Z6.089 
N1132 X-134.482 Y-18.473 Z5.977 
N1133 X-134.485 Y-18.369 Z5.865 
N1134 X-134.487 Y-18.265 Z5.754 
N1135 X-134.490 Y-18.160 Z5.642 
N1136 X-134.492 Y-18.056 Z5.530 
N1137 X-134.494 Y-17.952 Z5.419 
N1138 X-134.497 Y-17.848 Z5.307 
N1139 X-134.499 Y-17.744 Z5.195 
N1140 X-134.502 Y-17.640 Z5.083 
N1141 X-134.504 Y-17.535 Z4.972 
N1142 X-134.506 Y-17.431 Z4.860 
N1143 X-134.509 Y-17.327 Z4.748 
N1144 X-134.511 Y-17.223 Z4.637 
N1145 X-134.514 Y-17.119 Z4.525 
N1146 X-134.516 Y-17.015 Z4.413 
N1147 X-134.518 Y-16.910 Z4.301 
N1148 X-134.521 Y-16.806 Z4.190 
N1149 X-134.523 Y-16.702 Z4.078 
N1150 X-134.526 Y-16.598 Z3.966 
N1151 X-134.528 Y-16.494 Z3.855 
N1152 X-134.530 Y-16.390 Z3.743 
N1153 X-134.533 Y-16.285 Z3.631 
N1154 X-134.535 Y-16.181 Z3.519 
N1155 X-134.538 Y-16.077 Z3.408 
N1156 X-134.540 Y-15.973 Z3.296 
N1157 X-134.543 Y-15.869 Z3.184 
N1158 X-134.545 Y-15.764 Z3.073 
N1159 X-134.547 Y-15.660 Z2.961 
N1160 X-134.548 Y-15.556 Z2.849 
N1161 X-134.549 Y-15.452 Z2.737 
N1162 X-134.549 Y-15.348 Z2.626 
N1163 X-134.550 Y-15.244 Z2.514 
N1164 X-134.551 Y-15.139 Z2.402 
N1165 X-134.551 Y-15.035 Z2.291 
N1166 X-134.552 Y-14.931 Z2.179 
N1167 X-134.553 Y-14.827 Z2.067 
N1168 X-134.553 Y-14.723 Z1.955 
N1169 X-134.554 Y-14.618 Z1.844 
N1170 X-134.555 Y-14.514 Z1.732 
N1171 X-134.555 Y-14.410 Z1.620 
N1172 X-134.556 Y-14.306 Z1.509 
N1173 X-134.557 Y-14.202 Z1.397 
N1174 X-134.557 Y-14.098 Z1.285 
N1175 X-134.558 Y-13.993 Z1.173 
N1176 X-134.559 Y-13.889 Z1.062 
N1177 X-134.559 Y-13.785 Z0.950 
N1178 X-134.560 Y-13.681 Z0.838 
N1179 X-134.561 Y-13.577 Z0.726 
N1180 X-134.561 Y-13.472 Z0.615 
N1181 X-134.562 Y-13.368 Z0.503 
N1182 X-134.563 Y-13.264 Z0.391 
N1183 X-134.563 Y-13.160 Z0.280 
N1184 X-134.564 Y-13.056 Z0.168 
N1185 X-134.565 Y-12.952 Z0.056 
N1186 X-134.565 Y-12.847 Z-0.056 
N1187 X-134.566 Y-12.743 Z-0.167 
N1188 X-134.567 Y-12.639 Z-0.279 
N1189 X-134.567 Y-12.535 Z-0.391 
N1190 X-134.568 Y-12.431 Z-0.503 
N1191 X-134.568 Y-12.326 Z-0.614 
N1192 X-134.568 Y-12.222 Z-0.726 
N1193 X-134.567 Y-12.118 Z-0.838 
N1194 X-134.567 Y-12.014 Z-0.949 
N1195 X-134.566 Y-11.910 Z-1.061 
N1196 X-134.565 Y-11.805 Z-1.173 
N1197 X-134.565 Y-11.701 Z-1.285 
N1198 X-134.564 Y-11.597 Z-1.396 
N1199 X-134.564 Y-11.493 Z-1.508 
N1200 X-134.563 Y-11.389 Z-1.620 
N1201 X-134.562 Y-11.285 Z-1.731 
N1202 X-134.562 Y-11.180 Z-1.843 
N1203 X-134.561 Y-11.076 Z-1.955 
N1204 X-134.561 Y-10.972 Z-2.067 
N1205 X-134.560 Y-10.868 Z-2.178 
N1206 X-134.559 Y-10.764 Z-2.290 
N1207 X-134.559 Y-10.659 Z-2.402 
N1208 X-134.558 Y-10.555 Z-2.514 
N1209 X-134.558 Y-10.451 Z-2.625 
N1210 X-134.557 Y-10.347 Z-2.737 
N1211 X-134.556 Y-10.243 Z-2.849 
N1212 X-134.556 Y-10.139 Z-2.960 
N1213 X-134.555 Y-10.034 Z-3.072 
N1214 X-134.554 Y-9.930 Z-3.184 
N1215 X-134.554 Y-9.826 Z-3.296 
N1216 X-134.553 Y-9.722 Z-3.407 
N1217 X-134.553 Y-9.618 Z-3.519 
N1218 X-134.552 Y-9.513 Z-3.631 
N1219 X-134.551 Y-9.409 Z-3.742 
N1220 X-134.551 Y-9.305 Z-3.854 
N1221 X-134.550 Y-9.201 Z-3.966 
N1222 X-134.550 Y-9.097 Z-4.078 
N1223 X-134.548 Y-8.993 Z-4.189 
N1224 X-134.546 Y-8.888 Z-4.301 
N1225 X-134.543 Y-8.784 Z-4.413 
N1226 X-134.541 Y-8.680 Z-4.525 
N1227 X-134.539 Y-8.576 Z-4.636 
N1228 X-134.536 Y-8.472 Z-4.748 
N1229 X-134.534 Y-8.367 Z-4.860 
N1230 X-134.532 Y-8.263 Z-4.971 
N1231 X-134.529 Y-8.159 Z-5.083 
N1232 X-134.527 Y-8.055 Z-5.195 
N1233 X-134.525 Y-7.951 Z-5.307 
N1234 X-134.522 Y-7.847 Z-5.418 
N1235 X-134.520 Y-7.742 Z-5.530 
N1236 X-134.518 Y-7.638 Z-5.642 
N1237 X-134.515 Y-7.534 Z-5.753 
N1238 X-134.513 Y-7.430 Z-5.865 
N1239 X-134.511 Y-7.326 Z-5.977 
N1240 X-134.508 Y-7.222 Z-6.088 
N1241 X-134.506 Y-7.117 Z-6.200 
N1242 X-134.504 Y-7.013 Z-6.312 
N1243 X-134.501 Y-6.909 Z-6.424 
N1244 X-134.499 Y-6.805 Z-6.535 
N1245 X-134.496 Y-6.701 Z-6.647 
N1246 X-134.494 Y-6.597 Z-6.759 
N1247 X-134.492 Y-6.492 Z-6.870 
N1248 X-134.489 Y-6.388 Z-6.982 
N1249 X-134.487 Y-6.284 Z-7.094 
N1250 X-134.485 Y-6.180 Z-7.206 
N1251 X-134.482 Y-6.076 Z-7.317 
N1252 X-134.480 Y-5.972 Z-7.429 
N1253 X-134.478 Y-5.867 Z-7.541 
N1254 X-134.475 Y-5.763 Z-7.652 
N1255 X-134.473 Y-5.659 Z-7.764 
N1256 X-134.471 Y-5.555 Z-7.876 
N1257 X-134.468 Y-5.451 Z-7.988 
N1258 X-134.466 Y-5.346 Z-8.099 
N1259 X-134.464 Y-5.242 Z-8.211 
N1260 X-134.461 Y-5.138 Z-8.323 
N1261 X-134.459 Y-5.034 Z-8.434 
N1262 X-134.457 Y-4.930 Z-8.546 
N1263 X-134.454 Y-4.826 Z-8.658 
N1264 X-134.452 Y-4.721 Z-8.770 
N1265 X-134.450 Y-4.617 Z-8.881 
N1266 X-134.447 Y-4.513 Z-8.993 
N1267 X-134.445 Y-4.409 Z-9.105 
N1268 X-134.443 Y-4.305 Z-9.216 
N1269 X-134.440 Y-4.201 Z-9.328 
N1270 X-134.438 Y-4.096 Z-9.440 
N1271 X-134.435 Y-3.992 Z-9.552 
N1272 X-134.433 Y-3.888 Z-9.663 
N1273 X-134.431 Y-3.784 Z-9.775 
N1274 X-134.428 Y-3.680 Z-9.887 
N1275 X-134.426 Y-3.576 Z-9.998 
N1276 X-134.424 Y-3.471 Z-10.110 
N1277 X-134.421 Y-3.367 Z-10.222 
N1278 X-134.419 Y-3.264 Z-10.333 
N1279 X-134.417 Y-3.161 Z-10.443 
N1280 X-134.414 Y-3.057 Z-10.554 
N1281 X-134.412 Y-2.954 Z-10.665 
N1282 X-134.410 Y-2.851 Z-10.776 
N1283 X-134.407 Y-2.747 Z-10.887 
N1284 X-134.405 Y-2.644 Z-10.997 
N1285 X-134.403 Y-2.541 Z-11.108 
N1286 X-134.400 Y-2.437 Z-11.219 
N1287 X-134.398 Y-2.334 Z-11.330 
N1288 X-134.396 Y-2.231 Z-11.441 
N1289 X-134.393 Y-2.127 Z-11.551 
N1290 X-134.391 Y-2.024 Z-11.662 
N1291 X-134.389 Y-1.921 Z-11.773 
N1292 X-134.387 Y-1.817 Z-11.884 
N1293 X-134.384 Y-1.714 Z-11.995 
N1294 X-134.382 Y-1.611 Z-12.105 
N1295 X-134.380 Y-1.507 Z-12.216 
N1296 X-134.377 Y-1.404 Z-12.327 
N1297 X-134.375 Y-1.301 Z-12.438 
N1298 X-134.373 Y-1.197 Z-12.549 
N1299 X-134.370 Y-1.094 Z-12.659 
N1300 X-134.368 Y-0.991 Z-12.770 
N1301 X-134.366 Y-0.887 Z-12.881 
N1302 X-134.363 Y-0.784 Z-12.992 
N1303 X-134.361 Y-0.681 Z-13.103 
N1304 X-134.359 Y-0.578 Z-13.213 
N1305 X-134.356 Y-0.474 Z-13.324 
N1306 X-134.354 Y-0.371 Z-13.435 
N1307 X-134.352 Y-0.268 Z-13.546 
N1308 X-134.349 Y-0.164 Z-13.657 
N1309 X-134.347 Y-0.061 Z-13.767 
N1310 X-134.345 Y0.042 Z-13.878 
N1311 G40 X-134.329 Y0.724 Z-14.609 F458
N1312 X-134.329 Y0.724 Z-14.609 
N1313 G00 X-134.329 Y-21.216 Z-35.069 
N1314 X-132.832 Y-63.251 Z15.323 
N1315 X-132.832 Y-41.310 Z35.783 
N1316 ;FSA_1
N1317 G01 G41 X-132.890 Y-40.630 Z35.053 F458
N1318 G01 X-132.890 Y-40.630 Z35.053 F458 
N1319 X-132.899 Y-40.528 Z34.943 
N1320 X-132.907 Y-40.425 Z34.833 
N1321 X-132.916 Y-40.323 Z34.724 
N1322 X-132.925 Y-40.221 Z34.614 
N1323 X-132.934 Y-40.119 Z34.505 
N1324 X-132.942 Y-40.017 Z34.395 
N1325 X-132.951 Y-39.915 Z34.286 
N1326 X-132.960 Y-39.813 Z34.176 
N1327 X-132.968 Y-39.710 Z34.067 
