; PROGRAM NAME: A33333351
; ORDER       : A333333
; OPER. NAME  : Slot Finishing:152
; OPER. DESCR.: Finishing slot/fazy wk
; OPER. TYPE  : slotMillFinish
; GEO. OPTION : 1
; MACHINE     : HSTM_300_SIM840D_Py
;             : HSTM300/500 - HAMUEL: 5-axis milling machine-SIM840D Traori PP_Script
; CONTROL     : SINUMERIK 840D
; created:   2021-09-10 09:03:36.098607
;----------------------------------------
RAPORT("TA333333","Slot Finishing:152")
N10 TRAFOOF
N11 D0
N12 G90 G94
N13 G0 G53 D0 Z550
N14 STOPRE
M9 ; chlodziwo wyl
; --- Slot Finishing:152 - Finishing slot/fazy wk ---
N16 ;ToolChange : concat=None ,current_tdmid=None, PP.tdmId=940790
N17 TRAFOOF
N18 G0 G53 D0 X-200 Y150 Z550 B0
N19 T="7740790"
RAPORT("TA333333","ToolChangeStart 7740790")
N20 M6
RAPORT("TA333333","ToolChangeEnd")
N21 STOPRE
N22 MSG(" TLID=940790 D=8.0 R=0.0 Ang=18.0 Len=135.0 ")
N23 S7161 M03
N24 STOPRE
N25 TOL(0.01,1,1)
N26 G0 G53 A311.2344 B-26.9465
N27 TRAORI
N28 G54 D1
N29 D1 
N30 TRANS  X=R18 B=R39
STOPRE
E_ZDARZ=300006
;ACS_FINISH_ROOT_BETE=7740790
STOPRE
N31 ; DELTA A > 40.1
N32 TRAFOOF
N33 D1
N34 STOPRE
N35 G00 G54 Z251.000
N36 G01 A311.2344 F10000
N37 TRAORI
N38 G54 D1
N39 STOPRE
N40 TRANS  X=R18 B=R39
N41 G00 X-194.278 Y74.835 Z11.915 A311.2344 B-26.9465 
N42 M342 ; chlodziwo woda
N43 X-171.620 Y41.317 Z-17.463 
N44 G01 X-172.165 Y34.507 Z-10.161 F859 
N45 X-172.183 Y34.280 Z-9.917 
N46 X-172.201 Y34.053 Z-9.674 
N47 X-172.219 Y33.826 Z-9.431 
N48 X-172.242 Y33.539 Z-9.123 
N49 X-172.258 Y33.344 Z-8.914 A311.2478 B-26.9473 
N50 X-172.274 Y33.148 Z-8.704 A311.2613 B-26.9480 
N51 X-172.289 Y32.953 Z-8.494 A311.2747 B-26.9488 
N52 X-172.305 Y32.757 Z-8.285 A311.2882 B-26.9495 
N53 X-172.320 Y32.562 Z-8.075 A311.3016 B-26.9503 
N54 X-172.336 Y32.366 Z-7.865 A311.3151 B-26.9510 
N55 X-172.352 Y32.171 Z-7.656 A311.3285 B-26.9518 
N56 X-172.367 Y31.975 Z-7.446 A311.3420 B-26.9525 
N57 X-172.383 Y31.780 Z-7.236 A311.3554 B-26.9532 
N58 X-172.399 Y31.584 Z-7.026 A311.3689 B-26.9540 
N59 X-172.414 Y31.388 Z-6.817 A311.3823 B-26.9547 
N60 X-172.430 Y31.193 Z-6.607 A311.3958 B-26.9554 
N61 X-172.446 Y30.997 Z-6.397 A311.4092 B-26.9562 
N62 X-172.461 Y30.802 Z-6.188 A311.4227 B-26.9569 
N63 X-172.477 Y30.606 Z-5.978 A311.4361 B-26.9576 
N64 X-172.492 Y30.411 Z-5.768 A311.4496 B-26.9584 
N65 X-172.508 Y30.215 Z-5.559 A311.4630 B-26.9591 
N66 X-172.524 Y30.020 Z-5.349 A311.4765 B-26.9598 
N67 X-172.539 Y29.824 Z-5.139 A311.4899 B-26.9606 
N68 X-172.555 Y29.629 Z-4.929 A311.5034 B-26.9613 
N69 X-172.571 Y29.433 Z-4.720 A311.5168 B-26.9620 
N70 X-172.586 Y29.237 Z-4.510 A311.5303 B-26.9627 
N71 X-172.602 Y29.042 Z-4.300 A311.5437 B-26.9635 
N72 X-172.618 Y28.846 Z-4.091 A311.5572 B-26.9642 
N73 X-172.633 Y28.651 Z-3.881 A311.5706 B-26.9649 
N74 X-172.649 Y28.455 Z-3.671 A311.5841 B-26.9656 
N75 X-172.662 Y28.260 Z-3.462 A311.5976 B-26.9662 
N76 X-172.674 Y28.064 Z-3.252 A311.6112 B-26.9668 
N77 X-172.686 Y27.868 Z-3.042 A311.6247 B-26.9674 
N78 X-172.698 Y27.673 Z-2.832 A311.6383 B-26.9680 
N79 X-172.710 Y27.477 Z-2.622 A311.6518 B-26.9686 
N80 X-172.722 Y27.281 Z-2.412 A311.6654 B-26.9691 
N81 X-172.733 Y27.086 Z-2.203 A311.6789 B-26.9697 
N82 X-172.745 Y26.890 Z-1.993 A311.6925 B-26.9703 
N83 X-172.757 Y26.694 Z-1.783 A311.7060 B-26.9708 
N84 X-172.769 Y26.499 Z-1.573 A311.7196 B-26.9714 
N85 X-172.781 Y26.303 Z-1.363 A311.7331 B-26.9720 
N86 X-172.793 Y26.107 Z-1.153 A311.7467 B-26.9725 
N87 X-172.805 Y25.912 Z-0.944 A311.7602 B-26.9731 
N88 X-172.817 Y25.716 Z-0.734 A311.7738 B-26.9737 
N89 X-172.828 Y25.520 Z-0.524 A311.7873 B-26.9742 
N90 X-172.840 Y25.325 Z-0.314 A311.8009 B-26.9748 
N91 X-172.852 Y25.129 Z-0.104 A311.8144 B-26.9754 
N92 X-172.864 Y24.933 Z0.106 A311.8280 B-26.9759 
N93 X-172.876 Y24.738 Z0.315 A311.8415 B-26.9765 
N94 X-172.888 Y24.542 Z0.525 A311.8551 B-26.9770 
N95 X-172.900 Y24.346 Z0.735 A311.8686 B-26.9776 
N96 X-172.912 Y24.151 Z0.945 A311.8822 B-26.9781 
N97 X-172.924 Y23.955 Z1.155 A311.8957 B-26.9787 
N98 X-172.935 Y23.759 Z1.365 A311.9093 B-26.9792 
N99 X-172.947 Y23.564 Z1.574 A311.9228 B-26.9798 
N100 X-172.959 Y23.368 Z1.784 A311.9364 B-26.9803 
N101 X-172.971 Y23.172 Z1.994 A311.9500 B-26.9809 
N102 X-172.983 Y22.977 Z2.204 A311.9635 B-26.9814 
N103 X-172.995 Y22.781 Z2.414 A311.9771 B-26.9820 
N104 X-173.007 Y22.585 Z2.623 A311.9906 B-26.9825 
N105 X-173.017 Y22.390 Z2.833 A312.0042 B-26.9830 
N106 X-173.025 Y22.194 Z3.043 A312.0177 B-26.9834 
N107 X-173.034 Y21.998 Z3.253 A312.0313 B-26.9838 
N108 X-173.043 Y21.802 Z3.463 A312.0449 B-26.9842 
N109 X-173.052 Y21.607 Z3.673 A312.0584 B-26.9847 
N110 X-173.060 Y21.411 Z3.883 A312.0720 B-26.9851 
N111 X-173.069 Y21.215 Z4.093 A312.0855 B-26.9855 
N112 X-173.078 Y21.019 Z4.303 A312.0991 B-26.9859 
N113 X-173.087 Y20.824 Z4.513 A312.1127 B-26.9863 
N114 X-173.095 Y20.628 Z4.723 A312.1262 B-26.9868 
N115 X-173.104 Y20.432 Z4.932 A312.1398 B-26.9872 
N116 X-173.113 Y20.236 Z5.142 A312.1533 B-26.9876 
N117 X-173.122 Y20.041 Z5.352 A312.1669 B-26.9880 
N118 X-173.131 Y19.845 Z5.562 A312.1805 B-26.9884 
N119 X-173.139 Y19.649 Z5.772 A312.1940 B-26.9888 
N120 X-173.148 Y19.453 Z5.982 A312.2076 B-26.9892 
N121 X-173.157 Y19.258 Z6.192 A312.2211 B-26.9896 
N122 X-173.163 Y19.062 Z6.402 A312.2347 B-26.9899 
N123 X-173.170 Y18.866 Z6.612 A312.2483 B-26.9902 
N124 X-173.176 Y18.670 Z6.822 A312.2618 B-26.9906 
N125 X-173.183 Y18.475 Z7.032 A312.2754 B-26.9909 
N126 X-173.189 Y18.279 Z7.242 A312.2890 B-26.9912 
N127 X-173.196 Y18.083 Z7.452 A312.3025 B-26.9915 
N128 X-173.202 Y17.887 Z7.662 A312.3161 B-26.9918 
N129 X-173.209 Y17.691 Z7.872 A312.3297 B-26.9921 
N130 X-173.215 Y17.496 Z8.082 A312.3432 B-26.9924 
N131 X-173.222 Y17.300 Z8.291 A312.3568 B-26.9927 
N132 X-173.228 Y17.104 Z8.501 A312.3703 B-26.9930 
N133 X-173.234 Y16.908 Z8.711 A312.3839 B-26.9933 
N134 X-173.241 Y16.713 Z8.921 A312.3975 B-26.9936 
N135 X-173.247 Y16.517 Z9.131 A312.4110 B-26.9939 
N136 X-173.254 Y16.321 Z9.341 A312.4246 B-26.9942 
N137 X-173.260 Y16.125 Z9.551 A312.4382 B-26.9945 
N138 X-173.267 Y15.929 Z9.761 A312.4517 B-26.9948 
N139 X-173.273 Y15.734 Z9.971 A312.4653 B-26.9951 
N140 X-173.277 Y15.538 Z10.181 A312.4789 B-26.9953 
N141 X-173.281 Y15.342 Z10.391 A312.4924 B-26.9955 
N142 X-173.285 Y15.146 Z10.601 A312.5060 B-26.9957 
N143 X-173.289 Y14.950 Z10.811 A312.5196 B-26.9959 
N144 X-173.293 Y14.754 Z11.021 A312.5331 B-26.9961 
N145 X-173.297 Y14.559 Z11.231 A312.5467 B-26.9963 
N146 X-173.301 Y14.363 Z11.441 A312.5603 B-26.9965 
N147 X-173.305 Y14.167 Z11.651 A312.5738 B-26.9967 
N148 X-173.309 Y13.971 Z11.861 A312.5874 B-26.9969 
N149 X-173.313 Y13.775 Z12.071 A312.6010 B-26.9970 
N150 X-173.317 Y13.580 Z12.281 A312.6145 B-26.9972 
N151 X-173.321 Y13.384 Z12.491 A312.6281 B-26.9974 
N152 X-173.325 Y13.188 Z12.701 A312.6417 B-26.9976 
N153 X-173.329 Y12.992 Z12.911 A312.6553 B-26.9978 
N154 X-173.333 Y12.796 Z13.121 A312.6688 B-26.9980 
N155 X-173.337 Y12.601 Z13.331 A312.6824 B-26.9981 
N156 X-173.341 Y12.405 Z13.541 A312.6960 B-26.9983 
N157 X-173.345 Y12.209 Z13.751 A312.7095 B-26.9985 
N158 X-173.349 Y12.013 Z13.961 A312.7231 B-26.9987 
N159 X-173.350 Y11.817 Z14.171 A312.7365 B-26.9988 
N160 X-173.352 Y11.621 Z14.381 A312.7500 B-26.9988 
N161 X-173.353 Y11.426 Z14.591 A312.7635 B-26.9989 
N162 X-173.355 Y11.230 Z14.801 A312.7769 B-26.9990 
N163 X-173.356 Y11.034 Z15.011 A312.7904 B-26.9991 
N164 X-173.357 Y10.838 Z15.221 A312.8038 B-26.9991 
N165 X-173.359 Y10.642 Z15.431 A312.8173 B-26.9992 
N166 X-173.360 Y10.446 Z15.641 A312.8307 B-26.9993 
N167 X-173.362 Y10.251 Z15.851 A312.8442 B-26.9993 
N168 X-173.363 Y10.055 Z16.061 A312.8576 B-26.9994 
N169 X-173.364 Y9.859 Z16.271 A312.8711 B-26.9995 
N170 X-173.366 Y9.663 Z16.481 A312.8845 B-26.9995 
N171 X-173.367 Y9.467 Z16.691 A312.8980 B-26.9996 
N172 X-173.368 Y9.271 Z16.901 A312.9114 B-26.9997 
N173 X-173.370 Y9.076 Z17.111 A312.9249 B-26.9997 
N174 X-173.371 Y8.880 Z17.321 A312.9383 B-26.9998 
N175 X-173.373 Y8.684 Z17.531 A312.9518 B-26.9998 
N176 X-173.374 Y8.488 Z17.741 A312.9652 B-26.9999 
N177 X-173.375 Y8.292 Z17.951 A312.9787 B-26.9999 
N178 X-173.377 Y8.096 Z18.161 A312.9921 B-27.0000 
N179 X-173.379 Y7.810 Z18.469 
N180 X-173.427 Y0.990 Z25.782 
N181 G00 X-184.777 Y17.283 Z40.971 
N182 X-183.584 Y58.102 Z-2.802 A311.2344 B-26.9465 
N183 X-172.256 Y41.343 Z-17.492 
N184 G01 X-172.800 Y34.533 Z-10.189 F859 
N185 X-172.818 Y34.306 Z-9.946 
N186 X-172.836 Y34.079 Z-9.702 
N187 X-172.855 Y33.852 Z-9.459 
N188 X-172.877 Y33.566 Z-9.152 
N189 X-172.893 Y33.371 Z-8.943 A311.2477 B-26.9473 
N190 X-172.909 Y33.177 Z-8.735 A311.2611 B-26.9480 
N191 X-172.924 Y32.983 Z-8.527 A311.2744 B-26.9488 
N192 X-172.940 Y32.789 Z-8.318 A311.2878 B-26.9495 
N193 X-172.955 Y32.594 Z-8.110 A311.3011 B-26.9502 
N194 X-172.971 Y32.400 Z-7.902 A311.3145 B-26.9510 
N195 X-172.986 Y32.206 Z-7.693 A311.3278 B-26.9517 
N196 X-173.002 Y32.012 Z-7.485 A311.3412 B-26.9525 
N197 X-173.017 Y31.817 Z-7.277 A311.3545 B-26.9532 
N198 X-173.033 Y31.623 Z-7.068 A311.3678 B-26.9539 
N199 X-173.048 Y31.429 Z-6.860 A311.3812 B-26.9547 
N200 X-173.064 Y31.235 Z-6.652 A311.3945 B-26.9554 
N201 X-173.079 Y31.040 Z-6.444 A311.4079 B-26.9561 
N202 X-173.095 Y30.846 Z-6.235 A311.4212 B-26.9568 
N203 X-173.110 Y30.652 Z-6.027 A311.4346 B-26.9576 
N204 X-173.126 Y30.458 Z-5.819 A311.4479 B-26.9583 
N205 X-173.142 Y30.263 Z-5.610 A311.4613 B-26.9590 
N206 X-173.157 Y30.069 Z-5.402 A311.4746 B-26.9597 
N207 X-173.173 Y29.875 Z-5.194 A311.4880 B-26.9605 
N208 X-173.188 Y29.681 Z-4.985 A311.5013 B-26.9612 
N209 X-173.204 Y29.486 Z-4.777 A311.5147 B-26.9619 
N210 X-173.219 Y29.292 Z-4.569 A311.5280 B-26.9626 
N211 X-173.235 Y29.098 Z-4.360 A311.5414 B-26.9633 
N212 X-173.250 Y28.904 Z-4.152 A311.5547 B-26.9640 
N213 X-173.266 Y28.709 Z-3.944 A311.5681 B-26.9648 
N214 X-173.281 Y28.515 Z-3.736 A311.5814 B-26.9655 
N215 X-173.295 Y28.321 Z-3.527 A311.5948 B-26.9661 
N216 X-173.307 Y28.127 Z-3.319 A311.6083 B-26.9667 
N217 X-173.319 Y27.932 Z-3.110 A311.6217 B-26.9673 
N218 X-173.331 Y27.738 Z-2.902 A311.6352 B-26.9678 
N219 X-173.343 Y27.543 Z-2.693 A311.6486 B-26.9684 
N220 X-173.354 Y27.349 Z-2.485 A311.6620 B-26.9690 
N221 X-173.366 Y27.155 Z-2.276 A311.6755 B-26.9696 
N222 X-173.378 Y26.960 Z-2.068 A311.6889 B-26.9701 
N223 X-173.390 Y26.766 Z-1.860 A311.7024 B-26.9707 
N224 X-173.402 Y26.572 Z-1.651 A311.7158 B-26.9713 
N225 X-173.413 Y26.377 Z-1.443 A311.7293 B-26.9718 
N226 X-173.425 Y26.183 Z-1.234 A311.7427 B-26.9724 
N227 X-173.437 Y25.988 Z-1.026 A311.7562 B-26.9729 
N228 X-173.449 Y25.794 Z-0.817 A311.7696 B-26.9735 
N229 X-173.461 Y25.600 Z-0.609 A311.7831 B-26.9741 
N230 X-173.472 Y25.405 Z-0.401 A311.7965 B-26.9746 
N231 X-173.484 Y25.211 Z-0.192 A311.8100 B-26.9752 
N232 X-173.496 Y25.017 Z0.016 A311.8234 B-26.9757 
N233 X-173.508 Y24.822 Z0.225 A311.8369 B-26.9763 
N234 X-173.520 Y24.628 Z0.433 A311.8503 B-26.9768 
N235 X-173.531 Y24.433 Z0.642 A311.8638 B-26.9774 
N236 X-173.543 Y24.239 Z0.850 A311.8772 B-26.9779 
N237 X-173.555 Y24.045 Z1.059 A311.8907 B-26.9785 
N238 X-173.567 Y23.850 Z1.267 A311.9041 B-26.9790 
N239 X-173.579 Y23.656 Z1.475 A311.9176 B-26.9796 
N240 X-173.590 Y23.462 Z1.684 A311.9310 B-26.9801 
N241 X-173.602 Y23.267 Z1.892 A311.9445 B-26.9807 
N242 X-173.614 Y23.073 Z2.101 A311.9579 B-26.9812 
N243 X-173.626 Y22.878 Z2.309 A311.9714 B-26.9817 
N244 X-173.638 Y22.684 Z2.518 A311.9848 B-26.9823 
N245 X-173.649 Y22.490 Z2.726 A311.9983 B-26.9828 
N246 X-173.657 Y22.295 Z2.935 A312.0117 B-26.9832 
N247 X-173.666 Y22.101 Z3.143 A312.0252 B-26.9836 
N248 X-173.675 Y21.906 Z3.352 A312.0386 B-26.9841 
N249 X-173.684 Y21.712 Z3.560 A312.0521 B-26.9845 
N250 X-173.692 Y21.517 Z3.769 A312.0656 B-26.9849 
N251 X-173.701 Y21.323 Z3.977 A312.0790 B-26.9853 
N252 X-173.710 Y21.129 Z4.186 A312.0925 B-26.9857 
N253 X-173.718 Y20.934 Z4.394 A312.1059 B-26.9861 
N254 X-173.727 Y20.740 Z4.603 A312.1194 B-26.9865 
N255 X-173.736 Y20.545 Z4.811 A312.1328 B-26.9870 
N256 X-173.745 Y20.351 Z5.020 A312.1463 B-26.9874 
N257 X-173.753 Y20.156 Z5.228 A312.1598 B-26.9878 
N258 X-173.762 Y19.962 Z5.437 A312.1732 B-26.9882 
N259 X-173.771 Y19.767 Z5.645 A312.1867 B-26.9886 
N260 X-173.779 Y19.573 Z5.854 A312.2001 B-26.9890 
N261 X-173.788 Y19.378 Z6.062 A312.2136 B-26.9894 
N262 X-173.796 Y19.184 Z6.271 A312.2270 B-26.9897 
N263 X-173.802 Y18.990 Z6.480 A312.2405 B-26.9901 
N264 X-173.809 Y18.795 Z6.688 A312.2540 B-26.9904 
N265 X-173.815 Y18.601 Z6.897 A312.2674 B-26.9907 
N266 X-173.822 Y18.406 Z7.105 A312.2809 B-26.9910 
N267 X-173.828 Y18.212 Z7.314 A312.2943 B-26.9913 
N268 X-173.834 Y18.017 Z7.522 A312.3078 B-26.9916 
N269 X-173.841 Y17.823 Z7.731 A312.3213 B-26.9919 
N270 X-173.847 Y17.628 Z7.939 A312.3347 B-26.9922 
N271 X-173.854 Y17.434 Z8.148 A312.3482 B-26.9925 
N272 X-173.860 Y17.239 Z8.357 A312.3617 B-26.9928 
N273 X-173.867 Y17.045 Z8.565 A312.3751 B-26.9931 
N274 X-173.873 Y16.850 Z8.774 A312.3886 B-26.9934 
N275 X-173.879 Y16.656 Z8.982 A312.4020 B-26.9937 
N276 X-173.886 Y16.461 Z9.191 A312.4155 B-26.9940 
N277 X-173.892 Y16.267 Z9.399 A312.4290 B-26.9943 
N278 X-173.899 Y16.072 Z9.608 A312.4424 B-26.9946 
N279 X-173.905 Y15.878 Z9.817 A312.4559 B-26.9949 
N280 X-173.911 Y15.683 Z10.025 A312.4693 B-26.9952 
N281 X-173.914 Y15.489 Z10.234 A312.4828 B-26.9954 
N282 X-173.918 Y15.294 Z10.442 A312.4963 B-26.9956 
N283 X-173.922 Y15.100 Z10.651 A312.5097 B-26.9957 
N284 X-173.926 Y14.905 Z10.860 A312.5232 B-26.9959 
N285 X-173.930 Y14.711 Z11.068 A312.5367 B-26.9961 
N286 X-173.934 Y14.516 Z11.277 A312.5501 B-26.9963 
N287 X-173.938 Y14.322 Z11.485 A312.5636 B-26.9965 
N288 X-173.942 Y14.127 Z11.694 A312.5771 B-26.9967 
N289 X-173.946 Y13.932 Z11.903 A312.5905 B-26.9969 
N290 X-173.950 Y13.738 Z12.111 A312.6040 B-26.9971 
N291 X-173.954 Y13.543 Z12.320 A312.6174 B-26.9973 
N292 X-173.958 Y13.349 Z12.528 A312.6309 B-26.9975 
N293 X-173.962 Y13.154 Z12.737 A312.6444 B-26.9976 
N294 X-173.966 Y12.960 Z12.946 A312.6578 B-26.9978 
N295 X-173.970 Y12.765 Z13.154 A312.6713 B-26.9980 
N296 X-173.974 Y12.571 Z13.363 A312.6848 B-26.9982 
N297 X-173.978 Y12.376 Z13.571 A312.6982 B-26.9984 
N298 X-173.982 Y12.182 Z13.780 A312.7117 B-26.9985 
N299 X-173.986 Y11.987 Z13.989 A312.7252 B-26.9987 
N300 X-173.987 Y11.793 Z14.197 A312.7385 B-26.9988 
N301 X-173.988 Y11.598 Z14.406 A312.7518 B-26.9989 
N302 X-173.990 Y11.404 Z14.614 A312.7652 B-26.9989 
N303 X-173.991 Y11.209 Z14.823 A312.7785 B-26.9990 
N304 X-173.993 Y11.015 Z15.032 A312.7919 B-26.9991 
N305 X-173.994 Y10.820 Z15.240 A312.8052 B-26.9991 
N306 X-173.995 Y10.626 Z15.449 A312.8186 B-26.9992 
N307 X-173.997 Y10.431 Z15.657 A312.8319 B-26.9993 
N308 X-173.998 Y10.236 Z15.866 A312.8453 B-26.9993 
N309 X-173.999 Y10.042 Z16.075 A312.8586 B-26.9994 
N310 X-174.001 Y9.847 Z16.283 A312.8720 B-26.9995 
N311 X-174.002 Y9.653 Z16.492 A312.8853 B-26.9995 
N312 X-174.004 Y9.458 Z16.701 A312.8987 B-26.9996 
N313 X-174.005 Y9.264 Z16.909 A312.9120 B-26.9997 
N314 X-174.006 Y9.069 Z17.118 A312.9254 B-26.9997 
N315 X-174.008 Y8.875 Z17.326 A312.9387 B-26.9998 
N316 X-174.009 Y8.680 Z17.535 A312.9521 B-26.9998 
N317 X-174.010 Y8.486 Z17.744 A312.9654 B-26.9999 
N318 X-174.012 Y8.291 Z17.952 A312.9788 B-26.9999 
N319 X-174.013 Y8.097 Z18.161 A312.9921 B-27.0000 
N320 X-174.015 Y7.810 Z18.468 
N321 X-174.064 Y0.990 Z25.782 
N322 G00 X-196.763 Y33.576 Z56.161 
RAPORT("TA333333","Slot Finishing:152 End")
;trailer : concat=None
; points cnt = 275
N324 MSG (" --- GROUPED OF SUBPROGRAM --- ")
N325 FGROUP()
N326 TRAFOOF
; PROGRAM NAME: A33333351
; ORDER       : A333333
; OPER. NAME  : Slot Finishing:153
; OPER. DESCR.: finishing root chamfer BETE SFSE
; OPER. TYPE  : slotMillFinish
; GEO. OPTION : 1
; MACHINE     : HSTM_300_SIM840D_Py
;             : HSTM300/500 - HAMUEL: 5-axis milling machine-SIM840D Traori PP_Script
; CONTROL     : SINUMERIK 840D
; created:   2021-09-10 09:07:01.764328
;----------------------------------------
RAPORT("TA333333","Slot Finishing:153")
N10 TRAFOOF
N11 D0
N12 G90 G94
N13 G0 G53 D0 Z550
N14 STOPRE
M9 ; chlodziwo wyl
; --- Slot Finishing:153 - finishing root chamfer BETE SFSE ---
N16 ;ToolChange : concat=None ,current_tdmid=None, PP.tdmId=940790
N17 TRAFOOF
N18 G0 G53 D0 Z550 B0
N19 STOPRE
N20 MSG(" TLID=940790 D=8.0 R=0.0 Ang=18.0 Len=135.0 ")
N21 S7161 M03
N22 STOPRE
N23 TOL(0.01,1,1)
N24 G0 G53 A311.2344 B-26.9465
N25 TRAORI
N26 G54 D1
N27 D1 
N28 TRANS  X=R18 B=R39
STOPRE
E_ZDARZ=300006
;ACS_FINISH_ROOT_BETE=7740790
STOPRE
N29 ; DELTA A > 40.1
N30 TRAFOOF
N31 D1
N32 STOPRE
N33 G00 G54 Z251.000
N34 G01 A311.2344 F10000
N35 TRAORI
N36 G54 D1
N37 STOPRE
N38 TRANS  X=R18 B=R39
N39 G00 X-195.055 Y74.867 Z11.881 A311.2344 B-26.9465 
N40 M342 ; chlodziwo woda
N41 X-172.397 Y41.349 Z-17.498 
N42 G01 X-172.941 Y34.539 Z-10.195 F859 
N43 X-172.959 Y34.312 Z-9.952 
N44 X-172.978 Y34.085 Z-9.708 
N45 X-172.996 Y33.858 Z-9.465 
N46 X-173.019 Y33.572 Z-9.158 
N47 X-173.034 Y33.377 Z-8.949 A311.2477 B-26.9473 
N48 X-173.050 Y33.183 Z-8.741 A311.2611 B-26.9480 
N49 X-173.065 Y32.989 Z-8.533 A311.2744 B-26.9488 
N50 X-173.081 Y32.794 Z-8.324 A311.2878 B-26.9495 
N51 X-173.096 Y32.600 Z-8.116 A311.3011 B-26.9502 
N52 X-173.112 Y32.406 Z-7.908 A311.3145 B-26.9510 
N53 X-173.127 Y32.212 Z-7.699 A311.3278 B-26.9517 
N54 X-173.143 Y32.017 Z-7.491 A311.3412 B-26.9525 
N55 X-173.158 Y31.823 Z-7.283 A311.3545 B-26.9532 
N56 X-173.174 Y31.629 Z-7.074 A311.3678 B-26.9539 
N57 X-173.190 Y31.434 Z-6.866 A311.3812 B-26.9547 
N58 X-173.205 Y31.240 Z-6.658 A311.3945 B-26.9554 
N59 X-173.221 Y31.046 Z-6.449 A311.4079 B-26.9561 
N60 X-173.236 Y30.851 Z-6.241 A311.4212 B-26.9568 
N61 X-173.252 Y30.657 Z-6.032 A311.4346 B-26.9576 
N62 X-173.267 Y30.463 Z-5.824 A311.4479 B-26.9583 
N63 X-173.283 Y30.269 Z-5.616 A311.4613 B-26.9590 
N64 X-173.298 Y30.074 Z-5.407 A311.4746 B-26.9597 
N65 X-173.314 Y29.880 Z-5.199 A311.4880 B-26.9605 
N66 X-173.329 Y29.686 Z-4.991 A311.5013 B-26.9612 
N67 X-173.345 Y29.491 Z-4.782 A311.5147 B-26.9619 
N68 X-173.360 Y29.297 Z-4.574 A311.5280 B-26.9626 
N69 X-173.376 Y29.103 Z-4.366 A311.5414 B-26.9633 
N70 X-173.392 Y28.908 Z-4.157 A311.5547 B-26.9640 
N71 X-173.407 Y28.714 Z-3.949 A311.5681 B-26.9648 
N72 X-173.423 Y28.520 Z-3.741 A311.5814 B-26.9655 
N73 X-173.437 Y28.326 Z-3.532 A311.5948 B-26.9661 
N74 X-173.448 Y28.131 Z-3.324 A311.6083 B-26.9667 
N75 X-173.460 Y27.937 Z-3.115 A311.6217 B-26.9673 
N76 X-173.472 Y27.742 Z-2.907 A311.6352 B-26.9678 
N77 X-173.484 Y27.548 Z-2.698 A311.6486 B-26.9684 
N78 X-173.496 Y27.353 Z-2.490 A311.6620 B-26.9690 
N79 X-173.507 Y27.159 Z-2.281 A311.6755 B-26.9696 
N80 X-173.519 Y26.965 Z-2.073 A311.6889 B-26.9701 
N81 X-173.531 Y26.770 Z-1.864 A311.7024 B-26.9707 
N82 X-173.543 Y26.576 Z-1.656 A311.7158 B-26.9713 
N83 X-173.555 Y26.381 Z-1.447 A311.7293 B-26.9718 
N84 X-173.566 Y26.187 Z-1.239 A311.7427 B-26.9724 
N85 X-173.578 Y25.993 Z-1.030 A311.7562 B-26.9729 
N86 X-173.590 Y25.798 Z-0.822 A311.7696 B-26.9735 
N87 X-173.602 Y25.604 Z-0.613 A311.7831 B-26.9741 
N88 X-173.614 Y25.409 Z-0.405 A311.7965 B-26.9746 
N89 X-173.626 Y25.215 Z-0.196 A311.8100 B-26.9752 
N90 X-173.637 Y25.020 Z0.012 A311.8234 B-26.9757 
N91 X-173.649 Y24.826 Z0.221 A311.8369 B-26.9763 
N92 X-173.661 Y24.632 Z0.429 A311.8503 B-26.9768 
N93 X-173.673 Y24.437 Z0.638 A311.8638 B-26.9774 
N94 X-173.685 Y24.243 Z0.846 A311.8772 B-26.9779 
N95 X-173.696 Y24.048 Z1.055 A311.8907 B-26.9785 
N96 X-173.708 Y23.854 Z1.263 A311.9041 B-26.9790 
N97 X-173.720 Y23.660 Z1.472 A311.9176 B-26.9796 
N98 X-173.732 Y23.465 Z1.680 A311.9310 B-26.9801 
N99 X-173.744 Y23.271 Z1.889 A311.9445 B-26.9807 
N100 X-173.755 Y23.076 Z2.097 A311.9579 B-26.9812 
N101 X-173.767 Y22.882 Z2.306 A311.9714 B-26.9817 
N102 X-173.779 Y22.687 Z2.514 A311.9848 B-26.9823 
N103 X-173.790 Y22.493 Z2.723 A311.9983 B-26.9828 
N104 X-173.799 Y22.298 Z2.931 A312.0117 B-26.9832 
N105 X-173.807 Y22.104 Z3.140 A312.0252 B-26.9836 
N106 X-173.816 Y21.910 Z3.348 A312.0386 B-26.9841 
N107 X-173.825 Y21.715 Z3.557 A312.0521 B-26.9845 
N108 X-173.834 Y21.521 Z3.765 A312.0656 B-26.9849 
N109 X-173.842 Y21.326 Z3.974 A312.0790 B-26.9853 
N110 X-173.851 Y21.132 Z4.183 A312.0925 B-26.9857 
N111 X-173.860 Y20.937 Z4.391 A312.1059 B-26.9861 
N112 X-173.869 Y20.743 Z4.600 A312.1194 B-26.9865 
N113 X-173.877 Y20.548 Z4.808 A312.1328 B-26.9870 
N114 X-173.886 Y20.354 Z5.017 A312.1463 B-26.9874 
N115 X-173.895 Y20.159 Z5.225 A312.1598 B-26.9878 
N116 X-173.903 Y19.965 Z5.434 A312.1732 B-26.9882 
N117 X-173.912 Y19.770 Z5.642 A312.1867 B-26.9886 
N118 X-173.921 Y19.576 Z5.851 A312.2001 B-26.9890 
N119 X-173.930 Y19.381 Z6.060 A312.2136 B-26.9894 
N120 X-173.937 Y19.187 Z6.268 A312.2270 B-26.9897 
N121 X-173.944 Y18.992 Z6.477 A312.2405 B-26.9901 
N122 X-173.950 Y18.798 Z6.685 A312.2540 B-26.9904 
N123 X-173.956 Y18.603 Z6.894 A312.2674 B-26.9907 
N124 X-173.963 Y18.408 Z7.103 A312.2809 B-26.9910 
N125 X-173.969 Y18.214 Z7.311 A312.2943 B-26.9913 
N126 X-173.976 Y18.019 Z7.520 A312.3078 B-26.9916 
N127 X-173.982 Y17.825 Z7.729 A312.3213 B-26.9919 
N128 X-173.989 Y17.630 Z7.937 A312.3347 B-26.9922 
N129 X-173.995 Y17.436 Z8.146 A312.3482 B-26.9925 
N130 X-174.001 Y17.241 Z8.354 A312.3617 B-26.9928 
N131 X-174.008 Y17.047 Z8.563 A312.3751 B-26.9931 
N132 X-174.014 Y16.852 Z8.772 A312.3886 B-26.9934 
N133 X-174.021 Y16.658 Z8.980 A312.4020 B-26.9937 
N134 X-174.027 Y16.463 Z9.189 A312.4155 B-26.9940 
N135 X-174.034 Y16.269 Z9.397 A312.4290 B-26.9943 
N136 X-174.040 Y16.074 Z9.606 A312.4424 B-26.9946 
N137 X-174.046 Y15.879 Z9.815 A312.4559 B-26.9949 
N138 X-174.052 Y15.685 Z10.023 A312.4693 B-26.9952 
N139 X-174.056 Y15.490 Z10.232 A312.4828 B-26.9954 
N140 X-174.060 Y15.296 Z10.441 A312.4963 B-26.9956 
N141 X-174.064 Y15.101 Z10.649 A312.5097 B-26.9957 
N142 X-174.068 Y14.907 Z10.858 A312.5232 B-26.9959 
N143 X-174.072 Y14.712 Z11.067 A312.5367 B-26.9961 
N144 X-174.076 Y14.518 Z11.275 A312.5501 B-26.9963 
N145 X-174.080 Y14.323 Z11.484 A312.5636 B-26.9965 
N146 X-174.084 Y14.128 Z11.692 A312.5771 B-26.9967 
N147 X-174.088 Y13.934 Z11.901 A312.5905 B-26.9969 
N148 X-174.092 Y13.739 Z12.110 A312.6040 B-26.9971 
N149 X-174.096 Y13.545 Z12.318 A312.6174 B-26.9973 
N150 X-174.100 Y13.350 Z12.527 A312.6309 B-26.9975 
N151 X-174.104 Y13.156 Z12.736 A312.6444 B-26.9976 
N152 X-174.108 Y12.961 Z12.944 A312.6578 B-26.9978 
N153 X-174.111 Y12.766 Z13.153 A312.6713 B-26.9980 
N154 X-174.115 Y12.572 Z13.362 A312.6848 B-26.9982 
N155 X-174.119 Y12.377 Z13.570 A312.6982 B-26.9984 
N156 X-174.123 Y12.183 Z13.779 A312.7117 B-26.9985 
N157 X-174.127 Y11.988 Z13.988 A312.7252 B-26.9987 
N158 X-174.128 Y11.794 Z14.196 A312.7385 B-26.9988 
N159 X-174.130 Y11.599 Z14.405 A312.7518 B-26.9989 
N160 X-174.131 Y11.404 Z14.614 A312.7652 B-26.9989 
N161 X-174.133 Y11.210 Z14.822 A312.7785 B-26.9990 
N162 X-174.134 Y11.015 Z15.031 A312.7919 B-26.9991 
N163 X-174.135 Y10.821 Z15.240 A312.8052 B-26.9991 
N164 X-174.137 Y10.626 Z15.448 A312.8186 B-26.9992 
N165 X-174.138 Y10.432 Z15.657 A312.8319 B-26.9993 
N166 X-174.139 Y10.237 Z15.866 A312.8453 B-26.9993 
N167 X-174.141 Y10.042 Z16.074 A312.8586 B-26.9994 
N168 X-174.142 Y9.848 Z16.283 A312.8720 B-26.9995 
N169 X-174.144 Y9.653 Z16.492 A312.8853 B-26.9995 
N170 X-174.145 Y9.459 Z16.700 A312.8987 B-26.9996 
N171 X-174.146 Y9.264 Z16.909 A312.9120 B-26.9997 
N172 X-174.148 Y9.069 Z17.118 A312.9254 B-26.9997 
N173 X-174.149 Y8.875 Z17.326 A312.9387 B-26.9998 
N174 X-174.150 Y8.680 Z17.535 A312.9521 B-26.9998 
N175 X-174.152 Y8.486 Z17.744 A312.9654 B-26.9999 
N176 X-174.153 Y8.291 Z17.952 A312.9788 B-26.9999 
N177 X-174.155 Y8.097 Z18.161 A312.9921 B-27.0000 
N178 X-174.157 Y7.810 Z18.468 
N179 X-174.205 Y0.990 Z25.782 
N180 G00 X-196.904 Y33.576 Z56.161 
RAPORT("TA333333","Slot Finishing:153 End")
;trailer : concat=None
; points cnt = 138
N182 MSG (" --- GROUPED OF SUBPROGRAM --- ")
N183 FGROUP()
N184 TRAFOOF
; PROGRAM NAME: A33333351
; ORDER       : A333333
; OPER. NAME  : Slot Finishing:154
; OPER. DESCR.: finishing root chamfer FSFSE
; OPER. TYPE  : slotMillFinish
; GEO. OPTION : 3
; MACHINE     : HSTM_300_SIM840D_Py
;             : HSTM300/500 - HAMUEL: 5-axis milling machine-SIM840D Traori PP_Script
; CONTROL     : SINUMERIK 840D
; created:   2021-09-10 09:09:05.974095
;----------------------------------------
RAPORT("TA333333","Slot Finishing:154")
N10 TRAFOOF
N11 D0
N12 G90 G94
N13 G0 G53 D0 Z550
N14 STOPRE
M9 ; chlodziwo wyl
; --- Slot Finishing:154 - finishing root chamfer FSFSE ---
N16 ;ToolChange : concat=None ,current_tdmid=None, PP.tdmId=940790
N17 TRAFOOF
N18 G0 G53 D0 Z550 B0
N19 STOPRE
N20 MSG(" TLID=940790 D=8.0 R=0.0 Ang=18.0 Len=135.0 ")
N21 S7161 M03
N22 STOPRE
N23 TOL(0.01,1,1)
N24 G0 G53 A310.8465 B-26.9204
N25 TRAORI
N26 G54 D1
N27 D1 
N28 TRANS  X=R19
STOPRE
E_ZDARZ=300008
;ACS_FINISH_ROOT_FRONT_CHAMFER=7740790
STOPRE
N29 ; DELTA A > 40.1
N30 TRAFOOF
N31 D1
N32 STOPRE
N33 G00 G54 Z251.000
N34 G01 A310.8465 F10000
N35 TRAORI
N36 G54 D1
N37 STOPRE
N38 TRANS  X=R19
N39 G00 X-155.375 Y78.845 Z7.916 A310.8465 B-26.9204 
N40 M342 ; chlodziwo woda
N41 X-132.738 Y45.120 Z-21.242 
N42 G01 X-133.470 Y38.319 Z-13.948 F859 
N43 X-133.495 Y38.092 Z-13.705 
N44 X-133.519 Y37.865 Z-13.462 
N45 X-133.544 Y37.639 Z-13.219 
N46 X-133.574 Y37.352 Z-12.912 
N47 X-133.595 Y37.157 Z-12.703 A310.8608 B-26.9215 
N48 X-133.616 Y36.962 Z-12.493 A310.8752 B-26.9225 
N49 X-133.637 Y36.767 Z-12.284 A310.8896 B-26.9236 
N50 X-133.658 Y36.572 Z-12.075 A310.9040 B-26.9246 
N51 X-133.678 Y36.377 Z-11.866 A310.9184 B-26.9256 
N52 X-133.699 Y36.182 Z-11.656 A310.9327 B-26.9267 
N53 X-133.719 Y35.987 Z-11.447 A310.9471 B-26.9277 
N54 X-133.739 Y35.791 Z-11.238 A310.9615 B-26.9287 
N55 X-133.759 Y35.596 Z-11.029 A310.9759 B-26.9297 
N56 X-133.779 Y35.401 Z-10.819 A310.9903 B-26.9307 
N57 X-133.799 Y35.206 Z-10.610 A311.0047 B-26.9317 
N58 X-133.818 Y35.011 Z-10.401 A311.0191 B-26.9327 
N59 X-133.838 Y34.816 Z-10.191 A311.0334 B-26.9337 
N60 X-133.857 Y34.620 Z-9.982 A311.0478 B-26.9346 
N61 X-133.876 Y34.425 Z-9.773 A311.0622 B-26.9356 
N62 X-133.895 Y34.230 Z-9.563 A311.0766 B-26.9365 
N63 X-133.914 Y34.035 Z-9.354 A311.0910 B-26.9375 
N64 X-133.933 Y33.840 Z-9.145 A311.1054 B-26.9384 
N65 X-133.951 Y33.644 Z-8.935 A311.1198 B-26.9394 
N66 X-133.970 Y33.449 Z-8.726 A311.1342 B-26.9403 
N67 X-133.988 Y33.254 Z-8.517 A311.1486 B-26.9412 
N68 X-134.006 Y33.059 Z-8.307 A311.1630 B-26.9421 
N69 X-134.024 Y32.863 Z-8.098 A311.1774 B-26.9430 
N70 X-134.042 Y32.668 Z-7.889 A311.1918 B-26.9439 
N71 X-134.060 Y32.473 Z-7.679 A311.2062 B-26.9448 
N72 X-134.077 Y32.278 Z-7.470 A311.2206 B-26.9457 
N73 X-134.095 Y32.082 Z-7.260 A311.2350 B-26.9466 
N74 X-134.112 Y31.887 Z-7.051 A311.2494 B-26.9474 
N75 X-134.129 Y31.692 Z-6.842 A311.2638 B-26.9483 
N76 X-134.146 Y31.497 Z-6.632 A311.2782 B-26.9492 
N77 X-134.163 Y31.301 Z-6.423 A311.2926 B-26.9500 
N78 X-134.180 Y31.106 Z-6.213 A311.3070 B-26.9508 
N79 X-134.196 Y30.911 Z-6.004 A311.3214 B-26.9517 
N80 X-134.213 Y30.715 Z-5.795 A311.3358 B-26.9525 
N81 X-134.229 Y30.520 Z-5.585 A311.3502 B-26.9533 
N82 X-134.245 Y30.325 Z-5.376 A311.3646 B-26.9541 
N83 X-134.261 Y30.129 Z-5.166 A311.3790 B-26.9549 
N84 X-134.277 Y29.934 Z-4.957 A311.3934 B-26.9557 
N85 X-134.293 Y29.739 Z-4.747 A311.4078 B-26.9565 
N86 X-134.308 Y29.543 Z-4.538 A311.4222 B-26.9573 
N87 X-134.324 Y29.348 Z-4.328 A311.4366 B-26.9581 
N88 X-134.339 Y29.153 Z-4.119 A311.4510 B-26.9589 
N89 X-134.354 Y28.957 Z-3.909 A311.4654 B-26.9596 
N90 X-134.369 Y28.762 Z-3.700 A311.4798 B-26.9604 
N91 X-134.384 Y28.567 Z-3.490 A311.4943 B-26.9611 
N92 X-134.399 Y28.371 Z-3.281 A311.5087 B-26.9619 
N93 X-134.413 Y28.176 Z-3.071 A311.5231 B-26.9626 
N94 X-134.428 Y27.980 Z-2.862 A311.5375 B-26.9633 
N95 X-134.442 Y27.785 Z-2.652 A311.5519 B-26.9641 
N96 X-134.456 Y27.590 Z-2.443 A311.5663 B-26.9648 
N97 X-134.470 Y27.394 Z-2.233 A311.5807 B-26.9655 
N98 X-134.484 Y27.199 Z-2.024 A311.5951 B-26.9662 
N99 X-134.498 Y27.003 Z-1.814 A311.6096 B-26.9669 
N100 X-134.511 Y26.808 Z-1.605 A311.6240 B-26.9675 
N101 X-134.525 Y26.613 Z-1.395 A311.6384 B-26.9682 
N102 X-134.538 Y26.417 Z-1.185 A311.6528 B-26.9689 
N103 X-134.551 Y26.222 Z-0.976 A311.6672 B-26.9696 
N104 X-134.564 Y26.026 Z-0.766 A311.6816 B-26.9702 
N105 X-134.577 Y25.831 Z-0.557 A311.6960 B-26.9709 
N106 X-134.590 Y25.636 Z-0.347 A311.7105 B-26.9715 
N107 X-134.603 Y25.440 Z-0.138 A311.7249 B-26.9721 
N108 X-134.615 Y25.245 Z0.072 A311.7393 B-26.9728 
N109 X-134.627 Y25.049 Z0.282 A311.7537 B-26.9734 
N110 X-134.640 Y24.854 Z0.491 A311.7681 B-26.9740 
N111 X-134.652 Y24.658 Z0.701 A311.7826 B-26.9746 
N112 X-134.664 Y24.463 Z0.910 A311.7970 B-26.9752 
N113 X-134.675 Y24.267 Z1.120 A311.8114 B-26.9758 
N114 X-134.687 Y24.072 Z1.330 A311.8258 B-26.9764 
N115 X-134.698 Y23.876 Z1.539 A311.8402 B-26.9769 
N116 X-134.710 Y23.681 Z1.749 A311.8547 B-26.9775 
N117 X-134.721 Y23.485 Z1.959 A311.8691 B-26.9781 
N118 X-134.732 Y23.290 Z2.168 A311.8835 B-26.9786 
N119 X-134.743 Y23.094 Z2.378 A311.8979 B-26.9792 
N120 X-134.754 Y22.899 Z2.587 A311.9124 B-26.9797 
N121 X-134.764 Y22.703 Z2.797 A311.9268 B-26.9803 
N122 X-134.775 Y22.508 Z3.007 A311.9412 B-26.9808 
N123 X-134.785 Y22.312 Z3.216 A311.9556 B-26.9813 
N124 X-134.795 Y22.117 Z3.426 A311.9701 B-26.9818 
N125 X-134.805 Y21.921 Z3.636 A311.9845 B-26.9823 
N126 X-134.815 Y21.726 Z3.845 A311.9989 B-26.9828 
N127 X-134.825 Y21.530 Z4.055 A312.0133 B-26.9833 
N128 X-134.835 Y21.335 Z4.265 A312.0278 B-26.9838 
N129 X-134.844 Y21.139 Z4.474 A312.0422 B-26.9843 
N130 X-134.853 Y20.944 Z4.684 A312.0566 B-26.9848 
N131 X-134.863 Y20.748 Z4.894 A312.0710 B-26.9852 
N132 X-134.872 Y20.553 Z5.103 A312.0855 B-26.9857 
N133 X-134.881 Y20.357 Z5.313 A312.0999 B-26.9861 
N134 X-134.889 Y20.162 Z5.523 A312.1143 B-26.9866 
N135 X-134.898 Y19.966 Z5.732 A312.1288 B-26.9870 
N136 X-134.906 Y19.771 Z5.942 A312.1432 B-26.9874 
N137 X-134.915 Y19.575 Z6.152 A312.1576 B-26.9878 
N138 X-134.923 Y19.380 Z6.361 A312.1720 B-26.9883 
N139 X-134.931 Y19.184 Z6.571 A312.1865 B-26.9887 
N140 X-134.939 Y18.988 Z6.781 A312.2009 B-26.9891 
N141 X-134.947 Y18.793 Z6.991 A312.2153 B-26.9895 
N142 X-134.954 Y18.597 Z7.200 A312.2298 B-26.9898 
N143 X-134.962 Y18.402 Z7.410 A312.2442 B-26.9902 
N144 X-134.969 Y18.206 Z7.620 A312.2586 B-26.9906 
N145 X-134.977 Y18.011 Z7.829 A312.2731 B-26.9909 
N146 X-134.984 Y17.815 Z8.039 A312.2875 B-26.9913 
N147 X-134.991 Y17.620 Z8.249 A312.3019 B-26.9917 
N148 X-134.997 Y17.424 Z8.459 A312.3164 B-26.9920 
N149 X-135.004 Y17.228 Z8.668 A312.3308 B-26.9923 
N150 X-135.010 Y17.033 Z8.878 A312.3452 B-26.9927 
N151 X-135.017 Y16.837 Z9.088 A312.3597 B-26.9930 
N152 X-135.023 Y16.642 Z9.298 A312.3741 B-26.9933 
N153 X-135.029 Y16.446 Z9.507 A312.3885 B-26.9936 
N154 X-135.035 Y16.250 Z9.717 A312.4030 B-26.9939 
N155 X-135.041 Y16.055 Z9.927 A312.4174 B-26.9942 
N156 X-135.047 Y15.859 Z10.137 A312.4318 B-26.9945 
N157 X-135.052 Y15.664 Z10.346 A312.4463 B-26.9947 
N158 X-135.057 Y15.468 Z10.556 A312.4607 B-26.9950 
N159 X-135.063 Y15.272 Z10.766 A312.4751 B-26.9953 
N160 X-135.068 Y15.077 Z10.976 A312.4896 B-26.9955 
N161 X-135.073 Y14.881 Z11.185 A312.5040 B-26.9958 
N162 X-135.077 Y14.686 Z11.395 A312.5185 B-26.9960 
N163 X-135.082 Y14.490 Z11.605 A312.5329 B-26.9963 
N164 X-135.087 Y14.294 Z11.815 A312.5473 B-26.9965 
N165 X-135.091 Y14.099 Z12.024 A312.5618 B-26.9967 
N166 X-135.095 Y13.903 Z12.234 A312.5762 B-26.9969 
N167 X-135.099 Y13.708 Z12.444 A312.5906 B-26.9971 
N168 X-135.103 Y13.512 Z12.654 A312.6051 B-26.9973 
N169 X-135.107 Y13.316 Z12.863 A312.6195 B-26.9975 
N170 X-135.111 Y13.121 Z13.073 A312.6339 B-26.9977 
N171 X-135.114 Y12.925 Z13.283 A312.6484 B-26.9979 
N172 X-135.118 Y12.730 Z13.493 A312.6628 B-26.9981 
N173 X-135.121 Y12.534 Z13.702 A312.6773 B-26.9982 
N174 X-135.124 Y12.338 Z13.912 A312.6917 B-26.9984 
N175 X-135.127 Y12.143 Z14.122 A312.7061 B-26.9985 
N176 X-135.130 Y11.947 Z14.332 A312.7206 B-26.9987 
N177 X-135.132 Y11.752 Z14.542 A312.7350 B-26.9988 
N178 X-135.135 Y11.556 Z14.751 A312.7495 B-26.9989 
N179 X-135.137 Y11.360 Z14.961 A312.7639 B-26.9990 
N180 X-135.140 Y11.165 Z15.171 A312.7783 B-26.9992 
N181 X-135.142 Y10.969 Z15.381 A312.7928 B-26.9993 
N182 X-135.144 Y10.773 Z15.590 A312.8072 B-26.9994 
N183 X-135.146 Y10.578 Z15.800 A312.8216 B-26.9995 
N184 X-135.147 Y10.382 Z16.010 A312.8361 B-26.9995 
N185 X-135.149 Y10.187 Z16.220 A312.8505 B-26.9996 
N186 X-135.150 Y9.991 Z16.430 A312.8650 B-26.9997 
N187 X-135.151 Y9.795 Z16.639 A312.8794 B-26.9998 
N188 X-135.152 Y9.600 Z16.849 A312.8938 B-26.9998 
N189 X-135.153 Y9.404 Z17.059 A312.9083 B-26.9999 
N190 X-135.154 Y9.208 Z17.269 A312.9227 B-26.9999 
N191 X-135.155 Y9.013 Z17.479 A312.9372 B-26.9999 
N192 X-135.156 Y8.817 Z17.688 A312.9516 B-27.0000 
N193 X-135.156 Y8.622 Z17.898 A312.9660 B-27.0000 
N194 X-135.156 Y8.426 Z18.108 A312.9805 B-27.0000 
N195 X-135.156 Y8.230 Z18.318 A312.9949 B-27.0000 
N196 X-135.156 Y8.035 Z18.527 A313.0094 
N197 X-135.156 Y7.839 Z18.737 A313.0238 B-27.0000 
N198 X-135.156 Y7.643 Z18.947 A313.0382 B-27.0000 
N199 X-135.155 Y7.448 Z19.157 A313.0527 B-27.0000 
N200 X-135.155 Y7.252 Z19.367 A313.0671 B-26.9999 
N201 X-135.154 Y7.056 Z19.576 A313.0816 B-26.9999 
N202 X-135.153 Y6.861 Z19.786 A313.0960 B-26.9998 
N203 X-135.152 Y6.665 Z19.996 A313.1104 B-26.9998 
N204 X-135.151 Y6.470 Z20.206 A313.1249 B-26.9997 
N205 X-135.150 Y6.274 Z20.416 A313.1393 B-26.9997 
N206 X-135.148 Y6.078 Z20.625 A313.1537 B-26.9996 
N207 X-135.147 Y5.883 Z20.835 A313.1682 B-26.9995 
N208 X-135.145 Y5.687 Z21.045 A313.1826 B-26.9994 
N209 X-135.143 Y5.491 Z21.255 A313.1971 B-26.9993 
N210 X-135.141 Y5.296 Z21.464 A313.2115 B-26.9992 
N211 X-135.139 Y5.100 Z21.674 A313.2259 B-26.9991 
N212 X-135.137 Y4.905 Z21.884 A313.2404 B-26.9990 
N213 X-135.134 Y4.709 Z22.094 A313.2548 B-26.9989 
N214 X-135.132 Y4.513 Z22.304 A313.2693 B-26.9988 
N215 X-135.129 Y4.318 Z22.513 A313.2837 B-26.9986 
N216 X-135.126 Y4.122 Z22.723 A313.2981 B-26.9985 
N217 X-135.123 Y3.927 Z22.933 A313.3126 B-26.9983 
N218 X-135.120 Y3.731 Z23.143 A313.3270 B-26.9982 
N219 X-135.117 Y3.535 Z23.352 A313.3414 B-26.9980 
N220 X-135.113 Y3.340 Z23.562 A313.3559 B-26.9978 
N221 X-135.110 Y3.144 Z23.772 A313.3703 B-26.9976 
N222 X-135.106 Y2.948 Z23.982 A313.3848 B-26.9975 
N223 X-135.102 Y2.753 Z24.192 A313.3992 B-26.9973 
N224 X-135.098 Y2.557 Z24.401 A313.4136 B-26.9971 
N225 X-135.094 Y2.362 Z24.611 A313.4281 B-26.9969 
N226 X-135.090 Y2.166 Z24.821 A313.4425 B-26.9966 
N227 X-135.085 Y1.970 Z25.031 A313.4569 B-26.9964 
N228 X-135.081 Y1.775 Z25.240 A313.4714 B-26.9962 
N229 X-135.076 Y1.579 Z25.450 A313.4858 B-26.9960 
N230 X-135.071 Y1.384 Z25.660 A313.5002 B-26.9957 
N231 X-135.066 Y1.188 Z25.870 A313.5147 B-26.9955 
N232 X-135.061 Y0.992 Z26.079 A313.5291 B-26.9952 
N233 X-135.056 Y0.797 Z26.289 A313.5436 B-26.9949 
N234 X-135.050 Y0.601 Z26.499 A313.5580 B-26.9947 
N235 X-135.045 Y0.406 Z26.709 A313.5724 B-26.9944 
N236 X-135.037 Y0.119 Z27.016 
N237 X-134.844 Y-6.700 Z34.328 
N238 G00 X-146.192 Y9.439 Z49.683 
N239 X-144.057 Y59.814 Z-8.685 A310.8465 B-26.9204 
N240 X-132.738 Y42.952 Z-23.264 
N241 G01 X-133.470 Y36.150 Z-15.970 F859 
N242 X-133.495 Y35.923 Z-15.727 
N243 X-133.519 Y35.697 Z-15.484 
N244 X-133.544 Y35.470 Z-15.241 
N245 X-133.574 Y35.184 Z-14.934 
N246 X-133.595 Y34.989 Z-14.725 A310.8608 B-26.9215 
N247 X-133.616 Y34.794 Z-14.516 A310.8752 B-26.9225 
N248 X-133.637 Y34.599 Z-14.306 A310.8896 B-26.9236 
N249 X-133.658 Y34.404 Z-14.097 A310.9040 B-26.9246 
N250 X-133.678 Y34.208 Z-13.888 A310.9184 B-26.9256 
N251 X-133.699 Y34.013 Z-13.679 A310.9327 B-26.9267 
N252 X-133.719 Y33.818 Z-13.469 A310.9471 B-26.9277 
N253 X-133.739 Y33.623 Z-13.260 A310.9615 B-26.9287 
N254 X-133.759 Y33.428 Z-13.051 A310.9759 B-26.9297 
N255 X-133.779 Y33.233 Z-12.842 A310.9903 B-26.9307 
N256 X-133.799 Y33.037 Z-12.632 A311.0047 B-26.9317 
N257 X-133.818 Y32.842 Z-12.423 A311.0191 B-26.9327 
N258 X-133.838 Y32.647 Z-12.214 A311.0334 B-26.9337 
N259 X-133.857 Y32.452 Z-12.004 A311.0478 B-26.9346 
N260 X-133.876 Y32.257 Z-11.795 A311.0622 B-26.9356 
N261 X-133.895 Y32.062 Z-11.586 A311.0766 B-26.9365 
N262 X-133.914 Y31.866 Z-11.376 A311.0910 B-26.9375 
N263 X-133.933 Y31.671 Z-11.167 A311.1054 B-26.9384 
N264 X-133.951 Y31.476 Z-10.958 A311.1198 B-26.9394 
N265 X-133.970 Y31.281 Z-10.748 A311.1342 B-26.9403 
N266 X-133.988 Y31.085 Z-10.539 A311.1486 B-26.9412 
N267 X-134.006 Y30.890 Z-10.330 A311.1630 B-26.9421 
N268 X-134.024 Y30.695 Z-10.120 A311.1774 B-26.9430 
N269 X-134.042 Y30.500 Z-9.911 A311.1918 B-26.9439 
N270 X-134.060 Y30.304 Z-9.701 A311.2062 B-26.9448 
N271 X-134.077 Y30.109 Z-9.492 A311.2206 B-26.9457 
N272 X-134.095 Y29.914 Z-9.283 A311.2350 B-26.9466 
N273 X-134.112 Y29.719 Z-9.073 A311.2494 B-26.9474 
N274 X-134.129 Y29.523 Z-8.864 A311.2638 B-26.9483 
N275 X-134.146 Y29.328 Z-8.654 A311.2782 B-26.9492 
N276 X-134.163 Y29.133 Z-8.445 A311.2926 B-26.9500 
N277 X-134.180 Y28.937 Z-8.236 A311.3070 B-26.9508 
N278 X-134.196 Y28.742 Z-8.026 A311.3214 B-26.9517 
N279 X-134.213 Y28.547 Z-7.817 A311.3358 B-26.9525 
N280 X-134.229 Y28.352 Z-7.607 A311.3502 B-26.9533 
N281 X-134.245 Y28.156 Z-7.398 A311.3646 B-26.9541 
N282 X-134.261 Y27.961 Z-7.188 A311.3790 B-26.9549 
N283 X-134.277 Y27.766 Z-6.979 A311.3934 B-26.9557 
N284 X-134.293 Y27.570 Z-6.769 A311.4078 B-26.9565 
N285 X-134.308 Y27.375 Z-6.560 A311.4222 B-26.9573 
N286 X-134.324 Y27.180 Z-6.350 A311.4366 B-26.9581 
N287 X-134.339 Y26.984 Z-6.141 A311.4510 B-26.9589 
N288 X-134.354 Y26.789 Z-5.931 A311.4654 B-26.9596 
N289 X-134.369 Y26.593 Z-5.722 A311.4798 B-26.9604 
N290 X-134.384 Y26.398 Z-5.512 A311.4943 B-26.9611 
N291 X-134.399 Y26.203 Z-5.303 A311.5087 B-26.9619 
N292 X-134.413 Y26.007 Z-5.093 A311.5231 B-26.9626 
N293 X-134.428 Y25.812 Z-4.884 A311.5375 B-26.9633 
N294 X-134.442 Y25.617 Z-4.674 A311.5519 B-26.9641 
N295 X-134.456 Y25.421 Z-4.465 A311.5663 B-26.9648 
N296 X-134.470 Y25.226 Z-4.255 A311.5807 B-26.9655 
N297 X-134.484 Y25.030 Z-4.046 A311.5951 B-26.9662 
N298 X-134.498 Y24.835 Z-3.836 A311.6096 B-26.9669 
N299 X-134.511 Y24.640 Z-3.627 A311.6240 B-26.9675 
N300 X-134.525 Y24.444 Z-3.417 A311.6384 B-26.9682 
N301 X-134.538 Y24.249 Z-3.208 A311.6528 B-26.9689 
N302 X-134.551 Y24.053 Z-2.998 A311.6672 B-26.9696 
N303 X-134.564 Y23.858 Z-2.788 A311.6816 B-26.9702 
N304 X-134.577 Y23.662 Z-2.579 A311.6960 B-26.9709 
N305 X-134.590 Y23.467 Z-2.369 A311.7105 B-26.9715 
N306 X-134.603 Y23.272 Z-2.160 A311.7249 B-26.9721 
N307 X-134.615 Y23.076 Z-1.950 A311.7393 B-26.9728 
N308 X-134.627 Y22.881 Z-1.741 A311.7537 B-26.9734 
N309 X-134.640 Y22.685 Z-1.531 A311.7681 B-26.9740 
N310 X-134.652 Y22.490 Z-1.321 A311.7826 B-26.9746 
N311 X-134.664 Y22.294 Z-1.112 A311.7970 B-26.9752 
N312 X-134.675 Y22.099 Z-0.902 A311.8114 B-26.9758 
N313 X-134.687 Y21.903 Z-0.693 A311.8258 B-26.9764 
N314 X-134.698 Y21.708 Z-0.483 A311.8402 B-26.9769 
N315 X-134.710 Y21.512 Z-0.273 A311.8547 B-26.9775 
N316 X-134.721 Y21.317 Z-0.064 A311.8691 B-26.9781 
N317 X-134.732 Y21.121 Z0.146 A311.8835 B-26.9786 
N318 X-134.743 Y20.926 Z0.356 A311.8979 B-26.9792 
N319 X-134.754 Y20.730 Z0.565 A311.9124 B-26.9797 
N320 X-134.764 Y20.535 Z0.775 A311.9268 B-26.9803 
N321 X-134.775 Y20.339 Z0.984 A311.9412 B-26.9808 
N322 X-134.785 Y20.144 Z1.194 A311.9556 B-26.9813 
N323 X-134.795 Y19.948 Z1.404 A311.9701 B-26.9818 
N324 X-134.805 Y19.753 Z1.613 A311.9845 B-26.9823 
N325 X-134.815 Y19.557 Z1.823 A311.9989 B-26.9828 
N326 X-134.825 Y19.362 Z2.033 A312.0133 B-26.9833 
N327 X-134.835 Y19.166 Z2.242 A312.0278 B-26.9838 
N328 X-134.844 Y18.971 Z2.452 A312.0422 B-26.9843 
N329 X-134.853 Y18.775 Z2.662 A312.0566 B-26.9848 
N330 X-134.863 Y18.580 Z2.871 A312.0710 B-26.9852 
N331 X-134.872 Y18.384 Z3.081 A312.0855 B-26.9857 
N332 X-134.881 Y18.189 Z3.291 A312.0999 B-26.9861 
N333 X-134.889 Y17.993 Z3.501 A312.1143 B-26.9866 
N334 X-134.898 Y17.798 Z3.710 A312.1288 B-26.9870 
N335 X-134.906 Y17.602 Z3.920 A312.1432 B-26.9874 
N336 X-134.915 Y17.407 Z4.130 A312.1576 B-26.9878 
N337 X-134.923 Y17.211 Z4.339 A312.1720 B-26.9883 
N338 X-134.931 Y17.015 Z4.549 A312.1865 B-26.9887 
N339 X-134.939 Y16.820 Z4.759 A312.2009 B-26.9891 
N340 X-134.947 Y16.624 Z4.968 A312.2153 B-26.9895 
N341 X-134.954 Y16.429 Z5.178 A312.2298 B-26.9898 
N342 X-134.962 Y16.233 Z5.388 A312.2442 B-26.9902 
N343 X-134.969 Y16.038 Z5.598 A312.2586 B-26.9906 
N344 X-134.977 Y15.842 Z5.807 A312.2731 B-26.9909 
N345 X-134.984 Y15.647 Z6.017 A312.2875 B-26.9913 
N346 X-134.991 Y15.451 Z6.227 A312.3019 B-26.9917 
N347 X-134.997 Y15.255 Z6.436 A312.3164 B-26.9920 
N348 X-135.004 Y15.060 Z6.646 A312.3308 B-26.9923 
N349 X-135.010 Y14.864 Z6.856 A312.3452 B-26.9927 
N350 X-135.017 Y14.669 Z7.066 A312.3597 B-26.9930 
N351 X-135.023 Y14.473 Z7.275 A312.3741 B-26.9933 
N352 X-135.029 Y14.277 Z7.485 A312.3885 B-26.9936 
N353 X-135.035 Y14.082 Z7.695 A312.4030 B-26.9939 
N354 X-135.041 Y13.886 Z7.905 A312.4174 B-26.9942 
N355 X-135.047 Y13.691 Z8.114 A312.4318 B-26.9945 
N356 X-135.052 Y13.495 Z8.324 A312.4463 B-26.9947 
N357 X-135.057 Y13.300 Z8.534 A312.4607 B-26.9950 
N358 X-135.063 Y13.104 Z8.744 A312.4751 B-26.9953 
N359 X-135.068 Y12.908 Z8.953 A312.4896 B-26.9955 
N360 X-135.073 Y12.713 Z9.163 A312.5040 B-26.9958 
N361 X-135.077 Y12.517 Z9.373 A312.5185 B-26.9960 
N362 X-135.082 Y12.322 Z9.583 A312.5329 B-26.9963 
N363 X-135.087 Y12.126 Z9.792 A312.5473 B-26.9965 
N364 X-135.091 Y11.930 Z10.002 A312.5618 B-26.9967 
N365 X-135.095 Y11.735 Z10.212 A312.5762 B-26.9969 
N366 X-135.099 Y11.539 Z10.422 A312.5906 B-26.9971 
N367 X-135.103 Y11.344 Z10.631 A312.6051 B-26.9973 
N368 X-135.107 Y11.148 Z10.841 A312.6195 B-26.9975 
N369 X-135.111 Y10.952 Z11.051 A312.6339 B-26.9977 
N370 X-135.114 Y10.757 Z11.261 A312.6484 B-26.9979 
N371 X-135.118 Y10.561 Z11.471 A312.6628 B-26.9981 
N372 X-135.121 Y10.365 Z11.680 A312.6773 B-26.9982 
N373 X-135.124 Y10.170 Z11.890 A312.6917 B-26.9984 
N374 X-135.127 Y9.974 Z12.100 A312.7061 B-26.9985 
N375 X-135.130 Y9.779 Z12.310 A312.7206 B-26.9987 
N376 X-135.132 Y9.583 Z12.519 A312.7350 B-26.9988 
N377 X-135.135 Y9.387 Z12.729 A312.7495 B-26.9989 
N378 X-135.137 Y9.192 Z12.939 A312.7639 B-26.9990 
N379 X-135.140 Y8.996 Z13.149 A312.7783 B-26.9992 
N380 X-135.142 Y8.800 Z13.359 A312.7928 B-26.9993 
N381 X-135.144 Y8.605 Z13.568 A312.8072 B-26.9994 
N382 X-135.146 Y8.409 Z13.778 A312.8216 B-26.9995 
N383 X-135.147 Y8.214 Z13.988 A312.8361 B-26.9995 
N384 X-135.149 Y8.018 Z14.198 A312.8505 B-26.9996 
N385 X-135.150 Y7.822 Z14.407 A312.8650 B-26.9997 
N386 X-135.151 Y7.627 Z14.617 A312.8794 B-26.9998 
N387 X-135.152 Y7.431 Z14.827 A312.8938 B-26.9998 
N388 X-135.153 Y7.235 Z15.037 A312.9083 B-26.9999 
N389 X-135.154 Y7.040 Z15.247 A312.9227 B-26.9999 
N390 X-135.155 Y6.844 Z15.456 A312.9372 B-26.9999 
N391 X-135.156 Y6.649 Z15.666 A312.9516 B-27.0000 
N392 X-135.156 Y6.453 Z15.876 A312.9660 B-27.0000 
N393 X-135.156 Y6.257 Z16.086 A312.9805 B-27.0000 
N394 X-135.156 Y6.062 Z16.295 A312.9949 B-27.0000 
N395 X-135.156 Y5.866 Z16.505 A313.0094 
N396 X-135.156 Y5.670 Z16.715 A313.0238 B-27.0000 
N397 X-135.156 Y5.475 Z16.925 A313.0382 B-27.0000 
N398 X-135.155 Y5.279 Z17.135 A313.0527 B-27.0000 
N399 X-135.155 Y5.084 Z17.344 A313.0671 B-26.9999 
N400 X-135.154 Y4.888 Z17.554 A313.0816 B-26.9999 
N401 X-135.153 Y4.692 Z17.764 A313.0960 B-26.9998 
N402 X-135.152 Y4.497 Z17.974 A313.1104 B-26.9998 
N403 X-135.151 Y4.301 Z18.184 A313.1249 B-26.9997 
N404 X-135.150 Y4.105 Z18.393 A313.1393 B-26.9997 
N405 X-135.148 Y3.910 Z18.603 A313.1537 B-26.9996 
N406 X-135.147 Y3.714 Z18.813 A313.1682 B-26.9995 
N407 X-135.145 Y3.519 Z19.023 A313.1826 B-26.9994 
N408 X-135.143 Y3.323 Z19.232 A313.1971 B-26.9993 
N409 X-135.141 Y3.127 Z19.442 A313.2115 B-26.9992 
N410 X-135.139 Y2.932 Z19.652 A313.2259 B-26.9991 
N411 X-135.137 Y2.736 Z19.862 A313.2404 B-26.9990 
N412 X-135.134 Y2.540 Z20.072 A313.2548 B-26.9989 
N413 X-135.132 Y2.345 Z20.281 A313.2693 B-26.9988 
N414 X-135.129 Y2.149 Z20.491 A313.2837 B-26.9986 
N415 X-135.126 Y1.954 Z20.701 A313.2981 B-26.9985 
N416 X-135.123 Y1.758 Z20.911 A313.3126 B-26.9983 
N417 X-135.120 Y1.562 Z21.120 A313.3270 B-26.9982 
N418 X-135.117 Y1.367 Z21.330 A313.3414 B-26.9980 
N419 X-135.113 Y1.171 Z21.540 A313.3559 B-26.9978 
N420 X-135.110 Y0.976 Z21.750 A313.3703 B-26.9976 
N421 X-135.106 Y0.780 Z21.960 A313.3848 B-26.9975 
N422 X-135.102 Y0.584 Z22.169 A313.3992 B-26.9973 
N423 X-135.098 Y0.389 Z22.379 A313.4136 B-26.9971 
N424 X-135.094 Y0.193 Z22.589 A313.4281 B-26.9969 
N425 X-135.090 Y-0.003 Z22.799 A313.4425 B-26.9966 
N426 X-135.085 Y-0.198 Z23.008 A313.4569 B-26.9964 
N427 X-135.081 Y-0.394 Z23.218 A313.4714 B-26.9962 
N428 X-135.076 Y-0.589 Z23.428 A313.4858 B-26.9960 
N429 X-135.071 Y-0.785 Z23.638 A313.5002 B-26.9957 
N430 X-135.066 Y-0.981 Z23.847 A313.5147 B-26.9955 
N431 X-135.061 Y-1.176 Z24.057 A313.5291 B-26.9952 
N432 X-135.056 Y-1.372 Z24.267 A313.5436 B-26.9949 
N433 X-135.050 Y-1.567 Z24.477 A313.5580 B-26.9947 
N434 X-135.045 Y-1.763 Z24.686 A313.5724 B-26.9944 
N435 X-135.037 Y-2.050 Z24.994 
N436 X-134.844 Y-8.868 Z32.306 
N437 G00 X-157.539 Y23.410 Z63.015 
RAPORT("TA333333","Slot Finishing:154 End")
;trailer : concat=None
; points cnt = 392
N439 MSG (" --- GROUPED OF SUBPROGRAM --- ")
N440 FGROUP()
N441 TRAFOOF
; PROGRAM NAME: A33333351
; ORDER       : A333333
; OPER. NAME  : Slot Finishing:155
; OPER. DESCR.: Finishing slot
; OPER. TYPE  : slotMillFinish
; GEO. OPTION : 3
; MACHINE     : HSTM_300_SIM840D_Py
;             : HSTM300/500 - HAMUEL: 5-axis milling machine-SIM840D Traori PP_Script
; CONTROL     : SINUMERIK 840D
; created:   2021-09-10 09:11:19.793554
;----------------------------------------
RAPORT("TA333333","Slot Finishing:155")
N10 TRAFOOF
N11 D0
N12 G90 G94
N13 G0 G53 D0 Z550
N14 STOPRE
M9 ; chlodziwo wyl
; --- Slot Finishing:155 - Finishing slot ---
N16 ;ToolChange : concat=None ,current_tdmid=None, PP.tdmId=940790
N17 TRAFOOF
N18 G0 G53 D0 Z550 B0
N19 STOPRE
N20 MSG(" TLID=940790 D=8.0 R=0.0 Ang=18.0 Len=135.0 ")
N21 S7161 M03
N22 STOPRE
N23 TOL(0.01,1,1)
N24 G0 G53 A310.8464 B-26.9204
N25 TRAORI
N26 G54 D1
N27 D1 
N28 TRANS  X=R19
STOPRE
E_ZDARZ=300008
;ACS_FINISH_ROOT_FRONT_CHAMFER=7740790
STOPRE
N29 ; DELTA A > 40.1
N30 TRAFOOF
N31 D1
N32 STOPRE
N33 G00 G54 Z251.000
N34 G01 A310.8464 F10000
N35 TRAORI
N36 G54 D1
N37 STOPRE
N38 TRANS  X=R19
N39 G00 X-155.675 Y76.756 Z5.938 A310.8464 B-26.9204 
N40 M342 ; chlodziwo woda
N41 X-133.037 Y43.031 Z-23.220 
N42 G01 X-133.769 Y36.230 Z-15.926 F859 
N43 X-133.794 Y36.003 Z-15.683 
N44 X-133.818 Y35.776 Z-15.440 
N45 X-133.843 Y35.549 Z-15.197 
N46 X-133.874 Y35.263 Z-14.890 
N47 X-133.895 Y35.068 Z-14.681 A310.8608 B-26.9215 
N48 X-133.916 Y34.873 Z-14.472 A310.8752 B-26.9225 
N49 X-133.936 Y34.678 Z-14.262 A310.8896 B-26.9236 
N50 X-133.957 Y34.482 Z-14.053 A310.9040 B-26.9246 
N51 X-133.978 Y34.287 Z-13.844 A310.9184 B-26.9256 
N52 X-133.998 Y34.092 Z-13.634 A310.9327 B-26.9267 
N53 X-134.018 Y33.897 Z-13.425 A310.9471 B-26.9277 
N54 X-134.039 Y33.702 Z-13.215 A310.9615 B-26.9287 
N55 X-134.058 Y33.506 Z-13.006 A310.9759 B-26.9297 
N56 X-134.078 Y33.311 Z-12.797 A310.9903 B-26.9307 
N57 X-134.098 Y33.116 Z-12.587 A311.0047 B-26.9317 
N58 X-134.118 Y32.920 Z-12.378 A311.0191 B-26.9327 
N59 X-134.137 Y32.725 Z-12.168 A311.0334 B-26.9337 
N60 X-134.156 Y32.530 Z-11.959 A311.0478 B-26.9346 
N61 X-134.175 Y32.335 Z-11.750 A311.0622 B-26.9356 
N62 X-134.194 Y32.139 Z-11.540 A311.0766 B-26.9365 
N63 X-134.213 Y31.944 Z-11.331 A311.0910 B-26.9375 
N64 X-134.232 Y31.749 Z-11.121 A311.1054 B-26.9384 
N65 X-134.251 Y31.553 Z-10.912 A311.1198 B-26.9394 
N66 X-134.269 Y31.358 Z-10.702 A311.1342 B-26.9403 
N67 X-134.287 Y31.163 Z-10.493 A311.1486 B-26.9412 
N68 X-134.305 Y30.967 Z-10.283 A311.1630 B-26.9421 
N69 X-134.323 Y30.772 Z-10.074 A311.1774 B-26.9430 
N70 X-134.341 Y30.577 Z-9.865 A311.1918 B-26.9439 
N71 X-134.359 Y30.381 Z-9.655 A311.2062 B-26.9448 
N72 X-134.377 Y30.186 Z-9.446 A311.2206 B-26.9457 
N73 X-134.394 Y29.991 Z-9.236 A311.2350 B-26.9466 
N74 X-134.411 Y29.795 Z-9.027 A311.2494 B-26.9474 
N75 X-134.428 Y29.600 Z-8.817 A311.2638 B-26.9483 
N76 X-134.445 Y29.404 Z-8.607 A311.2782 B-26.9492 
N77 X-134.462 Y29.209 Z-8.398 A311.2926 B-26.9500 
N78 X-134.479 Y29.014 Z-8.188 A311.3070 B-26.9508 
N79 X-134.496 Y28.818 Z-7.979 A311.3214 B-26.9517 
N80 X-134.512 Y28.623 Z-7.769 A311.3358 B-26.9525 
N81 X-134.528 Y28.427 Z-7.560 A311.3502 B-26.9533 
N82 X-134.545 Y28.232 Z-7.350 A311.3646 B-26.9541 
N83 X-134.561 Y28.036 Z-7.141 A311.3790 B-26.9549 
N84 X-134.576 Y27.841 Z-6.931 A311.3934 B-26.9557 
N85 X-134.592 Y27.646 Z-6.721 A311.4078 B-26.9565 
N86 X-134.608 Y27.450 Z-6.512 A311.4222 B-26.9573 
N87 X-134.623 Y27.255 Z-6.302 A311.4366 B-26.9581 
N88 X-134.638 Y27.059 Z-6.093 A311.4510 B-26.9589 
N89 X-134.654 Y26.864 Z-5.883 A311.4654 B-26.9596 
N90 X-134.669 Y26.668 Z-5.674 A311.4798 B-26.9604 
N91 X-134.684 Y26.473 Z-5.464 A311.4943 B-26.9611 
N92 X-134.698 Y26.277 Z-5.254 A311.5087 B-26.9619 
N93 X-134.713 Y26.082 Z-5.045 A311.5231 B-26.9626 
N94 X-134.727 Y25.886 Z-4.835 A311.5375 B-26.9633 
N95 X-134.742 Y25.691 Z-4.625 A311.5519 B-26.9641 
N96 X-134.756 Y25.495 Z-4.416 A311.5663 B-26.9648 
N97 X-134.770 Y25.300 Z-4.206 A311.5807 B-26.9655 
N98 X-134.784 Y25.104 Z-3.996 A311.5951 B-26.9662 
N99 X-134.797 Y24.909 Z-3.787 A311.6096 B-26.9669 
N100 X-134.811 Y24.713 Z-3.577 A311.6240 B-26.9675 
N101 X-134.825 Y24.518 Z-3.368 A311.6384 B-26.9682 
N102 X-134.838 Y24.322 Z-3.158 A311.6528 B-26.9689 
N103 X-134.851 Y24.127 Z-2.948 A311.6672 B-26.9696 
N104 X-134.864 Y23.931 Z-2.738 A311.6816 B-26.9702 
N105 X-134.877 Y23.736 Z-2.529 A311.6960 B-26.9709 
N106 X-134.890 Y23.540 Z-2.319 A311.7105 B-26.9715 
N107 X-134.902 Y23.345 Z-2.109 A311.7249 B-26.9721 
N108 X-134.915 Y23.149 Z-1.900 A311.7393 B-26.9728 
N109 X-134.927 Y22.954 Z-1.690 A311.7537 B-26.9734 
N110 X-134.939 Y22.758 Z-1.480 A311.7681 B-26.9740 
N111 X-134.951 Y22.563 Z-1.271 A311.7826 B-26.9746 
N112 X-134.963 Y22.367 Z-1.061 A311.7970 B-26.9752 
N113 X-134.975 Y22.171 Z-0.851 A311.8114 B-26.9758 
N114 X-134.987 Y21.976 Z-0.641 A311.8258 B-26.9764 
N115 X-134.998 Y21.780 Z-0.432 A311.8402 B-26.9769 
N116 X-135.009 Y21.585 Z-0.222 A311.8547 B-26.9775 
N117 X-135.021 Y21.389 Z-0.012 A311.8691 B-26.9781 
N118 X-135.032 Y21.194 Z0.197 A311.8835 B-26.9786 
N119 X-135.043 Y20.998 Z0.407 A311.8979 B-26.9792 
N120 X-135.053 Y20.802 Z0.617 A311.9124 B-26.9797 
N121 X-135.064 Y20.607 Z0.827 A311.9268 B-26.9803 
N122 X-135.075 Y20.411 Z1.036 A311.9412 B-26.9808 
N123 X-135.085 Y20.216 Z1.246 A311.9556 B-26.9813 
N124 X-135.095 Y20.020 Z1.456 A311.9701 B-26.9818 
N125 X-135.105 Y19.824 Z1.666 A311.9845 B-26.9823 
N126 X-135.115 Y19.629 Z1.876 A311.9989 B-26.9828 
N127 X-135.125 Y19.433 Z2.085 A312.0133 B-26.9833 
N128 X-135.134 Y19.237 Z2.295 A312.0278 B-26.9838 
N129 X-135.144 Y19.042 Z2.505 A312.0422 B-26.9843 
N130 X-135.153 Y18.846 Z2.715 A312.0566 B-26.9848 
N131 X-135.162 Y18.651 Z2.924 A312.0710 B-26.9852 
N132 X-135.172 Y18.455 Z3.134 A312.0855 B-26.9857 
N133 X-135.180 Y18.259 Z3.344 A312.0999 B-26.9861 
N134 X-135.189 Y18.064 Z3.554 A312.1143 B-26.9866 
N135 X-135.198 Y17.868 Z3.764 A312.1288 B-26.9870 
N136 X-135.206 Y17.672 Z3.973 A312.1432 B-26.9874 
N137 X-135.215 Y17.477 Z4.183 A312.1576 B-26.9878 
N138 X-135.223 Y17.281 Z4.393 A312.1720 B-26.9883 
N139 X-135.231 Y17.085 Z4.603 A312.1865 B-26.9887 
N140 X-135.239 Y16.890 Z4.813 A312.2009 B-26.9891 
N141 X-135.247 Y16.694 Z5.022 A312.2153 B-26.9895 
N142 X-135.254 Y16.498 Z5.232 A312.2298 B-26.9898 
N143 X-135.262 Y16.303 Z5.442 A312.2442 B-26.9902 
N144 X-135.269 Y16.107 Z5.652 A312.2586 B-26.9906 
N145 X-135.276 Y15.911 Z5.862 A312.2731 B-26.9909 
N146 X-135.284 Y15.716 Z6.072 A312.2875 B-26.9913 
N147 X-135.290 Y15.520 Z6.281 A312.3019 B-26.9917 
N148 X-135.297 Y15.324 Z6.491 A312.3164 B-26.9920 
N149 X-135.304 Y15.129 Z6.701 A312.3308 B-26.9923 
N150 X-135.310 Y14.933 Z6.911 A312.3452 B-26.9927 
N151 X-135.317 Y14.737 Z7.121 A312.3597 B-26.9930 
N152 X-135.323 Y14.542 Z7.331 A312.3741 B-26.9933 
N153 X-135.329 Y14.346 Z7.540 A312.3885 B-26.9936 
N154 X-135.335 Y14.150 Z7.750 A312.4030 B-26.9939 
N155 X-135.341 Y13.955 Z7.960 A312.4174 B-26.9942 
N156 X-135.346 Y13.759 Z8.170 A312.4318 B-26.9945 
N157 X-135.352 Y13.563 Z8.380 A312.4463 B-26.9947 
N158 X-135.357 Y13.368 Z8.590 A312.4607 B-26.9950 
N159 X-135.363 Y13.172 Z8.800 A312.4751 B-26.9953 
N160 X-135.368 Y12.976 Z9.009 A312.4896 B-26.9955 
N161 X-135.373 Y12.780 Z9.219 A312.5040 B-26.9958 
N162 X-135.377 Y12.585 Z9.429 A312.5185 B-26.9960 
N163 X-135.382 Y12.389 Z9.639 A312.5329 B-26.9963 
N164 X-135.387 Y12.193 Z9.849 A312.5473 B-26.9965 
N165 X-135.391 Y11.998 Z10.059 A312.5618 B-26.9967 
N166 X-135.395 Y11.802 Z10.269 A312.5762 B-26.9969 
N167 X-135.399 Y11.606 Z10.479 A312.5906 B-26.9971 
N168 X-135.403 Y11.411 Z10.688 A312.6051 B-26.9973 
N169 X-135.407 Y11.215 Z10.898 A312.6195 B-26.9975 
N170 X-135.411 Y11.019 Z11.108 A312.6339 B-26.9977 
N171 X-135.414 Y10.823 Z11.318 A312.6484 B-26.9979 
N172 X-135.418 Y10.628 Z11.528 A312.6628 B-26.9981 
N173 X-135.421 Y10.432 Z11.738 A312.6773 B-26.9982 
N174 X-135.424 Y10.236 Z11.948 A312.6917 B-26.9984 
N175 X-135.427 Y10.041 Z12.158 A312.7061 B-26.9985 
N176 X-135.430 Y9.845 Z12.367 A312.7206 B-26.9987 
N177 X-135.432 Y9.649 Z12.577 A312.7350 B-26.9988 
N178 X-135.435 Y9.453 Z12.787 A312.7495 B-26.9989 
N179 X-135.437 Y9.258 Z12.997 A312.7639 B-26.9990 
N180 X-135.440 Y9.062 Z13.207 A312.7783 B-26.9992 
N181 X-135.442 Y8.866 Z13.417 A312.7928 B-26.9993 
N182 X-135.444 Y8.670 Z13.627 A312.8072 B-26.9994 
N183 X-135.446 Y8.475 Z13.837 A312.8216 B-26.9995 
N184 X-135.447 Y8.279 Z14.047 A312.8361 B-26.9995 
N185 X-135.449 Y8.083 Z14.256 A312.8505 B-26.9996 
N186 X-135.450 Y7.888 Z14.466 A312.8650 B-26.9997 
N187 X-135.451 Y7.692 Z14.676 A312.8794 B-26.9998 
N188 X-135.452 Y7.496 Z14.886 A312.8938 B-26.9998 
N189 X-135.453 Y7.300 Z15.096 A312.9083 B-26.9999 
N190 X-135.454 Y7.105 Z15.306 A312.9227 B-26.9999 
N191 X-135.455 Y6.909 Z15.516 A312.9372 B-26.9999 
N192 X-135.456 Y6.713 Z15.726 A312.9516 B-27.0000 
N193 X-135.456 Y6.517 Z15.936 A312.9660 B-27.0000 
N194 X-135.456 Y6.322 Z16.145 A312.9805 B-27.0000 
N195 X-135.456 Y6.126 Z16.355 A312.9949 B-27.0000 
N196 X-135.456 Y5.930 Z16.565 A313.0094 
N197 X-135.456 Y5.735 Z16.775 A313.0238 B-27.0000 
N198 X-135.456 Y5.539 Z16.985 A313.0382 B-27.0000 
N199 X-135.455 Y5.343 Z17.195 A313.0527 B-27.0000 
N200 X-135.455 Y5.147 Z17.405 A313.0671 B-26.9999 
N201 X-135.454 Y4.952 Z17.615 A313.0816 B-26.9999 
N202 X-135.453 Y4.756 Z17.825 A313.0960 B-26.9998 
N203 X-135.452 Y4.560 Z18.035 A313.1104 B-26.9998 
N204 X-135.451 Y4.364 Z18.244 A313.1249 B-26.9997 
N205 X-135.450 Y4.169 Z18.454 A313.1393 B-26.9997 
N206 X-135.448 Y3.973 Z18.664 A313.1537 B-26.9996 
N207 X-135.447 Y3.777 Z18.874 A313.1682 B-26.9995 
N208 X-135.445 Y3.582 Z19.084 A313.1826 B-26.9994 
N209 X-135.443 Y3.386 Z19.294 A313.1971 B-26.9993 
N210 X-135.441 Y3.190 Z19.504 A313.2115 B-26.9992 
N211 X-135.439 Y2.994 Z19.714 A313.2259 B-26.9991 
N212 X-135.437 Y2.799 Z19.924 A313.2404 B-26.9990 
N213 X-135.434 Y2.603 Z20.133 A313.2548 B-26.9989 
N214 X-135.432 Y2.407 Z20.343 A313.2693 B-26.9988 
N215 X-135.429 Y2.211 Z20.553 A313.2837 B-26.9986 
N216 X-135.426 Y2.016 Z20.763 A313.2981 B-26.9985 
N217 X-135.423 Y1.820 Z20.973 A313.3126 B-26.9983 
N218 X-135.420 Y1.624 Z21.183 A313.3270 B-26.9982 
N219 X-135.417 Y1.429 Z21.393 A313.3414 B-26.9980 
N220 X-135.413 Y1.233 Z21.603 A313.3559 B-26.9978 
N221 X-135.410 Y1.037 Z21.813 A313.3703 B-26.9976 
N222 X-135.406 Y0.841 Z22.022 A313.3848 B-26.9975 
N223 X-135.402 Y0.646 Z22.232 A313.3992 B-26.9973 
N224 X-135.398 Y0.450 Z22.442 A313.4136 B-26.9971 
N225 X-135.394 Y0.254 Z22.652 A313.4281 B-26.9969 
N226 X-135.390 Y0.059 Z22.862 A313.4425 B-26.9966 
N227 X-135.385 Y-0.137 Z23.072 A313.4569 B-26.9964 
N228 X-135.381 Y-0.333 Z23.282 A313.4714 B-26.9962 
N229 X-135.376 Y-0.528 Z23.492 A313.4858 B-26.9960 
N230 X-135.371 Y-0.724 Z23.701 A313.5003 B-26.9957 
N231 X-135.366 Y-0.920 Z23.911 A313.5147 B-26.9955 
N232 X-135.361 Y-1.116 Z24.121 A313.5291 B-26.9952 
N233 X-135.356 Y-1.311 Z24.331 A313.5436 B-26.9949 
N234 X-135.350 Y-1.507 Z24.541 A313.5580 B-26.9947 
N235 X-135.345 Y-1.703 Z24.751 A313.5724 B-26.9944 
N236 X-135.337 Y-1.989 Z25.058 
N237 X-135.144 Y-8.808 Z32.370 
N238 G00 X-157.839 Y23.470 Z63.079 
RAPORT("TA333333","Slot Finishing:155 End")
;trailer : concat=None
; points cnt = 196
N240 MSG (" --- GROUPED OF SUBPROGRAM --- ")
N241 FGROUP()
N242 TRAFOOF
; PROGRAM NAME: A33333351
; ORDER       : A333333
; OPER. NAME  : Slot Finishing:156
; OPER. DESCR.: semi finish and finishing root chamfer BETE SFSA
; OPER. TYPE  : slotMillFinish
; GEO. OPTION : 1
; MACHINE     : HSTM_300_SIM840D_Py
;             : HSTM300/500 - HAMUEL: 5-axis milling machine-SIM840D Traori PP_Script
; CONTROL     : SINUMERIK 840D
; created:   2021-09-10 09:13:43.633898
;----------------------------------------
RAPORT("TA333333","Slot Finishing:156")
N10 TRAFOOF
N11 D0
N12 G90 G94
N13 G0 G53 D0 Z550
N14 STOPRE
M9 ; chlodziwo wyl
; --- Slot Finishing:156 - semi finish and finishing root chamfer BETE SFSA ---
N16 ;ToolChange : concat=None ,current_tdmid=None, PP.tdmId=940790
N17 TRAFOOF
N18 G0 G53 D0 Z550 B0
N19 STOPRE
N20 MSG(" TLID=940790 D=8.0 R=0.0 Ang=18.0 Len=135.0 ")
N21 S7161 M03
N22 STOPRE
N23 TOL(0.01,1,1)
N24 G0 G53 A131.3720 B-26.9546
N25 TRAORI
N26 G54 D2
N27 D2 
N28 TRANS  X=R20 B=R38
STOPRE
E_ZDARZ=300006
;ACS_FINISH_ROOT_BETA=7740790
STOPRE
N29 ; DELTA A > 40.1
N30 TRAFOOF
N31 D2
N32 STOPRE
N33 G00 G54 Z251.000
N34 G01 A131.3720 F10000
N35 TRAORI
N36 G54 D2
N37 STOPRE
N38 TRANS  X=R20 B=R38
N39 G00 X-194.506 Y-83.387 Z-2.477 A131.3720 B-26.9546 
N40 M342 ; chlodziwo woda
N41 X-171.842 Y-49.942 Z26.980 
N42 G01 X-172.341 Y-43.130 Z19.675 F859 
N43 X-172.358 Y-42.903 Z19.432 
N44 X-172.375 Y-42.676 Z19.188 
N45 X-172.391 Y-42.449 Z18.945 
N46 X-172.412 Y-42.163 Z18.638 
N47 X-172.426 Y-41.968 Z18.429 A131.3854 B-26.9552 
N48 X-172.441 Y-41.773 Z18.220 A131.3988 B-26.9559 
N49 X-172.455 Y-41.578 Z18.011 A131.4122 B-26.9566 
N50 X-172.469 Y-41.384 Z17.802 A131.4256 B-26.9573 
N51 X-172.484 Y-41.189 Z17.594 A131.4390 B-26.9580 
N52 X-172.498 Y-40.994 Z17.385 A131.4524 B-26.9586 
N53 X-172.512 Y-40.799 Z17.176 A131.4658 B-26.9593 
N54 X-172.526 Y-40.605 Z16.967 A131.4791 B-26.9600 
N55 X-172.541 Y-40.410 Z16.758 A131.4925 B-26.9607 
N56 X-172.555 Y-40.215 Z16.550 A131.5059 B-26.9613 
N57 X-172.569 Y-40.021 Z16.341 A131.5193 B-26.9620 
N58 X-172.584 Y-39.826 Z16.132 A131.5327 B-26.9627 
N59 X-172.598 Y-39.631 Z15.923 A131.5461 B-26.9634 
N60 X-172.612 Y-39.436 Z15.714 A131.5595 B-26.9640 
N61 X-172.626 Y-39.242 Z15.505 A131.5729 B-26.9647 
N62 X-172.641 Y-39.047 Z15.297 A131.5863 B-26.9654 
N63 X-172.655 Y-38.852 Z15.088 A131.5997 B-26.9660 
N64 X-172.669 Y-38.657 Z14.879 A131.6131 B-26.9667 
N65 X-172.683 Y-38.463 Z14.670 A131.6265 B-26.9674 
N66 X-172.698 Y-38.268 Z14.461 A131.6399 B-26.9680 
N67 X-172.712 Y-38.073 Z14.252 A131.6533 B-26.9687 
N68 X-172.726 Y-37.879 Z14.044 A131.6666 B-26.9693 
N69 X-172.741 Y-37.684 Z13.835 A131.6800 B-26.9700 
N70 X-172.755 Y-37.489 Z13.626 A131.6934 B-26.9706 
N71 X-172.769 Y-37.294 Z13.417 A131.7068 B-26.9713 
N72 X-172.782 Y-37.100 Z13.208 A131.7203 B-26.9719 
N73 X-172.793 Y-36.905 Z12.999 A131.7338 B-26.9724 
N74 X-172.803 Y-36.710 Z12.790 A131.7472 B-26.9729 
N75 X-172.814 Y-36.515 Z12.582 A131.7607 B-26.9735 
N76 X-172.825 Y-36.320 Z12.373 A131.7742 B-26.9740 
N77 X-172.835 Y-36.125 Z12.164 A131.7877 B-26.9745 
N78 X-172.846 Y-35.931 Z11.955 A131.8012 B-26.9750 
N79 X-172.856 Y-35.736 Z11.746 A131.8147 B-26.9755 
N80 X-172.867 Y-35.541 Z11.537 A131.8282 B-26.9760 
N81 X-172.878 Y-35.346 Z11.328 A131.8417 B-26.9765 
N82 X-172.888 Y-35.151 Z11.119 A131.8552 B-26.9770 
N83 X-172.899 Y-34.956 Z10.910 A131.8687 B-26.9776 
N84 X-172.910 Y-34.762 Z10.701 A131.8822 B-26.9781 
N85 X-172.920 Y-34.567 Z10.492 A131.8957 B-26.9786 
N86 X-172.931 Y-34.372 Z10.283 A131.9092 B-26.9791 
N87 X-172.942 Y-34.177 Z10.074 A131.9227 B-26.9796 
N88 X-172.952 Y-33.982 Z9.865 A131.9362 B-26.9801 
N89 X-172.963 Y-33.787 Z9.656 A131.9497 B-26.9806 
N90 X-172.973 Y-33.593 Z9.447 A131.9632 B-26.9811 
N91 X-172.984 Y-33.398 Z9.239 A131.9767 B-26.9816 
N92 X-172.995 Y-33.203 Z9.030 A131.9902 B-26.9821 
N93 X-173.005 Y-33.008 Z8.821 A132.0037 B-26.9826 
N94 X-173.016 Y-32.813 Z8.612 A132.0172 B-26.9830 
N95 X-173.027 Y-32.618 Z8.403 A132.0307 B-26.9835 
N96 X-173.037 Y-32.423 Z8.194 A132.0442 B-26.9840 
N97 X-173.048 Y-32.229 Z7.985 A132.0577 B-26.9845 
N98 X-173.058 Y-32.034 Z7.776 A132.0711 B-26.9850 
N99 X-173.069 Y-31.839 Z7.567 A132.0846 B-26.9855 
N100 X-173.080 Y-31.644 Z7.358 A132.0981 B-26.9860 
N101 X-173.090 Y-31.449 Z7.149 A132.1116 B-26.9865 
N102 X-173.098 Y-31.254 Z6.940 A132.1251 B-26.9869 
N103 X-173.106 Y-31.060 Z6.731 A132.1386 B-26.9872 
N104 X-173.114 Y-30.865 Z6.522 A132.1521 B-26.9876 
N105 X-173.121 Y-30.670 Z6.313 A132.1656 B-26.9880 
N106 X-173.129 Y-30.475 Z6.104 A132.1792 B-26.9883 
N107 X-173.136 Y-30.280 Z5.895 A132.1927 B-26.9887 
N108 X-173.144 Y-30.085 Z5.686 A132.2062 B-26.9890 
N109 X-173.151 Y-29.890 Z5.477 A132.2197 B-26.9894 
N110 X-173.159 Y-29.695 Z5.268 A132.2332 B-26.9898 
N111 X-173.167 Y-29.500 Z5.059 A132.2467 B-26.9901 
N112 X-173.174 Y-29.305 Z4.850 A132.2602 B-26.9905 
N113 X-173.182 Y-29.110 Z4.641 A132.2737 B-26.9908 
N114 X-173.189 Y-28.916 Z4.432 A132.2872 B-26.9912 
N115 X-173.197 Y-28.721 Z4.223 A132.3007 B-26.9915 
N116 X-173.204 Y-28.526 Z4.014 A132.3142 B-26.9919 
N117 X-173.212 Y-28.331 Z3.805 A132.3277 B-26.9922 
N118 X-173.219 Y-28.136 Z3.596 A132.3412 B-26.9926 
N119 X-173.225 Y-27.941 Z3.387 A132.3547 B-26.9928 
N120 X-173.230 Y-27.746 Z3.178 A132.3682 B-26.9931 
N121 X-173.235 Y-27.551 Z2.969 A132.3817 B-26.9933 
N122 X-173.240 Y-27.356 Z2.760 A132.3952 B-26.9936 
N123 X-173.246 Y-27.161 Z2.551 A132.4087 B-26.9938 
N124 X-173.251 Y-26.966 Z2.342 A132.4222 B-26.9941 
N125 X-173.256 Y-26.771 Z2.133 A132.4357 B-26.9943 
N126 X-173.261 Y-26.576 Z1.924 A132.4492 B-26.9946 
N127 X-173.267 Y-26.382 Z1.715 A132.4627 B-26.9948 
N128 X-173.272 Y-26.187 Z1.506 A132.4763 B-26.9951 
N129 X-173.277 Y-25.992 Z1.297 A132.4898 B-26.9953 
N130 X-173.282 Y-25.797 Z1.088 A132.5033 B-26.9956 
N131 X-173.288 Y-25.602 Z0.878 A132.5168 B-26.9958 
N132 X-173.293 Y-25.407 Z0.669 A132.5303 B-26.9961 
N133 X-173.298 Y-25.212 Z0.460 A132.5438 B-26.9963 
N134 X-173.303 Y-25.017 Z0.251 A132.5573 B-26.9966 
N135 X-173.309 Y-24.822 Z0.042 A132.5708 B-26.9968 
N136 X-173.314 Y-24.627 Z-0.167 A132.5843 B-26.9970 
N137 X-173.317 Y-24.432 Z-0.376 A132.5978 B-26.9972 
N138 X-173.320 Y-24.237 Z-0.585 A132.6113 B-26.9973 
N139 X-173.323 Y-24.042 Z-0.794 A132.6248 B-26.9975 
N140 X-173.325 Y-23.847 Z-1.003 A132.6383 B-26.9976 
N141 X-173.328 Y-23.652 Z-1.212 A132.6518 B-26.9977 
N142 X-173.331 Y-23.457 Z-1.421 A132.6654 B-26.9979 
N143 X-173.334 Y-23.262 Z-1.630 A132.6789 B-26.9980 
N144 X-173.336 Y-23.067 Z-1.839 A132.6924 B-26.9981 
N145 X-173.339 Y-22.872 Z-2.048 A132.7059 B-26.9983 
N146 X-173.342 Y-22.677 Z-2.257 A132.7194 B-26.9984 
N147 X-173.345 Y-22.482 Z-2.467 A132.7329 B-26.9985 
N148 X-173.347 Y-22.288 Z-2.676 A132.7464 B-26.9987 
N149 X-173.350 Y-22.093 Z-2.885 A132.7599 B-26.9988 
N150 X-173.353 Y-21.898 Z-3.094 A132.7734 B-26.9989 
N151 X-173.356 Y-21.703 Z-3.303 A132.7869 B-26.9990 
N152 X-173.358 Y-21.508 Z-3.512 A132.8004 B-26.9992 
N153 X-173.361 Y-21.313 Z-3.721 A132.8140 B-26.9993 
N154 X-173.364 Y-21.118 Z-3.930 A132.8275 B-26.9994 
N155 X-173.367 Y-20.923 Z-4.139 A132.8410 B-26.9995 
N156 X-173.369 Y-20.728 Z-4.348 A132.8545 B-26.9996 
N157 X-173.369 Y-20.533 Z-4.557 A132.8678 B-26.9996 
N158 X-173.369 Y-20.338 Z-4.766 A132.8812 B-26.9997 
N159 X-173.369 Y-20.143 Z-4.975 A132.8946 B-26.9997 
N160 X-173.369 Y-19.948 Z-5.185 A132.9080 B-26.9997 
N161 X-173.369 Y-19.753 Z-5.394 A132.9214 B-26.9997 
N162 X-173.370 Y-19.558 Z-5.603 A132.9348 B-26.9997 
N163 X-173.370 Y-19.363 Z-5.812 A132.9482 B-26.9997 
N164 X-173.370 Y-19.168 Z-6.021 A132.9616 B-26.9997 
N165 X-173.370 Y-18.973 Z-6.230 A132.9750 B-26.9997 
N166 X-173.370 Y-18.778 Z-6.439 A132.9884 B-26.9997 
N167 X-173.370 Y-18.583 Z-6.648 A133.0018 B-26.9998 
N168 X-173.370 Y-18.388 Z-6.857 A133.0152 
N169 X-173.370 Y-18.193 Z-7.066 A133.0286 B-26.9998 
N170 X-173.370 Y-17.998 Z-7.275 A133.0420 
N171 X-173.371 Y-17.803 Z-7.484 A133.0554 
N172 X-173.371 Y-17.608 Z-7.693 A133.0687 
N173 X-173.371 Y-17.413 Z-7.903 A133.0821 
N174 X-173.371 Y-17.218 Z-8.112 A133.0955 B-26.9998 
N175 X-173.371 Y-17.023 Z-8.321 A133.1089 
N176 X-173.371 Y-16.828 Z-8.530 A133.1223 B-26.9997 
N177 X-173.371 Y-16.542 Z-8.837 
N178 X-173.375 Y-9.722 Z-16.151 
N179 G00 X-184.725 Y-25.980 Z-31.377 
N180 X-183.809 Y-66.689 Z12.277 A131.3720 B-26.9546 
N181 X-172.477 Y-49.966 Z27.006 
N182 G01 X-172.977 Y-43.154 Z19.701 F859 
N183 X-172.993 Y-42.927 Z19.458 
N184 X-173.010 Y-42.700 Z19.214 
N185 X-173.027 Y-42.473 Z18.971 
N186 X-173.048 Y-42.187 Z18.664 
N187 X-173.062 Y-41.992 Z18.455 A131.3854 B-26.9552 
N188 X-173.076 Y-41.797 Z18.246 A131.3988 B-26.9559 
N189 X-173.090 Y-41.602 Z18.037 A131.4122 B-26.9566 
N190 X-173.105 Y-41.407 Z17.828 A131.4256 B-26.9573 
N191 X-173.119 Y-41.212 Z17.619 A131.4390 B-26.9580 
N192 X-173.133 Y-41.017 Z17.409 A131.4524 B-26.9586 
N193 X-173.148 Y-40.822 Z17.200 A131.4658 B-26.9593 
N194 X-173.162 Y-40.627 Z16.991 A131.4791 B-26.9600 
N195 X-173.176 Y-40.432 Z16.782 A131.4925 B-26.9607 
N196 X-173.191 Y-40.237 Z16.573 A131.5059 B-26.9613 
N197 X-173.205 Y-40.043 Z16.364 A131.5193 B-26.9620 
N198 X-173.219 Y-39.848 Z16.155 A131.5327 B-26.9627 
N199 X-173.233 Y-39.653 Z15.946 A131.5461 B-26.9634 
N200 X-173.248 Y-39.458 Z15.737 A131.5595 B-26.9640 
N201 X-173.262 Y-39.263 Z15.528 A131.5729 B-26.9647 
N202 X-173.276 Y-39.068 Z15.319 A131.5863 B-26.9654 
N203 X-173.291 Y-38.873 Z15.110 A131.5997 B-26.9660 
N204 X-173.305 Y-38.678 Z14.901 A131.6131 B-26.9667 
N205 X-173.319 Y-38.483 Z14.692 A131.6265 B-26.9674 
N206 X-173.333 Y-38.288 Z14.483 A131.6399 B-26.9680 
N207 X-173.348 Y-38.093 Z14.274 A131.6533 B-26.9687 
N208 X-173.362 Y-37.898 Z14.065 A131.6666 B-26.9693 
N209 X-173.376 Y-37.703 Z13.856 A131.6800 B-26.9700 
N210 X-173.391 Y-37.508 Z13.647 A131.6934 B-26.9706 
N211 X-173.405 Y-37.314 Z13.438 A131.7068 B-26.9713 
N212 X-173.418 Y-37.119 Z13.229 A131.7203 B-26.9719 
N213 X-173.428 Y-36.924 Z13.020 A131.7338 B-26.9724 
N214 X-173.439 Y-36.728 Z12.810 A131.7472 B-26.9729 
N215 X-173.450 Y-36.533 Z12.601 A131.7607 B-26.9735 
N216 X-173.460 Y-36.338 Z12.392 A131.7742 B-26.9740 
N217 X-173.471 Y-36.143 Z12.183 A131.7877 B-26.9745 
N218 X-173.482 Y-35.948 Z11.974 A131.8012 B-26.9750 
N219 X-173.492 Y-35.753 Z11.765 A131.8147 B-26.9755 
N220 X-173.503 Y-35.558 Z11.556 A131.8282 B-26.9760 
N221 X-173.514 Y-35.363 Z11.346 A131.8417 B-26.9765 
N222 X-173.524 Y-35.168 Z11.137 A131.8552 B-26.9770 
N223 X-173.535 Y-34.973 Z10.928 A131.8687 B-26.9776 
N224 X-173.546 Y-34.778 Z10.719 A131.8822 B-26.9781 
N225 X-173.556 Y-34.583 Z10.510 A131.8957 B-26.9786 
N226 X-173.567 Y-34.388 Z10.301 A131.9092 B-26.9791 
N227 X-173.577 Y-34.193 Z10.091 A131.9227 B-26.9796 
N228 X-173.588 Y-33.998 Z9.882 A131.9362 B-26.9801 
N229 X-173.599 Y-33.803 Z9.673 A131.9497 B-26.9806 
N230 X-173.609 Y-33.608 Z9.464 A131.9632 B-26.9811 
N231 X-173.620 Y-33.413 Z9.255 A131.9767 B-26.9816 
N232 X-173.631 Y-33.218 Z9.046 A131.9902 B-26.9821 
N233 X-173.641 Y-33.023 Z8.837 A132.0037 B-26.9826 
N234 X-173.652 Y-32.828 Z8.627 A132.0172 B-26.9830 
N235 X-173.663 Y-32.633 Z8.418 A132.0307 B-26.9835 
N236 X-173.673 Y-32.438 Z8.209 A132.0442 B-26.9840 
N237 X-173.684 Y-32.243 Z8.000 A132.0577 B-26.9845 
N238 X-173.694 Y-32.048 Z7.791 A132.0711 B-26.9850 
N239 X-173.705 Y-31.853 Z7.582 A132.0846 B-26.9855 
N240 X-173.716 Y-31.658 Z7.372 A132.0981 B-26.9860 
N241 X-173.726 Y-31.463 Z7.163 A132.1116 B-26.9865 
N242 X-173.735 Y-31.267 Z6.954 A132.1251 B-26.9869 
N243 X-173.742 Y-31.072 Z6.745 A132.1386 B-26.9872 
N244 X-173.750 Y-30.877 Z6.536 A132.1521 B-26.9876 
N245 X-173.757 Y-30.682 Z6.326 A132.1656 B-26.9880 
N246 X-173.765 Y-30.487 Z6.117 A132.1792 B-26.9883 
N247 X-173.772 Y-30.292 Z5.908 A132.1927 B-26.9887 
N248 X-173.780 Y-30.097 Z5.699 A132.2062 B-26.9890 
N249 X-173.788 Y-29.902 Z5.490 A132.2197 B-26.9894 
N250 X-173.795 Y-29.707 Z5.280 A132.2332 B-26.9898 
N251 X-173.803 Y-29.511 Z5.071 A132.2467 B-26.9901 
N252 X-173.810 Y-29.316 Z4.862 A132.2602 B-26.9905 
N253 X-173.818 Y-29.121 Z4.653 A132.2737 B-26.9908 
N254 X-173.825 Y-28.926 Z4.443 A132.2872 B-26.9912 
N255 X-173.833 Y-28.731 Z4.234 A132.3007 B-26.9915 
N256 X-173.841 Y-28.536 Z4.025 A132.3142 B-26.9919 
N257 X-173.848 Y-28.341 Z3.816 A132.3277 B-26.9922 
N258 X-173.856 Y-28.146 Z3.607 A132.3412 B-26.9926 
N259 X-173.861 Y-27.951 Z3.397 A132.3547 B-26.9928 
N260 X-173.866 Y-27.755 Z3.188 A132.3682 B-26.9931 
N261 X-173.871 Y-27.560 Z2.979 A132.3817 B-26.9933 
N262 X-173.877 Y-27.365 Z2.770 A132.3952 B-26.9936 
N263 X-173.882 Y-27.170 Z2.560 A132.4087 B-26.9938 
N264 X-173.887 Y-26.975 Z2.351 A132.4222 B-26.9941 
N265 X-173.892 Y-26.780 Z2.142 A132.4357 B-26.9943 
N266 X-173.898 Y-26.585 Z1.932 A132.4492 B-26.9946 
N267 X-173.903 Y-26.390 Z1.723 A132.4627 B-26.9948 
N268 X-173.908 Y-26.194 Z1.514 A132.4762 B-26.9951 
N269 X-173.913 Y-25.999 Z1.305 A132.4898 B-26.9953 
N270 X-173.919 Y-25.804 Z1.095 A132.5033 B-26.9956 
N271 X-173.924 Y-25.609 Z0.886 A132.5168 B-26.9958 
N272 X-173.929 Y-25.414 Z0.677 A132.5303 B-26.9961 
N273 X-173.935 Y-25.219 Z0.468 A132.5438 B-26.9963 
N274 X-173.940 Y-25.024 Z0.258 A132.5573 B-26.9966 
N275 X-173.945 Y-24.828 Z0.049 A132.5708 B-26.9968 
N276 X-173.950 Y-24.633 Z-0.160 A132.5843 B-26.9970 
N277 X-173.953 Y-24.438 Z-0.369 A132.5978 B-26.9972 
N278 X-173.956 Y-24.243 Z-0.579 A132.6113 B-26.9973 
N279 X-173.959 Y-24.048 Z-0.788 A132.6248 B-26.9975 
N280 X-173.962 Y-23.853 Z-0.997 A132.6383 B-26.9976 
N281 X-173.964 Y-23.657 Z-1.207 A132.6518 B-26.9977 
N282 X-173.967 Y-23.462 Z-1.416 A132.6654 B-26.9979 
N283 X-173.970 Y-23.267 Z-1.625 A132.6789 B-26.9980 
N284 X-173.973 Y-23.072 Z-1.834 A132.6924 B-26.9981 
N285 X-173.976 Y-22.877 Z-2.044 A132.7059 B-26.9983 
N286 X-173.978 Y-22.682 Z-2.253 A132.7194 B-26.9984 
N287 X-173.981 Y-22.486 Z-2.462 A132.7329 B-26.9985 
N288 X-173.984 Y-22.291 Z-2.672 A132.7464 B-26.9987 
N289 X-173.987 Y-22.096 Z-2.881 A132.7599 B-26.9988 
N290 X-173.989 Y-21.901 Z-3.090 A132.7734 B-26.9989 
N291 X-173.992 Y-21.706 Z-3.299 A132.7869 B-26.9990 
N292 X-173.995 Y-21.511 Z-3.509 A132.8004 B-26.9992 
N293 X-173.998 Y-21.315 Z-3.718 A132.8140 B-26.9993 
N294 X-174.000 Y-21.120 Z-3.927 A132.8275 B-26.9994 
N295 X-174.003 Y-20.925 Z-4.137 A132.8410 B-26.9995 
N296 X-174.005 Y-20.730 Z-4.346 A132.8545 B-26.9996 
N297 X-174.005 Y-20.535 Z-4.555 A132.8678 B-26.9996 
N298 X-174.005 Y-20.340 Z-4.764 A132.8812 B-26.9997 
N299 X-174.006 Y-20.144 Z-4.974 A132.8946 B-26.9997 
N300 X-174.006 Y-19.949 Z-5.183 A132.9080 B-26.9997 
N301 X-174.006 Y-19.754 Z-5.392 A132.9214 B-26.9997 
N302 X-174.006 Y-19.559 Z-5.602 A132.9348 B-26.9997 
N303 X-174.006 Y-19.364 Z-5.811 A132.9482 B-26.9997 
N304 X-174.006 Y-19.169 Z-6.020 A132.9616 B-26.9997 
N305 X-174.006 Y-18.973 Z-6.230 A132.9750 B-26.9997 
N306 X-174.006 Y-18.778 Z-6.439 A132.9884 B-26.9997 
N307 X-174.006 Y-18.583 Z-6.648 A133.0018 B-26.9998 
N308 X-174.007 Y-18.388 Z-6.857 A133.0152 
N309 X-174.007 Y-18.193 Z-7.067 A133.0286 B-26.9998 
N310 X-174.007 Y-17.998 Z-7.276 A133.0420 
N311 X-174.007 Y-17.802 Z-7.485 A133.0554 
N312 X-174.007 Y-17.607 Z-7.695 A133.0687 
N313 X-174.007 Y-17.412 Z-7.904 A133.0821 
N314 X-174.007 Y-17.217 Z-8.113 A133.0955 B-26.9998 
N315 X-174.007 Y-17.022 Z-8.322 A133.1089 
N316 X-174.008 Y-16.827 Z-8.532 A133.1223 B-26.9997 
N317 X-174.008 Y-16.540 Z-8.839 
N318 X-174.012 Y-9.720 Z-16.153 
N319 G00 X-196.711 Y-42.237 Z-46.606 
RAPORT("TA333333","Slot Finishing:156 End")
;trailer : concat=None
; points cnt = 274
N321 MSG (" --- GROUPED OF SUBPROGRAM --- ")
N322 FGROUP()
N323 TRAFOOF
; PROGRAM NAME: A33333351
; ORDER       : A333333
; OPER. NAME  : Slot Finishing:157
; OPER. DESCR.: finishing root chamfer BETE SFSA
; OPER. TYPE  : slotMillFinish
; GEO. OPTION : 1
; MACHINE     : HSTM_300_SIM840D_Py
;             : HSTM300/500 - HAMUEL: 5-axis milling machine-SIM840D Traori PP_Script
; CONTROL     : SINUMERIK 840D
; created:   2021-09-10 09:16:21.244627
;----------------------------------------
RAPORT("TA333333","Slot Finishing:157")
N10 TRAFOOF
N11 D0
N12 G90 G94
N13 G0 G53 D0 Z550
N14 STOPRE
M9 ; chlodziwo wyl
; --- Slot Finishing:157 - finishing root chamfer BETE SFSA ---
N16 ;ToolChange : concat=None ,current_tdmid=None, PP.tdmId=940790
N17 TRAFOOF
N18 G0 G53 D0 Z550 B0
N19 STOPRE
N20 MSG(" TLID=940790 D=8.0 R=0.0 Ang=18.0 Len=135.0 ")
N21 S7161 M03
N22 STOPRE
N23 TOL(0.01,1,1)
N24 G0 G53 A131.3720 B-26.9546
N25 TRAORI
N26 G54 D2
N27 D2 
N28 TRANS  X=R20 B=R38
STOPRE
E_ZDARZ=300006
;ACS_FINISH_ROOT_BETA=7740790
STOPRE
N29 ; DELTA A > 40.1
N30 TRAFOOF
N31 D2
N32 STOPRE
N33 G00 G54 Z251.000
N34 G01 A131.3720 F10000
N35 TRAORI
N36 G54 D2
N37 STOPRE
N38 TRANS  X=R20 B=R38
N39 G00 X-195.283 Y-83.417 Z-2.446 A131.3720 B-26.9546 
N40 M342 ; chlodziwo woda
N41 X-172.619 Y-49.971 Z27.012 
N42 G01 X-173.118 Y-43.160 Z19.707 F859 
N43 X-173.135 Y-42.933 Z19.464 
N44 X-173.151 Y-42.706 Z19.220 
N45 X-173.168 Y-42.479 Z18.977 
N46 X-173.189 Y-42.192 Z18.669 
N47 X-173.203 Y-41.997 Z18.460 A131.3854 B-26.9552 
N48 X-173.217 Y-41.802 Z18.251 A131.3988 B-26.9559 
N49 X-173.232 Y-41.607 Z18.042 A131.4122 B-26.9566 
N50 X-173.246 Y-41.412 Z17.833 A131.4256 B-26.9573 
N51 X-173.260 Y-41.217 Z17.624 A131.4390 B-26.9580 
N52 X-173.275 Y-41.022 Z17.415 A131.4524 B-26.9586 
N53 X-173.289 Y-40.827 Z17.206 A131.4658 B-26.9593 
N54 X-173.303 Y-40.632 Z16.997 A131.4791 B-26.9600 
N55 X-173.317 Y-40.437 Z16.788 A131.4925 B-26.9607 
N56 X-173.332 Y-40.242 Z16.579 A131.5059 B-26.9613 
N57 X-173.346 Y-40.047 Z16.370 A131.5193 B-26.9620 
N58 X-173.360 Y-39.852 Z16.160 A131.5327 B-26.9627 
N59 X-173.375 Y-39.657 Z15.951 A131.5461 B-26.9634 
N60 X-173.389 Y-39.463 Z15.742 A131.5595 B-26.9640 
N61 X-173.403 Y-39.268 Z15.533 A131.5729 B-26.9647 
N62 X-173.418 Y-39.073 Z15.324 A131.5863 B-26.9654 
N63 X-173.432 Y-38.878 Z15.115 A131.5997 B-26.9660 
N64 X-173.446 Y-38.683 Z14.906 A131.6131 B-26.9667 
N65 X-173.460 Y-38.488 Z14.697 A131.6265 B-26.9674 
N66 X-173.475 Y-38.293 Z14.488 A131.6399 B-26.9680 
N67 X-173.489 Y-38.098 Z14.279 A131.6533 B-26.9687 
N68 X-173.503 Y-37.903 Z14.070 A131.6666 B-26.9693 
N69 X-173.518 Y-37.708 Z13.861 A131.6800 B-26.9700 
N70 X-173.532 Y-37.513 Z13.651 A131.6934 B-26.9706 
N71 X-173.546 Y-37.318 Z13.442 A131.7068 B-26.9713 
N72 X-173.559 Y-37.123 Z13.233 A131.7203 B-26.9719 
N73 X-173.570 Y-36.928 Z13.024 A131.7338 B-26.9724 
N74 X-173.580 Y-36.733 Z12.815 A131.7472 B-26.9729 
N75 X-173.591 Y-36.538 Z12.606 A131.7607 B-26.9735 
N76 X-173.602 Y-36.342 Z12.396 A131.7742 B-26.9740 
N77 X-173.612 Y-36.147 Z12.187 A131.7877 B-26.9745 
N78 X-173.623 Y-35.952 Z11.978 A131.8012 B-26.9750 
N79 X-173.634 Y-35.757 Z11.769 A131.8147 B-26.9755 
N80 X-173.644 Y-35.562 Z11.560 A131.8282 B-26.9760 
N81 X-173.655 Y-35.367 Z11.350 A131.8417 B-26.9765 
N82 X-173.666 Y-35.172 Z11.141 A131.8552 B-26.9770 
N83 X-173.676 Y-34.977 Z10.932 A131.8687 B-26.9776 
N84 X-173.687 Y-34.782 Z10.723 A131.8822 B-26.9781 
N85 X-173.697 Y-34.587 Z10.514 A131.8957 B-26.9786 
N86 X-173.708 Y-34.392 Z10.304 A131.9092 B-26.9791 
N87 X-173.719 Y-34.197 Z10.095 A131.9227 B-26.9796 
N88 X-173.729 Y-34.001 Z9.886 A131.9362 B-26.9801 
N89 X-173.740 Y-33.806 Z9.677 A131.9497 B-26.9806 
N90 X-173.751 Y-33.611 Z9.468 A131.9632 B-26.9811 
N91 X-173.761 Y-33.416 Z9.258 A131.9767 B-26.9816 
N92 X-173.772 Y-33.221 Z9.049 A131.9902 B-26.9821 
N93 X-173.783 Y-33.026 Z8.840 A132.0037 B-26.9826 
N94 X-173.793 Y-32.831 Z8.631 A132.0172 B-26.9830 
N95 X-173.804 Y-32.636 Z8.422 A132.0307 B-26.9835 
N96 X-173.815 Y-32.441 Z8.212 A132.0442 B-26.9840 
N97 X-173.825 Y-32.246 Z8.003 A132.0577 B-26.9845 
N98 X-173.836 Y-32.051 Z7.794 A132.0711 B-26.9850 
N99 X-173.846 Y-31.856 Z7.585 A132.0846 B-26.9855 
N100 X-173.857 Y-31.661 Z7.376 A132.0981 B-26.9860 
N101 X-173.868 Y-31.465 Z7.166 A132.1116 B-26.9865 
N102 X-173.876 Y-31.270 Z6.957 A132.1251 B-26.9869 
N103 X-173.884 Y-31.075 Z6.748 A132.1386 B-26.9872 
N104 X-173.891 Y-30.880 Z6.539 A132.1521 B-26.9876 
N105 X-173.899 Y-30.685 Z6.329 A132.1656 B-26.9880 
N106 X-173.906 Y-30.490 Z6.120 A132.1792 B-26.9883 
N107 X-173.914 Y-30.295 Z5.911 A132.1927 B-26.9887 
N108 X-173.921 Y-30.099 Z5.702 A132.2062 B-26.9890 
N109 X-173.929 Y-29.904 Z5.492 A132.2197 B-26.9894 
N110 X-173.937 Y-29.709 Z5.283 A132.2332 B-26.9898 
N111 X-173.944 Y-29.514 Z5.074 A132.2467 B-26.9901 
N112 X-173.952 Y-29.319 Z4.865 A132.2602 B-26.9905 
N113 X-173.959 Y-29.124 Z4.655 A132.2737 B-26.9908 
N114 X-173.967 Y-28.929 Z4.446 A132.2872 B-26.9912 
N115 X-173.974 Y-28.733 Z4.237 A132.3007 B-26.9915 
N116 X-173.982 Y-28.538 Z4.027 A132.3142 B-26.9919 
N117 X-173.990 Y-28.343 Z3.818 A132.3277 B-26.9922 
N118 X-173.997 Y-28.148 Z3.609 A132.3412 B-26.9926 
N119 X-174.002 Y-27.953 Z3.400 A132.3547 B-26.9928 
N120 X-174.008 Y-27.758 Z3.190 A132.3682 B-26.9931 
N121 X-174.013 Y-27.562 Z2.981 A132.3817 B-26.9933 
N122 X-174.018 Y-27.367 Z2.772 A132.3952 B-26.9936 
N123 X-174.023 Y-27.172 Z2.562 A132.4087 B-26.9938 
N124 X-174.029 Y-26.977 Z2.353 A132.4222 B-26.9941 
N125 X-174.034 Y-26.782 Z2.144 A132.4357 B-26.9943 
N126 X-174.039 Y-26.586 Z1.934 A132.4492 B-26.9946 
N127 X-174.044 Y-26.391 Z1.725 A132.4627 B-26.9948 
N128 X-174.050 Y-26.196 Z1.516 A132.4762 B-26.9951 
N129 X-174.055 Y-26.001 Z1.307 A132.4898 B-26.9953 
N130 X-174.060 Y-25.806 Z1.097 A132.5033 B-26.9956 
N131 X-174.065 Y-25.611 Z0.888 A132.5168 B-26.9958 
N132 X-174.071 Y-25.415 Z0.679 A132.5303 B-26.9961 
N133 X-174.076 Y-25.220 Z0.469 A132.5438 B-26.9963 
N134 X-174.081 Y-25.025 Z0.260 A132.5573 B-26.9966 
N135 X-174.086 Y-24.830 Z0.051 A132.5708 B-26.9968 
N136 X-174.092 Y-24.635 Z-0.159 A132.5843 B-26.9970 
N137 X-174.095 Y-24.439 Z-0.368 A132.5978 B-26.9972 
N138 X-174.098 Y-24.244 Z-0.577 A132.6113 B-26.9973 
N139 X-174.100 Y-24.049 Z-0.787 A132.6248 B-26.9975 
N140 X-174.103 Y-23.854 Z-0.996 A132.6383 B-26.9976 
N141 X-174.106 Y-23.659 Z-1.205 A132.6518 B-26.9977 
N142 X-174.109 Y-23.463 Z-1.415 A132.6654 B-26.9979 
N143 X-174.111 Y-23.268 Z-1.624 A132.6789 B-26.9980 
N144 X-174.114 Y-23.073 Z-1.833 A132.6924 B-26.9981 
N145 X-174.117 Y-22.878 Z-2.043 A132.7059 B-26.9983 
N146 X-174.120 Y-22.683 Z-2.252 A132.7194 B-26.9984 
N147 X-174.122 Y-22.487 Z-2.461 A132.7329 B-26.9985 
N148 X-174.125 Y-22.292 Z-2.671 A132.7464 B-26.9987 
N149 X-174.128 Y-22.097 Z-2.880 A132.7599 B-26.9988 
N150 X-174.131 Y-21.902 Z-3.089 A132.7734 B-26.9989 
N151 X-174.133 Y-21.707 Z-3.299 A132.7869 B-26.9990 
N152 X-174.136 Y-21.511 Z-3.508 A132.8004 B-26.9992 
N153 X-174.139 Y-21.316 Z-3.717 A132.8140 B-26.9993 
N154 X-174.142 Y-21.121 Z-3.927 A132.8275 B-26.9994 
N155 X-174.145 Y-20.926 Z-4.136 A132.8410 B-26.9995 
N156 X-174.147 Y-20.730 Z-4.345 A132.8545 B-26.9996 
N157 X-174.147 Y-20.535 Z-4.555 A132.8678 B-26.9996 
N158 X-174.147 Y-20.340 Z-4.764 A132.8812 B-26.9997 
N159 X-174.147 Y-20.145 Z-4.973 A132.8946 B-26.9997 
N160 X-174.147 Y-19.950 Z-5.183 A132.9080 B-26.9997 
N161 X-174.147 Y-19.754 Z-5.392 A132.9214 B-26.9997 
N162 X-174.147 Y-19.559 Z-5.601 A132.9348 B-26.9997 
N163 X-174.147 Y-19.364 Z-5.811 A132.9482 B-26.9997 
N164 X-174.148 Y-19.169 Z-6.020 A132.9616 B-26.9997 
N165 X-174.148 Y-18.974 Z-6.229 A132.9750 B-26.9997 
N166 X-174.148 Y-18.778 Z-6.439 A132.9884 B-26.9997 
N167 X-174.148 Y-18.583 Z-6.648 A133.0018 B-26.9998 
N168 X-174.148 Y-18.388 Z-6.857 A133.0152 
N169 X-174.148 Y-18.193 Z-7.067 A133.0286 B-26.9998 
N170 X-174.148 Y-17.997 Z-7.276 A133.0420 
N171 X-174.148 Y-17.802 Z-7.485 A133.0554 
N172 X-174.149 Y-17.607 Z-7.695 A133.0687 
N173 X-174.149 Y-17.412 Z-7.904 A133.0821 
N174 X-174.149 Y-17.217 Z-8.114 A133.0955 B-26.9998 
N175 X-174.149 Y-17.021 Z-8.323 A133.1089 
N176 X-174.149 Y-16.826 Z-8.532 A133.1223 B-26.9997 
N177 X-174.149 Y-16.539 Z-8.840 
N178 X-174.153 Y-9.719 Z-16.153 
N179 G00 X-196.853 Y-42.237 Z-46.606 
RAPORT("TA333333","Slot Finishing:157 End")
;trailer : concat=None
; points cnt = 137
N181 MSG (" --- GROUPED OF SUBPROGRAM --- ")
N182 FGROUP()
N183 TRAFOOF
; PROGRAM NAME: A33333351
; ORDER       : A333333
; OPER. NAME  : Slot Finishing:158
; OPER. DESCR.: finishing root chamfer FSFSA
; OPER. TYPE  : slotMillFinish
; GEO. OPTION : 3
; MACHINE     : HSTM_300_SIM840D_Py
;             : HSTM300/500 - HAMUEL: 5-axis milling machine-SIM840D Traori PP_Script
; CONTROL     : SINUMERIK 840D
; created:   2021-09-10 09:19:15.052062
;----------------------------------------
RAPORT("TA333333","Slot Finishing:158")
N10 TRAFOOF
N11 D0
N12 G90 G94
N13 G0 G53 D0 Z550
N14 STOPRE
M9 ; chlodziwo wyl
; --- Slot Finishing:158 - finishing root chamfer FSFSA ---
N16 ;ToolChange : concat=None ,current_tdmid=None, PP.tdmId=940790
N17 TRAFOOF
N18 G0 G53 D0 Z550 B0
N19 STOPRE
N20 MSG(" TLID=940790 D=8.0 R=0.0 Ang=18.0 Len=135.0 ")
N21 S7161 M03
N22 STOPRE
N23 TOL(0.01,1,1)
N24 G0 G53 A130.8757 B-26.9226
N25 TRAORI
N26 G54 D2
N27 D2 
N28 TRANS  X=R21
STOPRE
E_ZDARZ=300008
;ACS_FINISH_ROOT_FRONT_CHAMFER=7740790
STOPRE
N29 ; DELTA A > 40.1
N30 TRAFOOF
N31 D2
N32 STOPRE
N33 G00 G54 Z251.000
N34 G01 A130.8757 F10000
N35 TRAORI
N36 G54 D2
N37 STOPRE
N38 TRANS  X=R21
N39 G00 X-155.431 Y-89.045 Z3.289 A130.8757 B-26.9226 
N40 M342 ; chlodziwo woda
N41 X-132.792 Y-55.336 Z32.463 
N42 G01 X-133.514 Y-48.533 Z25.169 F859 
N43 X-133.539 Y-48.307 Z24.926 
N44 X-133.563 Y-48.080 Z24.683 
N45 X-133.587 Y-47.853 Z24.440 
N46 X-133.617 Y-47.567 Z24.133 
N47 X-133.638 Y-47.372 Z23.924 A130.8901 B-26.9236 
N48 X-133.659 Y-47.177 Z23.714 A130.9044 B-26.9246 
N49 X-133.679 Y-46.982 Z23.505 A130.9188 B-26.9257 
N50 X-133.699 Y-46.787 Z23.296 A130.9332 B-26.9267 
N51 X-133.720 Y-46.591 Z23.087 A130.9476 B-26.9277 
N52 X-133.740 Y-46.396 Z22.877 A130.9620 B-26.9287 
N53 X-133.760 Y-46.201 Z22.668 A130.9764 B-26.9297 
N54 X-133.780 Y-46.006 Z22.459 A130.9908 B-26.9307 
N55 X-133.799 Y-45.811 Z22.250 A131.0051 B-26.9317 
N56 X-133.819 Y-45.616 Z22.040 A131.0195 B-26.9327 
N57 X-133.838 Y-45.421 Z21.831 A131.0339 B-26.9337 
N58 X-133.858 Y-45.225 Z21.622 A131.0483 B-26.9347 
N59 X-133.877 Y-45.030 Z21.412 A131.0627 B-26.9356 
N60 X-133.896 Y-44.835 Z21.203 A131.0771 B-26.9366 
N61 X-133.914 Y-44.640 Z20.994 A131.0915 B-26.9375 
N62 X-133.933 Y-44.445 Z20.785 A131.1059 B-26.9385 
N63 X-133.952 Y-44.249 Z20.575 A131.1203 B-26.9394 
N64 X-133.970 Y-44.054 Z20.366 A131.1347 B-26.9403 
N65 X-133.988 Y-43.859 Z20.156 A131.1490 B-26.9412 
N66 X-134.007 Y-43.664 Z19.947 A131.1634 B-26.9421 
N67 X-134.025 Y-43.469 Z19.738 A131.1778 B-26.9431 
N68 X-134.042 Y-43.273 Z19.528 A131.1922 B-26.9440 
N69 X-134.060 Y-43.078 Z19.319 A131.2066 B-26.9448 
N70 X-134.078 Y-42.883 Z19.110 A131.2210 B-26.9457 
N71 X-134.095 Y-42.688 Z18.900 A131.2354 B-26.9466 
N72 X-134.112 Y-42.492 Z18.691 A131.2498 B-26.9475 
N73 X-134.129 Y-42.297 Z18.482 A131.2642 B-26.9483 
N74 X-134.146 Y-42.102 Z18.272 A131.2786 B-26.9492 
N75 X-134.163 Y-41.906 Z18.063 A131.2930 B-26.9500 
N76 X-134.180 Y-41.711 Z17.853 A131.3074 B-26.9509 
N77 X-134.197 Y-41.516 Z17.644 A131.3218 B-26.9517 
N78 X-134.213 Y-41.321 Z17.434 A131.3362 B-26.9525 
N79 X-134.229 Y-41.125 Z17.225 A131.3506 B-26.9534 
N80 X-134.245 Y-40.930 Z17.016 A131.3650 B-26.9542 
N81 X-134.261 Y-40.735 Z16.806 A131.3794 B-26.9550 
N82 X-134.277 Y-40.539 Z16.597 A131.3938 B-26.9558 
N83 X-134.293 Y-40.344 Z16.387 A131.4082 B-26.9566 
N84 X-134.309 Y-40.149 Z16.178 A131.4227 B-26.9573 
N85 X-134.324 Y-39.953 Z15.968 A131.4371 B-26.9581 
N86 X-134.339 Y-39.758 Z15.759 A131.4515 B-26.9589 
N87 X-134.355 Y-39.563 Z15.549 A131.4659 B-26.9597 
N88 X-134.370 Y-39.367 Z15.340 A131.4803 B-26.9604 
N89 X-134.384 Y-39.172 Z15.130 A131.4947 B-26.9612 
N90 X-134.399 Y-38.977 Z14.921 A131.5091 B-26.9619 
N91 X-134.414 Y-38.781 Z14.711 A131.5235 B-26.9626 
N92 X-134.428 Y-38.586 Z14.502 A131.5379 B-26.9634 
N93 X-134.442 Y-38.390 Z14.292 A131.5523 B-26.9641 
N94 X-134.457 Y-38.195 Z14.083 A131.5667 B-26.9648 
N95 X-134.471 Y-38.000 Z13.873 A131.5812 B-26.9655 
N96 X-134.484 Y-37.804 Z13.664 A131.5956 B-26.9662 
N97 X-134.498 Y-37.609 Z13.454 A131.6100 B-26.9669 
N98 X-134.512 Y-37.414 Z13.245 A131.6244 B-26.9676 
N99 X-134.525 Y-37.218 Z13.035 A131.6388 B-26.9682 
N100 X-134.539 Y-37.023 Z12.826 A131.6532 B-26.9689 
N101 X-134.552 Y-36.827 Z12.616 A131.6676 B-26.9696 
N102 X-134.565 Y-36.632 Z12.407 A131.6821 B-26.9702 
N103 X-134.578 Y-36.436 Z12.197 A131.6965 B-26.9709 
N104 X-134.590 Y-36.241 Z11.987 A131.7109 B-26.9715 
N105 X-134.603 Y-36.046 Z11.778 A131.7253 B-26.9722 
N106 X-134.615 Y-35.850 Z11.568 A131.7397 B-26.9728 
N107 X-134.628 Y-35.655 Z11.359 A131.7541 B-26.9734 
N108 X-134.640 Y-35.459 Z11.149 A131.7686 B-26.9740 
N109 X-134.652 Y-35.264 Z10.939 A131.7830 B-26.9746 
N110 X-134.664 Y-35.068 Z10.730 A131.7974 B-26.9752 
N111 X-134.676 Y-34.873 Z10.520 A131.8118 B-26.9758 
N112 X-134.687 Y-34.677 Z10.311 A131.8262 B-26.9764 
N113 X-134.699 Y-34.482 Z10.101 A131.8407 B-26.9770 
N114 X-134.710 Y-34.287 Z9.891 A131.8551 B-26.9775 
N115 X-134.721 Y-34.091 Z9.682 A131.8695 B-26.9781 
N116 X-134.732 Y-33.896 Z9.472 A131.8839 B-26.9787 
N117 X-134.743 Y-33.700 Z9.263 A131.8983 B-26.9792 
N118 X-134.754 Y-33.505 Z9.053 A131.9128 B-26.9797 
N119 X-134.765 Y-33.309 Z8.843 A131.9272 B-26.9803 
N120 X-134.775 Y-33.114 Z8.634 A131.9416 B-26.9808 
N121 X-134.785 Y-32.918 Z8.424 A131.9560 B-26.9813 
N122 X-134.796 Y-32.723 Z8.214 A131.9705 B-26.9818 
N123 X-134.806 Y-32.527 Z8.005 A131.9849 B-26.9823 
N124 X-134.815 Y-32.332 Z7.795 A131.9993 B-26.9828 
N125 X-134.825 Y-32.136 Z7.586 A132.0137 B-26.9833 
N126 X-134.835 Y-31.941 Z7.376 A132.0282 B-26.9838 
N127 X-134.844 Y-31.745 Z7.166 A132.0426 B-26.9843 
N128 X-134.854 Y-31.550 Z6.957 A132.0570 B-26.9848 
N129 X-134.863 Y-31.354 Z6.747 A132.0714 B-26.9852 
N130 X-134.872 Y-31.159 Z6.537 A132.0859 B-26.9857 
N131 X-134.881 Y-30.963 Z6.328 A132.1003 B-26.9861 
N132 X-134.890 Y-30.768 Z6.118 A132.1147 B-26.9866 
N133 X-134.898 Y-30.572 Z5.908 A132.1292 B-26.9870 
N134 X-134.907 Y-30.377 Z5.699 A132.1436 B-26.9874 
N135 X-134.915 Y-30.181 Z5.489 A132.1580 B-26.9879 
N136 X-134.923 Y-29.985 Z5.279 A132.1724 B-26.9883 
N137 X-134.931 Y-29.790 Z5.069 A132.1869 B-26.9887 
N138 X-134.939 Y-29.594 Z4.860 A132.2013 B-26.9891 
N139 X-134.947 Y-29.399 Z4.650 A132.2157 B-26.9895 
N140 X-134.955 Y-29.203 Z4.440 A132.2302 B-26.9898 
N141 X-134.962 Y-29.008 Z4.231 A132.2446 B-26.9902 
N142 X-134.969 Y-28.812 Z4.021 A132.2590 B-26.9906 
N143 X-134.977 Y-28.617 Z3.811 A132.2735 B-26.9910 
N144 X-134.984 Y-28.421 Z3.602 A132.2879 B-26.9913 
N145 X-134.991 Y-28.225 Z3.392 A132.3023 B-26.9917 
N146 X-134.998 Y-28.030 Z3.182 A132.3168 B-26.9920 
N147 X-135.004 Y-27.834 Z2.972 A132.3312 B-26.9923 
N148 X-135.011 Y-27.639 Z2.763 A132.3456 B-26.9927 
N149 X-135.017 Y-27.443 Z2.553 A132.3601 B-26.9930 
N150 X-135.023 Y-27.248 Z2.343 A132.3745 B-26.9933 
N151 X-135.029 Y-27.052 Z2.134 A132.3889 B-26.9936 
N152 X-135.035 Y-26.857 Z1.924 A132.4034 B-26.9939 
N153 X-135.041 Y-26.661 Z1.714 A132.4178 B-26.9942 
N154 X-135.047 Y-26.465 Z1.504 A132.4322 B-26.9945 
N155 X-135.052 Y-26.270 Z1.295 A132.4467 B-26.9948 
N156 X-135.058 Y-26.074 Z1.085 A132.4611 B-26.9950 
N157 X-135.063 Y-25.879 Z0.875 A132.4755 B-26.9953 
N158 X-135.068 Y-25.683 Z0.665 A132.4900 B-26.9955 
N159 X-135.073 Y-25.487 Z0.456 A132.5044 B-26.9958 
N160 X-135.078 Y-25.292 Z0.246 A132.5188 B-26.9960 
N161 X-135.082 Y-25.096 Z0.036 A132.5333 B-26.9963 
N162 X-135.087 Y-24.901 Z-0.174 A132.5477 B-26.9965 
N163 X-135.091 Y-24.705 Z-0.383 A132.5621 B-26.9967 
N164 X-135.095 Y-24.509 Z-0.593 A132.5766 B-26.9969 
N165 X-135.099 Y-24.314 Z-0.803 A132.5910 B-26.9971 
N166 X-135.103 Y-24.118 Z-1.013 A132.6054 B-26.9973 
N167 X-135.107 Y-23.923 Z-1.222 A132.6199 B-26.9975 
N168 X-135.111 Y-23.727 Z-1.432 A132.6343 B-26.9977 
N169 X-135.114 Y-23.531 Z-1.642 A132.6488 B-26.9979 
N170 X-135.118 Y-23.336 Z-1.852 A132.6632 B-26.9981 
N171 X-135.121 Y-23.140 Z-2.061 A132.6776 B-26.9982 
N172 X-135.124 Y-22.945 Z-2.271 A132.6921 B-26.9984 
N173 X-135.127 Y-22.749 Z-2.481 A132.7065 B-26.9985 
N174 X-135.130 Y-22.553 Z-2.691 A132.7209 B-26.9987 
N175 X-135.133 Y-22.358 Z-2.900 A132.7354 B-26.9988 
N176 X-135.135 Y-22.162 Z-3.110 A132.7498 B-26.9989 
N177 X-135.137 Y-21.967 Z-3.320 A132.7643 B-26.9990 
N178 X-135.140 Y-21.771 Z-3.530 A132.7787 B-26.9992 
N179 X-135.142 Y-21.575 Z-3.739 A132.7931 B-26.9993 
N180 X-135.144 Y-21.380 Z-3.949 A132.8076 B-26.9994 
N181 X-135.146 Y-21.184 Z-4.159 A132.8220 B-26.9995 
N182 X-135.147 Y-20.989 Z-4.369 A132.8364 B-26.9995 
N183 X-135.149 Y-20.793 Z-4.579 A132.8509 B-26.9996 
N184 X-135.150 Y-20.597 Z-4.788 A132.8653 B-26.9997 
N185 X-135.151 Y-20.402 Z-4.998 A132.8798 B-26.9998 
N186 X-135.153 Y-20.206 Z-5.208 A132.8942 B-26.9998 
N187 X-135.154 Y-20.010 Z-5.418 A132.9086 B-26.9999 
N188 X-135.154 Y-19.815 Z-5.627 A132.9231 B-26.9999 
N189 X-135.155 Y-19.619 Z-5.837 A132.9375 B-26.9999 
N190 X-135.156 Y-19.424 Z-6.047 A132.9519 B-27.0000 
N191 X-135.156 Y-19.228 Z-6.257 A132.9664 B-27.0000 
N192 X-135.156 Y-19.032 Z-6.467 A132.9808 B-27.0000 
N193 X-135.156 Y-18.837 Z-6.676 A132.9953 
N194 X-135.156 Y-18.641 Z-6.886 A133.0097 
N195 X-135.156 Y-18.446 Z-7.096 A133.0241 
N196 X-135.156 Y-18.250 Z-7.306 A133.0386 B-27.0000 
N197 X-135.155 Y-18.054 Z-7.515 A133.0530 B-27.0000 
N198 X-135.155 Y-17.859 Z-7.725 A133.0675 B-26.9999 
N199 X-135.154 Y-17.663 Z-7.935 A133.0819 B-26.9999 
N200 X-135.153 Y-17.467 Z-8.145 A133.0963 B-26.9998 
N201 X-135.152 Y-17.272 Z-8.354 A133.1108 B-26.9998 
N202 X-135.151 Y-17.076 Z-8.564 A133.1252 B-26.9997 
N203 X-135.150 Y-16.881 Z-8.774 A133.1396 B-26.9997 
N204 X-135.148 Y-16.685 Z-8.984 A133.1541 B-26.9996 
N205 X-135.147 Y-16.489 Z-9.194 A133.1685 B-26.9995 
N206 X-135.145 Y-16.294 Z-9.403 A133.1830 B-26.9994 
N207 X-135.143 Y-16.098 Z-9.613 A133.1974 B-26.9993 
N208 X-135.141 Y-15.903 Z-9.823 A133.2118 B-26.9992 
N209 X-135.139 Y-15.707 Z-10.033 A133.2263 B-26.9991 
N210 X-135.137 Y-15.511 Z-10.242 A133.2407 B-26.9990 
N211 X-135.134 Y-15.316 Z-10.452 A133.2551 B-26.9989 
N212 X-135.132 Y-15.120 Z-10.662 A133.2696 B-26.9988 
N213 X-135.129 Y-14.925 Z-10.872 A133.2840 B-26.9986 
N214 X-135.126 Y-14.729 Z-11.081 A133.2985 B-26.9985 
N215 X-135.123 Y-14.533 Z-11.291 A133.3129 B-26.9983 
N216 X-135.120 Y-14.338 Z-11.501 A133.3273 B-26.9982 
N217 X-135.117 Y-14.142 Z-11.711 A133.3418 B-26.9980 
N218 X-135.113 Y-13.947 Z-11.921 A133.3562 B-26.9978 
N219 X-135.110 Y-13.751 Z-12.130 A133.3706 B-26.9976 
N220 X-135.106 Y-13.555 Z-12.340 A133.3851 B-26.9975 
N221 X-135.102 Y-13.360 Z-12.550 A133.3995 B-26.9973 
N222 X-135.098 Y-13.164 Z-12.760 A133.4140 B-26.9971 
N223 X-135.094 Y-12.969 Z-12.969 A133.4284 B-26.9969 
N224 X-135.089 Y-12.773 Z-13.179 A133.4428 B-26.9966 
N225 X-135.085 Y-12.577 Z-13.389 A133.4573 B-26.9964 
N226 X-135.080 Y-12.382 Z-13.599 A133.4717 B-26.9962 
N227 X-135.076 Y-12.186 Z-13.808 A133.4861 B-26.9960 
N228 X-135.071 Y-11.991 Z-14.018 A133.5006 B-26.9957 
N229 X-135.066 Y-11.795 Z-14.228 A133.5150 B-26.9955 
N230 X-135.061 Y-11.599 Z-14.438 A133.5294 B-26.9952 
N231 X-135.056 Y-11.404 Z-14.647 A133.5439 B-26.9949 
N232 X-135.050 Y-11.208 Z-14.857 A133.5583 B-26.9947 
N233 X-135.045 Y-11.013 Z-15.067 A133.5727 B-26.9944 
N234 X-135.039 Y-10.817 Z-15.276 A133.5872 B-26.9941 
N235 X-135.033 Y-10.622 Z-15.486 A133.6016 B-26.9938 
N236 X-135.025 Y-10.335 Z-15.794 
N237 X-134.822 Y-3.516 Z-23.106 
N238 G00 X-146.170 Y-19.648 Z-38.469 
N239 X-144.112 Y-70.022 Z19.898 A130.8757 B-26.9226 
N240 X-132.792 Y-53.167 Z34.486 
N241 G01 X-133.514 Y-46.365 Z27.191 F859 
N242 X-133.539 Y-46.138 Z26.948 
N243 X-133.563 Y-45.911 Z26.705 
N244 X-133.587 Y-45.685 Z26.462 
N245 X-133.617 Y-45.399 Z26.155 
N246 X-133.638 Y-45.203 Z25.946 A130.8901 B-26.9236 
N247 X-133.659 Y-45.008 Z25.737 A130.9044 B-26.9246 
N248 X-133.679 Y-44.813 Z25.527 A130.9188 B-26.9257 
N249 X-133.699 Y-44.618 Z25.318 A130.9332 B-26.9267 
N250 X-133.720 Y-44.423 Z25.109 A130.9476 B-26.9277 
N251 X-133.740 Y-44.228 Z24.900 A130.9620 B-26.9287 
N252 X-133.760 Y-44.033 Z24.690 A130.9764 B-26.9297 
N253 X-133.780 Y-43.838 Z24.481 A130.9908 B-26.9307 
N254 X-133.799 Y-43.642 Z24.272 A131.0051 B-26.9317 
N255 X-133.819 Y-43.447 Z24.063 A131.0195 B-26.9327 
N256 X-133.838 Y-43.252 Z23.853 A131.0339 B-26.9337 
N257 X-133.858 Y-43.057 Z23.644 A131.0483 B-26.9347 
N258 X-133.877 Y-42.862 Z23.435 A131.0627 B-26.9356 
N259 X-133.896 Y-42.667 Z23.225 A131.0771 B-26.9366 
N260 X-133.914 Y-42.471 Z23.016 A131.0915 B-26.9375 
N261 X-133.933 Y-42.276 Z22.807 A131.1059 B-26.9385 
N262 X-133.952 Y-42.081 Z22.597 A131.1203 B-26.9394 
N263 X-133.970 Y-41.886 Z22.388 A131.1347 B-26.9403 
N264 X-133.988 Y-41.690 Z22.179 A131.1490 B-26.9412 
N265 X-134.007 Y-41.495 Z21.969 A131.1634 B-26.9421 
N266 X-134.025 Y-41.300 Z21.760 A131.1778 B-26.9431 
N267 X-134.042 Y-41.105 Z21.551 A131.1922 B-26.9440 
N268 X-134.060 Y-40.910 Z21.341 A131.2066 B-26.9448 
N269 X-134.078 Y-40.714 Z21.132 A131.2210 B-26.9457 
N270 X-134.095 Y-40.519 Z20.923 A131.2354 B-26.9466 
N271 X-134.112 Y-40.324 Z20.713 A131.2498 B-26.9475 
N272 X-134.129 Y-40.128 Z20.504 A131.2642 B-26.9483 
N273 X-134.146 Y-39.933 Z20.294 A131.2786 B-26.9492 
N274 X-134.163 Y-39.738 Z20.085 A131.2930 B-26.9500 
N275 X-134.180 Y-39.543 Z19.875 A131.3074 B-26.9509 
N276 X-134.197 Y-39.347 Z19.666 A131.3218 B-26.9517 
N277 X-134.213 Y-39.152 Z19.457 A131.3362 B-26.9525 
N278 X-134.229 Y-38.957 Z19.247 A131.3506 B-26.9534 
N279 X-134.245 Y-38.761 Z19.038 A131.3650 B-26.9542 
N280 X-134.261 Y-38.566 Z18.828 A131.3794 B-26.9550 
N281 X-134.277 Y-38.371 Z18.619 A131.3938 B-26.9558 
N282 X-134.293 Y-38.175 Z18.409 A131.4082 B-26.9566 
N283 X-134.309 Y-37.980 Z18.200 A131.4227 B-26.9573 
N284 X-134.324 Y-37.785 Z17.990 A131.4371 B-26.9581 
N285 X-134.339 Y-37.589 Z17.781 A131.4515 B-26.9589 
N286 X-134.355 Y-37.394 Z17.572 A131.4659 B-26.9597 
N287 X-134.370 Y-37.199 Z17.362 A131.4803 B-26.9604 
N288 X-134.384 Y-37.003 Z17.153 A131.4947 B-26.9612 
N289 X-134.399 Y-36.808 Z16.943 A131.5091 B-26.9619 
N290 X-134.414 Y-36.613 Z16.734 A131.5235 B-26.9626 
N291 X-134.428 Y-36.417 Z16.524 A131.5379 B-26.9634 
N292 X-134.442 Y-36.222 Z16.315 A131.5523 B-26.9641 
N293 X-134.457 Y-36.027 Z16.105 A131.5667 B-26.9648 
N294 X-134.471 Y-35.831 Z15.896 A131.5812 B-26.9655 
N295 X-134.484 Y-35.636 Z15.686 A131.5956 B-26.9662 
N296 X-134.498 Y-35.440 Z15.476 A131.6100 B-26.9669 
N297 X-134.512 Y-35.245 Z15.267 A131.6244 B-26.9676 
N298 X-134.525 Y-35.050 Z15.057 A131.6388 B-26.9682 
N299 X-134.539 Y-34.854 Z14.848 A131.6532 B-26.9689 
N300 X-134.552 Y-34.659 Z14.638 A131.6676 B-26.9696 
N301 X-134.565 Y-34.463 Z14.429 A131.6821 B-26.9702 
N302 X-134.578 Y-34.268 Z14.219 A131.6965 B-26.9709 
N303 X-134.590 Y-34.072 Z14.010 A131.7109 B-26.9715 
N304 X-134.603 Y-33.877 Z13.800 A131.7253 B-26.9722 
N305 X-134.615 Y-33.682 Z13.590 A131.7397 B-26.9728 
N306 X-134.628 Y-33.486 Z13.381 A131.7541 B-26.9734 
N307 X-134.640 Y-33.291 Z13.171 A131.7686 B-26.9740 
N308 X-134.652 Y-33.095 Z12.962 A131.7830 B-26.9746 
N309 X-134.664 Y-32.900 Z12.752 A131.7974 B-26.9752 
N310 X-134.676 Y-32.704 Z12.543 A131.8118 B-26.9758 
N311 X-134.687 Y-32.509 Z12.333 A131.8262 B-26.9764 
N312 X-134.699 Y-32.313 Z12.123 A131.8407 B-26.9770 
N313 X-134.710 Y-32.118 Z11.914 A131.8551 B-26.9775 
N314 X-134.721 Y-31.923 Z11.704 A131.8695 B-26.9781 
N315 X-134.732 Y-31.727 Z11.494 A131.8839 B-26.9787 
N316 X-134.743 Y-31.532 Z11.285 A131.8983 B-26.9792 
N317 X-134.754 Y-31.336 Z11.075 A131.9128 B-26.9797 
N318 X-134.765 Y-31.141 Z10.866 A131.9272 B-26.9803 
N319 X-134.775 Y-30.945 Z10.656 A131.9416 B-26.9808 
N320 X-134.785 Y-30.750 Z10.446 A131.9560 B-26.9813 
N321 X-134.796 Y-30.554 Z10.237 A131.9705 B-26.9818 
N322 X-134.806 Y-30.359 Z10.027 A131.9849 B-26.9823 
N323 X-134.815 Y-30.163 Z9.817 A131.9993 B-26.9828 
N324 X-134.825 Y-29.968 Z9.608 A132.0137 B-26.9833 
N325 X-134.835 Y-29.772 Z9.398 A132.0282 B-26.9838 
N326 X-134.844 Y-29.577 Z9.188 A132.0426 B-26.9843 
N327 X-134.854 Y-29.381 Z8.979 A132.0570 B-26.9848 
N328 X-134.863 Y-29.186 Z8.769 A132.0714 B-26.9852 
N329 X-134.872 Y-28.990 Z8.559 A132.0859 B-26.9857 
N330 X-134.881 Y-28.795 Z8.350 A132.1003 B-26.9861 
N331 X-134.890 Y-28.599 Z8.140 A132.1147 B-26.9866 
N332 X-134.898 Y-28.404 Z7.930 A132.1292 B-26.9870 
N333 X-134.907 Y-28.208 Z7.721 A132.1436 B-26.9874 
N334 X-134.915 Y-28.012 Z7.511 A132.1580 B-26.9879 
N335 X-134.923 Y-27.817 Z7.301 A132.1724 B-26.9883 
N336 X-134.931 Y-27.621 Z7.092 A132.1869 B-26.9887 
N337 X-134.939 Y-27.426 Z6.882 A132.2013 B-26.9891 
N338 X-134.947 Y-27.230 Z6.672 A132.2157 B-26.9895 
N339 X-134.955 Y-27.035 Z6.463 A132.2302 B-26.9898 
N340 X-134.962 Y-26.839 Z6.253 A132.2446 B-26.9902 
N341 X-134.969 Y-26.644 Z6.043 A132.2590 B-26.9906 
N342 X-134.977 Y-26.448 Z5.833 A132.2735 B-26.9910 
N343 X-134.984 Y-26.253 Z5.624 A132.2879 B-26.9913 
N344 X-134.991 Y-26.057 Z5.414 A132.3023 B-26.9917 
N345 X-134.997 Y-25.861 Z5.204 A132.3168 B-26.9920 
N346 X-135.004 Y-25.666 Z4.995 A132.3312 B-26.9923 
N347 X-135.011 Y-25.470 Z4.785 A132.3456 B-26.9927 
N348 X-135.017 Y-25.275 Z4.575 A132.3601 B-26.9930 
N349 X-135.023 Y-25.079 Z4.365 A132.3745 B-26.9933 
N350 X-135.029 Y-24.884 Z4.156 A132.3889 B-26.9936 
N351 X-135.035 Y-24.688 Z3.946 A132.4034 B-26.9939 
N352 X-135.041 Y-24.492 Z3.736 A132.4178 B-26.9942 
N353 X-135.047 Y-24.297 Z3.527 A132.4322 B-26.9945 
N354 X-135.052 Y-24.101 Z3.317 A132.4467 B-26.9948 
N355 X-135.058 Y-23.906 Z3.107 A132.4611 B-26.9950 
N356 X-135.063 Y-23.710 Z2.897 A132.4755 B-26.9953 
N357 X-135.068 Y-23.514 Z2.688 A132.4900 B-26.9955 
N358 X-135.073 Y-23.319 Z2.478 A132.5044 B-26.9958 
N359 X-135.078 Y-23.123 Z2.268 A132.5188 B-26.9960 
N360 X-135.082 Y-22.928 Z2.058 A132.5333 B-26.9963 
N361 X-135.087 Y-22.732 Z1.849 A132.5477 B-26.9965 
N362 X-135.091 Y-22.537 Z1.639 A132.5621 B-26.9967 
N363 X-135.095 Y-22.341 Z1.429 A132.5766 B-26.9969 
N364 X-135.099 Y-22.145 Z1.219 A132.5910 B-26.9971 
N365 X-135.103 Y-21.950 Z1.010 A132.6054 B-26.9973 
N366 X-135.107 Y-21.754 Z0.800 A132.6199 B-26.9975 
N367 X-135.111 Y-21.559 Z0.590 A132.6343 B-26.9977 
N368 X-135.114 Y-21.363 Z0.380 A132.6488 B-26.9979 
N369 X-135.118 Y-21.167 Z0.171 A132.6632 B-26.9981 
N370 X-135.121 Y-20.972 Z-0.039 A132.6776 B-26.9982 
N371 X-135.124 Y-20.776 Z-0.249 A132.6921 B-26.9984 
N372 X-135.127 Y-20.581 Z-0.459 A132.7065 B-26.9985 
N373 X-135.130 Y-20.385 Z-0.668 A132.7209 B-26.9987 
N374 X-135.133 Y-20.189 Z-0.878 A132.7354 B-26.9988 
N375 X-135.135 Y-19.994 Z-1.088 A132.7498 B-26.9989 
N376 X-135.137 Y-19.798 Z-1.298 A132.7643 B-26.9990 
N377 X-135.140 Y-19.602 Z-1.508 A132.7787 B-26.9992 
N378 X-135.142 Y-19.407 Z-1.717 A132.7931 B-26.9993 
N379 X-135.144 Y-19.211 Z-1.927 A132.8076 B-26.9994 
N380 X-135.146 Y-19.016 Z-2.137 A132.8220 B-26.9995 
N381 X-135.147 Y-18.820 Z-2.347 A132.8364 B-26.9995 
N382 X-135.149 Y-18.624 Z-2.556 A132.8509 B-26.9996 
N383 X-135.150 Y-18.429 Z-2.766 A132.8653 B-26.9997 
N384 X-135.151 Y-18.233 Z-2.976 A132.8798 B-26.9998 
N385 X-135.153 Y-18.038 Z-3.186 A132.8942 B-26.9998 
N386 X-135.154 Y-17.842 Z-3.395 A132.9086 B-26.9999 
N387 X-135.154 Y-17.646 Z-3.605 A132.9231 B-26.9999 
N388 X-135.155 Y-17.451 Z-3.815 A132.9375 B-26.9999 
N389 X-135.156 Y-17.255 Z-4.025 A132.9519 B-27.0000 
N390 X-135.156 Y-17.059 Z-4.235 A132.9664 B-27.0000 
N391 X-135.156 Y-16.864 Z-4.444 A132.9808 B-27.0000 
N392 X-135.156 Y-16.668 Z-4.654 A132.9953 
N393 X-135.156 Y-16.473 Z-4.864 A133.0097 
N394 X-135.156 Y-16.277 Z-5.074 A133.0241 
