; PROGRAM NAME: A33333347
; ORDER       : A333333
; OPER. NAME  : Side Milling:130
; OPER. DESCR.: Side Milling/HHU wk
; OPER. TYPE  : sideMill
; GEO. OPTION : 3
; MACHINE     : HSTM_300_SIM840D_Py
;             : HSTM300/500 - HAMUEL: 5-axis milling machine-SIM840D Traori PP_Script
; CONTROL     : SINUMERIK 840D
; created:   2021-09-10 08:45:11.488158
;----------------------------------------
RAPORT("TA333333","Side Milling:130")
N10 TRAFOOF
N11 D0
N12 G90 G94
N13 G0 G53 D0 Z550
N14 STOPRE
M9 ; chlodziwo wyl
; --- Side Milling:130 - Side Milling/HHU wk ---
N16 ;ToolChange : concat=None ,current_tdmid=None, PP.tdmId=940862
N17 TRAFOOF
N18 G0 G53 D0 X-200 Y150 Z550 B0
N19 T="7740862"
RAPORT("TA333333","ToolChangeStart 7740862")
N20 M6
RAPORT("TA333333","ToolChangeEnd")
N21 STOPRE
N22 MSG(" TLID=940862 D=12.0 R=4.0 Ang=0.0 Len=122.0 ")
N23 S5039 M03
N24 STOPRE
N25 TOL(0.1,1,1)
N26 G0 G53 A312.9800 B-0.0000
N27 TRAORI
N28 G54 D1
;tol5=0.03
N29 D1 
STOPRE
E_ZDARZ=300010
;ACS_FINISH_SLOT=7740862
STOPRE
;UWAGA : ZMIENIONA TOLERANCJA OSI A i B, ruchy osi A i B beda usuniete : TOL5=0.03
N30 ; DELTA A > 40.1
N31 TRAFOOF
N32 D1
N33 STOPRE
N34 G00 G54 Z264.000
N35 G01 A312.9800 F10000
N36 TRAORI
N37 G54 D1
N38 STOPRE
N39 TRANS 
N40 G00 X-162.238 Y33.962 Z66.941 A312.9800 
N41 M342 ; chlodziwo woda
N42 X-162.238 Y-2.618 Z32.854 
N43 G01 X-162.239 Y-4.544 Z30.389 F705 
N44 X-162.241 Y-5.614 Z27.449 
N45 X-162.243 Y-5.723 Z24.322 
N46 X-162.246 Y-4.861 Z21.314 
N47 ;NTE SemiFinishing
N48 D1 
N49 G01 G41 X-162.250 Y-3.111 Z18.720 F705
N50 X-162.250 Y-3.111 Z18.720 
N51 X-162.250 Y-2.884 Z18.477 
N52 X-162.251 Y-2.657 Z18.233 
N53 X-162.251 Y-2.429 Z17.989 
N54 X-162.251 Y-2.189 Z17.731 
N55 X-162.252 Y-1.948 Z17.473 
N56 X-162.252 Y-1.707 Z17.215 
N57 X-162.253 Y-1.467 Z16.957 
N58 X-162.253 Y-1.226 Z16.698 
N59 X-162.253 Y-0.985 Z16.440 
N60 X-162.254 Y-0.744 Z16.182 
N61 X-162.254 Y-0.504 Z15.924 
N62 X-162.255 Y-0.263 Z15.666 
N63 X-162.255 Y-0.022 Z15.408 
N64 X-162.255 Y0.218 Z15.150 
N65 X-162.256 Y0.459 Z14.892 
N66 X-162.256 Y0.700 Z14.633 
N67 X-162.257 Y0.941 Z14.375 
N68 X-162.257 Y1.181 Z14.117 
N69 X-162.258 Y1.422 Z13.859 
N70 X-162.258 Y1.663 Z13.601 
N71 X-162.258 Y1.902 Z13.344 
N72 X-162.259 Y2.142 Z13.087 
N73 X-162.259 Y2.382 Z12.829 
N74 X-162.258 Y2.622 Z12.572 
N75 X-162.258 Y2.862 Z12.315 
N76 X-162.257 Y3.102 Z12.058 
N77 X-162.257 Y3.341 Z11.801 
N78 X-162.256 Y3.581 Z11.543 
N79 X-162.255 Y3.821 Z11.286 
N80 X-162.253 Y4.061 Z11.029 
N81 X-162.252 Y4.301 Z10.772 
N82 X-162.250 Y4.541 Z10.515 
N83 X-162.248 Y4.780 Z10.258 
N84 X-162.246 Y5.020 Z10.000 
N85 X-162.243 Y5.260 Z9.743 
N86 X-162.241 Y5.500 Z9.486 
N87 X-162.238 Y5.740 Z9.229 
N88 X-162.235 Y5.980 Z8.972 
N89 X-162.231 Y6.219 Z8.714 
N90 X-162.228 Y6.459 Z8.457 
N91 X-162.224 Y6.699 Z8.200 
N92 X-162.220 Y6.939 Z7.943 
N93 X-162.216 Y7.179 Z7.686 
N94 X-162.212 Y7.418 Z7.429 
N95 X-162.208 Y7.658 Z7.171 
N96 X-162.203 Y7.898 Z6.914 
N97 X-162.198 Y8.138 Z6.657 
N98 X-162.193 Y8.378 Z6.400 
N99 X-162.188 Y8.618 Z6.143 
N100 X-162.182 Y8.857 Z5.886 
N101 X-162.177 Y9.097 Z5.628 
N102 X-162.171 Y9.337 Z5.371 
N103 X-162.165 Y9.577 Z5.114 
N104 X-162.159 Y9.816 Z4.857 
N105 X-162.152 Y10.056 Z4.600 
N106 X-162.145 Y10.296 Z4.343 
N107 X-162.138 Y10.536 Z4.086 
N108 X-162.131 Y10.776 Z3.828 
N109 X-162.124 Y11.015 Z3.571 
N110 X-162.117 Y11.255 Z3.314 
N111 X-162.109 Y11.495 Z3.057 
N112 X-162.101 Y11.735 Z2.800 
N113 X-162.093 Y11.975 Z2.543 
N114 X-162.084 Y12.214 Z2.286 
N115 X-162.076 Y12.454 Z2.029 
N116 X-162.067 Y12.694 Z1.772 
N117 X-162.058 Y12.934 Z1.514 
N118 X-162.049 Y13.173 Z1.257 
N119 X-162.040 Y13.413 Z1.000 
N120 X-162.030 Y13.653 Z0.743 
N121 X-162.020 Y13.893 Z0.486 
N122 X-162.011 Y14.132 Z0.229 
N123 X-162.000 Y14.372 Z-0.028 
N124 X-161.990 Y14.612 Z-0.285 
N125 X-161.979 Y14.851 Z-0.542 
N126 X-161.969 Y15.091 Z-0.799 
N127 X-161.958 Y15.331 Z-1.056 
N128 X-161.946 Y15.571 Z-1.313 
N129 X-161.935 Y15.810 Z-1.571 
N130 X-161.924 Y16.050 Z-1.828 
N131 X-161.912 Y16.290 Z-2.085 
N132 X-161.900 Y16.529 Z-2.342 
N133 X-161.888 Y16.769 Z-2.599 
N134 X-161.875 Y17.009 Z-2.856 
N135 X-161.863 Y17.248 Z-3.113 
N136 X-161.850 Y17.488 Z-3.370 
N137 X-161.837 Y17.728 Z-3.627 
N138 X-161.823 Y17.967 Z-3.884 
N139 X-161.810 Y18.207 Z-4.141 
N140 X-161.796 Y18.447 Z-4.398 
N141 X-161.783 Y18.686 Z-4.655 
N142 X-161.769 Y18.926 Z-4.912 
N143 X-161.754 Y19.166 Z-5.169 
N144 X-161.740 Y19.405 Z-5.426 
N145 X-161.725 Y19.645 Z-5.683 
N146 X-161.711 Y19.885 Z-5.940 
N147 X-161.695 Y20.124 Z-6.197 
N148 X-161.680 Y20.364 Z-6.453 
N149 X-161.665 Y20.603 Z-6.710 
N150 X-161.649 Y20.843 Z-6.967 
N151 X-161.633 Y21.083 Z-7.224 
N152 X-161.617 Y21.322 Z-7.481 
N153 X-161.601 Y21.562 Z-7.738 
N154 X-161.584 Y21.801 Z-7.995 
N155 X-161.568 Y22.041 Z-8.252 
N156 X-161.551 Y22.280 Z-8.509 
N157 X-161.534 Y22.520 Z-8.766 
N158 X-161.516 Y22.759 Z-9.023 
N159 X-161.499 Y22.999 Z-9.279 
N160 X-161.481 Y23.239 Z-9.536 
N161 X-161.463 Y23.478 Z-9.793 
N162 X-161.445 Y23.718 Z-10.050 
N163 X-161.427 Y23.957 Z-10.307 
N164 X-161.408 Y24.197 Z-10.564 
N165 X-161.390 Y24.436 Z-10.821 
N166 X-161.371 Y24.676 Z-11.077 
N167 X-161.352 Y24.915 Z-11.334 
N168 X-161.332 Y25.154 Z-11.591 
N169 X-161.313 Y25.394 Z-11.848 
N170 X-161.293 Y25.633 Z-12.104 
N171 X-161.273 Y25.873 Z-12.361 
N172 X-161.253 Y26.112 Z-12.618 
N173 X-161.233 Y26.352 Z-12.875 
N174 X-161.212 Y26.591 Z-13.132 
N175 X-161.191 Y26.831 Z-13.388 
N176 X-161.171 Y27.070 Z-13.645 
N177 X-161.149 Y27.309 Z-13.902 
N178 X-161.128 Y27.549 Z-14.158 
N179 X-161.106 Y27.788 Z-14.415 
N180 X-161.085 Y28.027 Z-14.672 
N181 X-161.063 Y28.267 Z-14.929 
N182 X-161.041 Y28.506 Z-15.185 
N183 X-161.018 Y28.746 Z-15.442 
N184 X-160.996 Y28.985 Z-15.699 
N185 X-160.973 Y29.224 Z-15.955 
N186 X-160.950 Y29.464 Z-16.212 
N187 X-160.927 Y29.703 Z-16.468 
N188 X-160.903 Y29.942 Z-16.725 
N189 X-160.880 Y30.181 Z-16.982 
N190 X-160.856 Y30.422 Z-17.239 
N191 X-160.832 Y30.662 Z-17.497 
N192 X-160.809 Y30.902 Z-17.754 
N193 X-160.785 Y31.142 Z-18.012 
N194 X-160.761 Y31.382 Z-18.269 
N195 X-160.738 Y31.622 Z-18.527 
N196 X-160.714 Y31.863 Z-18.784 
N197 X-160.690 Y32.103 Z-19.042 
N198 X-160.667 Y32.343 Z-19.300 
N199 X-160.643 Y32.583 Z-19.557 
N200 X-160.619 Y32.823 Z-19.815 
N201 X-160.596 Y33.063 Z-20.072 
N202 X-160.572 Y33.304 Z-20.330 
N203 X-160.548 Y33.544 Z-20.587 
N204 X-160.525 Y33.784 Z-20.845 
N205 X-160.501 Y34.024 Z-21.102 
N206 X-160.477 Y34.264 Z-21.360 
N207 G40 X-160.449 Y34.578 Z-21.696 F1046
N208 X-160.449 Y34.578 Z-21.696 
N209 X-160.399 Y35.153 Z-22.313 F2071 
N210 X-160.315 Y36.164 Z-23.397 F3095 
N211 X-160.228 Y37.437 Z-24.763 F3437 
N212 X-160.400 Y37.749 Z-25.097 
N213 X-160.619 Y36.586 Z-23.850 
N214 X-160.785 Y35.452 Z-22.634 
N215 X-160.933 Y34.234 Z-21.328 
N216 X-161.065 Y33.004 Z-20.008 A313.0131 F3095 
N217 X-161.164 Y32.021 Z-18.955 F2071 
N218 X-161.219 Y31.444 Z-18.336 F1046 
N219 ;NNTE SemiFinishing
N220 D2 
N221 G01 G41 X-161.250 Y31.107 Z-17.974 F705
N222 X-161.250 Y31.107 Z-17.974 F705 
N223 X-161.270 Y30.880 Z-17.730 
N224 X-161.289 Y30.653 Z-17.487 
N225 X-161.308 Y30.426 Z-17.244 
N226 X-161.328 Y30.185 Z-16.986 
N227 X-161.349 Y29.945 Z-16.728 
N228 X-161.369 Y29.705 Z-16.471 
N229 X-161.390 Y29.465 Z-16.213 
N230 X-161.410 Y29.224 Z-15.955 
N231 X-161.430 Y28.984 Z-15.697 
N232 X-161.451 Y28.744 Z-15.440 
N233 X-161.471 Y28.503 Z-15.182 
N234 X-161.491 Y28.263 Z-14.924 
N235 X-161.512 Y28.023 Z-14.667 
N236 X-161.532 Y27.782 Z-14.409 
N237 X-161.553 Y27.542 Z-14.151 
N238 X-161.573 Y27.302 Z-13.894 
N239 X-161.593 Y27.061 Z-13.636 
N240 X-161.614 Y26.821 Z-13.378 
N241 X-161.634 Y26.581 Z-13.121 
N242 X-161.654 Y26.341 Z-12.863 
N243 X-161.675 Y26.100 Z-12.605 
N244 X-161.695 Y25.860 Z-12.347 
N245 X-161.715 Y25.619 Z-12.089 
N246 X-161.735 Y25.379 Z-11.831 
N247 X-161.754 Y25.138 Z-11.574 
N248 X-161.774 Y24.898 Z-11.316 
N249 X-161.793 Y24.657 Z-11.058 
N250 X-161.812 Y24.417 Z-10.800 
N251 X-161.831 Y24.176 Z-10.542 
N252 X-161.849 Y23.936 Z-10.284 
N253 X-161.868 Y23.695 Z-10.026 
N254 X-161.886 Y23.455 Z-9.768 
N255 X-161.904 Y23.214 Z-9.510 
N256 X-161.921 Y22.974 Z-9.252 
N257 X-161.939 Y22.733 Z-8.994 
N258 X-161.956 Y22.493 Z-8.736 
N259 X-161.973 Y22.252 Z-8.479 
N260 X-161.990 Y22.012 Z-8.221 
N261 X-162.007 Y21.771 Z-7.963 
N262 X-162.023 Y21.530 Z-7.705 
N263 X-162.040 Y21.290 Z-7.447 
N264 X-162.056 Y21.049 Z-7.189 
N265 X-162.072 Y20.809 Z-6.931 
N266 X-162.087 Y20.568 Z-6.673 
N267 X-162.103 Y20.327 Z-6.415 
N268 X-162.118 Y20.087 Z-6.157 
N269 X-162.133 Y19.846 Z-5.899 
N270 X-162.148 Y19.606 Z-5.640 
N271 X-162.163 Y19.365 Z-5.382 
N272 X-162.177 Y19.124 Z-5.124 
N273 X-162.191 Y18.884 Z-4.866 
N274 X-162.206 Y18.643 Z-4.608 
N275 X-162.219 Y18.402 Z-4.350 
N276 X-162.233 Y18.162 Z-4.092 
N277 X-162.246 Y17.921 Z-3.834 
N278 X-162.260 Y17.680 Z-3.576 
N279 X-162.273 Y17.440 Z-3.318 
N280 X-162.285 Y17.199 Z-3.060 
N281 X-162.298 Y16.958 Z-2.802 
N282 X-162.310 Y16.718 Z-2.544 
N283 X-162.323 Y16.477 Z-2.285 
N284 X-162.335 Y16.236 Z-2.027 
N285 X-162.346 Y15.996 Z-1.769 
N286 X-162.358 Y15.755 Z-1.511 
N287 X-162.369 Y15.514 Z-1.253 
N288 X-162.381 Y15.273 Z-0.995 
N289 X-162.392 Y15.033 Z-0.737 
N290 X-162.402 Y14.792 Z-0.479 
N291 X-162.413 Y14.551 Z-0.220 
N292 X-162.423 Y14.311 Z0.038 
N293 X-162.433 Y14.070 Z0.296 
N294 X-162.443 Y13.829 Z0.554 
N295 X-162.453 Y13.588 Z0.812 
N296 X-162.462 Y13.348 Z1.070 
N297 X-162.472 Y13.107 Z1.329 
N298 X-162.481 Y12.866 Z1.587 
N299 X-162.490 Y12.625 Z1.845 
N300 X-162.499 Y12.385 Z2.103 
N301 X-162.507 Y12.144 Z2.361 
N302 X-162.515 Y11.903 Z2.620 
N303 X-162.523 Y11.662 Z2.878 
N304 X-162.531 Y11.421 Z3.136 
N305 X-162.539 Y11.181 Z3.394 
N306 X-162.546 Y10.940 Z3.652 
N307 X-162.554 Y10.699 Z3.911 
N308 X-162.561 Y10.458 Z4.169 
N309 X-162.568 Y10.218 Z4.427 
N310 X-162.574 Y9.977 Z4.685 
N311 X-162.581 Y9.736 Z4.943 
N312 X-162.587 Y9.495 Z5.202 
N313 X-162.593 Y9.254 Z5.460 
N314 X-162.599 Y9.014 Z5.718 
N315 X-162.604 Y8.773 Z5.976 
N316 X-162.610 Y8.532 Z6.235 
N317 X-162.615 Y8.291 Z6.493 
N318 X-162.620 Y8.050 Z6.751 
N319 X-162.625 Y7.809 Z7.009 
N320 X-162.629 Y7.569 Z7.268 
N321 X-162.634 Y7.328 Z7.526 
N322 X-162.638 Y7.087 Z7.784 
N323 X-162.642 Y6.846 Z8.042 
N324 X-162.646 Y6.605 Z8.301 
N325 X-162.649 Y6.365 Z8.559 
N326 X-162.653 Y6.124 Z8.817 
N327 X-162.656 Y5.883 Z9.075 
N328 X-162.659 Y5.642 Z9.334 
N329 X-162.662 Y5.401 Z9.592 
N330 X-162.664 Y5.160 Z9.850 
N331 X-162.666 Y4.920 Z10.108 
N332 X-162.669 Y4.679 Z10.367 
N333 X-162.671 Y4.438 Z10.625 
N334 X-162.672 Y4.197 Z10.883 
N335 X-162.674 Y3.956 Z11.141 
N336 X-162.675 Y3.715 Z11.400 
N337 X-162.676 Y3.475 Z11.658 
N338 X-162.677 Y3.234 Z11.916 
N339 X-162.678 Y2.993 Z12.174 
N340 X-162.678 Y2.752 Z12.433 
N341 X-162.679 Y2.511 Z12.691 
N342 X-162.679 Y2.270 Z12.949 
N343 X-162.678 Y2.030 Z13.208 
N344 X-162.678 Y1.789 Z13.466 
N345 X-162.678 Y1.548 Z13.724 
N346 X-162.677 Y1.307 Z13.982 
N347 X-162.676 Y1.066 Z14.241 
N348 X-162.675 Y0.825 Z14.499 
N349 X-162.673 Y0.585 Z14.757 
N350 X-162.672 Y0.344 Z15.015 
N351 X-162.670 Y0.103 Z15.274 
N352 X-162.668 Y-0.138 Z15.532 
N353 X-162.666 Y-0.379 Z15.790 
N354 X-162.664 Y-0.619 Z16.048 
N355 X-162.662 Y-0.860 Z16.306 
N356 X-162.660 Y-1.101 Z16.564 
N357 X-162.658 Y-1.341 Z16.823 
N358 X-162.656 Y-1.582 Z17.081 
N359 X-162.654 Y-1.823 Z17.339 
N360 X-162.652 Y-2.064 Z17.597 
N361 X-162.651 Y-2.304 Z17.855 
N362 X-162.649 Y-2.545 Z18.113 
N363 X-162.647 Y-2.786 Z18.371 
N364 X-162.645 Y-3.026 Z18.629 
N365 X-162.643 Y-3.267 Z18.887 
N366 X-162.641 Y-3.508 Z19.146 
N367 X-162.639 Y-3.749 Z19.404 
N368 X-162.637 Y-3.989 Z19.662 
N369 X-162.635 Y-4.230 Z19.920 
N370 G40 X-162.579 Y-11.050 Z27.233 F705
N371 X-162.579 Y-11.050 Z27.233 
N372 G00 X-162.579 Y25.506 Z61.346 
RAPORT("TA333333","Side Milling:130 End")
;trailer : concat=None
; points cnt = 321
N374 MSG (" --- GROUPED OF SUBPROGRAM --- ")
N375 FGROUP()
N376 TRAFOOF
; PROGRAM NAME: A33333347
; ORDER       : A333333
; OPER. NAME  : Side Milling:131
; OPER. DESCR.: HHU finish milling NGE
; OPER. TYPE  : sideMill
; GEO. OPTION : 3
; MACHINE     : HSTM_300_SIM840D_Py
;             : HSTM300/500 - HAMUEL: 5-axis milling machine-SIM840D Traori PP_Script
; CONTROL     : SINUMERIK 840D
; created:   2021-09-10 08:45:26.012229
;----------------------------------------
RAPORT("TA333333","Side Milling:131")
N10 TRAFOOF
N11 D0
N12 G90 G94
N13 G0 G53 D0 Z550
N14 STOPRE
M9 ; chlodziwo wyl
; --- Side Milling:131 - HHU finish milling NGE ---
N16 ;ToolChange : concat=None ,current_tdmid=None, PP.tdmId=940862
N17 TRAFOOF
N18 G0 G53 D0 Z550 B0
N19 STOPRE
N20 MSG(" TLID=940862 D=12.0 R=4.0 Ang=0.0 Len=122.0 ")
N21 S5039 M03
N22 STOPRE
N23 TOL(0.1,1,1)
N24 G0 G53 A312.9800 B-0.0000
N25 TRAORI
N26 G54 D1
;tol5=0.03
N27 D1 
STOPRE
E_ZDARZ=300010
;ACS_FINISH_SLOT=7740862
STOPRE
;UWAGA : ZMIENIONA TOLERANCJA OSI A i B, ruchy osi A i B beda usuniete : TOL5=0.03
N28 ; DELTA A > 40.1
N29 TRAFOOF
N30 D1
N31 STOPRE
N32 G00 G54 Z264.000
N33 G01 A312.9800 F10000
N34 TRAORI
N35 G54 D1
N36 STOPRE
N37 TRANS 
N38 G00 X-162.198 Y33.984 Z66.962 A312.9800 
N39 M342 ; chlodziwo woda
N40 X-162.198 Y-2.596 Z32.874 
N41 G01 X-162.199 Y-4.522 Z30.409 F705 
N42 X-162.201 Y-5.592 Z27.469 
N43 X-162.203 Y-5.701 Z24.342 
N44 X-162.206 Y-4.839 Z21.335 
N45 ;NTE Finishing
N46 D1 
N47 G01 G41 X-162.210 Y-3.089 Z18.741 F705
N48 X-162.210 Y-3.089 Z18.741 
N49 X-162.210 Y-2.862 Z18.497 
N50 X-162.211 Y-2.635 Z18.253 
N51 X-162.211 Y-2.407 Z18.010 
N52 X-162.211 Y-2.167 Z17.751 
N53 X-162.212 Y-1.926 Z17.493 
N54 X-162.212 Y-1.685 Z17.235 
N55 X-162.213 Y-1.445 Z16.977 
N56 X-162.213 Y-1.204 Z16.719 
N57 X-162.213 Y-0.963 Z16.461 
N58 X-162.214 Y-0.722 Z16.203 
N59 X-162.214 Y-0.482 Z15.945 
N60 X-162.215 Y-0.241 Z15.686 
N61 X-162.215 Y-0.000 Z15.428 
N62 X-162.215 Y0.240 Z15.170 
N63 X-162.216 Y0.481 Z14.912 
N64 X-162.216 Y0.722 Z14.654 
N65 X-162.217 Y0.963 Z14.396 
N66 X-162.217 Y1.203 Z14.138 
N67 X-162.218 Y1.444 Z13.880 
N68 X-162.218 Y1.685 Z13.621 
N69 X-162.218 Y1.924 Z13.364 
N70 X-162.219 Y2.164 Z13.107 
N71 X-162.219 Y2.404 Z12.850 
N72 X-162.218 Y2.644 Z12.593 
N73 X-162.218 Y2.884 Z12.336 
N74 X-162.217 Y3.124 Z12.078 
N75 X-162.217 Y3.363 Z11.821 
N76 X-162.216 Y3.603 Z11.564 
N77 X-162.215 Y3.843 Z11.307 
N78 X-162.213 Y4.083 Z11.050 
N79 X-162.212 Y4.323 Z10.793 
N80 X-162.210 Y4.562 Z10.535 
N81 X-162.208 Y4.802 Z10.278 
N82 X-162.206 Y5.042 Z10.021 
N83 X-162.203 Y5.282 Z9.764 
N84 X-162.201 Y5.522 Z9.507 
N85 X-162.198 Y5.761 Z9.250 
N86 X-162.195 Y6.001 Z8.992 
N87 X-162.191 Y6.241 Z8.735 
N88 X-162.188 Y6.481 Z8.478 
N89 X-162.184 Y6.721 Z8.221 
N90 X-162.181 Y6.960 Z7.964 
N91 X-162.176 Y7.200 Z7.707 
N92 X-162.172 Y7.440 Z7.449 
N93 X-162.168 Y7.680 Z7.192 
N94 X-162.163 Y7.920 Z6.935 
N95 X-162.158 Y8.159 Z6.678 
N96 X-162.153 Y8.399 Z6.421 
N97 X-162.148 Y8.639 Z6.164 
N98 X-162.142 Y8.879 Z5.907 
N99 X-162.137 Y9.119 Z5.649 
N100 X-162.131 Y9.358 Z5.392 
N101 X-162.125 Y9.598 Z5.135 
N102 X-162.119 Y9.838 Z4.878 
N103 X-162.112 Y10.078 Z4.621 
N104 X-162.105 Y10.317 Z4.364 
N105 X-162.098 Y10.557 Z4.107 
N106 X-162.091 Y10.797 Z3.850 
N107 X-162.084 Y11.037 Z3.592 
N108 X-162.077 Y11.277 Z3.335 
N109 X-162.069 Y11.516 Z3.078 
N110 X-162.061 Y11.756 Z2.821 
N111 X-162.053 Y11.996 Z2.564 
N112 X-162.044 Y12.236 Z2.307 
N113 X-162.036 Y12.475 Z2.050 
N114 X-162.027 Y12.715 Z1.793 
N115 X-162.018 Y12.955 Z1.536 
N116 X-162.009 Y13.195 Z1.279 
N117 X-162.000 Y13.434 Z1.021 
N118 X-161.990 Y13.674 Z0.764 
N119 X-161.981 Y13.914 Z0.507 
N120 X-161.971 Y14.153 Z0.250 
N121 X-161.960 Y14.393 Z-0.007 
N122 X-161.950 Y14.633 Z-0.264 
N123 X-161.939 Y14.873 Z-0.521 
N124 X-161.929 Y15.112 Z-0.778 
N125 X-161.918 Y15.352 Z-1.035 
N126 X-161.907 Y15.592 Z-1.292 
N127 X-161.895 Y15.831 Z-1.549 
N128 X-161.884 Y16.071 Z-1.806 
N129 X-161.872 Y16.311 Z-2.063 
N130 X-161.860 Y16.550 Z-2.320 
N131 X-161.848 Y16.790 Z-2.577 
N132 X-161.835 Y17.030 Z-2.834 
N133 X-161.823 Y17.269 Z-3.091 
N134 X-161.810 Y17.509 Z-3.348 
N135 X-161.797 Y17.749 Z-3.605 
N136 X-161.784 Y17.988 Z-3.862 
N137 X-161.770 Y18.228 Z-4.119 
N138 X-161.756 Y18.468 Z-4.376 
N139 X-161.743 Y18.707 Z-4.633 
N140 X-161.729 Y18.947 Z-4.890 
N141 X-161.714 Y19.186 Z-5.147 
N142 X-161.700 Y19.426 Z-5.404 
N143 X-161.685 Y19.666 Z-5.661 
N144 X-161.671 Y19.905 Z-5.918 
N145 X-161.655 Y20.145 Z-6.175 
N146 X-161.640 Y20.384 Z-6.432 
N147 X-161.625 Y20.624 Z-6.689 
N148 X-161.609 Y20.864 Z-6.946 
N149 X-161.593 Y21.103 Z-7.203 
N150 X-161.577 Y21.343 Z-7.459 
N151 X-161.561 Y21.582 Z-7.716 
N152 X-161.544 Y21.822 Z-7.973 
N153 X-161.528 Y22.061 Z-8.230 
N154 X-161.511 Y22.301 Z-8.487 
N155 X-161.494 Y22.541 Z-8.744 
N156 X-161.477 Y22.780 Z-9.001 
N157 X-161.459 Y23.020 Z-9.258 
N158 X-161.441 Y23.259 Z-9.514 
N159 X-161.423 Y23.499 Z-9.771 
N160 X-161.405 Y23.738 Z-10.028 
N161 X-161.387 Y23.978 Z-10.285 
N162 X-161.369 Y24.217 Z-10.542 
N163 X-161.350 Y24.457 Z-10.798 
N164 X-161.331 Y24.696 Z-11.055 
N165 X-161.312 Y24.935 Z-11.312 
N166 X-161.292 Y25.175 Z-11.569 
N167 X-161.273 Y25.414 Z-11.826 
N168 X-161.253 Y25.654 Z-12.082 
N169 X-161.233 Y25.893 Z-12.339 
N170 X-161.213 Y26.133 Z-12.596 
N171 X-161.193 Y26.372 Z-12.853 
N172 X-161.172 Y26.611 Z-13.109 
N173 X-161.152 Y26.851 Z-13.366 
N174 X-161.131 Y27.090 Z-13.623 
N175 X-161.109 Y27.330 Z-13.880 
N176 X-161.088 Y27.569 Z-14.136 
N177 X-161.067 Y27.808 Z-14.393 
N178 X-161.045 Y28.048 Z-14.650 
N179 X-161.023 Y28.287 Z-14.906 
N180 X-161.001 Y28.526 Z-15.163 
N181 X-160.978 Y28.766 Z-15.420 
N182 X-160.956 Y29.005 Z-15.676 
N183 X-160.933 Y29.244 Z-15.933 
N184 X-160.910 Y29.484 Z-16.189 
N185 X-160.887 Y29.723 Z-16.446 
N186 X-160.863 Y29.962 Z-16.703 
N187 X-160.840 Y30.202 Z-16.959 
N188 X-160.816 Y30.442 Z-17.217 
N189 X-160.792 Y30.682 Z-17.474 
N190 X-160.769 Y30.922 Z-17.732 
N191 X-160.745 Y31.162 Z-17.989 
N192 X-160.721 Y31.402 Z-18.247 
N193 X-160.698 Y31.643 Z-18.505 
N194 X-160.674 Y31.883 Z-18.762 
N195 X-160.650 Y32.123 Z-19.020 
N196 X-160.627 Y32.363 Z-19.277 
N197 X-160.603 Y32.603 Z-19.535 
N198 X-160.580 Y32.843 Z-19.792 
N199 X-160.556 Y33.083 Z-20.050 
N200 X-160.532 Y33.324 Z-20.307 
N201 X-160.509 Y33.564 Z-20.565 
N202 X-160.485 Y33.804 Z-20.822 
N203 X-160.461 Y34.044 Z-21.080 
N204 X-160.438 Y34.284 Z-21.337 
N205 G40 X-160.416 Y34.523 Z-21.593 F923
N206 X-160.416 Y34.523 Z-21.593 
N207 X-160.383 Y34.895 Z-21.992 F1579 
N208 X-160.329 Y35.530 Z-22.673 F2564 
N209 X-160.258 Y36.427 Z-23.636 F3220 
N210 X-160.194 Y37.459 Z-24.742 F3438 
N211 X-160.399 Y37.774 Z-25.080 
N212 X-160.638 Y36.613 Z-23.835 
N213 X-160.815 Y35.477 Z-22.617 
N214 X-160.969 Y34.264 Z-21.315 
N215 X-161.080 Y33.260 Z-20.239 A313.0122 F3220 
N216 X-161.169 Y32.395 Z-19.311 F2564 
N217 X-161.230 Y31.768 Z-18.639 F1579 
N218 X-161.266 Y31.390 Z-18.234 F923 
N219 ;NNTE Finishing
N220 D2 
N221 G01 G41 X-161.290 Y31.130 Z-17.955 F705
N222 X-161.290 Y31.130 Z-17.955 F705 
N223 X-161.309 Y30.903 Z-17.712 
N224 X-161.329 Y30.676 Z-17.468 
N225 X-161.348 Y30.449 Z-17.225 
N226 X-161.368 Y30.209 Z-16.967 
N227 X-161.389 Y29.969 Z-16.709 
N228 X-161.409 Y29.728 Z-16.452 
N229 X-161.429 Y29.488 Z-16.194 
N230 X-161.450 Y29.248 Z-15.936 
N231 X-161.470 Y29.007 Z-15.679 
N232 X-161.491 Y28.767 Z-15.421 
N233 X-161.511 Y28.527 Z-15.163 
N234 X-161.531 Y28.287 Z-14.906 
N235 X-161.552 Y28.046 Z-14.648 
N236 X-161.572 Y27.806 Z-14.390 
N237 X-161.592 Y27.566 Z-14.133 
N238 X-161.613 Y27.325 Z-13.875 
N239 X-161.633 Y27.085 Z-13.617 
N240 X-161.654 Y26.845 Z-13.359 
N241 X-161.674 Y26.604 Z-13.102 
N242 X-161.694 Y26.364 Z-12.844 
N243 X-161.715 Y26.124 Z-12.586 
N244 X-161.735 Y25.883 Z-12.328 
N245 X-161.755 Y25.643 Z-12.070 
N246 X-161.775 Y25.402 Z-11.813 
N247 X-161.794 Y25.162 Z-11.555 
N248 X-161.814 Y24.921 Z-11.297 
N249 X-161.833 Y24.681 Z-11.039 
N250 X-161.852 Y24.440 Z-10.781 
N251 X-161.871 Y24.200 Z-10.523 
N252 X-161.889 Y23.959 Z-10.265 
N253 X-161.907 Y23.719 Z-10.007 
N254 X-161.926 Y23.478 Z-9.749 
N255 X-161.944 Y23.238 Z-9.491 
N256 X-161.961 Y22.997 Z-9.233 
N257 X-161.979 Y22.757 Z-8.975 
N258 X-161.996 Y22.516 Z-8.717 
N259 X-162.013 Y22.275 Z-8.459 
N260 X-162.030 Y22.035 Z-8.201 
N261 X-162.047 Y21.794 Z-7.944 
N262 X-162.063 Y21.554 Z-7.685 
N263 X-162.080 Y21.313 Z-7.427 
N264 X-162.096 Y21.072 Z-7.169 
N265 X-162.112 Y20.832 Z-6.911 
N266 X-162.127 Y20.591 Z-6.653 
N267 X-162.143 Y20.351 Z-6.395 
N268 X-162.158 Y20.110 Z-6.137 
N269 X-162.173 Y19.869 Z-5.879 
N270 X-162.188 Y19.629 Z-5.621 
N271 X-162.203 Y19.388 Z-5.363 
N272 X-162.217 Y19.147 Z-5.105 
N273 X-162.231 Y18.907 Z-4.847 
N274 X-162.245 Y18.666 Z-4.589 
N275 X-162.259 Y18.425 Z-4.331 
N276 X-162.273 Y18.185 Z-4.073 
N277 X-162.286 Y17.944 Z-3.815 
N278 X-162.300 Y17.703 Z-3.557 
N279 X-162.313 Y17.463 Z-3.298 
N280 X-162.325 Y17.222 Z-3.040 
N281 X-162.338 Y16.981 Z-2.782 
N282 X-162.350 Y16.741 Z-2.524 
N283 X-162.363 Y16.500 Z-2.266 
N284 X-162.375 Y16.259 Z-2.008 
N285 X-162.386 Y16.018 Z-1.750 
N286 X-162.398 Y15.778 Z-1.492 
N287 X-162.409 Y15.537 Z-1.233 
N288 X-162.421 Y15.296 Z-0.975 
N289 X-162.431 Y15.056 Z-0.717 
N290 X-162.442 Y14.815 Z-0.459 
N291 X-162.453 Y14.574 Z-0.201 
N292 X-162.463 Y14.333 Z0.057 
N293 X-162.473 Y14.093 Z0.316 
N294 X-162.483 Y13.852 Z0.574 
N295 X-162.493 Y13.611 Z0.832 
N296 X-162.502 Y13.370 Z1.090 
N297 X-162.512 Y13.129 Z1.348 
N298 X-162.521 Y12.889 Z1.607 
N299 X-162.530 Y12.648 Z1.865 
N300 X-162.539 Y12.407 Z2.123 
N301 X-162.547 Y12.166 Z2.381 
N302 X-162.555 Y11.926 Z2.639 
N303 X-162.563 Y11.685 Z2.898 
N304 X-162.571 Y11.444 Z3.156 
N305 X-162.579 Y11.203 Z3.414 
N306 X-162.586 Y10.962 Z3.672 
N307 X-162.594 Y10.722 Z3.930 
N308 X-162.601 Y10.481 Z4.189 
N309 X-162.608 Y10.240 Z4.447 
N310 X-162.614 Y9.999 Z4.705 
N311 X-162.621 Y9.758 Z4.963 
N312 X-162.627 Y9.518 Z5.222 
N313 X-162.633 Y9.277 Z5.480 
N314 X-162.639 Y9.036 Z5.738 
N315 X-162.644 Y8.795 Z5.996 
N316 X-162.650 Y8.554 Z6.255 
N317 X-162.655 Y8.313 Z6.513 
N318 X-162.660 Y8.073 Z6.771 
N319 X-162.665 Y7.832 Z7.029 
N320 X-162.669 Y7.591 Z7.288 
N321 X-162.674 Y7.350 Z7.546 
N322 X-162.678 Y7.109 Z7.804 
N323 X-162.682 Y6.868 Z8.062 
N324 X-162.686 Y6.628 Z8.321 
N325 X-162.689 Y6.387 Z8.579 
N326 X-162.693 Y6.146 Z8.837 
N327 X-162.696 Y5.905 Z9.096 
N328 X-162.699 Y5.664 Z9.354 
N329 X-162.702 Y5.423 Z9.612 
N330 X-162.704 Y5.183 Z9.870 
N331 X-162.706 Y4.942 Z10.129 
N332 X-162.709 Y4.701 Z10.387 
N333 X-162.711 Y4.460 Z10.645 
N334 X-162.712 Y4.219 Z10.903 
N335 X-162.714 Y3.978 Z11.162 
N336 X-162.715 Y3.737 Z11.420 
N337 X-162.716 Y3.497 Z11.678 
N338 X-162.717 Y3.256 Z11.937 
N339 X-162.718 Y3.015 Z12.195 
N340 X-162.718 Y2.774 Z12.453 
N341 X-162.719 Y2.533 Z12.711 
N342 X-162.719 Y2.292 Z12.970 
N343 X-162.718 Y2.051 Z13.228 
N344 X-162.718 Y1.811 Z13.486 
N345 X-162.718 Y1.570 Z13.745 
N346 X-162.717 Y1.329 Z14.003 
N347 X-162.716 Y1.088 Z14.261 
N348 X-162.715 Y0.847 Z14.519 
N349 X-162.713 Y0.606 Z14.778 
N350 X-162.712 Y0.365 Z15.036 
N351 X-162.710 Y0.125 Z15.294 
N352 X-162.708 Y-0.116 Z15.553 
N353 X-162.706 Y-0.357 Z15.811 
N354 X-162.704 Y-0.598 Z16.069 
N355 X-162.702 Y-0.838 Z16.327 
N356 X-162.700 Y-1.079 Z16.585 
N357 X-162.698 Y-1.320 Z16.843 
N358 X-162.696 Y-1.560 Z17.101 
N359 X-162.694 Y-1.801 Z17.359 
N360 X-162.692 Y-2.042 Z17.618 
N361 X-162.691 Y-2.283 Z17.876 
N362 X-162.689 Y-2.523 Z18.134 
N363 X-162.687 Y-2.764 Z18.392 
N364 X-162.685 Y-3.005 Z18.650 
N365 X-162.683 Y-3.245 Z18.908 
N366 X-162.681 Y-3.486 Z19.166 
N367 X-162.679 Y-3.727 Z19.424 
N368 X-162.677 Y-3.967 Z19.682 
N369 X-162.675 Y-4.208 Z19.941 
N370 G40 X-162.619 Y-11.028 Z27.254 F705
N371 X-162.619 Y-11.028 Z27.254 
N372 G00 X-162.619 Y25.528 Z61.367 
RAPORT("TA333333","Side Milling:131 End")
;trailer : concat=None
; points cnt = 323
N374 MSG (" --- GROUPED OF SUBPROGRAM --- ")
N375 FGROUP()
N376 TRAFOOF
; PROGRAM NAME: A33333347
; ORDER       : A333333
; OPER. NAME  : Side Milling:132
; OPER. DESCR.: HHU SemiFinish milling NGA
; OPER. TYPE  : sideMill
; GEO. OPTION : 3
; MACHINE     : HSTM_300_SIM840D_Py
;             : HSTM300/500 - HAMUEL: 5-axis milling machine-SIM840D Traori PP_Script
; CONTROL     : SINUMERIK 840D
; created:   2021-09-10 08:45:40.087774
;----------------------------------------
RAPORT("TA333333","Side Milling:132")
N10 TRAFOOF
N11 D0
N12 G90 G94
N13 G0 G53 D0 Z550
N14 STOPRE
M9 ; chlodziwo wyl
; --- Side Milling:132 - HHU SemiFinish milling NGA ---
N16 ;ToolChange : concat=None ,current_tdmid=None, PP.tdmId=940862
N17 TRAFOOF
N18 G0 G53 D0 Z550 B0
N19 STOPRE
N20 MSG(" TLID=940862 D=12.0 R=4.0 Ang=0.0 Len=122.0 ")
N21 S5039 M03
N22 STOPRE
N23 TOL(0.1,1,1)
N24 G0 G53 A132.9800 B-0.0001
N25 TRAORI
N26 G54 D3
;tol5=0.03
N27 D1 
STOPRE
E_ZDARZ=300010
;ACS_FINISH_SLOT=7740862
STOPRE
;UWAGA : ZMIENIONA TOLERANCJA OSI A i B, ruchy osi A i B beda usuniete : TOL5=0.03
N28 ; DELTA A > 40.1
N29 TRAFOOF
N30 D1
N31 STOPRE
N32 G00 G54 Z264.000
N33 G01 A132.9800 F10000
N34 TRAORI
N35 G54 D1
N36 STOPRE
N37 TRANS 
N38 G00 X-162.191 Y-43.533 Z-56.410 A132.9800 
N39 M342 ; chlodziwo woda
N40 X-162.191 Y-6.953 Z-22.323 
N41 G01 X-162.193 Y-5.027 Z-19.858 F705 
N42 X-162.198 Y-3.957 Z-16.918 
N43 X-162.206 Y-3.848 Z-13.791 
N44 X-162.217 Y-4.710 Z-10.784 
N45 ;NTA SemiFinishing
N46 D3 
N47 G01 G41 X-162.228 Y-6.460 Z-8.190 F705
N48 X-162.228 Y-6.460 Z-8.190 
N49 X-162.229 Y-6.687 Z-7.946 
N50 X-162.230 Y-6.914 Z-7.702 
N51 X-162.232 Y-7.142 Z-7.458 
N52 X-162.233 Y-7.382 Z-7.200 
N53 X-162.234 Y-7.623 Z-6.942 
N54 X-162.236 Y-7.864 Z-6.684 
N55 X-162.237 Y-8.104 Z-6.426 
N56 X-162.238 Y-8.345 Z-6.168 
N57 X-162.239 Y-8.586 Z-5.910 
N58 X-162.241 Y-8.826 Z-5.652 
N59 X-162.242 Y-9.067 Z-5.393 
N60 X-162.243 Y-9.308 Z-5.135 
N61 X-162.245 Y-9.549 Z-4.877 
N62 X-162.246 Y-9.789 Z-4.619 
N63 X-162.247 Y-10.030 Z-4.361 
N64 X-162.248 Y-10.271 Z-4.103 
N65 X-162.250 Y-10.511 Z-3.845 
N66 X-162.251 Y-10.752 Z-3.587 
N67 X-162.252 Y-10.993 Z-3.328 
N68 X-162.254 Y-11.233 Z-3.070 
N69 X-162.255 Y-11.473 Z-2.813 
N70 X-162.256 Y-11.713 Z-2.556 
N71 X-162.257 Y-11.953 Z-2.299 
N72 X-162.258 Y-12.193 Z-2.042 
N73 X-162.258 Y-12.432 Z-1.784 
N74 X-162.259 Y-12.672 Z-1.527 
N75 X-162.259 Y-12.912 Z-1.270 
N76 X-162.259 Y-13.152 Z-1.013 
N77 X-162.258 Y-13.392 Z-0.756 
N78 X-162.258 Y-13.632 Z-0.499 
N79 X-162.257 Y-13.871 Z-0.242 
N80 X-162.256 Y-14.111 Z0.016 
N81 X-162.255 Y-14.351 Z0.273 
N82 X-162.254 Y-14.591 Z0.530 
N83 X-162.252 Y-14.831 Z0.787 
N84 X-162.250 Y-15.070 Z1.044 
N85 X-162.248 Y-15.310 Z1.301 
N86 X-162.246 Y-15.550 Z1.559 
N87 X-162.244 Y-15.790 Z1.816 
N88 X-162.241 Y-16.030 Z2.073 
N89 X-162.239 Y-16.269 Z2.330 
N90 X-162.236 Y-16.509 Z2.587 
N91 X-162.233 Y-16.749 Z2.844 
N92 X-162.229 Y-16.989 Z3.101 
N93 X-162.226 Y-17.229 Z3.359 
N94 X-162.222 Y-17.468 Z3.616 
N95 X-162.218 Y-17.708 Z3.873 
N96 X-162.214 Y-17.948 Z4.130 
N97 X-162.209 Y-18.188 Z4.387 
N98 X-162.205 Y-18.427 Z4.644 
N99 X-162.200 Y-18.667 Z4.901 
N100 X-162.195 Y-18.907 Z5.159 
N101 X-162.190 Y-19.147 Z5.416 
N102 X-162.184 Y-19.387 Z5.673 
N103 X-162.179 Y-19.626 Z5.930 
N104 X-162.173 Y-19.866 Z6.187 
N105 X-162.167 Y-20.106 Z6.444 
N106 X-162.161 Y-20.346 Z6.701 
N107 X-162.154 Y-20.585 Z6.958 
N108 X-162.148 Y-20.825 Z7.216 
N109 X-162.141 Y-21.065 Z7.473 
N110 X-162.134 Y-21.305 Z7.730 
N111 X-162.127 Y-21.544 Z7.987 
N112 X-162.119 Y-21.784 Z8.244 
N113 X-162.111 Y-22.024 Z8.501 
N114 X-162.104 Y-22.264 Z8.758 
N115 X-162.096 Y-22.503 Z9.015 
N116 X-162.087 Y-22.743 Z9.272 
N117 X-162.079 Y-22.983 Z9.530 
N118 X-162.070 Y-23.223 Z9.787 
N119 X-162.061 Y-23.462 Z10.044 
N120 X-162.052 Y-23.702 Z10.301 
N121 X-162.043 Y-23.942 Z10.558 
N122 X-162.034 Y-24.182 Z10.815 
N123 X-162.024 Y-24.421 Z11.072 
N124 X-162.014 Y-24.661 Z11.329 
N125 X-162.004 Y-24.901 Z11.586 
N126 X-161.994 Y-25.140 Z11.843 
N127 X-161.983 Y-25.380 Z12.100 
N128 X-161.972 Y-25.620 Z12.357 
N129 X-161.961 Y-25.860 Z12.614 
N130 X-161.950 Y-26.099 Z12.871 
N131 X-161.939 Y-26.339 Z13.128 
N132 X-161.928 Y-26.579 Z13.385 
N133 X-161.916 Y-26.818 Z13.642 
N134 X-161.904 Y-27.058 Z13.899 
N135 X-161.892 Y-27.298 Z14.156 
N136 X-161.879 Y-27.537 Z14.413 
N137 X-161.867 Y-27.777 Z14.670 
N138 X-161.854 Y-28.017 Z14.927 
N139 X-161.841 Y-28.256 Z15.184 
N140 X-161.828 Y-28.496 Z15.441 
N141 X-161.815 Y-28.735 Z15.698 
N142 X-161.801 Y-28.975 Z15.955 
N143 X-161.787 Y-29.215 Z16.212 
N144 X-161.773 Y-29.454 Z16.469 
N145 X-161.759 Y-29.694 Z16.726 
N146 X-161.745 Y-29.934 Z16.983 
N147 X-161.730 Y-30.173 Z17.240 
N148 X-161.716 Y-30.413 Z17.497 
N149 X-161.701 Y-30.652 Z17.754 
N150 X-161.685 Y-30.892 Z18.011 
N151 X-161.670 Y-31.131 Z18.268 
N152 X-161.654 Y-31.371 Z18.525 
N153 X-161.639 Y-31.611 Z18.782 
N154 X-161.623 Y-31.850 Z19.038 
N155 X-161.607 Y-32.090 Z19.295 
N156 X-161.590 Y-32.329 Z19.552 
N157 X-161.574 Y-32.569 Z19.809 
N158 X-161.557 Y-32.808 Z20.066 
N159 X-161.540 Y-33.048 Z20.323 
N160 X-161.522 Y-33.287 Z20.580 
N161 X-161.505 Y-33.527 Z20.836 
N162 X-161.487 Y-33.766 Z21.093 
N163 X-161.470 Y-34.006 Z21.350 
N164 X-161.452 Y-34.245 Z21.607 
N165 X-161.433 Y-34.485 Z21.864 
N166 X-161.415 Y-34.724 Z22.121 
N167 X-161.396 Y-34.964 Z22.377 
N168 X-161.377 Y-35.203 Z22.634 
N169 X-161.358 Y-35.443 Z22.891 
N170 X-161.339 Y-35.682 Z23.148 
N171 X-161.320 Y-35.922 Z23.404 
N172 X-161.300 Y-36.161 Z23.661 
N173 X-161.280 Y-36.400 Z23.918 
N174 X-161.260 Y-36.640 Z24.175 
N175 X-161.240 Y-36.879 Z24.431 
N176 X-161.219 Y-37.119 Z24.688 
N177 X-161.199 Y-37.358 Z24.945 
N178 X-161.178 Y-37.597 Z25.202 
N179 X-161.157 Y-37.837 Z25.458 
N180 X-161.135 Y-38.076 Z25.715 
N181 X-161.114 Y-38.316 Z25.972 
N182 X-161.092 Y-38.555 Z26.228 
N183 X-161.070 Y-38.794 Z26.485 
N184 X-161.048 Y-39.034 Z26.742 
N185 X-161.026 Y-39.273 Z26.998 
N186 X-161.003 Y-39.512 Z27.255 
N187 X-160.981 Y-39.752 Z27.512 
N188 X-160.958 Y-39.992 Z27.769 
N189 X-160.935 Y-40.232 Z28.027 
N190 X-160.912 Y-40.472 Z28.284 
N191 X-160.890 Y-40.712 Z28.542 
N192 X-160.867 Y-40.953 Z28.800 
N193 X-160.844 Y-41.193 Z29.057 
N194 X-160.821 Y-41.433 Z29.315 
N195 X-160.799 Y-41.673 Z29.572 
N196 X-160.776 Y-41.913 Z29.830 
N197 X-160.753 Y-42.154 Z30.087 
N198 X-160.730 Y-42.394 Z30.345 
N199 X-160.708 Y-42.634 Z30.603 
N200 X-160.685 Y-42.874 Z30.860 
N201 X-160.662 Y-43.114 Z31.118 
N202 X-160.639 Y-43.355 Z31.375 
N203 X-160.616 Y-43.595 Z31.633 
N204 X-160.594 Y-43.835 Z31.891 
N205 G40 X-160.573 Y-44.076 Z32.149 F927
N206 X-160.573 Y-44.076 Z32.149 
N207 X-160.541 Y-44.454 Z32.554 F1594 
N208 X-160.489 Y-45.101 Z33.248 F2594 
N209 X-160.420 Y-46.017 Z34.230 F3261 
N210 X-160.360 Y-47.071 Z35.361 F3483 
N211 X-160.571 Y-47.014 Z35.299 
N212 X-160.780 Y-45.813 Z34.012 
N213 X-160.939 Y-44.676 Z32.792 
N214 X-161.085 Y-43.447 Z31.475 
N215 X-161.189 Y-42.448 Z30.404 A133.0122 F3261 
N216 X-161.277 Y-41.549 Z29.439 F2594 
N217 X-161.339 Y-40.893 Z28.736 F1594 
N218 X-161.375 Y-40.496 Z28.310 F927 
N219 ;NNTA SemiFinishing
N220 D4 
N221 G01 G41 X-161.400 Y-40.215 Z28.009 F705
N222 X-161.400 Y-40.215 Z28.009 F705 
N223 X-161.418 Y-39.988 Z27.765 
N224 X-161.436 Y-39.761 Z27.522 
N225 X-161.454 Y-39.534 Z27.278 
N226 X-161.473 Y-39.294 Z27.021 
N227 X-161.492 Y-39.053 Z26.763 
N228 X-161.511 Y-38.813 Z26.505 
N229 X-161.530 Y-38.573 Z26.247 
N230 X-161.549 Y-38.332 Z25.990 
N231 X-161.569 Y-38.092 Z25.732 
N232 X-161.588 Y-37.852 Z25.474 
N233 X-161.607 Y-37.611 Z25.216 
N234 X-161.626 Y-37.371 Z24.959 
N235 X-161.645 Y-37.131 Z24.701 
N236 X-161.664 Y-36.890 Z24.443 
N237 X-161.683 Y-36.650 Z24.185 
N238 X-161.702 Y-36.410 Z23.928 
N239 X-161.721 Y-36.169 Z23.670 
N240 X-161.740 Y-35.929 Z23.412 
N241 X-161.760 Y-35.688 Z23.155 
N242 X-161.779 Y-35.448 Z22.897 
N243 X-161.798 Y-35.209 Z22.640 
N244 X-161.816 Y-34.969 Z22.383 
N245 X-161.835 Y-34.730 Z22.126 
N246 X-161.854 Y-34.490 Z21.870 
N247 X-161.872 Y-34.251 Z21.613 
N248 X-161.890 Y-34.011 Z21.356 
N249 X-161.908 Y-33.772 Z21.099 
N250 X-161.925 Y-33.532 Z20.842 
N251 X-161.943 Y-33.293 Z20.586 
N252 X-161.960 Y-33.053 Z20.329 
N253 X-161.977 Y-32.814 Z20.072 
N254 X-161.994 Y-32.574 Z19.815 
N255 X-162.010 Y-32.335 Z19.558 
N256 X-162.027 Y-32.095 Z19.301 
N257 X-162.043 Y-31.856 Z19.044 
N258 X-162.059 Y-31.616 Z18.788 
N259 X-162.075 Y-31.377 Z18.531 
N260 X-162.090 Y-31.137 Z18.274 
N261 X-162.106 Y-30.898 Z18.017 
N262 X-162.121 Y-30.658 Z17.760 
N263 X-162.136 Y-30.418 Z17.503 
N264 X-162.150 Y-30.179 Z17.246 
N265 X-162.165 Y-29.939 Z16.989 
N266 X-162.179 Y-29.700 Z16.732 
N267 X-162.194 Y-29.460 Z16.475 
N268 X-162.207 Y-29.220 Z16.218 
N269 X-162.221 Y-28.981 Z15.961 
N270 X-162.235 Y-28.741 Z15.704 
N271 X-162.248 Y-28.502 Z15.448 
N272 X-162.261 Y-28.262 Z15.191 
N273 X-162.274 Y-28.022 Z14.934 
N274 X-162.287 Y-27.783 Z14.677 
N275 X-162.299 Y-27.543 Z14.420 
N276 X-162.312 Y-27.303 Z14.163 
N277 X-162.324 Y-27.064 Z13.906 
N278 X-162.336 Y-26.824 Z13.649 
N279 X-162.348 Y-26.584 Z13.392 
N280 X-162.359 Y-26.345 Z13.135 
N281 X-162.370 Y-26.105 Z12.878 
N282 X-162.381 Y-25.865 Z12.621 
N283 X-162.392 Y-25.626 Z12.364 
N284 X-162.403 Y-25.386 Z12.107 
N285 X-162.413 Y-25.146 Z11.850 
N286 X-162.424 Y-24.907 Z11.592 
N287 X-162.434 Y-24.667 Z11.335 
N288 X-162.444 Y-24.427 Z11.078 
N289 X-162.453 Y-24.188 Z10.821 
N290 X-162.463 Y-23.948 Z10.564 
N291 X-162.472 Y-23.708 Z10.307 
N292 X-162.481 Y-23.468 Z10.050 
N293 X-162.490 Y-23.229 Z9.793 
N294 X-162.499 Y-22.989 Z9.536 
N295 X-162.507 Y-22.749 Z9.279 
N296 X-162.516 Y-22.510 Z9.022 
N297 X-162.523 Y-22.270 Z8.765 
N298 X-162.531 Y-22.030 Z8.508 
N299 X-162.539 Y-21.790 Z8.251 
N300 X-162.546 Y-21.551 Z7.994 
N301 X-162.554 Y-21.311 Z7.736 
N302 X-162.561 Y-21.071 Z7.479 
N303 X-162.568 Y-20.831 Z7.222 
N304 X-162.574 Y-20.592 Z6.965 
N305 X-162.581 Y-20.352 Z6.708 
N306 X-162.587 Y-20.112 Z6.451 
N307 X-162.593 Y-19.872 Z6.194 
N308 X-162.599 Y-19.633 Z5.937 
N309 X-162.604 Y-19.393 Z5.680 
N310 X-162.610 Y-19.153 Z5.423 
N311 X-162.615 Y-18.913 Z5.165 
N312 X-162.620 Y-18.674 Z4.908 
N313 X-162.625 Y-18.434 Z4.651 
N314 X-162.629 Y-18.194 Z4.394 
N315 X-162.634 Y-17.954 Z4.137 
N316 X-162.638 Y-17.714 Z3.880 
N317 X-162.642 Y-17.475 Z3.623 
N318 X-162.646 Y-17.235 Z3.366 
N319 X-162.649 Y-16.995 Z3.108 
N320 X-162.652 Y-16.755 Z2.851 
N321 X-162.656 Y-16.516 Z2.594 
N322 X-162.659 Y-16.276 Z2.337 
N323 X-162.661 Y-16.036 Z2.080 
N324 X-162.664 Y-15.796 Z1.823 
N325 X-162.666 Y-15.556 Z1.566 
N326 X-162.668 Y-15.317 Z1.308 
N327 X-162.670 Y-15.077 Z1.051 
N328 X-162.672 Y-14.837 Z0.794 
N329 X-162.674 Y-14.597 Z0.537 
N330 X-162.675 Y-14.357 Z0.280 
N331 X-162.676 Y-14.118 Z0.023 
N332 X-162.677 Y-13.878 Z-0.234 
N333 X-162.678 Y-13.638 Z-0.492 
N334 X-162.678 Y-13.398 Z-0.749 
N335 X-162.679 Y-13.159 Z-1.006 
N336 X-162.679 Y-12.919 Z-1.263 
N337 X-162.679 Y-12.679 Z-1.520 
N338 X-162.678 Y-12.439 Z-1.777 
N339 X-162.678 Y-12.199 Z-2.034 
N340 X-162.677 Y-11.960 Z-2.292 
N341 X-162.676 Y-11.720 Z-2.549 
N342 X-162.675 Y-11.480 Z-2.806 
N343 X-162.674 Y-11.240 Z-3.063 
N344 X-162.672 Y-11.000 Z-3.320 
N345 X-162.670 Y-10.761 Z-3.577 
N346 X-162.668 Y-10.521 Z-3.834 
N347 X-162.666 Y-10.281 Z-4.092 
N348 X-162.664 Y-10.041 Z-4.349 
N349 X-162.661 Y-9.801 Z-4.606 
N350 X-162.659 Y-9.562 Z-4.863 
N351 X-162.656 Y-9.322 Z-5.120 
N352 X-162.653 Y-9.082 Z-5.377 
N353 X-162.649 Y-8.842 Z-5.634 
N354 X-162.646 Y-8.603 Z-5.892 
N355 X-162.642 Y-8.362 Z-6.150 
N356 X-162.639 Y-8.121 Z-6.408 
N357 X-162.635 Y-7.880 Z-6.666 
N358 X-162.632 Y-7.640 Z-6.924 
N359 X-162.628 Y-7.399 Z-7.182 
N360 X-162.624 Y-7.158 Z-7.440 
N361 X-162.621 Y-6.918 Z-7.698 
N362 X-162.617 Y-6.677 Z-7.956 
N363 X-162.614 Y-6.436 Z-8.215 
N364 X-162.610 Y-6.196 Z-8.473 
N365 X-162.607 Y-5.955 Z-8.731 
N366 X-162.603 Y-5.714 Z-8.989 
N367 X-162.600 Y-5.474 Z-9.247 
N368 X-162.596 Y-5.233 Z-9.505 
N369 X-162.592 Y-4.992 Z-9.763 
N370 X-162.589 Y-4.751 Z-10.021 
N371 X-162.585 Y-4.511 Z-10.279 
N372 G40 X-162.485 Y2.309 Z-17.593 F705
N373 X-162.485 Y2.309 Z-17.593 
N374 G00 X-162.484 Y-34.247 Z-51.705 
RAPORT("TA333333","Side Milling:132 End")
;trailer : concat=None
; points cnt = 325
N376 MSG (" --- GROUPED OF SUBPROGRAM --- ")
N377 FGROUP()
N378 TRAFOOF
; PROGRAM NAME: A33333347
; ORDER       : A333333
; OPER. NAME  : Side Milling:133
; OPER. DESCR.: HHU finish milling NGA
; OPER. TYPE  : sideMill
; GEO. OPTION : 3
; MACHINE     : HSTM_300_SIM840D_Py
;             : HSTM300/500 - HAMUEL: 5-axis milling machine-SIM840D Traori PP_Script
; CONTROL     : SINUMERIK 840D
; created:   2021-09-10 08:45:57.333864
;----------------------------------------
RAPORT("TA333333","Side Milling:133")
N10 TRAFOOF
N11 D0
N12 G90 G94
N13 G0 G53 D0 Z550
N14 STOPRE
M9 ; chlodziwo wyl
; --- Side Milling:133 - HHU finish milling NGA ---
N16 ;ToolChange : concat=None ,current_tdmid=None, PP.tdmId=940862
N17 TRAFOOF
N18 G0 G53 D0 Z550 B0
N19 STOPRE
N20 MSG(" TLID=940862 D=12.0 R=4.0 Ang=0.0 Len=122.0 ")
N21 S5039 M03
N22 STOPRE
N23 TOL(0.1,1,1)
N24 G0 G53 A132.9800 B-0.0001
N25 TRAORI
N26 G54 D3
;tol5=0.03
N27 D3 
STOPRE
E_ZDARZ=300010
;ACS_FINISH_SLOT=7740862
STOPRE
;UWAGA : ZMIENIONA TOLERANCJA OSI A i B, ruchy osi A i B beda usuniete : TOL5=0.03
N28 ; DELTA A > 40.1
N29 TRAFOOF
N30 D3
N31 STOPRE
N32 G00 G54 Z264.000
N33 G01 A132.9800 F10000
N34 TRAORI
N35 G54 D3
N36 STOPRE
N37 TRANS 
N38 G00 X-162.151 Y-43.555 Z-56.431 A132.9800 
N39 M342 ; chlodziwo woda
N40 X-162.151 Y-6.975 Z-22.344 
N41 G01 X-162.153 Y-5.049 Z-19.878 F705 
N42 X-162.158 Y-3.979 Z-16.938 
N43 X-162.166 Y-3.870 Z-13.811 
N44 X-162.177 Y-4.732 Z-10.804 
N45 ;NTA finishing
N46 D3 
N47 G01 G41 X-162.188 Y-6.482 Z-8.210 F705
N48 X-162.188 Y-6.482 Z-8.210 
N49 X-162.189 Y-6.709 Z-7.966 
N50 X-162.190 Y-6.936 Z-7.722 
N51 X-162.192 Y-7.164 Z-7.479 
N52 X-162.193 Y-7.404 Z-7.221 
N53 X-162.194 Y-7.645 Z-6.962 
N54 X-162.196 Y-7.886 Z-6.704 
N55 X-162.197 Y-8.126 Z-6.446 
N56 X-162.198 Y-8.367 Z-6.188 
N57 X-162.199 Y-8.608 Z-5.930 
N58 X-162.201 Y-8.848 Z-5.672 
N59 X-162.202 Y-9.089 Z-5.414 
N60 X-162.203 Y-9.330 Z-5.156 
N61 X-162.205 Y-9.571 Z-4.897 
N62 X-162.206 Y-9.811 Z-4.639 
N63 X-162.207 Y-10.052 Z-4.381 
N64 X-162.208 Y-10.293 Z-4.123 
N65 X-162.210 Y-10.533 Z-3.865 
N66 X-162.211 Y-10.774 Z-3.607 
N67 X-162.212 Y-11.015 Z-3.349 
N68 X-162.214 Y-11.256 Z-3.091 
N69 X-162.215 Y-11.495 Z-2.833 
N70 X-162.216 Y-11.735 Z-2.576 
N71 X-162.217 Y-11.975 Z-2.319 
N72 X-162.218 Y-12.215 Z-2.062 
N73 X-162.218 Y-12.454 Z-1.805 
N74 X-162.219 Y-12.694 Z-1.548 
N75 X-162.219 Y-12.934 Z-1.291 
N76 X-162.219 Y-13.174 Z-1.033 
N77 X-162.218 Y-13.414 Z-0.776 
N78 X-162.218 Y-13.653 Z-0.519 
N79 X-162.217 Y-13.893 Z-0.262 
N80 X-162.216 Y-14.133 Z-0.005 
N81 X-162.215 Y-14.373 Z0.252 
N82 X-162.214 Y-14.613 Z0.509 
N83 X-162.212 Y-14.852 Z0.767 
N84 X-162.210 Y-15.092 Z1.024 
N85 X-162.208 Y-15.332 Z1.281 
N86 X-162.206 Y-15.572 Z1.538 
N87 X-162.204 Y-15.812 Z1.795 
N88 X-162.201 Y-16.051 Z2.052 
N89 X-162.199 Y-16.291 Z2.309 
N90 X-162.196 Y-16.531 Z2.566 
N91 X-162.193 Y-16.771 Z2.824 
N92 X-162.189 Y-17.010 Z3.081 
N93 X-162.186 Y-17.250 Z3.338 
N94 X-162.182 Y-17.490 Z3.595 
N95 X-162.178 Y-17.730 Z3.852 
N96 X-162.174 Y-17.970 Z4.109 
N97 X-162.169 Y-18.209 Z4.366 
N98 X-162.165 Y-18.449 Z4.623 
N99 X-162.160 Y-18.689 Z4.881 
N100 X-162.155 Y-18.929 Z5.138 
N101 X-162.150 Y-19.168 Z5.395 
N102 X-162.144 Y-19.408 Z5.652 
N103 X-162.139 Y-19.648 Z5.909 
N104 X-162.133 Y-19.888 Z6.166 
N105 X-162.127 Y-20.127 Z6.423 
N106 X-162.121 Y-20.367 Z6.680 
N107 X-162.114 Y-20.607 Z6.937 
N108 X-162.108 Y-20.847 Z7.195 
N109 X-162.101 Y-21.086 Z7.452 
N110 X-162.094 Y-21.326 Z7.709 
N111 X-162.087 Y-21.566 Z7.966 
N112 X-162.079 Y-21.806 Z8.223 
N113 X-162.071 Y-22.045 Z8.480 
N114 X-162.064 Y-22.285 Z8.737 
N115 X-162.056 Y-22.525 Z8.994 
N116 X-162.047 Y-22.765 Z9.251 
N117 X-162.039 Y-23.004 Z9.508 
N118 X-162.030 Y-23.244 Z9.765 
N119 X-162.021 Y-23.484 Z10.022 
N120 X-162.012 Y-23.723 Z10.280 
N121 X-162.003 Y-23.963 Z10.537 
N122 X-161.994 Y-24.203 Z10.794 
N123 X-161.984 Y-24.442 Z11.051 
N124 X-161.974 Y-24.682 Z11.308 
N125 X-161.964 Y-24.922 Z11.565 
N126 X-161.954 Y-25.162 Z11.822 
N127 X-161.943 Y-25.401 Z12.079 
N128 X-161.932 Y-25.641 Z12.336 
N129 X-161.921 Y-25.881 Z12.593 
N130 X-161.910 Y-26.120 Z12.850 
N131 X-161.899 Y-26.360 Z13.107 
N132 X-161.888 Y-26.600 Z13.364 
N133 X-161.876 Y-26.839 Z13.621 
N134 X-161.864 Y-27.079 Z13.878 
N135 X-161.852 Y-27.319 Z14.135 
N136 X-161.839 Y-27.558 Z14.392 
N137 X-161.827 Y-27.798 Z14.649 
N138 X-161.814 Y-28.037 Z14.906 
N139 X-161.801 Y-28.277 Z15.163 
N140 X-161.788 Y-28.517 Z15.420 
N141 X-161.775 Y-28.756 Z15.677 
N142 X-161.761 Y-28.996 Z15.934 
N143 X-161.748 Y-29.236 Z16.191 
N144 X-161.734 Y-29.475 Z16.448 
N145 X-161.719 Y-29.715 Z16.704 
N146 X-161.705 Y-29.954 Z16.961 
N147 X-161.690 Y-30.194 Z17.218 
N148 X-161.676 Y-30.434 Z17.475 
N149 X-161.661 Y-30.673 Z17.732 
N150 X-161.646 Y-30.913 Z17.989 
N151 X-161.630 Y-31.152 Z18.246 
N152 X-161.615 Y-31.392 Z18.503 
N153 X-161.599 Y-31.631 Z18.760 
N154 X-161.583 Y-31.871 Z19.017 
N155 X-161.567 Y-32.110 Z19.273 
N156 X-161.550 Y-32.350 Z19.530 
N157 X-161.534 Y-32.589 Z19.787 
N158 X-161.517 Y-32.829 Z20.044 
N159 X-161.500 Y-33.068 Z20.301 
N160 X-161.483 Y-33.308 Z20.558 
N161 X-161.465 Y-33.547 Z20.815 
N162 X-161.448 Y-33.787 Z21.071 
N163 X-161.430 Y-34.026 Z21.328 
N164 X-161.412 Y-34.266 Z21.585 
N165 X-161.393 Y-34.505 Z21.842 
N166 X-161.375 Y-34.745 Z22.099 
N167 X-161.356 Y-34.984 Z22.355 
N168 X-161.338 Y-35.224 Z22.612 
N169 X-161.318 Y-35.463 Z22.869 
N170 X-161.299 Y-35.703 Z23.126 
N171 X-161.280 Y-35.942 Z23.382 
N172 X-161.260 Y-36.181 Z23.639 
N173 X-161.240 Y-36.421 Z23.896 
N174 X-161.220 Y-36.660 Z24.153 
N175 X-161.200 Y-36.900 Z24.409 
N176 X-161.179 Y-37.139 Z24.666 
N177 X-161.159 Y-37.378 Z24.923 
N178 X-161.138 Y-37.618 Z25.179 
N179 X-161.117 Y-37.857 Z25.436 
N180 X-161.096 Y-38.096 Z25.693 
N181 X-161.074 Y-38.336 Z25.949 
N182 X-161.052 Y-38.575 Z26.206 
N183 X-161.030 Y-38.814 Z26.463 
N184 X-161.008 Y-39.054 Z26.719 
N185 X-160.986 Y-39.293 Z26.976 
N186 X-160.964 Y-39.532 Z27.233 
N187 X-160.941 Y-39.772 Z27.489 
N188 X-160.918 Y-40.012 Z27.747 
N189 X-160.895 Y-40.252 Z28.004 
N190 X-160.873 Y-40.492 Z28.262 
N191 X-160.850 Y-40.732 Z28.520 
N192 X-160.827 Y-40.973 Z28.777 
N193 X-160.804 Y-41.213 Z29.035 
N194 X-160.781 Y-41.453 Z29.292 
N195 X-160.759 Y-41.693 Z29.550 
N196 X-160.736 Y-41.934 Z29.807 
N197 X-160.713 Y-42.174 Z30.065 
N198 X-160.690 Y-42.414 Z30.323 
N199 X-160.668 Y-42.654 Z30.580 
N200 X-160.645 Y-42.894 Z30.838 
N201 X-160.622 Y-43.135 Z31.095 
N202 X-160.599 Y-43.375 Z31.353 
N203 X-160.577 Y-43.615 Z31.611 
N204 X-160.554 Y-43.855 Z31.868 
N205 G40 X-160.533 Y-44.096 Z32.126 F927
N206 X-160.533 Y-44.096 Z32.126 
N207 X-160.501 Y-44.474 Z32.532 F1594 
N208 X-160.450 Y-45.122 Z33.226 F2595 
N209 X-160.382 Y-46.039 Z34.210 F3262 
N210 X-160.326 Y-47.094 Z35.341 F3485 
N211 X-160.572 Y-47.038 Z35.281 
N212 X-160.799 Y-45.841 Z33.998 
N213 X-160.969 Y-44.699 Z32.774 
N214 X-161.120 Y-43.474 Z31.460 
N215 X-161.228 Y-42.471 Z30.384 A133.0122 F3262 
N216 X-161.317 Y-41.571 Z29.418 F2595 
N217 X-161.379 Y-40.914 Z28.715 F1594 
N218 X-161.415 Y-40.518 Z28.289 F927 
N219 ;NNTA finishing
N220 D4 
N221 G01 G41 X-161.440 Y-40.239 Z27.990 F705
N222 X-161.440 Y-40.239 Z27.990 F705 
N223 X-161.458 Y-40.012 Z27.746 
N224 X-161.476 Y-39.785 Z27.503 
N225 X-161.494 Y-39.558 Z27.260 
N226 X-161.513 Y-39.317 Z27.002 
N227 X-161.532 Y-39.077 Z26.744 
N228 X-161.551 Y-38.836 Z26.486 
N229 X-161.570 Y-38.596 Z26.229 
N230 X-161.589 Y-38.356 Z25.971 
N231 X-161.608 Y-38.115 Z25.713 
N232 X-161.628 Y-37.875 Z25.455 
N233 X-161.647 Y-37.635 Z25.198 
N234 X-161.666 Y-37.394 Z24.940 
N235 X-161.685 Y-37.154 Z24.682 
N236 X-161.704 Y-36.914 Z24.424 
N237 X-161.723 Y-36.673 Z24.167 
N238 X-161.742 Y-36.433 Z23.909 
N239 X-161.761 Y-36.193 Z23.651 
N240 X-161.780 Y-35.952 Z23.393 
N241 X-161.799 Y-35.712 Z23.136 
N242 X-161.819 Y-35.472 Z22.878 
N243 X-161.838 Y-35.232 Z22.621 
N244 X-161.856 Y-34.993 Z22.364 
N245 X-161.875 Y-34.753 Z22.108 
N246 X-161.893 Y-34.514 Z21.851 
N247 X-161.912 Y-34.274 Z21.594 
N248 X-161.930 Y-34.035 Z21.337 
N249 X-161.948 Y-33.795 Z21.080 
N250 X-161.965 Y-33.556 Z20.823 
N251 X-161.983 Y-33.316 Z20.567 
N252 X-162.000 Y-33.077 Z20.310 
N253 X-162.017 Y-32.837 Z20.053 
N254 X-162.034 Y-32.598 Z19.796 
N255 X-162.050 Y-32.358 Z19.539 
N256 X-162.067 Y-32.119 Z19.282 
N257 X-162.083 Y-31.879 Z19.025 
N258 X-162.099 Y-31.639 Z18.768 
N259 X-162.115 Y-31.400 Z18.511 
N260 X-162.130 Y-31.160 Z18.255 
N261 X-162.146 Y-30.921 Z17.998 
N262 X-162.161 Y-30.681 Z17.741 
N263 X-162.176 Y-30.441 Z17.484 
N264 X-162.190 Y-30.202 Z17.227 
N265 X-162.205 Y-29.962 Z16.970 
N266 X-162.219 Y-29.723 Z16.713 
N267 X-162.233 Y-29.483 Z16.456 
N268 X-162.247 Y-29.243 Z16.199 
N269 X-162.261 Y-29.004 Z15.942 
N270 X-162.275 Y-28.764 Z15.685 
N271 X-162.288 Y-28.525 Z15.428 
N272 X-162.301 Y-28.285 Z15.171 
N273 X-162.314 Y-28.045 Z14.914 
N274 X-162.327 Y-27.806 Z14.657 
N275 X-162.339 Y-27.566 Z14.400 
N276 X-162.352 Y-27.326 Z14.143 
N277 X-162.364 Y-27.087 Z13.886 
N278 X-162.376 Y-26.847 Z13.629 
N279 X-162.388 Y-26.607 Z13.372 
N280 X-162.399 Y-26.368 Z13.115 
N281 X-162.410 Y-26.128 Z12.858 
N282 X-162.421 Y-25.888 Z12.601 
N283 X-162.432 Y-25.649 Z12.344 
N284 X-162.443 Y-25.409 Z12.087 
N285 X-162.453 Y-25.169 Z11.830 
N286 X-162.464 Y-24.929 Z11.573 
N287 X-162.474 Y-24.690 Z11.316 
N288 X-162.484 Y-24.450 Z11.059 
N289 X-162.493 Y-24.210 Z10.802 
N290 X-162.503 Y-23.971 Z10.545 
N291 X-162.512 Y-23.731 Z10.288 
N292 X-162.521 Y-23.491 Z10.030 
N293 X-162.530 Y-23.251 Z9.773 
N294 X-162.539 Y-23.012 Z9.516 
N295 X-162.547 Y-22.772 Z9.259 
N296 X-162.555 Y-22.532 Z9.002 
N297 X-162.563 Y-22.292 Z8.745 
N298 X-162.571 Y-22.053 Z8.488 
N299 X-162.579 Y-21.813 Z8.231 
N300 X-162.586 Y-21.573 Z7.974 
N301 X-162.594 Y-21.333 Z7.717 
N302 X-162.601 Y-21.094 Z7.459 
N303 X-162.608 Y-20.854 Z7.202 
N304 X-162.614 Y-20.614 Z6.945 
N305 X-162.621 Y-20.374 Z6.688 
N306 X-162.627 Y-20.135 Z6.431 
N307 X-162.633 Y-19.895 Z6.174 
N308 X-162.639 Y-19.655 Z5.917 
N309 X-162.644 Y-19.415 Z5.660 
N310 X-162.650 Y-19.175 Z5.402 
N311 X-162.655 Y-18.936 Z5.145 
N312 X-162.660 Y-18.696 Z4.888 
N313 X-162.665 Y-18.456 Z4.631 
N314 X-162.669 Y-18.216 Z4.374 
N315 X-162.674 Y-17.977 Z4.117 
N316 X-162.678 Y-17.737 Z3.860 
N317 X-162.682 Y-17.497 Z3.602 
N318 X-162.686 Y-17.257 Z3.345 
N319 X-162.689 Y-17.017 Z3.088 
N320 X-162.692 Y-16.778 Z2.831 
N321 X-162.696 Y-16.538 Z2.574 
N322 X-162.699 Y-16.298 Z2.317 
N323 X-162.701 Y-16.058 Z2.060 
N324 X-162.704 Y-15.818 Z1.802 
N325 X-162.706 Y-15.579 Z1.545 
N326 X-162.708 Y-15.339 Z1.288 
N327 X-162.710 Y-15.099 Z1.031 
N328 X-162.712 Y-14.859 Z0.774 
N329 X-162.714 Y-14.619 Z0.517 
N330 X-162.715 Y-14.380 Z0.259 
N331 X-162.716 Y-14.140 Z0.002 
N332 X-162.717 Y-13.900 Z-0.255 
N333 X-162.718 Y-13.660 Z-0.512 
N334 X-162.718 Y-13.420 Z-0.769 
N335 X-162.719 Y-13.180 Z-1.026 
N336 X-162.719 Y-12.941 Z-1.284 
N337 X-162.719 Y-12.701 Z-1.541 
N338 X-162.718 Y-12.461 Z-1.798 
N339 X-162.718 Y-12.221 Z-2.055 
N340 X-162.717 Y-11.981 Z-2.312 
N341 X-162.716 Y-11.742 Z-2.569 
N342 X-162.715 Y-11.502 Z-2.826 
N343 X-162.714 Y-11.262 Z-3.084 
N344 X-162.712 Y-11.022 Z-3.341 
N345 X-162.710 Y-10.782 Z-3.598 
N346 X-162.708 Y-10.543 Z-3.855 
N347 X-162.706 Y-10.303 Z-4.112 
N348 X-162.704 Y-10.063 Z-4.369 
N349 X-162.701 Y-9.823 Z-4.627 
N350 X-162.699 Y-9.583 Z-4.884 
N351 X-162.696 Y-9.344 Z-5.141 
N352 X-162.693 Y-9.104 Z-5.398 
N353 X-162.689 Y-8.864 Z-5.655 
N354 X-162.686 Y-8.624 Z-5.912 
N355 X-162.682 Y-8.384 Z-6.170 
N356 X-162.679 Y-8.143 Z-6.429 
N357 X-162.675 Y-7.902 Z-6.687 
N358 X-162.672 Y-7.661 Z-6.945 
N359 X-162.668 Y-7.421 Z-7.203 
N360 X-162.664 Y-7.180 Z-7.461 
N361 X-162.661 Y-6.939 Z-7.719 
N362 X-162.657 Y-6.699 Z-7.977 
N363 X-162.654 Y-6.458 Z-8.235 
N364 X-162.650 Y-6.217 Z-8.493 
N365 X-162.647 Y-5.977 Z-8.752 
N366 X-162.643 Y-5.736 Z-9.010 
N367 X-162.640 Y-5.495 Z-9.268 
N368 X-162.636 Y-5.255 Z-9.526 
N369 X-162.632 Y-5.014 Z-9.784 
N370 X-162.629 Y-4.773 Z-10.042 
N371 X-162.625 Y-4.532 Z-10.300 
N372 G40 X-162.525 Y2.287 Z-17.613 F705
N373 X-162.525 Y2.287 Z-17.613 
N374 G00 X-162.524 Y-34.269 Z-51.726 
RAPORT("TA333333","Side Milling:133 End")
;trailer : concat=None
; points cnt = 325
N376 M9 ; chlodziwo wyl.
N377 MSG (" --- KONIEC PODPROGRAMU --- ")
N378 FGROUP()
N379 TRAFOOF
N380 STOPRE
N381 G0 G53 D0 Z550.0 M9 M5
N382 G0 G53 Y150 A0 B0
N383 M17
