; PROGRAM NAME: A33333334
; ORDER       : A333333
; OPER. NAME  : Spiral Finish Airfoil:148
; OPER. DESCR.: Spiral Finishing Airfoil/pioro wk
; OPER. TYPE  : finAirfoil
; GEO. OPTION : 5
; MACHINE     : HSTM_300_SIM840D_Py
;             : HSTM300/500 - HAMUEL: 5-axis milling machine-SIM840D Traori PP_Script
; CONTROL     : SINUMERIK 840D
; created:   2021-09-10 08:56:40.566652
;----------------------------------------
RAPORT("TA333333","Spiral Finish Airfoil:148")
N10 TRAFOOF
N11 D0
N12 G90 G94
N13 G0 G53 D0 Z550
N14 STOPRE
M9 ; chlodziwo wyl
; --- Spiral Finish Airfoil:148 - Spiral Finishing Airfoil/pioro wk ---
N16 ;ToolChange : concat=None ,current_tdmid=None, PP.tdmId=941355
N17 TRAFOOF
N18 G0 G53 D0 X-200 Y150 Z550 B0
N19 T="7741355"
RAPORT("TA333333","ToolChangeStart 7741355")
N20 M6
RAPORT("TA333333","ToolChangeEnd")
N21 STOPRE
N22 MSG(" TLID=941355 D=16.0 R=4.0 Ang=0.0 Len=130.0 ")
N23 S4774 M03
N24 STOPRE
N25 TOL(0.01,1,1)
N26 G0 G53 A118.6923 B-1.2079
N27 TRAORI
N28 G54 D1
N29 D1 
N30 TRANS  A=R25
STOPRE
E_ZDARZ=300001
;ACS_FINISH_AIRFOIL=7741355
STOPRE
N31 ; DELTA A > 40.1
N32 TRAFOOF
N33 D1
N34 STOPRE
N35 G00 G54 Z256.000
N36 G01 A118.6923 F10000
N37 TRAORI
N38 G54 D1
N39 STOPRE
N40 TRANS  A=R25
N41 G00 X-334.872 Y-80.260 Z-29.459 A118.6923 B-1.2079 
N42 M342 ; chlodziwo woda
N43 X-333.818 Y-36.410 Z-5.459 
N44 G01 X-333.848 Y-34.735 Z-2.817 F2291 
N45 X-333.936 Y-33.958 Z0.213 
N46 X-334.072 Y-34.154 Z3.332 
N47 X-334.244 Y-35.305 Z6.237 
N48 X-334.434 Y-37.297 Z8.641 
N49 X-334.500 Y-37.482 Z8.645 A117.0896 B-0.9288 
N50 X-334.598 Y-37.749 Z8.637 A114.5828 B-0.5079 
N51 X-334.722 Y-38.052 Z8.634 A111.6753 B0.0298 
N52 X-334.860 Y-38.357 Z8.646 A108.7521 B0.6351 
N53 X-335.002 Y-38.659 Z8.673 A105.8636 B1.2563 
N54 X-335.137 Y-38.955 Z8.715 A103.0396 B1.8469 
N55 X-335.261 Y-39.239 Z8.772 A100.3040 B2.3935 
N56 X-335.371 Y-39.511 Z8.840 A97.6714 B2.8799 
N57 X-335.469 Y-39.768 Z8.918 A95.1473 B3.3154 
N58 X-335.559 Y-40.011 Z9.005 A92.7297 B3.7137 
N59 X-335.637 Y-40.240 Z9.098 A90.4108 B4.0625 
N60 X-335.709 Y-40.455 Z9.197 A88.1835 B4.3851 
N61 X-335.775 Y-40.658 Z9.301 A86.0371 B4.6818 
N62 X-335.837 Y-40.851 Z9.410 A83.9615 B4.9613 
N63 X-335.896 Y-41.033 Z9.523 A81.9462 B5.2253 
N64 X-335.952 Y-41.207 Z9.640 A79.9823 B5.4785 
N65 X-336.005 Y-41.372 Z9.762 A78.0610 B5.7208 
N66 X-336.056 Y-41.530 Z9.887 A76.1754 B5.9554 
N67 X-336.106 Y-41.680 Z10.016 A74.3190 B6.1815 
N68 X-336.154 Y-41.824 Z10.149 A72.4866 B6.4013 
N69 X-336.199 Y-41.962 Z10.286 A70.6722 B6.6104 
N70 X-336.243 Y-42.093 Z10.425 A68.8722 B6.8109 
N71 X-336.283 Y-42.218 Z10.568 A67.0822 B7.0002 
N72 X-336.322 Y-42.338 Z10.715 A65.3003 B7.1826 
N73 X-336.359 Y-42.452 Z10.863 A63.5228 B7.3539 
N74 X-336.394 Y-42.561 Z11.016 A61.7485 B7.5187 
N75 X-336.426 Y-42.664 Z11.170 A59.9746 B7.6742 
N76 X-336.457 Y-42.761 Z11.328 A58.1996 B7.8218 
N77 X-336.486 Y-42.854 Z11.488 A56.4218 B7.9625 
N78 X-336.513 Y-42.941 Z11.651 A54.6395 B8.0946 
N79 X-336.538 Y-43.022 Z11.816 A52.8517 B8.2196 
N80 X-336.562 Y-43.098 Z11.984 A51.0575 B8.3376 
N81 X-336.583 Y-43.169 Z12.153 A49.2558 B8.4479 
N82 X-336.603 Y-43.235 Z12.325 A47.4460 B8.5510 
N83 X-336.622 Y-43.295 Z12.498 A45.6276 B8.6466 
N84 X-336.638 Y-43.349 Z12.673 A43.8001 B8.7343 
N85 X-336.652 Y-43.399 Z12.849 A41.9632 B8.8143 
N86 X-336.665 Y-43.442 Z13.027 A40.1169 B8.8864 
N87 X-336.676 Y-43.481 Z13.206 A38.2611 B8.9505 
N88 X-336.685 Y-43.513 Z13.385 A36.3958 B9.0065 
N89 X-336.692 Y-43.541 Z13.565 A34.5212 B9.0543 
N90 X-336.697 Y-43.563 Z13.745 A32.6373 B9.0939 
N91 X-336.700 Y-43.580 Z13.926 A30.7443 B9.1252 
N92 X-336.701 Y-43.591 Z14.107 A28.8424 B9.1484 
N93 X-336.701 Y-43.597 Z14.287 A26.9317 B9.1634 
N94 X-336.698 Y-43.598 Z14.468 A25.0120 B9.1705 
N95 X-336.694 Y-43.593 Z14.648 A23.0833 B9.1697 
N96 X-336.688 Y-43.584 Z14.827 A21.1453 B9.1611 
N97 X-336.681 Y-43.569 Z15.007 A19.1973 B9.1449 
N98 X-336.672 Y-43.549 Z15.185 A17.2382 B9.1206 
N99 X-336.661 Y-43.523 Z15.363 A15.2668 B9.0879 
N100 X-336.648 Y-43.493 Z15.541 A13.2815 B9.0471 
N101 X-336.633 Y-43.457 Z15.718 A11.2802 B8.9976 
N102 X-336.616 Y-43.416 Z15.895 A9.2604 B8.9391 
N103 X-336.598 Y-43.370 Z16.071 A7.2196 B8.8716 
N104 X-336.577 Y-43.318 Z16.248 A5.1538 B8.7938 
N105 X-336.554 Y-43.261 Z16.424 A3.0594 B8.7055 
N106 X-336.528 Y-43.198 Z16.600 A0.9317 B8.6057 
N107 X-336.500 Y-43.128 Z16.777 A358.7657 B8.4947 
N108 X-336.470 Y-43.051 Z16.955 A356.5576 B8.3764 
N109 X-336.438 Y-42.967 Z17.134 A354.2998 B8.2487 
N110 X-336.404 Y-42.874 Z17.315 A351.9842 B8.1108 
N111 X-336.367 Y-42.772 Z17.497 A349.6007 B7.9586 
N112 X-336.326 Y-42.661 Z17.681 A347.1410 B7.7915 
N113 X-336.279 Y-42.538 Z17.867 A344.5927 B7.6012 
N114 X-336.226 Y-42.405 Z18.054 A341.9469 B7.3814 
N115 X-336.163 Y-42.260 Z18.244 A339.1986 B7.1260 
N116 X-336.090 Y-42.102 Z18.434 A336.3448 B6.8232 
N117 X-336.004 Y-41.931 Z18.623 A333.3928 B6.4700 
N118 X-335.906 Y-41.745 Z18.810 A330.3636 B6.0663 
N119 X-335.796 Y-41.546 Z18.990 A327.2928 B5.6168 
N120 X-335.676 Y-41.334 Z19.160 A324.2244 B5.1278 
N121 X-335.552 Y-41.113 Z19.314 A321.2541 B4.6226 
N122 X-335.439 Y-40.901 Z19.437 A318.6323 B4.1663 
N123 X-335.347 Y-40.708 Z19.526 A316.4736 B3.8083 
N124 X-335.282 Y-40.538 Z19.580 A314.8244 B3.5660 
N125 X-335.238 Y-40.395 Z19.603 A313.6634 B3.4227 
N126 X-335.209 Y-40.274 Z19.600 A312.9294 B3.3523 
N127 X-335.189 Y-40.169 Z19.573 A312.5523 B3.3300 
N128 X-335.173 Y-40.062 Z19.531 A312.3286 B3.3372 
N129 X-335.156 Y-39.950 Z19.476 A312.2276 B3.3493 
N130 X-335.136 Y-39.825 Z19.410 A312.1781 B3.3681 
N131 X-335.113 Y-39.685 Z19.332 A312.1705 B3.3880 
N132 X-335.085 Y-39.530 Z19.243 A312.1976 B3.4057 
N133 X-335.053 Y-39.357 Z19.142 A312.2549 B3.4234 
N134 X-335.018 Y-39.167 Z19.029 A312.3400 B3.4462 
N135 X-334.979 Y-38.959 Z18.906 A312.4495 B3.4690 
N136 X-334.937 Y-38.735 Z18.773 A312.5819 B3.4938 
N137 X-334.892 Y-38.494 Z18.629 A312.7361 B3.5260 
N138 X-334.843 Y-38.239 Z18.478 A312.9091 B3.5570 
N139 X-334.791 Y-37.970 Z18.319 A313.0996 B3.5879 
N140 X-334.736 Y-37.689 Z18.153 A313.3073 B3.6245 
N141 X-334.679 Y-37.397 Z17.983 A313.5308 B3.6629 
N142 X-334.619 Y-37.097 Z17.808 A313.7689 B3.7003 
N143 X-334.557 Y-36.790 Z17.630 A314.0216 B3.7397 
N144 X-334.494 Y-36.477 Z17.450 A314.2889 B3.7823 
N145 X-334.430 Y-36.160 Z17.269 A314.5704 B3.8280 
N146 X-334.364 Y-35.840 Z17.087 A314.8657 B3.8757 
N147 X-334.297 Y-35.518 Z16.905 A315.1740 B3.9238 
N148 X-334.230 Y-35.195 Z16.724 A315.4950 B3.9743 
N149 X-334.162 Y-34.872 Z16.545 A315.8282 B4.0286 
N150 X-334.093 Y-34.549 Z16.366 A316.1724 B4.0840 
N151 X-334.024 Y-34.227 Z16.190 A316.5264 B4.1388 
N152 X-333.953 Y-33.905 Z16.016 A316.8898 B4.1950 
N153 X-333.883 Y-33.584 Z15.844 A317.2619 B4.2524 
N154 X-333.811 Y-33.264 Z15.675 A317.6419 B4.3102 
N155 X-333.739 Y-32.945 Z15.508 A318.0294 B4.3681 
N156 X-333.666 Y-32.628 Z15.344 A318.4242 B4.4265 
N157 X-333.592 Y-32.312 Z15.182 A318.8263 B4.4855 
N158 X-333.518 Y-31.997 Z15.022 A319.2355 B4.5451 
N159 X-333.444 Y-31.683 Z14.865 A319.6519 B4.6052 
N160 X-333.368 Y-31.370 Z14.711 A320.0756 B4.6660 
N161 X-333.292 Y-31.059 Z14.560 A320.5067 B4.7274 
N162 X-333.216 Y-30.749 Z14.411 A320.9451 B4.7895 
N163 X-333.139 Y-30.441 Z14.264 A321.3910 B4.8522 
N164 X-333.061 Y-30.134 Z14.120 A321.8445 B4.9156 
N165 X-332.983 Y-29.828 Z13.979 A322.3057 B4.9796 
N166 X-332.904 Y-29.523 Z13.841 A322.7745 B5.0443 
N167 X-332.824 Y-29.220 Z13.705 A323.2511 B5.1096 
N168 X-332.744 Y-28.918 Z13.572 A323.7354 B5.1754 
N169 X-332.663 Y-28.617 Z13.441 A324.2274 B5.2418 
N170 X-332.582 Y-28.318 Z13.313 A324.7271 B5.3088 
N171 X-332.500 Y-28.020 Z13.188 A325.2345 B5.3763 
N172 X-332.417 Y-27.723 Z13.065 A325.7495 B5.4442 
N173 X-332.334 Y-27.428 Z12.945 A326.2721 B5.5125 
N174 X-332.250 Y-27.134 Z12.828 A326.8021 B5.5812 
N175 X-332.165 Y-26.841 Z12.714 A327.3395 B5.6503 
N176 X-332.080 Y-26.549 Z12.602 A327.8841 B5.7196 
N177 X-331.994 Y-26.259 Z12.493 A328.4359 B5.7891 
N178 X-331.907 Y-25.969 Z12.387 A328.9947 B5.8588 
N179 X-331.819 Y-25.681 Z12.283 A329.5604 B5.9288 
N180 X-331.731 Y-25.394 Z12.182 A330.1327 B5.9988 
N181 X-331.641 Y-25.108 Z12.084 A330.7116 B6.0688 
N182 X-331.551 Y-24.822 Z11.989 A331.2968 B6.1388 
N183 X-331.460 Y-24.538 Z11.896 A331.8882 B6.2089 
N184 X-331.369 Y-24.255 Z11.806 A332.4855 B6.2788 
N185 X-331.276 Y-23.972 Z11.719 A333.0885 B6.3485 
N186 X-331.182 Y-23.690 Z11.635 A333.6969 B6.4181 
N187 X-331.088 Y-23.408 Z11.553 A334.3106 B6.4874 
N188 X-330.992 Y-23.128 Z11.475 A334.9292 B6.5564 
N189 X-330.896 Y-22.848 Z11.399 A335.5524 B6.6250 
N190 X-330.798 Y-22.568 Z11.326 A336.1799 B6.6931 
N191 X-330.700 Y-22.289 Z11.255 A336.8114 B6.7608 
N192 X-330.600 Y-22.010 Z11.188 A337.4467 B6.8281 
N193 X-330.499 Y-21.731 Z11.124 A338.0853 B6.8947 
N194 X-330.397 Y-21.452 Z11.062 A338.7269 B6.9607 
N195 X-330.294 Y-21.174 Z11.003 A339.3711 B7.0259 
N196 X-330.189 Y-20.896 Z10.948 A340.0175 B7.0905 
N197 X-330.084 Y-20.617 Z10.895 A340.6658 B7.1543 
N198 X-329.977 Y-20.339 Z10.845 A341.3155 B7.2173 
N199 X-329.869 Y-20.060 Z10.799 A341.9662 B7.2793 
N200 X-329.759 Y-19.781 Z10.755 A342.6174 B7.3404 
N201 X-329.648 Y-19.502 Z10.715 A343.2687 B7.4006 
N202 X-329.536 Y-19.222 Z10.678 A343.9196 B7.4598 
N203 X-329.422 Y-18.941 Z10.644 A344.5697 B7.5180 
N204 X-329.306 Y-18.660 Z10.613 A345.2185 B7.5750 
N205 X-329.189 Y-18.378 Z10.586 A345.8654 B7.6309 
N206 X-329.071 Y-18.096 Z10.562 A346.5099 B7.6857 
N207 X-328.951 Y-17.812 Z10.542 A347.1516 B7.7393 
N208 X-328.829 Y-17.528 Z10.524 A347.7898 B7.7916 
N209 X-328.706 Y-17.242 Z10.511 A348.4241 B7.8427 
N210 X-328.580 Y-16.955 Z10.501 A349.0538 B7.8926 
N211 X-328.453 Y-16.668 Z10.495 A349.6784 B7.9412 
N212 X-328.325 Y-16.378 Z10.492 A350.2973 B7.9884 
N213 X-328.194 Y-16.088 Z10.493 A350.9100 B8.0342 
N214 X-328.062 Y-15.795 Z10.498 A351.5159 B8.0787 
N215 X-327.927 Y-15.502 Z10.507 A352.1145 B8.1218 
N216 X-327.791 Y-15.206 Z10.520 A352.7052 B8.1636 
N217 X-327.653 Y-14.909 Z10.536 A353.2876 B8.2039 
N218 X-327.512 Y-14.611 Z10.557 A353.8611 B8.2428 
N219 X-327.370 Y-14.310 Z10.582 A354.4253 B8.2802 
N220 X-327.226 Y-14.008 Z10.611 A354.9800 B8.3164 
N221 X-327.079 Y-13.703 Z10.644 A355.5248 B8.3512 
N222 X-326.931 Y-13.396 Z10.681 A356.0593 B8.3848 
N223 X-326.780 Y-13.088 Z10.723 A356.5832 B8.4171 
N224 X-326.627 Y-12.776 Z10.768 A357.0962 B8.4482 
N225 X-326.472 Y-12.463 Z10.818 A357.5978 B8.4782 
N226 X-326.314 Y-12.147 Z10.873 A358.0874 B8.5073 
N227 X-326.155 Y-11.828 Z10.932 A358.5641 B8.5352 
N228 X-325.992 Y-11.506 Z10.996 A359.0269 B8.5621 
N229 X-325.827 Y-11.181 Z11.065 A359.4744 B8.5878 
N230 X-325.660 Y-10.853 Z11.139 A359.9053 B8.6124 
N231 X-325.490 Y-10.521 Z11.219 A0.3176 B8.6356 
N232 X-325.317 Y-10.185 Z11.303 A0.7097 B8.6576 
N233 X-325.141 Y-9.846 Z11.394 A1.0795 B8.6778 
N234 X-324.962 Y-9.503 Z11.490 A1.4253 B8.6963 
N235 X-324.779 Y-9.156 Z11.591 A1.7455 B8.7131 
N236 X-324.594 Y-8.805 Z11.699 A2.0388 B8.7280 
N237 X-324.406 Y-8.449 Z11.811 A2.3045 B8.7412 
N238 X-324.215 Y-8.090 Z11.930 A2.5418 B8.7526 
N239 X-324.022 Y-7.726 Z12.053 A2.7506 B8.7622 
N240 X-323.825 Y-7.359 Z12.182 A2.9312 B8.7702 
N241 X-323.627 Y-6.989 Z12.315 A3.0840 B8.7769 
N242 X-323.426 Y-6.615 Z12.452 A3.2094 B8.7822 
N243 X-323.224 Y-6.238 Z12.593 A3.3078 B8.7863 
N244 X-323.021 Y-5.860 Z12.737 A3.3798 B8.7893 
N245 X-322.817 Y-5.479 Z12.885 A3.4257 B8.7915 
N246 X-322.612 Y-5.098 Z13.035 A3.4455 B8.7927 
N247 X-322.407 Y-4.717 Z13.187 A3.4388 B8.7922 
N248 X-322.202 Y-4.336 Z13.341 A3.4056 B8.7905 
N249 X-321.998 Y-3.956 Z13.496 A3.3463 B8.7890 
N250 X-321.796 Y-3.578 Z13.652 A3.2600 B8.7875 
N251 X-321.594 Y-3.203 Z13.809 A3.1438 B8.7809 
N252 X-321.395 Y-2.831 Z13.965 A2.9982 B8.7731 
N253 X-321.199 Y-2.462 Z14.122 A2.8246 B8.7691 
N254 X-321.005 Y-2.097 Z14.278 A2.6183 B8.7618 
N255 X-320.814 Y-1.738 Z14.433 A2.3767 B8.7491 
N256 X-320.626 Y-1.384 Z14.587 A2.1006 B8.7356 
N257 X-320.443 Y-1.035 Z14.740 A1.7895 B8.7233 
N258 X-320.263 Y-0.692 Z14.891 A1.4403 B8.7083 
N259 X-320.087 Y-0.356 Z15.041 A1.0516 B8.6898 
N260 X-319.915 Y-0.026 Z15.188 A0.6221 B8.6664 
N261 X-319.747 Y0.297 Z15.333 A0.1529 B8.6410 
N262 X-319.585 Y0.614 Z15.476 A359.6459 B8.6178 
N263 X-319.428 Y0.924 Z15.616 A359.0980 B8.5898 
N264 X-319.273 Y1.226 Z15.753 A358.5071 B8.5516 
N265 X-319.125 Y1.522 Z15.888 A357.8804 B8.5184 
N266 X-318.982 Y1.810 Z16.020 A357.2149 B8.4837 
N267 X-318.842 Y2.091 Z16.148 A356.5058 B8.4368 
N268 X-318.708 Y2.364 Z16.273 A355.7598 B8.3927 
N269 X-318.579 Y2.630 Z16.396 A354.9747 B8.3465 
N270 X-318.454 Y2.888 Z16.516 A354.1471 B8.2896 
N271 X-318.334 Y3.139 Z16.632 A353.2818 B8.2301 
N272 X-318.220 Y3.382 Z16.746 A352.3810 B8.1712 
N273 X-318.109 Y3.618 Z16.856 A351.4410 B8.1040 
N274 X-318.004 Y3.847 Z16.965 A350.4637 B8.0346 
N275 X-317.903 Y4.069 Z17.071 A349.4479 B7.9647 
N276 X-317.807 Y4.283 Z17.175 A348.3875 B7.8855 
N277 X-317.714 Y4.491 Z17.278 A347.2816 B7.8003 
N278 X-317.623 Y4.693 Z17.379 A346.1276 B7.7047 
N279 X-317.536 Y4.888 Z17.479 A344.9277 B7.6024 
N280 X-317.451 Y5.078 Z17.577 A343.6817 B7.4871 
N281 X-317.370 Y5.262 Z17.674 A342.3958 B7.3674 
N282 X-317.292 Y5.442 Z17.770 A341.0726 B7.2424 
N283 X-317.215 Y5.617 Z17.865 A339.7123 B7.1070 
N284 X-317.142 Y5.789 Z17.958 A338.3196 B6.9708 
N285 X-317.071 Y5.957 Z18.051 A336.8920 B6.8271 
N286 X-317.000 Y6.122 Z18.142 A335.4272 B6.6696 
N287 X-316.931 Y6.284 Z18.233 A333.9270 B6.5040 
N288 X-316.862 Y6.445 Z18.323 A332.3928 B6.3328 
N289 X-316.794 Y6.604 Z18.412 A330.8227 B6.1470 
N290 X-316.724 Y6.762 Z18.501 A329.2194 B5.9465 
N291 X-316.653 Y6.920 Z18.588 A327.5872 B5.7342 
N292 X-316.583 Y7.078 Z18.674 A325.9309 B5.5126 
N293 X-316.512 Y7.236 Z18.757 A324.2555 B5.2831 
N294 X-316.441 Y7.394 Z18.839 A322.5657 B5.0454 
N295 X-316.370 Y7.553 Z18.917 A320.8660 B4.8003 
N296 X-316.299 Y7.713 Z18.993 A319.1607 B4.5490 
N297 X-316.227 Y7.873 Z19.066 A317.4536 B4.2922 
N298 X-316.156 Y8.034 Z19.134 A315.7478 B4.0304 
N299 X-316.085 Y8.196 Z19.199 A314.0457 B3.7640 
N300 X-316.013 Y8.359 Z19.260 A312.3492 B3.4939 
N301 X-315.942 Y8.523 Z19.317 A310.6598 B3.2227 
N302 X-315.872 Y8.688 Z19.369 A308.9782 B2.9502 
N303 X-315.801 Y8.853 Z19.417 A307.3045 B2.6763 
N304 X-315.731 Y9.020 Z19.460 A305.6384 B2.4004 
N305 X-315.662 Y9.188 Z19.499 A303.9793 B2.1220 
N306 X-315.591 Y9.356 Z19.533 A302.3267 B1.8409 
N307 X-315.521 Y9.526 Z19.562 A300.6797 B1.5564 
N308 X-315.450 Y9.697 Z19.586 A299.0372 B1.2681 
N309 X-315.379 Y9.869 Z19.605 A297.3985 B0.9766 
N310 X-315.309 Y10.042 Z19.618 A295.7627 B0.6860 
N311 X-315.240 Y10.217 Z19.626 A294.1286 B0.3963 
N312 X-315.171 Y10.392 Z19.629 A292.4952 B0.1069 
N313 X-315.102 Y10.569 Z19.626 A290.8613 B-0.1829 
N314 X-315.034 Y10.747 Z19.617 A289.2263 B-0.4737 
N315 X-314.965 Y10.925 Z19.602 A287.5895 B-0.7661 
N316 X-314.897 Y11.105 Z19.581 A285.9506 B-1.0610 
N317 X-314.828 Y11.286 Z19.553 A284.3097 B-1.3590 
N318 X-314.759 Y11.467 Z19.519 A282.6672 B-1.6611 
N319 X-314.691 Y11.648 Z19.477 A281.0238 B-1.9646 
N320 X-314.624 Y11.830 Z19.428 A279.3802 B-2.2640 
N321 X-314.559 Y12.011 Z19.371 A277.7379 B-2.5595 
N322 X-314.495 Y12.192 Z19.307 A276.0992 B-2.8514 
N323 X-314.433 Y12.371 Z19.235 A274.4668 B-3.1395 
N324 X-314.374 Y12.548 Z19.155 A272.8441 B-3.4239 
N325 X-314.316 Y12.722 Z19.067 A271.2351 B-3.7042 
N326 X-314.261 Y12.894 Z18.971 A269.6443 B-3.9798 
N327 X-314.209 Y13.061 Z18.867 A268.0761 B-4.2486 
N328 X-314.160 Y13.224 Z18.754 A266.5348 B-4.5077 
N329 X-314.117 Y13.382 Z18.634 A265.0246 B-4.7551 
N330 X-314.079 Y13.534 Z18.507 A263.5489 B-4.9881 
N331 X-314.047 Y13.679 Z18.372 A262.1094 B-5.2031 
N332 X-314.022 Y13.818 Z18.231 A260.7076 B-5.3998 
N333 X-314.001 Y13.951 Z18.081 A259.3469 B-5.5904 
N334 X-313.985 Y14.077 Z17.925 A258.0254 B-5.7724 
N335 X-313.975 Y14.196 Z17.760 A256.7394 B-5.9396 
N336 X-313.972 Y14.310 Z17.589 A255.4866 B-6.0928 
N337 X-313.972 Y14.416 Z17.408 A254.2696 B-6.2475 
N338 X-313.977 Y14.517 Z17.219 A253.0849 B-6.3964 
N339 X-313.988 Y14.610 Z17.023 A251.9310 B-6.5355 
N340 X-314.004 Y14.697 Z16.817 A250.8120 B-6.6736 
N341 X-314.026 Y14.776 Z16.604 A249.7258 B-6.8003 
N342 X-314.055 Y14.847 Z16.383 A248.6744 B-6.9181 
N343 X-314.090 Y14.912 Z16.155 A247.6576 B-7.0266 
N344 X-314.132 Y14.968 Z15.920 A246.6736 B-7.1254 
N345 X-314.180 Y15.018 Z15.678 A245.7208 B-7.2184 
N346 X-314.235 Y15.060 Z15.428 A244.7944 B-7.3027 
N347 X-314.293 Y15.096 Z15.170 A243.8957 B-7.3913 
N348 X-314.357 Y15.125 Z14.906 A243.0175 B-7.4725 
N349 X-314.426 Y15.146 Z14.634 A242.1603 B-7.5516 
N350 X-314.500 Y15.161 Z14.356 A241.3245 B-7.6305 
N351 X-314.578 Y15.169 Z14.072 A240.5085 B-7.7057 
N352 X-314.663 Y15.170 Z13.783 A239.7098 B-7.7712 
N353 X-314.752 Y15.164 Z13.488 A238.9311 B-7.8353 
N354 X-314.845 Y15.151 Z13.189 A238.1733 B-7.9021 
N355 X-314.944 Y15.132 Z12.886 A237.4296 B-7.9583 
N356 X-315.047 Y15.107 Z12.579 A236.7019 B-8.0114 
N357 X-315.152 Y15.075 Z12.268 A235.9921 B-8.0686 
N358 X-315.261 Y15.037 Z11.955 A235.2960 B-8.1221 
N359 X-315.375 Y14.994 Z11.639 A234.6109 B-8.1684 
N360 X-315.492 Y14.944 Z11.321 A233.9381 B-8.2129 
N361 X-315.611 Y14.889 Z11.001 A233.2779 B-8.2595 
N362 X-315.732 Y14.829 Z10.679 A232.6274 B-8.3040 
N363 X-315.857 Y14.764 Z10.357 A231.9844 B-8.3452 
N364 X-315.984 Y14.694 Z10.033 A231.3476 B-8.3841 
N365 X-316.114 Y14.620 Z9.710 A230.7156 B-8.4212 
N366 X-316.245 Y14.542 Z9.385 A230.0871 B-8.4577 
N367 X-316.377 Y14.459 Z9.060 A229.4613 B-8.4955 
N368 X-316.510 Y14.372 Z8.736 A228.8362 B-8.5332 
N369 X-316.645 Y14.281 Z8.411 A228.2095 B-8.5688 
N370 X-316.782 Y14.187 Z8.088 A227.5794 B-8.6004 
N371 X-316.919 Y14.090 Z7.765 A226.9475 B-8.6333 
N372 X-317.056 Y13.988 Z7.443 A226.3135 B-8.6679 
N373 X-317.195 Y13.884 Z7.122 A225.6760 B-8.7020 
N374 X-317.334 Y13.776 Z6.802 A225.0339 B-8.7339 
N375 X-317.474 Y13.665 Z6.485 A224.3867 B-8.7630 
N376 X-317.614 Y13.551 Z6.169 A223.7356 B-8.7924 
N377 X-317.755 Y13.434 Z5.855 A223.0801 B-8.8217 
N378 X-317.896 Y13.314 Z5.543 A222.4195 B-8.8501 
N379 X-318.037 Y13.191 Z5.233 A221.7531 B-8.8774 
N380 X-318.178 Y13.065 Z4.925 A221.0803 B-8.9035 
N381 X-318.319 Y12.937 Z4.620 A220.4007 B-8.9288 
N382 X-318.460 Y12.806 Z4.317 A219.7137 B-8.9535 
N383 X-318.601 Y12.673 Z4.016 A219.0185 B-8.9774 
N384 X-318.742 Y12.537 Z3.718 A218.3146 B-9.0005 
N385 X-318.882 Y12.399 Z3.422 A217.6015 B-9.0228 
N386 X-319.022 Y12.258 Z3.129 A216.8786 B-9.0442 
N387 X-319.162 Y12.115 Z2.839 A216.1457 B-9.0646 
N388 X-319.302 Y11.970 Z2.551 A215.4024 B-9.0842 
N389 X-319.441 Y11.823 Z2.267 A214.6487 B-9.1028 
N390 X-319.579 Y11.673 Z1.985 A213.8843 B-9.1203 
N391 X-319.718 Y11.521 Z1.706 A213.1091 B-9.1366 
N392 X-319.855 Y11.367 Z1.430 A212.3231 B-9.1517 
N393 X-319.992 Y11.211 Z1.157 A211.5265 B-9.1656 
N394 X-320.129 Y11.053 Z0.887 A210.7192 B-9.1784 
N395 X-320.265 Y10.892 Z0.620 A209.9013 B-9.1898 
N396 X-320.401 Y10.729 Z0.356 A209.0728 B-9.1997 
N397 X-320.536 Y10.564 Z0.096 A208.2338 B-9.2081 
N398 X-320.670 Y10.397 Z-0.162 A207.3844 B-9.2149 
N399 X-320.804 Y10.228 Z-0.416 A206.5249 B-9.2203 
N400 X-320.938 Y10.056 Z-0.666 A205.6553 B-9.2243 
N401 X-321.071 Y9.883 Z-0.914 A204.7757 B-9.2264 
N402 X-321.203 Y9.707 Z-1.158 A203.8862 B-9.2267 
N403 X-321.335 Y9.529 Z-1.399 A202.9870 B-9.2252 
N404 X-321.466 Y9.349 Z-1.636 A202.0784 B-9.2219 
N405 X-321.597 Y9.167 Z-1.870 A201.1608 B-9.2168 
N406 X-321.727 Y8.982 Z-2.100 A200.2342 B-9.2099 
N407 X-321.857 Y8.796 Z-2.327 A199.2989 B-9.2009 
N408 X-321.986 Y8.607 Z-2.551 A198.3552 B-9.1897 
N409 X-322.115 Y8.416 Z-2.770 A197.4035 B-9.1764 
N410 X-322.243 Y8.222 Z-2.987 A196.4442 B-9.1611 
N411 X-322.371 Y8.027 Z-3.199 A195.4777 B-9.1438 
N412 X-322.498 Y7.829 Z-3.408 A194.5043 B-9.1243 
N413 X-322.625 Y7.629 Z-3.614 A193.5244 B-9.1025 
N414 X-322.752 Y7.427 Z-3.816 A192.5385 B-9.0783 
N415 X-322.878 Y7.222 Z-4.014 A191.5468 B-9.0518 
N416 X-323.003 Y7.015 Z-4.208 A190.5501 B-9.0231 
N417 X-323.129 Y6.806 Z-4.398 A189.5486 B-8.9921 
N418 X-323.254 Y6.595 Z-4.585 A188.5429 B-8.9589 
N419 X-323.378 Y6.381 Z-4.768 A187.5335 B-8.9232 
N420 X-323.502 Y6.165 Z-4.947 A186.5207 B-8.8851 
N421 X-323.626 Y5.947 Z-5.122 A185.5051 B-8.8446 
N422 X-323.750 Y5.726 Z-5.293 A184.4873 B-8.8017 
N423 X-323.873 Y5.503 Z-5.460 A183.4678 B-8.7565 
N424 X-323.996 Y5.278 Z-5.623 A182.4472 B-8.7089 
N425 X-324.119 Y5.050 Z-5.782 A181.4259 B-8.6590 
N426 X-324.241 Y4.820 Z-5.937 A180.4045 B-8.6069 
N427 X-324.363 Y4.588 Z-6.088 A179.3836 B-8.5524 
N428 X-324.485 Y4.353 Z-6.234 A178.3636 B-8.4956 
N429 X-324.607 Y4.115 Z-6.377 A177.3451 B-8.4366 
N430 X-324.728 Y3.876 Z-6.515 A176.3285 B-8.3753 
N431 X-324.849 Y3.634 Z-6.649 A175.3145 B-8.3119 
N432 X-324.970 Y3.389 Z-6.778 A174.3035 B-8.2465 
N433 X-325.090 Y3.142 Z-6.903 A173.2960 B-8.1791 
N434 X-325.211 Y2.893 Z-7.024 A172.2924 B-8.1096 
N435 X-325.331 Y2.641 Z-7.141 A171.2932 B-8.0380 
N436 X-325.451 Y2.387 Z-7.253 A170.2989 B-7.9643 
N437 X-325.570 Y2.130 Z-7.360 A169.3099 B-7.8890 
N438 X-325.689 Y1.871 Z-7.463 A168.3269 B-7.8121 
N439 X-325.808 Y1.610 Z-7.561 A167.3502 B-7.7335 
N440 X-325.927 Y1.346 Z-7.655 A166.3801 B-7.6532 
N441 X-326.046 Y1.080 Z-7.744 A165.4172 B-7.5712 
N442 X-326.164 Y0.811 Z-7.828 A164.4618 B-7.4876 
N443 X-326.282 Y0.540 Z-7.907 A163.5143 B-7.4027 
N444 X-326.399 Y0.266 Z-7.982 A162.5753 B-7.3168 
N445 X-326.516 Y-0.010 Z-8.051 A161.6450 B-7.2297 
N446 X-326.633 Y-0.288 Z-8.116 A160.7237 B-7.1414 
N447 X-326.750 Y-0.569 Z-8.176 A159.8117 B-7.0519 
N448 X-326.866 Y-0.852 Z-8.231 A158.9093 B-6.9612 
N449 X-326.982 Y-1.138 Z-8.281 A158.0169 B-6.8700 
N450 X-327.097 Y-1.426 Z-8.326 A157.1349 B-6.7781 
N451 X-327.212 Y-1.716 Z-8.366 A156.2633 B-6.6856 
N452 X-327.326 Y-2.008 Z-8.401 A155.4025 B-6.5923 
N453 X-327.440 Y-2.303 Z-8.431 A154.5526 B-6.4984 
N454 X-327.553 Y-2.600 Z-8.455 A153.7140 B-6.4041 
N455 X-327.666 Y-2.900 Z-8.474 A152.8870 B-6.3097 
N456 X-327.778 Y-3.201 Z-8.488 A152.0717 B-6.2152 
N457 X-327.890 Y-3.505 Z-8.497 A151.2683 B-6.1205 
N458 X-328.001 Y-3.811 Z-8.501 A150.4769 B-6.0257 
N459 X-328.111 Y-4.120 Z-8.499 A149.6977 B-5.9309 
N460 X-328.221 Y-4.430 Z-8.492 A148.9310 B-5.8364 
N461 X-328.330 Y-4.742 Z-8.479 A148.1767 B-5.7423 
N462 X-328.438 Y-5.057 Z-8.462 A147.4350 B-5.6485 
N463 X-328.546 Y-5.373 Z-8.439 A146.7059 B-5.5550 
N464 X-328.653 Y-5.692 Z-8.410 A145.9894 B-5.4621 
N465 X-328.759 Y-6.012 Z-8.376 A145.2856 B-5.3697 
N466 X-328.864 Y-6.335 Z-8.337 A144.5943 B-5.2781 
N467 X-328.968 Y-6.659 Z-8.293 A143.9156 B-5.1871 
N468 X-329.072 Y-6.985 Z-8.243 A143.2494 B-5.0969 
N469 X-329.175 Y-7.312 Z-8.188 A142.5954 B-5.0074 
N470 X-329.276 Y-7.642 Z-8.128 A141.9537 B-4.9187 
N471 X-329.377 Y-7.973 Z-8.063 A141.3240 B-4.8308 
N472 X-329.477 Y-8.305 Z-7.992 A140.7063 B-4.7437 
N473 X-329.576 Y-8.640 Z-7.917 A140.1004 B-4.6575 
N474 X-329.674 Y-8.975 Z-7.836 A139.5062 B-4.5722 
N475 X-329.771 Y-9.313 Z-7.750 A138.9236 B-4.4878 
N476 X-329.867 Y-9.651 Z-7.659 A138.3526 B-4.4044 
N477 X-329.962 Y-9.991 Z-7.563 A137.7930 B-4.3220 
N478 X-330.056 Y-10.332 Z-7.461 A137.2448 B-4.2406 
N479 X-330.149 Y-10.675 Z-7.355 A136.7079 B-4.1603 
N480 X-330.241 Y-11.018 Z-7.244 A136.1822 B-4.0812 
N481 X-330.332 Y-11.363 Z-7.128 A135.6677 B-4.0033 
N482 X-330.422 Y-11.709 Z-7.008 A135.1643 B-3.9266 
N483 X-330.511 Y-12.056 Z-6.882 A134.6719 B-3.8511 
N484 X-330.598 Y-12.404 Z-6.752 A134.1904 B-3.7768 
N485 X-330.685 Y-12.753 Z-6.617 A133.7195 B-3.7039 
N486 X-330.770 Y-13.103 Z-6.477 A133.2593 B-3.6322 
N487 X-330.854 Y-13.454 Z-6.333 A132.8094 B-3.5617 
N488 X-330.937 Y-13.806 Z-6.184 A132.3699 B-3.4926 
N489 X-331.019 Y-14.158 Z-6.030 A131.9404 B-3.4247 
N490 X-331.100 Y-14.512 Z-5.873 A131.5210 B-3.3580 
N491 X-331.180 Y-14.866 Z-5.711 A131.1113 B-3.2926 
N492 X-331.259 Y-15.221 Z-5.544 A130.7114 B-3.2284 
N493 X-331.337 Y-15.576 Z-5.373 A130.3210 B-3.1655 
N494 X-331.413 Y-15.933 Z-5.199 A129.9401 B-3.1038 
N495 X-331.489 Y-16.290 Z-5.019 A129.5686 B-3.0433 
N496 X-331.563 Y-16.647 Z-4.836 A129.2063 B-2.9841 
N497 X-331.637 Y-17.006 Z-4.649 A128.8532 B-2.9261 
N498 X-331.709 Y-17.364 Z-4.458 A128.5093 B-2.8695 
N499 X-331.780 Y-17.724 Z-4.263 A128.1746 B-2.8141 
N500 X-331.850 Y-18.084 Z-4.063 A127.8489 B-2.7601 
N501 X-331.919 Y-18.444 Z-3.860 A127.5323 B-2.7074 
N502 X-331.987 Y-18.805 Z-3.654 A127.2247 B-2.6562 
N503 X-332.054 Y-19.167 Z-3.443 A126.9261 B-2.6064 
N504 X-332.120 Y-19.528 Z-3.229 A126.6364 B-2.5581 
N505 X-332.185 Y-19.891 Z-3.012 A126.3553 B-2.5111 
N506 X-332.249 Y-20.254 Z-2.790 A126.0829 B-2.4656 
N507 X-332.312 Y-20.617 Z-2.566 A125.8189 B-2.4215 
N508 X-332.374 Y-20.981 Z-2.338 A125.5631 B-2.3787 
N509 X-332.435 Y-21.345 Z-2.107 A125.3153 B-2.3371 
N510 X-332.495 Y-21.709 Z-1.872 A125.0754 B-2.2968 
N511 X-332.555 Y-22.074 Z-1.634 A124.8431 B-2.2577 
N512 X-332.613 Y-22.440 Z-1.394 A124.6182 B-2.2197 
N513 X-332.671 Y-22.806 Z-1.150 A124.4007 B-2.1829 
N514 X-332.727 Y-23.172 Z-0.903 A124.1903 B-2.1472 
N515 X-332.783 Y-23.538 Z-0.654 A123.9869 B-2.1126 
N516 X-332.838 Y-23.905 Z-0.401 A123.7904 B-2.0791 
N517 X-332.893 Y-24.272 Z-0.146 A123.6006 B-2.0467 
N518 X-332.946 Y-24.640 Z0.111 A123.4176 B-2.0154 
N519 X-332.999 Y-25.008 Z0.372 A123.2411 B-1.9851 
N520 X-333.051 Y-25.376 Z0.635 A123.0711 B-1.9559 
N521 X-333.103 Y-25.744 Z0.900 A122.9075 B-1.9278 
N522 X-333.153 Y-26.113 Z1.168 A122.7503 B-1.9006 
N523 X-333.203 Y-26.483 Z1.439 A122.5995 B-1.8745 
N524 X-333.253 Y-26.852 Z1.712 A122.4549 B-1.8495 
N525 X-333.301 Y-27.222 Z1.987 A122.3165 B-1.8255 
N526 X-333.349 Y-27.592 Z2.264 A122.1844 B-1.8026 
N527 X-333.397 Y-27.963 Z2.543 A122.0584 B-1.7807 
N528 X-333.443 Y-28.333 Z2.825 A121.9386 B-1.7599 
N529 X-333.490 Y-28.704 Z3.108 A121.8249 B-1.7403 
N530 X-333.535 Y-29.075 Z3.393 A121.7173 B-1.7217 
N531 X-333.580 Y-29.446 Z3.680 A121.6156 B-1.7043 
N532 X-333.625 Y-29.816 Z3.968 A121.5198 B-1.6879 
N533 X-333.668 Y-30.185 Z4.257 A121.4298 B-1.6724 
N534 X-333.712 Y-30.554 Z4.546 A121.3453 B-1.6580 
N535 X-333.754 Y-30.920 Z4.836 A121.2664 B-1.6453 
N536 X-333.796 Y-31.284 Z5.124 A121.1928 B-1.6325 
N537 X-333.837 Y-31.645 Z5.412 A121.1243 B-1.6207 
N538 X-333.877 Y-32.002 Z5.696 A121.0608 B-1.6114 
N539 X-333.916 Y-32.353 Z5.978 A121.0019 B-1.6020 
N540 X-333.954 Y-32.696 Z6.254 A120.9471 B-1.5931 
N541 X-333.990 Y-33.032 Z6.525 A120.8962 B-1.5854 
N542 X-334.026 Y-33.357 Z6.788 A120.8488 B-1.5791 
N543 X-334.059 Y-33.670 Z7.041 A120.8043 B-1.5732 
N544 X-334.092 Y-33.969 Z7.284 A120.7621 B-1.5664 
N545 X-334.122 Y-34.253 Z7.515 A120.7220 B-1.5615 
N546 X-334.151 Y-34.520 Z7.733 A120.6833 B-1.5575 
N547 X-334.177 Y-34.768 Z7.935 A120.6452 B-1.5516 
N548 X-334.202 Y-34.998 Z8.122 A120.6074 B-1.5482 
N549 X-334.224 Y-35.207 Z8.293 A120.5690 B-1.5454 
N550 X-334.244 Y-35.396 Z8.446 A120.5287 B-1.5412 
N551 X-334.261 Y-35.565 Z8.583 A120.4856 B-1.5397 
N552 X-334.276 Y-35.715 Z8.704 A120.4379 B-1.5379 
N553 X-334.290 Y-35.846 Z8.808 A120.3835 B-1.5345 
N554 X-334.302 Y-35.960 Z8.898 A120.3203 B-1.5308 
N555 X-334.313 Y-36.058 Z8.973 A120.2458 B-1.5240 
N556 X-334.326 Y-36.141 Z9.036 A120.1576 B-1.5034 
N557 X-334.341 Y-36.216 Z9.085 A120.0203 B-1.4677 
N558 X-334.369 Y-36.299 Z9.117 A119.6330 B-1.3747 
N559 X-334.413 Y-36.420 Z9.121 A118.6923 B-1.2079 
N560 X-334.484 Y-36.592 Z9.100 A117.0896 B-0.9288 
N561 X-334.589 Y-36.839 Z9.053 A114.5828 B-0.5079 
N562 X-334.722 Y-37.123 Z9.004 A111.6753 B0.0298 
N563 X-334.872 Y-37.410 Z8.967 A108.7521 B0.6351 
N564 X-335.024 Y-37.698 Z8.946 A105.8636 B1.2563 
N565 X-335.169 Y-37.981 Z8.941 A103.0396 B1.8469 
N566 X-335.302 Y-38.256 Z8.951 A100.3040 B2.3935 
N567 X-335.421 Y-38.521 Z8.973 A97.6714 B2.8799 
N568 X-335.527 Y-38.774 Z9.008 A95.1473 B3.3154 
N569 X-335.623 Y-39.014 Z9.053 A92.7297 B3.7137 
N570 X-335.708 Y-39.242 Z9.105 A90.4108 B4.0625 
N571 X-335.785 Y-39.458 Z9.166 A88.1835 B4.3851 
N572 X-335.857 Y-39.664 Z9.232 A86.0371 B4.6818 
N573 X-335.924 Y-39.860 Z9.305 A83.9615 B4.9613 
N574 X-335.987 Y-40.047 Z9.383 A81.9462 B5.2253 
N575 X-336.047 Y-40.227 Z9.467 A79.9823 B5.4785 
N576 X-336.105 Y-40.399 Z9.556 A78.0610 B5.7208 
N577 X-336.160 Y-40.564 Z9.649 A76.1754 B5.9554 
N578 X-336.214 Y-40.723 Z9.748 A74.3190 B6.1815 
N579 X-336.265 Y-40.876 Z9.850 A72.4866 B6.4013 
N580 X-336.314 Y-41.024 Z9.957 A70.6722 B6.6104 
N581 X-336.361 Y-41.167 Z10.068 A68.8722 B6.8109 
N582 X-336.405 Y-41.304 Z10.182 A67.0822 B7.0002 
N583 X-336.447 Y-41.437 Z10.300 A65.3003 B7.1826 
N584 X-336.487 Y-41.564 Z10.421 A63.5228 B7.3539 
N585 X-336.524 Y-41.687 Z10.546 A61.7485 B7.5187 
N586 X-336.560 Y-41.806 Z10.675 A59.9746 B7.6742 
N587 X-336.593 Y-41.919 Z10.806 A58.1996 B7.8218 
N588 X-336.624 Y-42.029 Z10.941 A56.4218 B7.9625 
N589 X-336.654 Y-42.133 Z11.078 A54.6395 B8.0946 
N590 X-336.681 Y-42.233 Z11.218 A52.8517 B8.2196 
N591 X-336.707 Y-42.329 Z11.362 A51.0575 B8.3376 
N592 X-336.730 Y-42.420 Z11.508 A49.2558 B8.4479 
N593 X-336.752 Y-42.506 Z11.656 A47.4460 B8.5510 
N594 X-336.772 Y-42.588 Z11.807 A45.6276 B8.6466 
N595 X-336.790 Y-42.665 Z11.960 A43.8001 B8.7343 
N596 X-336.806 Y-42.738 Z12.115 A41.9632 B8.8143 
N597 X-336.819 Y-42.806 Z12.272 A40.1169 B8.8864 
N598 X-336.831 Y-42.869 Z12.430 A38.2611 B8.9505 
N599 X-336.841 Y-42.927 Z12.590 A36.3958 B9.0065 
N600 X-336.849 Y-42.981 Z12.751 A34.5212 B9.0543 
N601 X-336.855 Y-43.030 Z12.914 A32.6373 B9.0939 
N602 X-336.858 Y-43.075 Z13.077 A30.7443 B9.1252 
N603 X-336.860 Y-43.115 Z13.242 A28.8424 B9.1484 
N604 X-336.860 Y-43.150 Z13.407 A26.9317 B9.1634 
N605 X-336.858 Y-43.180 Z13.573 A25.0120 B9.1705 
N606 X-336.854 Y-43.206 Z13.740 A23.0833 B9.1697 
N607 X-336.848 Y-43.227 Z13.907 A21.1453 B9.1611 
N608 X-336.840 Y-43.244 Z14.074 A19.1973 B9.1449 
N609 X-336.830 Y-43.256 Z14.242 A17.2382 B9.1206 
N610 X-336.819 Y-43.263 Z14.411 A15.2668 B9.0879 
N611 X-336.805 Y-43.266 Z14.580 A13.2815 B9.0471 
N612 X-336.789 Y-43.264 Z14.750 A11.2802 B8.9976 
N613 X-336.772 Y-43.257 Z14.920 A9.2604 B8.9391 
N614 X-336.752 Y-43.246 Z15.091 A7.2196 B8.8716 
N615 X-336.730 Y-43.229 Z15.263 A5.1538 B8.7938 
N616 X-336.705 Y-43.208 Z15.437 A3.0594 B8.7055 
N617 X-336.678 Y-43.182 Z15.612 A0.9317 B8.6057 
N618 X-336.648 Y-43.149 Z15.789 A358.7657 B8.4947 
N619 X-336.616 Y-43.111 Z15.968 A356.5576 B8.3764 
N620 X-336.582 Y-43.065 Z16.150 A354.2998 B8.2487 
N621 X-336.545 Y-43.012 Z16.334 A351.9842 B8.1108 
N622 X-336.505 Y-42.951 Z16.523 A349.6007 B7.9586 
N623 X-336.461 Y-42.881 Z16.715 A347.1410 B7.7915 
N624 X-336.411 Y-42.802 Z16.911 A344.5927 B7.6012 
N625 X-336.354 Y-42.713 Z17.112 A341.9469 B7.3814 
N626 X-336.287 Y-42.612 Z17.316 A339.1986 B7.1260 
N627 X-336.209 Y-42.501 Z17.524 A336.3448 B6.8232 
N628 X-336.117 Y-42.376 Z17.735 A333.3928 B6.4700 
N629 X-336.012 Y-42.237 Z17.945 A330.3636 B6.0663 
N630 X-335.894 Y-42.084 Z18.152 A327.2928 B5.6168 
N631 X-335.766 Y-41.916 Z18.352 A324.2244 B5.1278 
N632 X-335.633 Y-41.737 Z18.536 A321.2541 B4.6226 
N633 X-335.511 Y-41.560 Z18.688 A318.6323 B4.1663 
N634 X-335.414 Y-41.395 Z18.802 A316.4736 B3.8083 
N635 X-335.344 Y-41.246 Z18.876 A314.8244 B3.5660 
N636 X-335.298 Y-41.117 Z18.914 A313.6634 B3.4227 
N637 X-335.268 Y-41.005 Z18.920 A312.9294 B3.3523 
N638 X-335.247 Y-40.904 Z18.898 A312.5523 B3.3300 
N639 X-335.232 Y-40.800 Z18.859 A312.3286 B3.3372 
N640 X-335.214 Y-40.689 Z18.805 A312.2276 B3.3493 
N641 X-335.195 Y-40.565 Z18.740 A312.1781 B3.3681 
N642 X-335.172 Y-40.425 Z18.662 A312.1705 B3.3880 
N643 X-335.144 Y-40.269 Z18.572 A312.1976 B3.4057 
N644 X-335.113 Y-40.096 Z18.470 A312.2549 B3.4234 
N645 X-335.078 Y-39.905 Z18.357 A312.3400 B3.4462 
N646 X-335.040 Y-39.696 Z18.232 A312.4495 B3.4690 
N647 X-334.998 Y-39.470 Z18.097 A312.5819 B3.4938 
N648 X-334.953 Y-39.227 Z17.952 A312.7361 B3.5260 
N649 X-334.905 Y-38.970 Z17.798 A312.9091 B3.5570 
N650 X-334.853 Y-38.699 Z17.637 A313.0996 B3.5879 
N651 X-334.799 Y-38.415 Z17.469 A313.3073 B3.6245 
N652 X-334.743 Y-38.121 Z17.295 A313.5308 B3.6629 
N653 X-334.684 Y-37.817 Z17.118 A313.7689 B3.7003 
N654 X-334.622 Y-37.507 Z16.937 A314.0216 B3.7397 
N655 X-334.560 Y-37.191 Z16.753 A314.2889 B3.7823 
N656 X-334.496 Y-36.871 Z16.569 A314.5704 B3.8280 
N657 X-334.432 Y-36.547 Z16.383 A314.8657 B3.8757 
N658 X-334.366 Y-36.222 Z16.198 A315.1740 B3.9238 
N659 X-334.299 Y-35.895 Z16.013 A315.4950 B3.9743 
N660 X-334.232 Y-35.567 Z15.829 A315.8282 B4.0286 
N661 X-334.165 Y-35.240 Z15.647 A316.1724 B4.0840 
N662 X-334.096 Y-34.913 Z15.466 A316.5264 B4.1388 
N663 X-334.027 Y-34.586 Z15.288 A316.8898 B4.1950 
N664 X-333.957 Y-34.261 Z15.112 A317.2619 B4.2524 
N665 X-333.886 Y-33.936 Z14.938 A317.6419 B4.3102 
N666 X-333.815 Y-33.612 Z14.767 A318.0294 B4.3681 
N667 X-333.743 Y-33.290 Z14.598 A318.4242 B4.4265 
N668 X-333.671 Y-32.968 Z14.431 A318.8263 B4.4855 
N669 X-333.598 Y-32.648 Z14.267 A319.2355 B4.5451 
N670 X-333.524 Y-32.328 Z14.106 A319.6519 B4.6052 
N671 X-333.450 Y-32.010 Z13.947 A320.0756 B4.6660 
N672 X-333.375 Y-31.693 Z13.791 A320.5067 B4.7274 
N673 X-333.299 Y-31.377 Z13.637 A320.9451 B4.7895 
N674 X-333.223 Y-31.063 Z13.486 A321.3910 B4.8522 
N675 X-333.147 Y-30.749 Z13.337 A321.8445 B4.9156 
N676 X-333.069 Y-30.437 Z13.191 A322.3057 B4.9796 
N677 X-332.992 Y-30.126 Z13.047 A322.7745 B5.0443 
N678 X-332.913 Y-29.816 Z12.907 A323.2511 B5.1096 
N679 X-332.834 Y-29.507 Z12.769 A323.7354 B5.1754 
N680 X-332.755 Y-29.199 Z12.633 A324.2274 B5.2418 
N681 X-332.675 Y-28.893 Z12.500 A324.7271 B5.3088 
N682 X-332.594 Y-28.588 Z12.370 A325.2345 B5.3763 
N683 X-332.512 Y-28.284 Z12.242 A325.7495 B5.4442 
N684 X-332.430 Y-27.981 Z12.118 A326.2721 B5.5125 
N685 X-332.347 Y-27.679 Z11.995 A326.8021 B5.5812 
N686 X-332.264 Y-27.378 Z11.876 A327.3395 B5.6503 
N687 X-332.180 Y-27.078 Z11.759 A327.8841 B5.7196 
N688 X-332.095 Y-26.780 Z11.645 A328.4359 B5.7891 
N689 X-332.009 Y-26.482 Z11.534 A328.9947 B5.8588 
N690 X-331.922 Y-26.185 Z11.426 A329.5604 B5.9288 
N691 X-331.835 Y-25.889 Z11.320 A330.1327 B5.9988 
N692 X-331.747 Y-25.594 Z11.217 A330.7116 B6.0688 
N693 X-331.658 Y-25.300 Z11.117 A331.2968 B6.1388 
N694 X-331.569 Y-25.007 Z11.019 A331.8882 B6.2089 
N695 X-331.478 Y-24.714 Z10.925 A332.4855 B6.2788 
N696 X-331.387 Y-24.422 Z10.833 A333.0885 B6.3485 
N697 X-331.294 Y-24.130 Z10.744 A333.6969 B6.4181 
N698 X-331.201 Y-23.839 Z10.658 A334.3106 B6.4874 
N699 X-331.106 Y-23.549 Z10.575 A334.9292 B6.5564 
N700 X-331.011 Y-23.259 Z10.494 A335.5524 B6.6250 
N701 X-330.915 Y-22.969 Z10.417 A336.1799 B6.6931 
N702 X-330.817 Y-22.680 Z10.343 A336.8114 B6.7608 
N703 X-330.719 Y-22.390 Z10.271 A337.4467 B6.8281 
N704 X-330.619 Y-22.101 Z10.202 A338.0853 B6.8947 
N705 X-330.518 Y-21.813 Z10.137 A338.7269 B6.9607 
N706 X-330.416 Y-21.524 Z10.074 A339.3711 B7.0259 
N707 X-330.313 Y-21.235 Z10.015 A340.0175 B7.0905 
N708 X-330.208 Y-20.946 Z9.959 A340.6658 B7.1543 
N709 X-330.103 Y-20.657 Z9.906 A341.3155 B7.2173 
N710 X-329.995 Y-20.367 Z9.856 A341.9662 B7.2793 
N711 X-329.887 Y-20.077 Z9.809 A342.6174 B7.3404 
N712 X-329.777 Y-19.787 Z9.765 A343.2687 B7.4006 
N713 X-329.665 Y-19.496 Z9.725 A343.9196 B7.4598 
N714 X-329.553 Y-19.205 Z9.688 A344.5697 B7.5180 
N715 X-329.438 Y-18.913 Z9.655 A345.2185 B7.5750 
N716 X-329.322 Y-18.620 Z9.625 A345.8654 B7.6309 
N717 X-329.205 Y-18.327 Z9.598 A346.5099 B7.6857 
N718 X-329.085 Y-18.033 Z9.575 A347.1516 B7.7393 
N719 X-328.965 Y-17.737 Z9.556 A347.7898 B7.7916 
N720 X-328.842 Y-17.441 Z9.540 A348.4241 B7.8427 
N721 X-328.718 Y-17.144 Z9.528 A349.0538 B7.8926 
N722 X-328.592 Y-16.845 Z9.520 A349.6784 B7.9412 
N723 X-328.464 Y-16.545 Z9.516 A350.2973 B7.9884 
N724 X-328.334 Y-16.244 Z9.515 A350.9100 B8.0342 
N725 X-328.202 Y-15.942 Z9.519 A351.5159 B8.0787 
N726 X-328.068 Y-15.638 Z9.526 A352.1145 B8.1218 
N727 X-327.933 Y-15.332 Z9.538 A352.7052 B8.1636 
N728 X-327.795 Y-15.025 Z9.554 A353.2876 B8.2039 
N729 X-327.656 Y-14.717 Z9.573 A353.8611 B8.2428 
N730 X-327.514 Y-14.406 Z9.597 A354.4253 B8.2802 
N731 X-327.370 Y-14.094 Z9.625 A354.9800 B8.3164 
N732 X-327.224 Y-13.780 Z9.658 A355.5248 B8.3512 
N733 X-327.076 Y-13.464 Z9.694 A356.0593 B8.3848 
N734 X-326.926 Y-13.146 Z9.735 A356.5832 B8.4171 
N735 X-326.774 Y-12.826 Z9.780 A357.0962 B8.4482 
N736 X-326.619 Y-12.504 Z9.830 A357.5978 B8.4782 
N737 X-326.462 Y-12.180 Z9.885 A358.0874 B8.5073 
N738 X-326.303 Y-11.852 Z9.944 A358.5641 B8.5352 
N739 X-326.141 Y-11.523 Z10.008 A359.0269 B8.5621 
N740 X-325.977 Y-11.190 Z10.077 A359.4744 B8.5878 
N741 X-325.810 Y-10.854 Z10.151 A359.9053 B8.6124 
N742 X-325.640 Y-10.515 Z10.230 A0.3176 B8.6356 
N743 X-325.467 Y-10.173 Z10.315 A0.7097 B8.6576 
N744 X-325.291 Y-9.828 Z10.405 A1.0795 B8.6778 
N745 X-325.113 Y-9.479 Z10.501 A1.4253 B8.6963 
N746 X-324.931 Y-9.126 Z10.603 A1.7455 B8.7131 
N747 X-324.746 Y-8.770 Z10.711 A2.0388 B8.7280 
N748 X-324.558 Y-8.410 Z10.824 A2.3045 B8.7412 
N749 X-324.367 Y-8.046 Z10.942 A2.5418 B8.7526 
N750 X-324.174 Y-7.679 Z11.066 A2.7506 B8.7622 
N751 X-323.978 Y-7.309 Z11.195 A2.9312 B8.7702 
N752 X-323.779 Y-6.935 Z11.328 A3.0840 B8.7769 
N753 X-323.579 Y-6.559 Z11.465 A3.2094 B8.7822 
N754 X-323.377 Y-6.181 Z11.606 A3.3078 B8.7863 
N755 X-323.174 Y-5.801 Z11.751 A3.3798 B8.7893 
N756 X-322.969 Y-5.420 Z11.898 A3.4257 B8.7915 
N757 X-322.765 Y-5.039 Z12.048 A3.4455 B8.7927 
N758 X-322.559 Y-4.658 Z12.201 A3.4388 B8.7922 
N759 X-322.355 Y-4.277 Z12.355 A3.4056 B8.7905 
N760 X-322.151 Y-3.898 Z12.510 A3.3463 B8.7890 
N761 X-321.949 Y-3.522 Z12.666 A3.2600 B8.7875 
N762 X-321.747 Y-3.149 Z12.822 A3.1438 B8.7809 
N763 X-321.547 Y-2.779 Z12.978 A2.9982 B8.7731 
N764 X-321.351 Y-2.413 Z13.135 A2.8246 B8.7691 
N765 X-321.158 Y-2.052 Z13.291 A2.6183 B8.7618 
N766 X-320.966 Y-1.697 Z13.446 A2.3767 B8.7491 
N767 X-320.778 Y-1.348 Z13.599 A2.1006 B8.7356 
N768 X-320.595 Y-1.004 Z13.752 A1.7895 B8.7233 
N769 X-320.415 Y-0.668 Z13.903 A1.4403 B8.7083 
N770 X-320.238 Y-0.338 Z14.052 A1.0516 B8.6898 
N771 X-320.066 Y-0.015 Z14.200 A0.6221 B8.6664 
N772 X-319.898 Y0.300 Z14.345 A0.1529 B8.6410 
N773 X-319.735 Y0.608 Z14.487 A359.6459 B8.6178 
N774 X-319.577 Y0.909 Z14.628 A359.0980 B8.5898 
N775 X-319.421 Y1.200 Z14.765 A358.5071 B8.5516 
N776 X-319.273 Y1.485 Z14.900 A357.8804 B8.5184 
N777 X-319.129 Y1.762 Z15.032 A357.2149 B8.4837 
N778 X-318.988 Y2.030 Z15.161 A356.5058 B8.4368 
N779 X-318.854 Y2.291 Z15.287 A355.7598 B8.3927 
N780 X-318.724 Y2.544 Z15.411 A354.9747 B8.3465 
N781 X-318.598 Y2.787 Z15.531 A354.1471 B8.2896 
N782 X-318.477 Y3.023 Z15.649 A353.2818 B8.2301 
N783 X-318.362 Y3.251 Z15.765 A352.3810 B8.1712 
N784 X-318.250 Y3.471 Z15.877 A351.4410 B8.1040 
N785 X-318.143 Y3.683 Z15.988 A350.4637 B8.0346 
N786 X-318.042 Y3.887 Z16.097 A349.4479 B7.9647 
N787 X-317.944 Y4.084 Z16.205 A348.3875 B7.8855 
N788 X-317.849 Y4.273 Z16.311 A347.2816 B7.8003 
N789 X-317.757 Y4.455 Z16.417 A346.1276 B7.7047 
N790 X-317.669 Y4.631 Z16.522 A344.9277 B7.6024 
N791 X-317.582 Y4.799 Z16.626 A343.6817 B7.4871 
N792 X-317.498 Y4.962 Z16.729 A342.3958 B7.3674 
N793 X-317.418 Y5.120 Z16.832 A341.0726 B7.2424 
N794 X-317.339 Y5.273 Z16.934 A339.7123 B7.1070 
N795 X-317.264 Y5.422 Z17.036 A338.3196 B6.9708 
N796 X-317.190 Y5.567 Z17.137 A336.8920 B6.8271 
N797 X-317.116 Y5.708 Z17.239 A335.4272 B6.6696 
N798 X-317.044 Y5.847 Z17.341 A333.9270 B6.5040 
N799 X-316.973 Y5.984 Z17.442 A332.3928 B6.3328 
N800 X-316.901 Y6.119 Z17.544 A330.8227 B6.1470 
N801 X-316.827 Y6.253 Z17.646 A329.2194 B5.9465 
N802 X-316.753 Y6.387 Z17.748 A327.5872 B5.7342 
N803 X-316.679 Y6.520 Z17.849 A325.9309 B5.5126 
N804 X-316.604 Y6.654 Z17.949 A324.2555 B5.2831 
N805 X-316.529 Y6.789 Z18.048 A322.5657 B5.0454 
N806 X-316.454 Y6.924 Z18.145 A320.8660 B4.8003 
N807 X-316.378 Y7.061 Z18.239 A319.1607 B4.5490 
N808 X-316.302 Y7.199 Z18.331 A317.4536 B4.2922 
N809 X-316.226 Y7.338 Z18.420 A315.7478 B4.0304 
N810 X-316.150 Y7.479 Z18.506 A314.0457 B3.7640 
N811 X-316.074 Y7.621 Z18.588 A312.3492 B3.4939 
N812 X-315.998 Y7.765 Z18.666 A310.6598 B3.2227 
N813 X-315.923 Y7.911 Z18.741 A308.9782 B2.9502 
N814 X-315.848 Y8.059 Z18.812 A307.3045 B2.6763 
N815 X-315.773 Y8.208 Z18.878 A305.6384 B2.4004 
N816 X-315.699 Y8.359 Z18.940 A303.9793 B2.1220 
N817 X-315.624 Y8.512 Z18.998 A302.3267 B1.8409 
N818 X-315.548 Y8.666 Z19.052 A300.6797 B1.5564 
N819 X-315.473 Y8.823 Z19.100 A299.0372 B1.2681 
N820 X-315.396 Y8.981 Z19.145 A297.3985 B0.9766 
N821 X-315.321 Y9.142 Z19.184 A295.7627 B0.6860 
N822 X-315.247 Y9.304 Z19.218 A294.1286 B0.3963 
N823 X-315.172 Y9.468 Z19.247 A292.4952 B0.1069 
N824 X-315.099 Y9.634 Z19.270 A290.8613 B-0.1829 
N825 X-315.025 Y9.802 Z19.288 A289.2263 B-0.4737 
N826 X-314.952 Y9.972 Z19.300 A287.5895 B-0.7661 
N827 X-314.878 Y10.144 Z19.306 A285.9506 B-1.0610 
N828 X-314.805 Y10.317 Z19.306 A284.3097 B-1.3590 
N829 X-314.730 Y10.492 Z19.300 A282.6672 B-1.6611 
N830 X-314.657 Y10.667 Z19.286 A281.0238 B-1.9646 
N831 X-314.584 Y10.844 Z19.265 A279.3802 B-2.2640 
N832 X-314.514 Y11.021 Z19.237 A277.7379 B-2.5595 
N833 X-314.445 Y11.198 Z19.201 A276.0992 B-2.8514 
N834 X-314.379 Y11.375 Z19.158 A274.4668 B-3.1395 
N835 X-314.314 Y11.551 Z19.106 A272.8441 B-3.4239 
N836 X-314.251 Y11.725 Z19.046 A271.2351 B-3.7042 
N837 X-314.191 Y11.896 Z18.977 A269.6443 B-3.9798 
N838 X-314.135 Y12.065 Z18.900 A268.0761 B-4.2486 
N839 X-314.082 Y12.229 Z18.814 A266.5348 B-4.5077 
N840 X-314.034 Y12.389 Z18.721 A265.0246 B-4.7551 
N841 X-313.992 Y12.544 Z18.619 A263.5489 B-4.9881 
N842 X-313.956 Y12.693 Z18.509 A262.1094 B-5.2031 
N843 X-313.928 Y12.836 Z18.391 A260.7076 B-5.3998 
N844 X-313.904 Y12.973 Z18.265 A259.3469 B-5.5904 
N845 X-313.884 Y13.104 Z18.131 A258.0254 B-5.7724 
N846 X-313.872 Y13.228 Z17.989 A256.7394 B-5.9396 
N847 X-313.866 Y13.347 Z17.838 A255.4866 B-6.0928 
N848 X-313.863 Y13.459 Z17.678 A254.2696 B-6.2475 
N849 X-313.866 Y13.566 Z17.509 A253.0849 B-6.3964 
N850 X-313.874 Y13.666 Z17.331 A251.9310 B-6.5355 
N851 X-313.888 Y13.759 Z17.144 A250.8120 B-6.6736 
N852 X-313.908 Y13.844 Z16.948 A249.7258 B-6.8003 
N853 X-313.934 Y13.923 Z16.744 A248.6744 B-6.9181 
N854 X-313.968 Y13.994 Z16.533 A247.6576 B-7.0266 
N855 X-314.008 Y14.057 Z16.313 A246.6736 B-7.1254 
N856 X-314.055 Y14.113 Z16.086 A245.7208 B-7.2184 
N857 X-314.108 Y14.163 Z15.850 A244.7944 B-7.3027 
N858 X-314.164 Y14.205 Z15.607 A243.8957 B-7.3913 
N859 X-314.227 Y14.241 Z15.356 A243.0175 B-7.4725 
N860 X-314.295 Y14.270 Z15.097 A242.1603 B-7.5516 
N861 X-314.367 Y14.292 Z14.831 A241.3245 B-7.6305 
N862 X-314.444 Y14.306 Z14.559 A240.5085 B-7.7057 
N863 X-314.528 Y14.314 Z14.282 A239.7098 B-7.7712 
N864 X-314.616 Y14.316 Z14.000 A238.9311 B-7.8353 
N865 X-314.708 Y14.310 Z13.711 A238.1733 B-7.9021 
N866 X-314.805 Y14.298 Z13.419 A237.4296 B-7.9583 
N867 X-314.907 Y14.279 Z13.123 A236.7019 B-8.0114 
N868 X-315.011 Y14.254 Z12.822 A235.9921 B-8.0686 
N869 X-315.120 Y14.223 Z12.518 A235.2960 B-8.1221 
N870 X-315.233 Y14.187 Z12.212 A234.6109 B-8.1684 
N871 X-315.349 Y14.144 Z11.904 A233.9381 B-8.2129 
N872 X-315.467 Y14.096 Z11.593 A233.2779 B-8.2595 
N873 X-315.588 Y14.043 Z11.280 A232.6274 B-8.3040 
N874 X-315.712 Y13.985 Z10.966 A231.9844 B-8.3452 
N875 X-315.838 Y13.922 Z10.651 A231.3476 B-8.3841 
N876 X-315.967 Y13.854 Z10.336 A230.7156 B-8.4212 
N877 X-316.097 Y13.783 Z10.020 A230.0871 B-8.4577 
N878 X-316.229 Y13.707 Z9.703 A229.4613 B-8.4955 
N879 X-316.362 Y13.627 Z9.386 A228.8362 B-8.5332 
N880 X-316.496 Y13.544 Z9.070 A228.2095 B-8.5688 
N881 X-316.632 Y13.457 Z8.755 A227.5794 B-8.6004 
N882 X-316.769 Y13.367 Z8.440 A226.9475 B-8.6333 
N883 X-316.906 Y13.274 Z8.126 A226.3135 B-8.6679 
N884 X-317.043 Y13.177 Z7.812 A225.6760 B-8.7020 
N885 X-317.182 Y13.077 Z7.501 A225.0339 B-8.7339 
N886 X-317.322 Y12.974 Z7.191 A224.3867 B-8.7630 
N887 X-317.461 Y12.868 Z6.883 A223.7356 B-8.7924 
N888 X-317.601 Y12.759 Z6.577 A223.0801 B-8.8217 
N889 X-317.742 Y12.647 Z6.272 A222.4195 B-8.8501 
N890 X-317.882 Y12.533 Z5.970 A221.7531 B-8.8774 
N891 X-318.023 Y12.416 Z5.670 A221.0803 B-8.9035 
N892 X-318.164 Y12.297 Z5.372 A220.4007 B-8.9288 
N893 X-318.304 Y12.175 Z5.077 A219.7137 B-8.9535 
N894 X-318.445 Y12.051 Z4.784 A219.0185 B-8.9774 
N895 X-318.585 Y11.925 Z4.493 A218.3146 B-9.0005 
N896 X-318.725 Y11.796 Z4.205 A217.6015 B-9.0228 
N897 X-318.865 Y11.666 Z3.919 A216.8786 B-9.0442 
N898 X-319.005 Y11.533 Z3.637 A216.1457 B-9.0646 
N899 X-319.144 Y11.398 Z3.356 A215.4024 B-9.0842 
N900 X-319.283 Y11.261 Z3.079 A214.6487 B-9.1028 
N901 X-319.421 Y11.123 Z2.804 A213.8843 B-9.1203 
N902 X-319.559 Y10.982 Z2.533 A213.1091 B-9.1366 
N903 X-319.696 Y10.839 Z2.264 A212.3231 B-9.1517 
N904 X-319.833 Y10.695 Z1.998 A211.5265 B-9.1656 
N905 X-319.970 Y10.548 Z1.735 A210.7192 B-9.1784 
N906 X-320.105 Y10.400 Z1.475 A209.9013 B-9.1898 
N907 X-320.241 Y10.249 Z1.219 A209.0728 B-9.1997 
N908 X-320.376 Y10.097 Z0.965 A208.2338 B-9.2081 
N909 X-320.510 Y9.943 Z0.715 A207.3844 B-9.2149 
N910 X-320.644 Y9.787 Z0.467 A206.5249 B-9.2203 
N911 X-320.778 Y9.629 Z0.223 A205.6553 B-9.2243 
N912 X-320.910 Y9.469 Z-0.018 A204.7757 B-9.2264 
N913 X-321.043 Y9.307 Z-0.255 A203.8862 B-9.2267 
N914 X-321.175 Y9.144 Z-0.490 A202.9870 B-9.2252 
N915 X-321.306 Y8.978 Z-0.721 A202.0784 B-9.2219 
N916 X-321.437 Y8.810 Z-0.949 A201.1608 B-9.2168 
N917 X-321.567 Y8.641 Z-1.174 A200.2342 B-9.2099 
N918 X-321.697 Y8.469 Z-1.395 A199.2989 B-9.2009 
N919 X-321.826 Y8.296 Z-1.614 A198.3552 B-9.1897 
N920 X-321.955 Y8.120 Z-1.828 A197.4035 B-9.1764 
N921 X-322.084 Y7.943 Z-2.040 A196.4442 B-9.1611 
N922 X-322.212 Y7.763 Z-2.248 A195.4777 B-9.1438 
N923 X-322.340 Y7.582 Z-2.453 A194.5043 B-9.1243 
N924 X-322.467 Y7.398 Z-2.654 A193.5244 B-9.1025 
N925 X-322.594 Y7.212 Z-2.852 A192.5385 B-9.0783 
N926 X-322.720 Y7.025 Z-3.046 A191.5468 B-9.0518 
N927 X-322.847 Y6.835 Z-3.237 A190.5501 B-9.0231 
N928 X-322.972 Y6.643 Z-3.424 A189.5486 B-8.9921 
N929 X-323.098 Y6.448 Z-3.608 A188.5429 B-8.9589 
N930 X-323.223 Y6.252 Z-3.788 A187.5335 B-8.9232 
N931 X-323.348 Y6.053 Z-3.965 A186.5207 B-8.8851 
N932 X-323.472 Y5.852 Z-4.138 A185.5051 B-8.8446 
N933 X-323.597 Y5.649 Z-4.308 A184.4873 B-8.8017 
N934 X-323.721 Y5.443 Z-4.473 A183.4678 B-8.7565 
N935 X-323.845 Y5.236 Z-4.635 A182.4472 B-8.7089 
N936 X-323.968 Y5.026 Z-4.794 A181.4259 B-8.6590 
N937 X-324.091 Y4.813 Z-4.948 A180.4045 B-8.6069 
N938 X-324.214 Y4.598 Z-5.099 A179.3836 B-8.5524 
N939 X-324.337 Y4.381 Z-5.246 A178.3636 B-8.4956 
N940 X-324.460 Y4.161 Z-5.388 A177.3451 B-8.4366 
N941 X-324.582 Y3.939 Z-5.527 A176.3285 B-8.3753 
N942 X-324.704 Y3.715 Z-5.662 A175.3145 B-8.3119 
N943 X-324.826 Y3.487 Z-5.793 A174.3035 B-8.2465 
N944 X-324.948 Y3.258 Z-5.920 A173.2960 B-8.1791 
N945 X-325.070 Y3.026 Z-6.043 A172.2924 B-8.1096 
N946 X-325.191 Y2.791 Z-6.162 A171.2932 B-8.0380 
N947 X-325.312 Y2.554 Z-6.276 A170.2989 B-7.9643 
N948 X-325.433 Y2.314 Z-6.387 A169.3099 B-7.8890 
N949 X-325.554 Y2.072 Z-6.493 A168.3269 B-7.8121 
N950 X-325.674 Y1.827 Z-6.594 A167.3502 B-7.7335 
N951 X-325.794 Y1.579 Z-6.691 A166.3801 B-7.6532 
N952 X-325.914 Y1.329 Z-6.784 A165.4172 B-7.5712 
N953 X-326.034 Y1.077 Z-6.872 A164.4618 B-7.4876 
N954 X-326.153 Y0.821 Z-6.956 A163.5143 B-7.4027 
N955 X-326.272 Y0.563 Z-7.035 A162.5753 B-7.3168 
N956 X-326.391 Y0.303 Z-7.110 A161.6450 B-7.2297 
N957 X-326.509 Y0.039 Z-7.180 A160.7237 B-7.1414 
N958 X-326.627 Y-0.227 Z-7.245 A159.8117 B-7.0519 
N959 X-326.745 Y-0.495 Z-7.305 A158.9093 B-6.9612 
N960 X-326.862 Y-0.766 Z-7.361 A158.0169 B-6.8700 
N961 X-326.979 Y-1.040 Z-7.411 A157.1349 B-6.7781 
N962 X-327.095 Y-1.316 Z-7.457 A156.2633 B-6.6856 
N963 X-327.211 Y-1.595 Z-7.498 A155.4025 B-6.5923 
N964 X-327.327 Y-1.876 Z-7.533 A154.5526 B-6.4984 
N965 X-327.442 Y-2.160 Z-7.564 A153.7140 B-6.4041 
N966 X-327.556 Y-2.447 Z-7.590 A152.8870 B-6.3097 
N967 X-327.670 Y-2.736 Z-7.610 A152.0717 B-6.2152 
N968 X-327.783 Y-3.027 Z-7.625 A151.2683 B-6.1205 
N969 X-327.896 Y-3.321 Z-7.635 A150.4769 B-6.0257 
N970 X-328.008 Y-3.618 Z-7.640 A149.6977 B-5.9309 
N971 X-328.119 Y-3.917 Z-7.640 A148.9310 B-5.8364 
N972 X-328.230 Y-4.218 Z-7.634 A148.1767 B-5.7423 
N973 X-328.340 Y-4.521 Z-7.623 A147.4350 B-5.6485 
N974 X-328.449 Y-4.827 Z-7.607 A146.7059 B-5.5550 
N975 X-328.558 Y-5.135 Z-7.585 A145.9894 B-5.4621 
N976 X-328.665 Y-5.445 Z-7.558 A145.2856 B-5.3697 
N977 X-328.772 Y-5.758 Z-7.526 A144.5943 B-5.2781 
N978 X-328.878 Y-6.072 Z-7.488 A143.9156 B-5.1871 
N979 X-328.983 Y-6.389 Z-7.445 A143.2494 B-5.0969 
N980 X-329.087 Y-6.707 Z-7.397 A142.5954 B-5.0074 
N981 X-329.191 Y-7.028 Z-7.344 A141.9537 B-4.9187 
N982 X-329.293 Y-7.350 Z-7.285 A141.3240 B-4.8308 
N983 X-329.394 Y-7.674 Z-7.221 A140.7063 B-4.7437 
N984 X-329.495 Y-8.000 Z-7.152 A140.1004 B-4.6575 
N985 X-329.594 Y-8.328 Z-7.078 A139.5062 B-4.5722 
N986 X-329.693 Y-8.658 Z-6.998 A138.9236 B-4.4878 
N987 X-329.790 Y-8.989 Z-6.914 A138.3526 B-4.4044 
N988 X-329.887 Y-9.321 Z-6.824 A137.7930 B-4.3220 
N989 X-329.982 Y-9.655 Z-6.729 A137.2448 B-4.2406 
N990 X-330.077 Y-9.991 Z-6.629 A136.7079 B-4.1603 
N991 X-330.170 Y-10.328 Z-6.525 A136.1822 B-4.0812 
N992 X-330.262 Y-10.666 Z-6.415 A135.6677 B-4.0033 
N993 X-330.353 Y-11.006 Z-6.300 A135.1643 B-3.9266 
N994 X-330.443 Y-11.347 Z-6.181 A134.6719 B-3.8511 
N995 X-330.532 Y-11.689 Z-6.056 A134.1904 B-3.7768 
N996 X-330.620 Y-12.032 Z-5.927 A133.7195 B-3.7039 
N997 X-330.707 Y-12.376 Z-5.793 A133.2593 B-3.6322 
N998 X-330.792 Y-12.722 Z-5.654 A132.8094 B-3.5617 
N999 X-330.876 Y-13.068 Z-5.511 A132.3699 B-3.4926 
N1000 X-330.960 Y-13.416 Z-5.363 A131.9404 B-3.4247 
N1001 X-331.042 Y-13.764 Z-5.211 A131.5210 B-3.3580 
N1002 X-331.123 Y-14.114 Z-5.054 A131.1113 B-3.2926 
N1003 X-331.203 Y-14.464 Z-4.893 A130.7114 B-3.2284 
N1004 X-331.281 Y-14.815 Z-4.727 A130.3210 B-3.1655 
N1005 X-331.359 Y-15.167 Z-4.557 A129.9401 B-3.1038 
N1006 X-331.436 Y-15.520 Z-4.383 A129.5686 B-3.0433 
N1007 X-331.511 Y-15.874 Z-4.205 A129.2063 B-2.9841 
N1008 X-331.586 Y-16.228 Z-4.022 A128.8532 B-2.9261 
N1009 X-331.659 Y-16.583 Z-3.836 A128.5093 B-2.8695 
N1010 X-331.731 Y-16.939 Z-3.645 A128.1746 B-2.8141 
N1011 X-331.802 Y-17.295 Z-3.451 A127.8489 B-2.7601 
N1012 X-331.872 Y-17.652 Z-3.252 A127.5323 B-2.7074 
N1013 X-331.941 Y-18.010 Z-3.049 A127.2247 B-2.6562 
N1014 X-332.009 Y-18.368 Z-2.843 A126.9261 B-2.6064 
N1015 X-332.076 Y-18.727 Z-2.633 A126.6364 B-2.5581 
N1016 X-332.142 Y-19.086 Z-2.419 A126.3553 B-2.5111 
N1017 X-332.206 Y-19.446 Z-2.202 A126.0829 B-2.4656 
N1018 X-332.270 Y-19.807 Z-1.981 A125.8189 B-2.4215 
N1019 X-332.333 Y-20.168 Z-1.757 A125.5631 B-2.3787 
N1020 X-332.394 Y-20.530 Z-1.529 A125.3153 B-2.3371 
N1021 X-332.455 Y-20.892 Z-1.298 A125.0754 B-2.2968 
N1022 X-332.515 Y-21.254 Z-1.064 A124.8431 B-2.2577 
N1023 X-332.574 Y-21.617 Z-0.826 A124.6182 B-2.2197 
N1024 X-332.633 Y-21.981 Z-0.585 A124.4007 B-2.1829 
N1025 X-332.690 Y-22.345 Z-0.342 A124.1903 B-2.1472 
N1026 X-332.746 Y-22.710 Z-0.095 A123.9869 B-2.1126 
N1027 X-332.802 Y-23.074 Z0.154 A123.7904 B-2.0791 
N1028 X-332.857 Y-23.440 Z0.407 A123.6006 B-2.0467 
N1029 X-332.911 Y-23.806 Z0.662 A123.4176 B-2.0154 
N1030 X-332.964 Y-24.172 Z0.920 A123.2411 B-1.9851 
N1031 X-333.017 Y-24.538 Z1.180 A123.0711 B-1.9559 
N1032 X-333.069 Y-24.905 Z1.443 A122.9075 B-1.9278 
N1033 X-333.120 Y-25.273 Z1.709 A122.7503 B-1.9006 
N1034 X-333.171 Y-25.641 Z1.977 A122.5995 B-1.8745 
N1035 X-333.220 Y-26.009 Z2.248 A122.4549 B-1.8495 
N1036 X-333.269 Y-26.377 Z2.521 A122.3165 B-1.8255 
N1037 X-333.318 Y-26.746 Z2.796 A122.1844 B-1.8026 
N1038 X-333.366 Y-27.116 Z3.074 A122.0584 B-1.7807 
N1039 X-333.413 Y-27.485 Z3.354 A121.9386 B-1.7599 
N1040 X-333.459 Y-27.855 Z3.635 A121.8249 B-1.7403 
N1041 X-333.505 Y-28.225 Z3.919 A121.7173 B-1.7217 
N1042 X-333.550 Y-28.594 Z4.204 A121.6156 B-1.7043 
N1043 X-333.595 Y-28.964 Z4.490 A121.5198 B-1.6879 
N1044 X-333.639 Y-29.333 Z4.778 A121.4298 B-1.6724 
N1045 X-333.683 Y-29.700 Z5.066 A121.3453 B-1.6580 
N1046 X-333.725 Y-30.066 Z5.354 A121.2664 B-1.6453 
N1047 X-333.767 Y-30.429 Z5.642 A121.1928 B-1.6325 
N1048 X-333.808 Y-30.790 Z5.928 A121.1243 B-1.6207 
N1049 X-333.848 Y-31.145 Z6.212 A121.0608 B-1.6114 
N1050 X-333.888 Y-31.496 Z6.493 A121.0019 B-1.6020 
N1051 X-333.926 Y-31.839 Z6.768 A120.9471 B-1.5931 
N1052 X-333.963 Y-32.174 Z7.038 A120.8962 B-1.5854 
N1053 X-333.998 Y-32.498 Z7.300 A120.8488 B-1.5791 
N1054 X-334.032 Y-32.811 Z7.553 A120.8043 B-1.5732 
N1055 X-334.065 Y-33.110 Z7.796 A120.7621 B-1.5664 
N1056 X-334.095 Y-33.393 Z8.026 A120.7220 B-1.5615 
N1057 X-334.123 Y-33.660 Z8.243 A120.6833 B-1.5575 
N1058 X-334.150 Y-33.908 Z8.445 A120.6452 B-1.5516 
N1059 X-334.175 Y-34.137 Z8.631 A120.6074 B-1.5482 
N1060 X-334.197 Y-34.346 Z8.801 A120.5690 B-1.5454 
N1061 X-334.217 Y-34.535 Z8.954 A120.5287 B-1.5412 
N1062 X-334.234 Y-34.704 Z9.091 A120.4856 B-1.5397 
N1063 X-334.250 Y-34.853 Z9.210 A120.4379 B-1.5379 
N1064 X-334.263 Y-34.984 Z9.314 A120.3835 B-1.5345 
N1065 X-334.276 Y-35.097 Z9.403 A120.3203 B-1.5308 
N1066 X-334.287 Y-35.194 Z9.477 A120.2458 B-1.5240 
N1067 X-334.300 Y-35.277 Z9.538 A120.1576 B-1.5034 
N1068 X-334.316 Y-35.350 Z9.585 A120.0203 B-1.4677 
N1069 X-334.345 Y-35.430 Z9.611 A119.6330 B-1.3747 
N1070 X-334.392 Y-35.543 Z9.601 A118.6923 B-1.2079 
N1071 X-334.468 Y-35.703 Z9.554 A117.0896 B-0.9288 
N1072 X-334.580 Y-35.933 Z9.467 A114.5828 B-0.5079 
N1073 X-334.723 Y-36.199 Z9.371 A111.6753 B0.0298 
N1074 X-334.883 Y-36.471 Z9.286 A108.7521 B0.6351 
N1075 X-335.046 Y-36.745 Z9.217 A105.8636 B1.2563 
N1076 X-335.201 Y-37.019 Z9.164 A103.0396 B1.8469 
N1077 X-335.344 Y-37.287 Z9.127 A100.3040 B2.3935 
N1078 X-335.470 Y-37.547 Z9.105 A97.6714 B2.8799 
N1079 X-335.584 Y-37.797 Z9.096 A95.1473 B3.3154 
N1080 X-335.687 Y-38.037 Z9.099 A92.7297 B3.7137 
N1081 X-335.777 Y-38.266 Z9.112 A90.4108 B4.0625 
N1082 X-335.860 Y-38.485 Z9.135 A88.1835 B4.3851 
N1083 X-335.936 Y-38.695 Z9.165 A86.0371 B4.6818 
N1084 X-336.008 Y-38.896 Z9.203 A83.9615 B4.9613 
N1085 X-336.075 Y-39.090 Z9.248 A81.9462 B5.2253 
N1086 X-336.140 Y-39.277 Z9.299 A79.9823 B5.4785 
N1087 X-336.201 Y-39.457 Z9.357 A78.0610 B5.7208 
N1088 X-336.260 Y-39.632 Z9.420 A76.1754 B5.9554 
N1089 X-336.317 Y-39.802 Z9.489 A74.3190 B6.1815 
N1090 X-336.372 Y-39.966 Z9.563 A72.4866 B6.4013 
N1091 X-336.425 Y-40.125 Z9.642 A70.6722 B6.6104 
N1092 X-336.475 Y-40.281 Z9.725 A68.8722 B6.8109 
N1093 X-336.522 Y-40.431 Z9.813 A67.0822 B7.0002 
N1094 X-336.567 Y-40.578 Z9.905 A65.3003 B7.1826 
N1095 X-336.608 Y-40.720 Z10.001 A63.5228 B7.3539 
N1096 X-336.649 Y-40.859 Z10.101 A61.7485 B7.5187 
N1097 X-336.686 Y-40.993 Z10.205 A59.9746 B7.6742 
N1098 X-336.722 Y-41.124 Z10.312 A58.1996 B7.8218 
N1099 X-336.755 Y-41.250 Z10.424 A56.4218 B7.9625 
N1100 X-336.786 Y-41.373 Z10.539 A54.6395 B8.0946 
N1101 X-336.815 Y-41.492 Z10.657 A52.8517 B8.2196 
N1102 X-336.843 Y-41.607 Z10.779 A51.0575 B8.3376 
N1103 X-336.868 Y-41.719 Z10.904 A49.2558 B8.4479 
N1104 X-336.891 Y-41.826 Z11.032 A47.4460 B8.5510 
N1105 X-336.912 Y-41.930 Z11.163 A45.6276 B8.6466 
N1106 X-336.931 Y-42.029 Z11.297 A43.8001 B8.7343 
N1107 X-336.948 Y-42.125 Z11.433 A41.9632 B8.8143 
N1108 X-336.962 Y-42.216 Z11.572 A40.1169 B8.8864 
N1109 X-336.975 Y-42.304 Z11.714 A38.2611 B8.9505 
N1110 X-336.985 Y-42.387 Z11.857 A36.3958 B9.0065 
N1111 X-336.994 Y-42.466 Z12.003 A34.5212 B9.0543 
N1112 X-337.000 Y-42.542 Z12.151 A32.6373 B9.0939 
N1113 X-337.004 Y-42.613 Z12.300 A30.7443 B9.1252 
N1114 X-337.005 Y-42.679 Z12.452 A28.8424 B9.1484 
N1115 X-337.005 Y-42.742 Z12.604 A26.9317 B9.1634 
N1116 X-337.003 Y-42.801 Z12.759 A25.0120 B9.1705 
N1117 X-336.998 Y-42.855 Z12.915 A23.0833 B9.1697 
N1118 X-336.992 Y-42.905 Z13.072 A21.1453 B9.1611 
N1119 X-336.984 Y-42.951 Z13.231 A19.1973 B9.1449 
N1120 X-336.973 Y-42.992 Z13.392 A17.2382 B9.1206 
N1121 X-336.961 Y-43.029 Z13.553 A15.2668 B9.0879 
N1122 X-336.946 Y-43.062 Z13.717 A13.2815 B9.0471 
N1123 X-336.930 Y-43.091 Z13.881 A11.2802 B8.9976 
N1124 X-336.911 Y-43.115 Z14.048 A9.2604 B8.9391 
N1125 X-336.890 Y-43.135 Z14.216 A7.2196 B8.8716 
N1126 X-336.866 Y-43.150 Z14.387 A5.1538 B8.7938 
N1127 X-336.840 Y-43.161 Z14.560 A3.0594 B8.7055 
N1128 X-336.810 Y-43.167 Z14.735 A0.9317 B8.6057 
N1129 X-336.778 Y-43.168 Z14.914 A358.7657 B8.4947 
N1130 X-336.744 Y-43.163 Z15.096 A356.5576 B8.3764 
N1131 X-336.708 Y-43.152 Z15.282 A354.2998 B8.2487 
N1132 X-336.669 Y-43.133 Z15.473 A351.9842 B8.1108 
N1133 X-336.626 Y-43.108 Z15.669 A349.6007 B7.9586 
N1134 X-336.580 Y-43.074 Z15.870 A347.1410 B7.7915 
N1135 X-336.527 Y-43.032 Z16.077 A344.5927 B7.6012 
N1136 X-336.466 Y-42.980 Z16.290 A341.9469 B7.3814 
N1137 X-336.395 Y-42.919 Z16.510 A339.1986 B7.1260 
N1138 X-336.312 Y-42.846 Z16.736 A336.3448 B6.8232 
N1139 X-336.214 Y-42.761 Z16.966 A333.3928 B6.4700 
N1140 X-336.103 Y-42.662 Z17.199 A330.3636 B6.0663 
N1141 X-335.978 Y-42.547 Z17.431 A327.2928 B5.6168 
N1142 X-335.842 Y-42.416 Z17.658 A324.2244 B5.1278 
N1143 X-335.702 Y-42.272 Z17.870 A321.2541 B4.6226 
N1144 X-335.573 Y-42.124 Z18.048 A318.6323 B4.1663 
N1145 X-335.471 Y-41.981 Z18.185 A316.4736 B3.8083 
N1146 X-335.397 Y-41.849 Z18.277 A314.8244 B3.5660 
N1147 X-335.349 Y-41.731 Z18.329 A313.6634 B3.4227 
N1148 X-335.317 Y-41.624 Z18.343 A312.9294 B3.3523 
N1149 X-335.297 Y-41.526 Z18.327 A312.5523 B3.3300 
N1150 X-335.281 Y-41.423 Z18.292 A312.3286 B3.3372 
N1151 X-335.263 Y-41.311 Z18.241 A312.2276 B3.3493 
N1152 X-335.244 Y-41.186 Z18.177 A312.1781 B3.3681 
N1153 X-335.221 Y-41.045 Z18.101 A312.1705 B3.3880 
N1154 X-335.194 Y-40.887 Z18.012 A312.1976 B3.4057 
N1155 X-335.163 Y-40.712 Z17.911 A312.2549 B3.4234 
N1156 X-335.128 Y-40.518 Z17.798 A312.3400 B3.4462 
N1157 X-335.090 Y-40.307 Z17.673 A312.4495 B3.4690 
N1158 X-335.048 Y-40.078 Z17.538 A312.5819 B3.4938 
N1159 X-335.004 Y-39.833 Z17.393 A312.7361 B3.5260 
N1160 X-334.956 Y-39.572 Z17.239 A312.9091 B3.5570 
N1161 X-334.905 Y-39.298 Z17.076 A313.0996 B3.5879 
N1162 X-334.851 Y-39.010 Z16.908 A313.3073 B3.6245 
N1163 X-334.795 Y-38.712 Z16.733 A313.5308 B3.6629 
N1164 X-334.736 Y-38.405 Z16.554 A313.7689 B3.7003 
N1165 X-334.675 Y-38.091 Z16.372 A314.0216 B3.7397 
N1166 X-334.613 Y-37.771 Z16.187 A314.2889 B3.7823 
N1167 X-334.550 Y-37.446 Z16.001 A314.5704 B3.8280 
N1168 X-334.486 Y-37.119 Z15.814 A314.8657 B3.8757 
N1169 X-334.421 Y-36.789 Z15.627 A315.1740 B3.9238 
N1170 X-334.355 Y-36.457 Z15.441 A315.4950 B3.9743 
N1171 X-334.289 Y-36.125 Z15.255 A315.8282 B4.0286 
N1172 X-334.222 Y-35.793 Z15.071 A316.1724 B4.0840 
N1173 X-334.154 Y-35.461 Z14.889 A316.5264 B4.1388 
N1174 X-334.085 Y-35.129 Z14.708 A316.8898 B4.1950 
N1175 X-334.016 Y-34.798 Z14.530 A317.2619 B4.2524 
N1176 X-333.946 Y-34.468 Z14.354 A317.6419 B4.3102 
N1177 X-333.875 Y-34.139 Z14.181 A318.0294 B4.3681 
N1178 X-333.804 Y-33.811 Z14.009 A318.4242 B4.4265 
N1179 X-333.732 Y-33.484 Z13.841 A318.8263 B4.4855 
N1180 X-333.660 Y-33.158 Z13.675 A319.2355 B4.5451 
N1181 X-333.587 Y-32.833 Z13.511 A319.6519 B4.6052 
N1182 X-333.513 Y-32.510 Z13.350 A320.0756 B4.6660 
N1183 X-333.439 Y-32.187 Z13.192 A320.5067 B4.7274 
N1184 X-333.364 Y-31.865 Z13.036 A320.9451 B4.7895 
N1185 X-333.289 Y-31.544 Z12.882 A321.3910 B4.8522 
N1186 X-333.213 Y-31.225 Z12.731 A321.8445 B4.9156 
N1187 X-333.136 Y-30.906 Z12.583 A322.3057 B4.9796 
N1188 X-333.059 Y-30.589 Z12.437 A322.7745 B5.0443 
N1189 X-332.982 Y-30.273 Z12.294 A323.2511 B5.1096 
N1190 X-332.903 Y-29.958 Z12.154 A323.7354 B5.1754 
N1191 X-332.824 Y-29.644 Z12.016 A324.2274 B5.2418 
N1192 X-332.745 Y-29.331 Z11.881 A324.7271 B5.3088 
N1193 X-332.665 Y-29.019 Z11.749 A325.2345 B5.3763 
N1194 X-332.584 Y-28.708 Z11.619 A325.7495 B5.4442 
N1195 X-332.503 Y-28.398 Z11.492 A326.2721 B5.5125 
N1196 X-332.421 Y-28.089 Z11.368 A326.8021 B5.5812 
N1197 X-332.338 Y-27.782 Z11.246 A327.3395 B5.6503 
N1198 X-332.254 Y-27.475 Z11.128 A327.8841 B5.7196 
N1199 X-332.170 Y-27.169 Z11.012 A328.4359 B5.7891 
N1200 X-332.085 Y-26.864 Z10.898 A328.9947 B5.8588 
N1201 X-331.999 Y-26.560 Z10.788 A329.5604 B5.9288 
N1202 X-331.913 Y-26.257 Z10.680 A330.1327 B5.9988 
N1203 X-331.825 Y-25.954 Z10.575 A330.7116 B6.0688 
N1204 X-331.737 Y-25.652 Z10.473 A331.2968 B6.1388 
N1205 X-331.648 Y-25.351 Z10.374 A331.8882 B6.2089 
N1206 X-331.558 Y-25.051 Z10.278 A332.4855 B6.2788 
N1207 X-331.467 Y-24.751 Z10.184 A333.0885 B6.3485 
N1208 X-331.376 Y-24.452 Z10.094 A333.6969 B6.4181 
N1209 X-331.283 Y-24.153 Z10.006 A334.3106 B6.4874 
N1210 X-331.189 Y-23.854 Z9.921 A334.9292 B6.5564 
N1211 X-331.095 Y-23.556 Z9.840 A335.5524 B6.6250 
N1212 X-330.999 Y-23.259 Z9.761 A336.1799 B6.6931 
N1213 X-330.902 Y-22.961 Z9.685 A336.8114 B6.7608 
N1214 X-330.804 Y-22.664 Z9.612 A337.4467 B6.8281 
N1215 X-330.705 Y-22.367 Z9.543 A338.0853 B6.8947 
N1216 X-330.605 Y-22.070 Z9.476 A338.7269 B6.9607 
N1217 X-330.503 Y-21.773 Z9.413 A339.3711 B7.0259 
N1218 X-330.401 Y-21.476 Z9.353 A340.0175 B7.0905 
N1219 X-330.297 Y-21.178 Z9.296 A340.6658 B7.1543 
N1220 X-330.191 Y-20.881 Z9.242 A341.3155 B7.2173 
N1221 X-330.085 Y-20.583 Z9.191 A341.9662 B7.2793 
N1222 X-329.977 Y-20.285 Z9.144 A342.6174 B7.3404 
N1223 X-329.867 Y-19.987 Z9.100 A343.2687 B7.4006 
N1224 X-329.756 Y-19.688 Z9.060 A343.9196 B7.4598 
N1225 X-329.644 Y-19.389 Z9.023 A344.5697 B7.5180 
N1226 X-329.530 Y-19.089 Z8.989 A345.2185 B7.5750 
N1227 X-329.414 Y-18.788 Z8.959 A345.8654 B7.6309 
N1228 X-329.297 Y-18.487 Z8.933 A346.5099 B7.6857 
N1229 X-329.178 Y-18.184 Z8.910 A347.1516 B7.7393 
N1230 X-329.058 Y-17.881 Z8.891 A347.7898 B7.7916 
N1231 X-328.935 Y-17.577 Z8.876 A348.4241 B7.8427 
N1232 X-328.811 Y-17.272 Z8.864 A349.0538 B7.8926 
N1233 X-328.686 Y-16.966 Z8.857 A349.6784 B7.9412 
N1234 X-328.558 Y-16.658 Z8.853 A350.2973 B7.9884 
N1235 X-328.428 Y-16.350 Z8.853 A350.9100 B8.0342 
N1236 X-328.297 Y-16.040 Z8.858 A351.5159 B8.0787 
N1237 X-328.164 Y-15.729 Z8.866 A352.1145 B8.1218 
N1238 X-328.028 Y-15.416 Z8.879 A352.7052 B8.1636 
N1239 X-327.891 Y-15.103 Z8.896 A353.2876 B8.2039 
N1240 X-327.751 Y-14.787 Z8.917 A353.8611 B8.2428 
N1241 X-327.610 Y-14.470 Z8.942 A354.4253 B8.2802 
N1242 X-327.466 Y-14.152 Z8.971 A354.9800 B8.3164 
N1243 X-327.320 Y-13.831 Z9.005 A355.5248 B8.3512 
N1244 X-327.173 Y-13.509 Z9.043 A356.0593 B8.3848 
N1245 X-327.022 Y-13.185 Z9.086 A356.5832 B8.4171 
N1246 X-326.870 Y-12.859 Z9.133 A357.0962 B8.4482 
N1247 X-326.716 Y-12.531 Z9.184 A357.5978 B8.4782 
N1248 X-326.559 Y-12.201 Z9.241 A358.0874 B8.5073 
N1249 X-326.399 Y-11.868 Z9.301 A358.5641 B8.5352 
N1250 X-326.238 Y-11.533 Z9.367 A359.0269 B8.5621 
N1251 X-326.073 Y-11.196 Z9.438 A359.4744 B8.5878 
N1252 X-325.906 Y-10.855 Z9.514 A359.9053 B8.6124 
N1253 X-325.736 Y-10.512 Z9.595 A0.3176 B8.6356 
N1254 X-325.563 Y-10.165 Z9.682 A0.7097 B8.6576 
N1255 X-325.388 Y-9.816 Z9.775 A1.0795 B8.6778 
N1256 X-325.209 Y-9.463 Z9.873 A1.4253 B8.6963 
N1257 X-325.027 Y-9.107 Z9.977 A1.7455 B8.7131 
N1258 X-324.842 Y-8.747 Z10.086 A2.0388 B8.7280 
N1259 X-324.654 Y-8.385 Z10.202 A2.3045 B8.7412 
N1260 X-324.463 Y-8.019 Z10.322 A2.5418 B8.7526 
N1261 X-324.269 Y-7.649 Z10.448 A2.7506 B8.7622 
N1262 X-324.073 Y-7.277 Z10.578 A2.9312 B8.7702 
N1263 X-323.874 Y-6.902 Z10.714 A3.0840 B8.7769 
N1264 X-323.674 Y-6.525 Z10.853 A3.2094 B8.7822 
N1265 X-323.471 Y-6.146 Z10.996 A3.3078 B8.7863 
N1266 X-323.268 Y-5.765 Z11.143 A3.3798 B8.7893 
N1267 X-323.063 Y-5.384 Z11.292 A3.4257 B8.7915 
N1268 X-322.858 Y-5.003 Z11.444 A3.4455 B8.7927 
N1269 X-322.653 Y-4.621 Z11.598 A3.4388 B8.7922 
N1270 X-322.448 Y-4.242 Z11.754 A3.4056 B8.7905 
N1271 X-322.244 Y-3.864 Z11.911 A3.3463 B8.7890 
N1272 X-322.041 Y-3.488 Z12.069 A3.2600 B8.7875 
N1273 X-321.839 Y-3.116 Z12.227 A3.1438 B8.7809 
N1274 X-321.639 Y-2.748 Z12.386 A2.9982 B8.7731 
N1275 X-321.443 Y-2.384 Z12.544 A2.8246 B8.7691 
N1276 X-321.248 Y-2.025 Z12.701 A2.6183 B8.7618 
N1277 X-321.057 Y-1.673 Z12.858 A2.3767 B8.7491 
N1278 X-320.868 Y-1.326 Z13.014 A2.1006 B8.7356 
N1279 X-320.684 Y-0.986 Z13.168 A1.7895 B8.7233 
N1280 X-320.504 Y-0.653 Z13.321 A1.4403 B8.7083 
N1281 X-320.327 Y-0.327 Z13.472 A1.0516 B8.6898 
N1282 X-320.154 Y-0.009 Z13.621 A0.6221 B8.6664 
N1283 X-319.985 Y0.301 Z13.768 A0.1529 B8.6410 
N1284 X-319.822 Y0.605 Z13.913 A359.6459 B8.6178 
N1285 X-319.663 Y0.900 Z14.055 A359.0980 B8.5898 
N1286 X-319.507 Y1.186 Z14.194 A358.5071 B8.5516 
N1287 X-319.358 Y1.464 Z14.331 A357.8804 B8.5184 
N1288 X-319.214 Y1.735 Z14.465 A357.2149 B8.4837 
N1289 X-319.072 Y1.996 Z14.596 A356.5058 B8.4368 
N1290 X-318.937 Y2.249 Z14.725 A355.7598 B8.3927 
N1291 X-318.807 Y2.494 Z14.851 A354.9747 B8.3465 
N1292 X-318.680 Y2.730 Z14.974 A354.1471 B8.2896 
N1293 X-318.558 Y2.958 Z15.095 A353.2818 B8.2301 
N1294 X-318.441 Y3.178 Z15.214 A352.3810 B8.1712 
N1295 X-318.329 Y3.388 Z15.329 A351.4410 B8.1040 
N1296 X-318.221 Y3.591 Z15.443 A350.4637 B8.0346 
N1297 X-318.119 Y3.787 Z15.556 A349.4479 B7.9647 
N1298 X-318.020 Y3.973 Z15.667 A348.3875 B7.8855 
N1299 X-317.924 Y4.153 Z15.778 A347.2816 B7.8003 
N1300 X-317.831 Y4.325 Z15.888 A346.1276 B7.7047 
N1301 X-317.741 Y4.489 Z15.997 A344.9277 B7.6024 
N1302 X-317.653 Y4.647 Z16.106 A343.6817 B7.4871 
N1303 X-317.568 Y4.799 Z16.215 A342.3958 B7.3674 
N1304 X-317.486 Y4.946 Z16.323 A341.0726 B7.2424 
N1305 X-317.406 Y5.087 Z16.431 A339.7123 B7.1070 
N1306 X-317.329 Y5.225 Z16.539 A338.3196 B6.9708 
N1307 X-317.254 Y5.358 Z16.648 A336.8920 B6.8271 
N1308 X-317.178 Y5.488 Z16.756 A335.4272 B6.6696 
N1309 X-317.104 Y5.615 Z16.865 A333.9270 B6.5040 
N1310 X-317.031 Y5.740 Z16.975 A332.3928 B6.3328 
N1311 X-316.957 Y5.863 Z17.086 A330.8227 B6.1470 
N1312 X-316.882 Y5.985 Z17.196 A329.2194 B5.9465 
N1313 X-316.806 Y6.107 Z17.307 A327.5872 B5.7342 
N1314 X-316.729 Y6.229 Z17.418 A325.9309 B5.5126 
N1315 X-316.652 Y6.351 Z17.528 A324.2555 B5.2831 
N1316 X-316.575 Y6.475 Z17.638 A322.5657 B5.0454 
N1317 X-316.497 Y6.599 Z17.745 A320.8660 B4.8003 
N1318 X-316.419 Y6.725 Z17.851 A319.1607 B4.5490 
N1319 X-316.341 Y6.853 Z17.954 A317.4536 B4.2922 
N1320 X-316.262 Y6.983 Z18.055 A315.7478 B4.0304 
N1321 X-316.184 Y7.114 Z18.153 A314.0457 B3.7640 
N1322 X-316.105 Y7.247 Z18.247 A312.3492 B3.4939 
N1323 X-316.027 Y7.383 Z18.338 A310.6598 B3.2227 
N1324 X-315.949 Y7.521 Z18.425 A308.9782 B2.9502 
N1325 X-315.872 Y7.661 Z18.508 A307.3045 B2.6763 
N1326 X-315.794 Y7.803 Z18.588 A305.6384 B2.4004 
N1327 X-315.717 Y7.947 Z18.663 A303.9793 B2.1220 
N1328 X-315.639 Y8.094 Z18.734 A302.3267 B1.8409 
N1329 X-315.562 Y8.242 Z18.800 A300.6797 B1.5564 
N1330 X-315.483 Y8.394 Z18.862 A299.0372 B1.2681 
N1331 X-315.405 Y8.547 Z18.919 A297.3985 B0.9766 
N1332 X-315.327 Y8.703 Z18.972 A295.7627 B0.6860 
N1333 X-315.250 Y8.861 Z19.019 A294.1286 B0.3963 
N1334 X-315.173 Y9.022 Z19.062 A292.4952 B0.1069 
N1335 X-315.097 Y9.184 Z19.099 A290.8613 B-0.1829 
N1336 X-315.021 Y9.350 Z19.130 A289.2263 B-0.4737 
N1337 X-314.945 Y9.517 Z19.156 A287.5895 B-0.7661 
N1338 X-314.870 Y9.687 Z19.176 A285.9506 B-1.0610 
N1339 X-314.793 Y9.858 Z19.189 A284.3097 B-1.3590 
N1340 X-314.717 Y10.032 Z19.196 A282.6672 B-1.6611 
N1341 X-314.640 Y10.207 Z19.196 A281.0238 B-1.9646 
N1342 X-314.566 Y10.383 Z19.189 A279.3802 B-2.2640 
N1343 X-314.493 Y10.560 Z19.174 A277.7379 B-2.5595 
N1344 X-314.422 Y10.738 Z19.152 A276.0992 B-2.8514 
N1345 X-314.353 Y10.915 Z19.122 A274.4668 B-3.1395 
N1346 X-314.286 Y11.092 Z19.083 A272.8441 B-3.4239 
N1347 X-314.222 Y11.268 Z19.036 A271.2351 B-3.7042 
N1348 X-314.160 Y11.441 Z18.980 A269.6443 B-3.9798 
N1349 X-314.101 Y11.612 Z18.915 A268.0761 B-4.2486 
N1350 X-314.046 Y11.779 Z18.842 A266.5348 B-4.5077 
N1351 X-313.997 Y11.942 Z18.759 A265.0246 B-4.7551 
N1352 X-313.953 Y12.100 Z18.669 A263.5489 B-4.9881 
N1353 X-313.916 Y12.253 Z18.570 A262.1094 B-5.2031 
N1354 X-313.886 Y12.399 Z18.463 A260.7076 B-5.3998 
N1355 X-313.861 Y12.540 Z18.347 A259.3469 B-5.5904 
N1356 X-313.840 Y12.675 Z18.222 A258.0254 B-5.7724 
N1357 X-313.826 Y12.804 Z18.089 A256.7394 B-5.9396 
N1358 X-313.820 Y12.927 Z17.947 A255.4866 B-6.0928 
N1359 X-313.816 Y13.044 Z17.795 A254.2696 B-6.2475 
N1360 X-313.818 Y13.155 Z17.634 A253.0849 B-6.3964 
N1361 X-313.825 Y13.259 Z17.463 A251.9310 B-6.5355 
N1362 X-313.838 Y13.357 Z17.283 A250.8120 B-6.6736 
N1363 X-313.857 Y13.447 Z17.095 A249.7258 B-6.8003 
N1364 X-313.883 Y13.530 Z16.898 A248.6744 B-6.9181 
N1365 X-313.916 Y13.606 Z16.692 A247.6576 B-7.0266 
N1366 X-313.956 Y13.674 Z16.478 A246.6736 B-7.1254 
N1367 X-314.002 Y13.735 Z16.256 A245.7208 B-7.2184 
N1368 X-314.055 Y13.789 Z16.027 A244.7944 B-7.3027 
N1369 X-314.111 Y13.836 Z15.788 A243.8957 B-7.3913 
N1370 X-314.173 Y13.876 Z15.541 A243.0175 B-7.4725 
N1371 X-314.241 Y13.910 Z15.287 A242.1603 B-7.5516 
N1372 X-314.312 Y13.936 Z15.026 A241.3245 B-7.6305 
N1373 X-314.390 Y13.955 Z14.758 A240.5085 B-7.7057 
N1374 X-314.473 Y13.968 Z14.485 A239.7098 B-7.7712 
N1375 X-314.561 Y13.973 Z14.206 A238.9311 B-7.8353 
N1376 X-314.652 Y13.972 Z13.921 A238.1733 B-7.9021 
N1377 X-314.750 Y13.965 Z13.632 A237.4296 B-7.9583 
N1378 X-314.852 Y13.950 Z13.339 A236.7019 B-8.0114 
N1379 X-314.956 Y13.930 Z13.041 A235.9921 B-8.0686 
N1380 X-315.064 Y13.903 Z12.740 A235.2960 B-8.1221 
N1381 X-315.177 Y13.871 Z12.437 A234.6109 B-8.1684 
N1382 X-315.293 Y13.833 Z12.131 A233.9381 B-8.2129 
N1383 X-315.411 Y13.789 Z11.822 A233.2779 B-8.2595 
N1384 X-315.532 Y13.740 Z11.512 A232.6274 B-8.3040 
N1385 X-315.656 Y13.686 Z11.200 A231.9844 B-8.3452 
N1386 X-315.783 Y13.627 Z10.887 A231.3476 B-8.3841 
N1387 X-315.912 Y13.564 Z10.574 A230.7156 B-8.4212 
N1388 X-316.042 Y13.496 Z10.259 A230.0871 B-8.4577 
N1389 X-316.173 Y13.425 Z9.945 A229.4613 B-8.4955 
N1390 X-316.306 Y13.349 Z9.630 A228.8362 B-8.5332 
N1391 X-316.441 Y13.270 Z9.315 A228.2095 B-8.5688 
N1392 X-316.577 Y13.187 Z9.001 A227.5794 B-8.6004 
N1393 X-316.714 Y13.101 Z8.688 A226.9475 B-8.6333 
N1394 X-316.851 Y13.012 Z8.375 A226.3135 B-8.6679 
N1395 X-316.988 Y12.919 Z8.064 A225.6760 B-8.7020 
N1396 X-317.127 Y12.823 Z7.754 A225.0339 B-8.7339 
N1397 X-317.267 Y12.725 Z7.446 A224.3867 B-8.7630 
N1398 X-317.407 Y12.623 Z7.139 A223.7356 B-8.7924 
N1399 X-317.547 Y12.518 Z6.834 A223.0801 B-8.8217 
N1400 X-317.687 Y12.411 Z6.531 A222.4195 B-8.8501 
N1401 X-317.828 Y12.301 Z6.230 A221.7531 B-8.8774 
N1402 X-317.969 Y12.188 Z5.931 A221.0803 B-8.9035 
N1403 X-318.110 Y12.074 Z5.634 A220.4007 B-8.9288 
N1404 X-318.250 Y11.956 Z5.340 A219.7137 B-8.9535 
N1405 X-318.391 Y11.837 Z5.048 A219.0185 B-8.9774 
N1406 X-318.532 Y11.715 Z4.758 A218.3146 B-9.0005 
N1407 X-318.672 Y11.591 Z4.471 A217.6015 B-9.0228 
N1408 X-318.812 Y11.465 Z4.187 A216.8786 B-9.0442 
N1409 X-318.952 Y11.337 Z3.905 A216.1457 B-9.0646 
N1410 X-319.091 Y11.207 Z3.626 A215.4024 B-9.0842 
N1411 X-319.230 Y11.075 Z3.349 A214.6487 B-9.1028 
N1412 X-319.368 Y10.941 Z3.075 A213.8843 B-9.1203 
N1413 X-319.507 Y10.805 Z2.805 A213.1091 B-9.1366 
N1414 X-319.644 Y10.667 Z2.537 A212.3231 B-9.1517 
N1415 X-319.781 Y10.527 Z2.271 A211.5265 B-9.1656 
N1416 X-319.918 Y10.385 Z2.009 A210.7192 B-9.1784 
N1417 X-320.054 Y10.242 Z1.750 A209.9013 B-9.1898 
N1418 X-320.190 Y10.096 Z1.494 A209.0728 B-9.1997 
N1419 X-320.325 Y9.949 Z1.241 A208.2338 B-9.2081 
N1420 X-320.460 Y9.800 Z0.991 A207.3844 B-9.2149 
N1421 X-320.594 Y9.649 Z0.744 A206.5249 B-9.2203 
N1422 X-320.728 Y9.496 Z0.500 A205.6553 B-9.2243 
N1423 X-320.861 Y9.341 Z0.259 A204.7757 B-9.2264 
N1424 X-320.993 Y9.185 Z0.022 A203.8862 B-9.2267 
N1425 X-321.126 Y9.026 Z-0.213 A202.9870 B-9.2252 
N1426 X-321.257 Y8.865 Z-0.444 A202.0784 B-9.2219 
N1427 X-321.388 Y8.703 Z-0.672 A201.1608 B-9.2168 
N1428 X-321.519 Y8.539 Z-0.897 A200.2342 B-9.2099 
N1429 X-321.649 Y8.372 Z-1.118 A199.2989 B-9.2009 
N1430 X-321.779 Y8.204 Z-1.337 A198.3552 B-9.1897 
N1431 X-321.909 Y8.034 Z-1.552 A197.4035 B-9.1764 
N1432 X-322.037 Y7.861 Z-1.764 A196.4442 B-9.1611 
N1433 X-322.166 Y7.687 Z-1.972 A195.4777 B-9.1438 
N1434 X-322.294 Y7.511 Z-2.178 A194.5043 B-9.1243 
N1435 X-322.422 Y7.332 Z-2.380 A193.5244 B-9.1025 
N1436 X-322.549 Y7.152 Z-2.578 A192.5385 B-9.0783 
N1437 X-322.676 Y6.969 Z-2.773 A191.5468 B-9.0518 
N1438 X-322.803 Y6.784 Z-2.965 A190.5501 B-9.0231 
N1439 X-322.929 Y6.597 Z-3.154 A189.5486 B-8.9921 
N1440 X-323.055 Y6.408 Z-3.339 A188.5429 B-8.9589 
N1441 X-323.180 Y6.216 Z-3.520 A187.5335 B-8.9232 
N1442 X-323.306 Y6.023 Z-3.698 A186.5207 B-8.8851 
N1443 X-323.431 Y5.827 Z-3.872 A185.5051 B-8.8446 
N1444 X-323.556 Y5.628 Z-4.043 A184.4873 B-8.8017 
N1445 X-323.680 Y5.428 Z-4.211 A183.4678 B-8.7565 
N1446 X-323.805 Y5.225 Z-4.374 A182.4472 B-8.7089 
N1447 X-323.929 Y5.019 Z-4.534 A181.4259 B-8.6590 
N1448 X-324.052 Y4.811 Z-4.691 A180.4045 B-8.6069 
N1449 X-324.176 Y4.601 Z-4.843 A179.3836 B-8.5524 
N1450 X-324.299 Y4.388 Z-4.992 A178.3636 B-8.4956 
N1451 X-324.422 Y4.173 Z-5.137 A177.3451 B-8.4366 
N1452 X-324.545 Y3.955 Z-5.278 A176.3285 B-8.3753 
N1453 X-324.668 Y3.735 Z-5.415 A175.3145 B-8.3119 
N1454 X-324.791 Y3.512 Z-5.549 A174.3035 B-8.2465 
N1455 X-324.913 Y3.286 Z-5.678 A173.2960 B-8.1791 
N1456 X-325.035 Y3.058 Z-5.803 A172.2924 B-8.1096 
N1457 X-325.157 Y2.827 Z-5.924 A171.2932 B-8.0380 
N1458 X-325.279 Y2.594 Z-6.041 A170.2989 B-7.9643 
N1459 X-325.400 Y2.358 Z-6.154 A169.3099 B-7.8890 
N1460 X-325.521 Y2.119 Z-6.263 A168.3269 B-7.8121 
N1461 X-325.642 Y1.878 Z-6.367 A167.3502 B-7.7335 
N1462 X-325.763 Y1.634 Z-6.467 A166.3801 B-7.6532 
N1463 X-325.883 Y1.387 Z-6.563 A165.4172 B-7.5712 
N1464 X-326.004 Y1.137 Z-6.654 A164.4618 B-7.4876 
N1465 X-326.124 Y0.885 Z-6.740 A163.5143 B-7.4027 
N1466 X-326.243 Y0.630 Z-6.822 A162.5753 B-7.3168 
N1467 X-326.363 Y0.372 Z-6.900 A161.6450 B-7.2297 
N1468 X-326.481 Y0.112 Z-6.973 A160.7237 B-7.1414 
N1469 X-326.600 Y-0.151 Z-7.041 A159.8117 B-7.0519 
N1470 X-326.718 Y-0.417 Z-7.104 A158.9093 B-6.9612 
N1471 X-326.836 Y-0.686 Z-7.162 A158.0169 B-6.8700 
N1472 X-326.954 Y-0.957 Z-7.216 A157.1349 B-6.7781 
N1473 X-327.071 Y-1.232 Z-7.265 A156.2633 B-6.6856 
N1474 X-327.187 Y-1.508 Z-7.309 A155.4025 B-6.5923 
N1475 X-327.303 Y-1.788 Z-7.347 A154.5526 B-6.4984 
N1476 X-327.419 Y-2.070 Z-7.381 A153.7140 B-6.4041 
N1477 X-327.534 Y-2.355 Z-7.410 A152.8870 B-6.3097 
N1478 X-327.648 Y-2.642 Z-7.433 A152.0717 B-6.2152 
N1479 X-327.762 Y-2.932 Z-7.451 A151.2683 B-6.1205 
N1480 X-327.875 Y-3.224 Z-7.464 A150.4769 B-6.0257 
N1481 X-327.988 Y-3.520 Z-7.472 A149.6977 B-5.9309 
N1482 X-328.100 Y-3.817 Z-7.475 A148.9310 B-5.8364 
N1483 X-328.211 Y-4.117 Z-7.472 A148.1767 B-5.7423 
N1484 X-328.321 Y-4.420 Z-7.464 A147.4350 B-5.6485 
N1485 X-328.431 Y-4.724 Z-7.450 A146.7059 B-5.5550 
N1486 X-328.540 Y-5.032 Z-7.432 A145.9894 B-5.4621 
N1487 X-328.648 Y-5.341 Z-7.407 A145.2856 B-5.3697 
N1488 X-328.755 Y-5.653 Z-7.378 A144.5943 B-5.2781 
N1489 X-328.862 Y-5.967 Z-7.343 A143.9156 B-5.1871 
N1490 X-328.967 Y-6.283 Z-7.303 A143.2494 B-5.0969 
N1491 X-329.072 Y-6.601 Z-7.258 A142.5954 B-5.0074 
N1492 X-329.176 Y-6.921 Z-7.207 A141.9537 B-4.9187 
N1493 X-329.278 Y-7.243 Z-7.151 A141.3240 B-4.8308 
N1494 X-329.380 Y-7.567 Z-7.090 A140.7063 B-4.7437 
N1495 X-329.481 Y-7.893 Z-7.023 A140.1004 B-4.6575 
N1496 X-329.581 Y-8.220 Z-6.952 A139.5062 B-4.5722 
N1497 X-329.680 Y-8.550 Z-6.875 A138.9236 B-4.4878 
N1498 X-329.778 Y-8.881 Z-6.793 A138.3526 B-4.4044 
N1499 X-329.875 Y-9.214 Z-6.705 A137.7930 B-4.3220 
N1500 X-329.971 Y-9.548 Z-6.613 A137.2448 B-4.2406 
N1501 X-330.065 Y-9.884 Z-6.516 A136.7079 B-4.1603 
N1502 X-330.159 Y-10.221 Z-6.413 A136.1822 B-4.0812 
N1503 X-330.252 Y-10.560 Z-6.306 A135.6677 B-4.0033 
N1504 X-330.343 Y-10.900 Z-6.194 A135.1643 B-3.9266 
N1505 X-330.433 Y-11.241 Z-6.076 A134.6719 B-3.8511 
N1506 X-330.523 Y-11.584 Z-5.954 A134.1904 B-3.7768 
N1507 X-330.611 Y-11.928 Z-5.827 A133.7195 B-3.7039 
N1508 X-330.698 Y-12.273 Z-5.695 A133.2593 B-3.6322 
N1509 X-330.783 Y-12.619 Z-5.559 A132.8094 B-3.5617 
N1510 X-330.868 Y-12.966 Z-5.418 A132.3699 B-3.4926 
N1511 X-330.951 Y-13.314 Z-5.272 A131.9404 B-3.4247 
N1512 X-331.034 Y-13.663 Z-5.122 A131.5210 B-3.3580 
N1513 X-331.115 Y-14.014 Z-4.967 A131.1113 B-3.2926 
N1514 X-331.195 Y-14.365 Z-4.808 A130.7114 B-3.2284 
N1515 X-331.274 Y-14.717 Z-4.644 A130.3210 B-3.1655 
N1516 X-331.352 Y-15.070 Z-4.476 A129.9401 B-3.1038 
N1517 X-331.429 Y-15.424 Z-4.304 A129.5686 B-3.0433 
N1518 X-331.505 Y-15.778 Z-4.127 A129.2063 B-2.9841 
N1519 X-331.579 Y-16.133 Z-3.946 A128.8532 B-2.9261 
N1520 X-331.653 Y-16.490 Z-3.762 A128.5093 B-2.8695 
N1521 X-331.725 Y-16.846 Z-3.573 A128.1746 B-2.8141 
N1522 X-331.797 Y-17.204 Z-3.380 A127.8489 B-2.7601 
N1523 X-331.867 Y-17.562 Z-3.183 A127.5323 B-2.7074 
N1524 X-331.936 Y-17.921 Z-2.982 A127.2247 B-2.6562 
N1525 X-332.004 Y-18.280 Z-2.777 A126.9261 B-2.6064 
N1526 X-332.071 Y-18.641 Z-2.569 A126.6364 B-2.5581 
N1527 X-332.137 Y-19.001 Z-2.357 A126.3553 B-2.5111 
N1528 X-332.202 Y-19.363 Z-2.141 A126.0829 B-2.4656 
N1529 X-332.266 Y-19.724 Z-1.922 A125.8189 B-2.4215 
N1530 X-332.329 Y-20.087 Z-1.699 A125.5631 B-2.3787 
N1531 X-332.390 Y-20.450 Z-1.472 A125.3153 B-2.3371 
N1532 X-332.451 Y-20.813 Z-1.243 A125.0754 B-2.2968 
N1533 X-332.512 Y-21.177 Z-1.010 A124.8431 B-2.2577 
N1534 X-332.571 Y-21.542 Z-0.774 A124.6182 B-2.2197 
N1535 X-332.629 Y-21.907 Z-0.535 A124.4007 B-2.1829 
N1536 X-332.687 Y-22.272 Z-0.292 A124.1903 B-2.1472 
N1537 X-332.743 Y-22.638 Z-0.047 A123.9869 B-2.1126 
N1538 X-332.799 Y-23.005 Z0.201 A123.7904 B-2.0791 
N1539 X-332.854 Y-23.371 Z0.452 A123.6006 B-2.0467 
N1540 X-332.908 Y-23.739 Z0.706 A123.4176 B-2.0154 
N1541 X-332.962 Y-24.106 Z0.963 A123.2411 B-1.9851 
N1542 X-333.014 Y-24.474 Z1.222 A123.0711 B-1.9559 
N1543 X-333.066 Y-24.843 Z1.484 A122.9075 B-1.9278 
N1544 X-333.118 Y-25.212 Z1.748 A122.7503 B-1.9006 
N1545 X-333.168 Y-25.581 Z2.015 A122.5995 B-1.8745 
N1546 X-333.218 Y-25.951 Z2.285 A122.4549 B-1.8495 
N1547 X-333.267 Y-26.321 Z2.556 A122.3165 B-1.8255 
N1548 X-333.316 Y-26.692 Z2.831 A122.1844 B-1.8026 
N1549 X-333.364 Y-27.063 Z3.107 A122.0584 B-1.7807 
N1550 X-333.411 Y-27.434 Z3.386 A121.9386 B-1.7599 
N1551 X-333.458 Y-27.805 Z3.666 A121.8249 B-1.7403 
N1552 X-333.504 Y-28.177 Z3.949 A121.7173 B-1.7217 
N1553 X-333.549 Y-28.548 Z4.233 A121.6156 B-1.7043 
N1554 X-333.594 Y-28.919 Z4.518 A121.5198 B-1.6879 
N1555 X-333.638 Y-29.289 Z4.804 A121.4298 B-1.6724 
N1556 X-333.681 Y-29.658 Z5.092 A121.3453 B-1.6580 
N1557 X-333.724 Y-30.026 Z5.379 A121.2664 B-1.6453 
N1558 X-333.766 Y-30.391 Z5.665 A121.1928 B-1.6325 
N1559 X-333.807 Y-30.753 Z5.951 A121.1243 B-1.6207 
N1560 X-333.847 Y-31.110 Z6.233 A121.0608 B-1.6114 
N1561 X-333.887 Y-31.462 Z6.513 A121.0019 B-1.6020 
N1562 X-333.925 Y-31.807 Z6.788 A120.9471 B-1.5931 
N1563 X-333.962 Y-32.144 Z7.056 A120.8962 B-1.5854 
N1564 X-333.997 Y-32.470 Z7.317 A120.8488 B-1.5791 
N1565 X-334.031 Y-32.784 Z7.569 A120.8043 B-1.5732 
N1566 X-334.064 Y-33.085 Z7.811 A120.7621 B-1.5664 
N1567 X-334.094 Y-33.370 Z8.040 A120.7220 B-1.5615 
N1568 X-334.123 Y-33.638 Z8.256 A120.6833 B-1.5575 
N1569 X-334.150 Y-33.888 Z8.457 A120.6452 B-1.5516 
N1570 X-334.174 Y-34.119 Z8.642 A120.6074 B-1.5482 
N1571 X-334.196 Y-34.330 Z8.811 A120.5690 B-1.5454 
N1572 X-334.216 Y-34.520 Z8.963 A120.5287 B-1.5412 
N1573 X-334.234 Y-34.690 Z9.099 A120.4856 B-1.5397 
N1574 X-334.249 Y-34.841 Z9.217 A120.4379 B-1.5379 
N1575 X-334.263 Y-34.973 Z9.320 A120.3835 B-1.5345 
N1576 X-334.275 Y-35.088 Z9.408 A120.3203 B-1.5308 
N1577 X-334.287 Y-35.187 Z9.481 A120.2458 B-1.5240 
N1578 X-334.300 Y-35.272 Z9.541 A120.1576 B-1.5034 
N1579 X-334.316 Y-35.347 Z9.587 A120.0203 B-1.4677 
N1580 X-334.345 Y-35.428 Z9.612 A119.6330 B-1.3747 
N1581 X-334.392 Y-35.543 Z9.601 A118.6923 B-1.2079 
N1582 X-334.468 Y-35.703 Z9.554 A117.0877 B-0.9285 
N1583 X-334.580 Y-35.934 Z9.467 A114.5761 B-0.5068 
N1584 X-334.723 Y-36.200 Z9.370 A111.6618 B0.0322 
N1585 X-334.884 Y-36.473 Z9.285 A108.7316 B0.6392 
N1586 X-335.047 Y-36.748 Z9.216 A105.8363 B1.2616 
N1587 X-335.202 Y-37.022 Z9.163 A103.0057 B1.8532 
N1588 X-335.346 Y-37.291 Z9.126 A100.2636 B2.4009 
N1589 X-335.473 Y-37.552 Z9.104 A97.6250 B2.8892 
N1590 X-335.586 Y-37.802 Z9.096 A95.0950 B3.3253 
N1591 X-335.690 Y-38.043 Z9.099 A92.6718 B3.7239 
N1592 X-335.780 Y-38.272 Z9.113 A90.3478 B4.0737 
N1593 X-335.863 Y-38.492 Z9.136 A88.1156 B4.3962 
N1594 X-335.939 Y-38.702 Z9.166 A85.9647 B4.6935 
N1595 X-336.011 Y-38.904 Z9.205 A83.8847 B4.9729 
N1596 X-336.078 Y-39.098 Z9.250 A81.8654 B5.2371 
N1597 X-336.143 Y-39.285 Z9.302 A79.8976 B5.4905 
N1598 X-336.204 Y-39.466 Z9.360 A77.9726 B5.7329 
N1599 X-336.263 Y-39.641 Z9.423 A76.0833 B5.9676 
N1600 X-336.320 Y-39.810 Z9.493 A74.2232 B6.1938 
N1601 X-336.376 Y-39.975 Z9.567 A72.3873 B6.4137 
N1602 X-336.428 Y-40.134 Z9.646 A70.5693 B6.6226 
N1603 X-336.478 Y-40.290 Z9.730 A68.7656 B6.8232 
N1604 X-336.525 Y-40.440 Z9.818 A66.9720 B7.0120 
N1605 X-336.569 Y-40.587 Z9.911 A65.1865 B7.1943 
N1606 X-336.611 Y-40.729 Z10.007 A63.4055 B7.3655 
N1607 X-336.651 Y-40.868 Z10.108 A61.6275 B7.5298 
N1608 X-336.689 Y-41.002 Z10.212 A59.8500 B7.6852 
N1609 X-336.724 Y-41.133 Z10.320 A58.0712 B7.8325 
N1610 X-336.758 Y-41.260 Z10.432 A56.2896 B7.9729 
N1611 X-336.789 Y-41.382 Z10.548 A54.5034 B8.1047 
N1612 X-336.818 Y-41.501 Z10.666 A52.7118 B8.2293 
N1613 X-336.845 Y-41.617 Z10.789 A50.9136 B8.3470 
N1614 X-336.870 Y-41.728 Z10.914 A49.1079 B8.4569 
N1615 X-336.893 Y-41.835 Z11.043 A47.2941 B8.5595 
N1616 X-336.914 Y-41.938 Z11.174 A45.4716 B8.6547 
N1617 X-336.932 Y-42.038 Z11.308 A43.6400 B8.7419 
N1618 X-336.949 Y-42.133 Z11.445 A41.7990 B8.8213 
N1619 X-336.964 Y-42.224 Z11.585 A39.9485 B8.8928 
N1620 X-336.976 Y-42.312 Z11.727 A38.0884 B8.9563 
N1621 X-336.986 Y-42.395 Z11.871 A36.2189 B9.0117 
N1622 X-336.994 Y-42.474 Z12.017 A34.3400 B9.0588 
N1623 X-337.000 Y-42.549 Z12.165 A32.4518 B9.0976 
N1624 X-337.004 Y-42.619 Z12.315 A30.5544 B9.1282 
N1625 X-337.006 Y-42.686 Z12.467 A28.6481 B9.1506 
N1626 X-337.005 Y-42.748 Z12.620 A26.7329 B9.1648 
N1627 X-337.002 Y-42.806 Z12.775 A24.8088 B9.1711 
N1628 X-336.998 Y-42.860 Z12.932 A22.8755 B9.1694 
N1629 X-336.991 Y-42.910 Z13.090 A20.9327 B9.1600 
N1630 X-336.983 Y-42.955 Z13.249 A18.9799 B9.1430 
N1631 X-336.972 Y-42.996 Z13.410 A17.0156 B9.1177 
N1632 X-336.959 Y-43.033 Z13.572 A15.0386 B9.0840 
N1633 X-336.945 Y-43.066 Z13.736 A13.0475 B9.0421 
N1634 X-336.928 Y-43.094 Z13.901 A11.0399 B8.9915 
N1635 X-336.908 Y-43.118 Z14.068 A9.0133 B8.9318 
N1636 X-336.887 Y-43.137 Z14.237 A6.9652 B8.8630 
N1637 X-336.863 Y-43.152 Z14.409 A4.8913 B8.7838 
N1638 X-336.836 Y-43.162 Z14.582 A2.7878 B8.6938 
N1639 X-336.807 Y-43.168 Z14.759 A0.6502 B8.5925 
N1640 X-336.774 Y-43.168 Z14.938 A358.4732 B8.4801 
N1641 X-336.740 Y-43.162 Z15.121 A356.2529 B8.3603 
N1642 X-336.703 Y-43.149 Z15.309 A353.9812 B8.2309 
N1643 X-336.664 Y-43.130 Z15.501 A351.6500 B8.0911 
N1644 X-336.620 Y-43.103 Z15.698 A349.2489 B7.9361 
N1645 X-336.573 Y-43.068 Z15.900 A346.7694 B7.7652 
N1646 X-336.519 Y-43.024 Z16.109 A344.2005 B7.5721 
N1647 X-336.456 Y-42.971 Z16.324 A341.5307 B7.3453 
N1648 X-336.383 Y-42.908 Z16.545 A338.7568 B7.0800 
N1649 X-336.296 Y-42.834 Z16.772 A335.8785 B6.7649 
N1650 X-336.196 Y-42.746 Z17.004 A332.9082 B6.4030 
N1651 X-336.082 Y-42.644 Z17.237 A329.8680 B5.9909 
N1652 X-335.957 Y-42.527 Z17.468 A326.7963 B5.5371 
N1653 X-335.818 Y-42.394 Z17.693 A323.7347 B5.0402 
N1654 X-335.678 Y-42.247 Z17.902 A320.7920 B4.5371 
N1655 X-335.553 Y-42.099 Z18.075 A318.2288 B4.0950 
N1656 X-335.456 Y-41.957 Z18.204 A316.1468 B3.7572 
N1657 X-335.387 Y-41.826 Z18.290 A314.5769 B3.5348 
N1658 X-335.342 Y-41.710 Z18.335 A313.4856 B3.4067 
N1659 X-335.313 Y-41.604 Z18.345 A312.8056 B3.3465 
N1660 X-335.294 Y-41.505 Z18.324 A312.4645 B3.3315 
N1661 X-335.278 Y-41.401 Z18.286 A312.2671 B3.3414 
N1662 X-335.260 Y-41.287 Z18.232 A312.1840 B3.3542 
N1663 X-335.241 Y-41.160 Z18.166 A312.1491 B3.3742 
N1664 X-335.217 Y-41.016 Z18.087 A312.1533 B3.3942 
N1665 X-335.189 Y-40.856 Z17.995 A312.1900 B3.4119 
N1666 X-335.157 Y-40.677 Z17.892 A312.2556 B3.4307 
N1667 X-335.123 Y-40.481 Z17.777 A312.3479 B3.4548 
N1668 X-335.084 Y-40.267 Z17.650 A312.4636 B3.4781 
N1669 X-335.042 Y-40.035 Z17.513 A312.6015 B3.5047 
N1670 X-334.997 Y-39.787 Z17.366 A312.7605 B3.5386 
N1671 X-334.949 Y-39.524 Z17.211 A312.9375 B3.5701 
N1672 X-334.897 Y-39.247 Z17.047 A313.1318 B3.6030 
N1673 X-334.843 Y-38.958 Z16.878 A313.3431 B3.6421 
N1674 X-334.787 Y-38.659 Z16.702 A313.5695 B3.6815 
N1675 X-334.728 Y-38.351 Z16.523 A313.8103 B3.7209 
N1676 X-334.667 Y-38.036 Z16.341 A314.0657 B3.7628 
N1677 X-334.606 Y-37.715 Z16.156 A314.3355 B3.8083 
N1678 X-334.543 Y-37.391 Z15.970 A314.6193 B3.8570 
N1679 X-334.479 Y-37.063 Z15.783 A314.9168 B3.9079 
N1680 X-334.414 Y-36.733 Z15.596 A315.2269 B3.9591 
N1681 X-334.348 Y-36.402 Z15.410 A315.5497 B4.0140 
N1682 X-334.283 Y-36.071 Z15.226 A315.8845 B4.0727 
N1683 X-334.216 Y-35.740 Z15.042 A316.2300 B4.1325 
N1684 X-334.149 Y-35.409 Z14.861 A316.5850 B4.1921 
N1685 X-334.081 Y-35.078 Z14.681 A316.9493 B4.2540 
N1686 X-334.012 Y-34.749 Z14.504 A317.3221 B4.3174 
N1687 X-333.943 Y-34.420 Z14.329 A317.7026 B4.3816 
N1688 X-333.873 Y-34.093 Z14.157 A318.0905 B4.4465 
N1689 X-333.803 Y-33.766 Z13.987 A318.4856 B4.5125 
N1690 X-333.732 Y-33.441 Z13.820 A318.8879 B4.5798 
N1691 X-333.661 Y-33.117 Z13.655 A319.2973 B4.6482 
N1692 X-333.589 Y-32.794 Z13.493 A319.7137 B4.7180 
N1693 X-333.516 Y-32.472 Z13.333 A320.1374 B4.7890 
N1694 X-333.443 Y-32.151 Z13.176 A320.5684 B4.8614 
N1695 X-333.369 Y-31.831 Z13.021 A321.0067 B4.9352 
N1696 X-333.295 Y-31.513 Z12.869 A321.4524 B5.0103 
N1697 X-333.220 Y-31.196 Z12.720 A321.9057 B5.0868 
N1698 X-333.145 Y-30.879 Z12.573 A322.3665 B5.1647 
N1699 X-333.069 Y-30.565 Z12.429 A322.8350 B5.2440 
N1700 X-332.992 Y-30.251 Z12.287 A323.3112 B5.3245 
N1701 X-332.915 Y-29.938 Z12.148 A323.7950 B5.4062 
N1702 X-332.837 Y-29.626 Z12.012 A324.2865 B5.4891 
N1703 X-332.758 Y-29.316 Z11.878 A324.7858 B5.5732 
N1704 X-332.678 Y-29.007 Z11.747 A325.2927 B5.6582 
N1705 X-332.598 Y-28.698 Z11.619 A325.8071 B5.7439 
N1706 X-332.516 Y-28.391 Z11.493 A326.3290 B5.8304 
N1707 X-332.434 Y-28.085 Z11.370 A326.8585 B5.9177 
N1708 X-332.351 Y-27.779 Z11.250 A327.3953 B6.0055 
N1709 X-332.267 Y-27.475 Z11.133 A327.9393 B6.0934 
N1710 X-332.181 Y-27.171 Z11.018 A328.4904 B6.1815 
N1711 X-332.095 Y-26.868 Z10.906 A329.0484 B6.2696 
N1712 X-332.007 Y-26.567 Z10.796 A329.6134 B6.3579 
N1713 X-331.918 Y-26.265 Z10.690 A330.1850 B6.4456 
N1714 X-331.828 Y-25.965 Z10.586 A330.7631 B6.5328 
N1715 X-331.737 Y-25.665 Z10.485 A331.3474 B6.6193 
N1716 X-331.644 Y-25.366 Z10.386 A331.9379 B6.7052 
N1717 X-331.549 Y-25.067 Z10.291 A332.5342 B6.7903 
N1718 X-331.453 Y-24.769 Z10.198 A333.1361 B6.8740 
N1719 X-331.356 Y-24.471 Z10.108 A333.7434 B6.9564 
N1720 X-331.257 Y-24.174 Z10.021 A334.3558 B7.0375 
N1721 X-331.157 Y-23.877 Z9.937 A334.9730 B7.1173 
N1722 X-331.055 Y-23.581 Z9.856 A335.5948 B7.1954 
N1723 X-330.951 Y-23.284 Z9.777 A336.2207 B7.2717 
N1724 X-330.846 Y-22.988 Z9.702 A336.8506 B7.3463 
N1725 X-330.739 Y-22.692 Z9.630 A337.4841 B7.4191 
N1726 X-330.630 Y-22.397 Z9.560 A338.1208 B7.4901 
N1727 X-330.520 Y-22.101 Z9.494 A338.7603 B7.5591 
N1728 X-330.408 Y-21.805 Z9.430 A339.4024 B7.6261 
N1729 X-330.294 Y-21.509 Z9.370 A340.0466 B7.6912 
N1730 X-330.179 Y-21.213 Z9.313 A340.6926 B7.7543 
N1731 X-330.062 Y-20.917 Z9.259 A341.3399 B7.8155 
N1732 X-329.943 Y-20.621 Z9.208 A341.9881 B7.8747 
N1733 X-329.823 Y-20.324 Z9.161 A342.6368 B7.9321 
N1734 X-329.701 Y-20.027 Z9.117 A343.2855 B7.9875 
N1735 X-329.577 Y-19.729 Z9.076 A343.9338 B8.0411 
N1736 X-329.452 Y-19.431 Z9.039 A344.5813 B8.0929 
N1737 X-329.325 Y-19.133 Z9.005 A345.2275 B8.1430 
N1738 X-329.197 Y-18.833 Z8.974 A345.8719 B8.1913 
N1739 X-329.066 Y-18.533 Z8.947 A346.5139 B8.2380 
N1740 X-328.934 Y-18.233 Z8.924 A347.1531 B8.2830 
N1741 X-328.801 Y-17.931 Z8.904 A347.7890 B8.3265 
N1742 X-328.665 Y-17.629 Z8.888 A348.4211 B8.3685 
N1743 X-328.529 Y-17.325 Z8.876 A349.0487 B8.4090 
N1744 X-328.390 Y-17.021 Z8.868 A349.6713 B8.4480 
N1745 X-328.249 Y-16.715 Z8.863 A350.2884 B8.4856 
N1746 X-328.107 Y-16.408 Z8.862 A350.8994 B8.5219 
N1747 X-327.963 Y-16.100 Z8.866 A351.5038 B8.5569 
N1748 X-327.818 Y-15.791 Z8.873 A352.1011 B8.5904 
N1749 X-327.670 Y-15.481 Z8.884 A352.6906 B8.6227 
N1750 X-327.521 Y-15.169 Z8.900 A353.2720 B8.6538 
N1751 X-327.370 Y-14.856 Z8.920 A353.8448 B8.6837 
N1752 X-327.217 Y-14.541 Z8.943 A354.4084 B8.7124 
N1753 X-327.062 Y-14.224 Z8.971 A354.9626 B8.7398 
N1754 X-326.905 Y-13.906 Z9.004 A355.5071 B8.7663 
N1755 X-326.747 Y-13.587 Z9.040 A356.0416 B8.7918 
N1756 X-326.586 Y-13.265 Z9.081 A356.5656 B8.8163 
N1757 X-326.423 Y-12.942 Z9.127 A357.0789 B8.8397 
N1758 X-326.259 Y-12.616 Z9.176 A357.5811 B8.8625 
N1759 X-326.092 Y-12.289 Z9.231 A358.0717 B8.8845 
N1760 X-325.923 Y-11.959 Z9.290 A358.5499 B8.9057 
N1761 X-325.752 Y-11.627 Z9.353 A359.0147 B8.9262 
N1762 X-325.578 Y-11.292 Z9.422 A359.4650 B8.9459 
N1763 X-325.402 Y-10.955 Z9.496 A359.8994 B8.9647 
N1764 X-325.224 Y-10.614 Z9.574 A0.3162 B8.9825 
N1765 X-325.042 Y-10.271 Z9.659 A0.7138 B8.9994 
N1766 X-324.858 Y-9.925 Z9.748 A1.0901 B9.0151 
N1767 X-324.671 Y-9.576 Z9.844 A1.4433 B9.0293 
N1768 X-324.482 Y-9.224 Z9.944 A1.7718 B9.0420 
N1769 X-324.289 Y-8.868 Z10.051 A2.0743 B9.0532 
N1770 X-324.093 Y-8.510 Z10.163 A2.3497 B9.0630 
N1771 X-323.895 Y-8.148 Z10.280 A2.5973 B9.0713 
N1772 X-323.694 Y-7.782 Z10.403 A2.8168 B9.0780 
N1773 X-323.490 Y-7.414 Z10.531 A3.0082 B9.0832 
N1774 X-323.284 Y-7.043 Z10.663 A3.1719 B9.0873 
N1775 X-323.076 Y-6.670 Z10.799 A3.3084 B9.0904 
N1776 X-322.866 Y-6.295 Z10.940 A3.4181 B9.0922 
N1777 X-322.654 Y-5.918 Z11.083 A3.5011 B9.0923 
N1778 X-322.442 Y-5.540 Z11.230 A3.5575 B9.0903 
N1779 X-322.228 Y-5.162 Z11.380 A3.5875 B9.0861 
N1780 X-322.014 Y-4.784 Z11.532 A3.5913 B9.0802 
N1781 X-321.800 Y-4.406 Z11.685 A3.5697 B9.0742 
N1782 X-321.588 Y-4.030 Z11.841 A3.5229 B9.0695 
N1783 X-321.378 Y-3.655 Z11.997 A3.4514 B9.0679 
N1784 X-321.169 Y-3.284 Z12.154 A3.3517 B9.0637 
N1785 X-320.961 Y-2.916 Z12.311 A3.2224 B9.0558 
N1786 X-320.755 Y-2.552 Z12.468 A3.0648 B9.0489 
N1787 X-320.554 Y-2.192 Z12.625 A2.8785 B9.0450 
N1788 X-320.354 Y-1.838 Z12.782 A2.6574 B9.0346 
N1789 X-320.157 Y-1.490 Z12.937 A2.4016 B9.0210 
N1790 X-319.964 Y-1.148 Z13.091 A2.1117 B9.0082 
N1791 X-319.776 Y-0.812 Z13.244 A1.7858 B8.9953 
N1792 X-319.591 Y-0.483 Z13.395 A1.4211 B8.9788 
N1793 X-319.409 Y-0.162 Z13.545 A1.0166 B8.9587 
N1794 X-319.232 Y0.152 Z13.692 A0.5711 B8.9334 
N1795 X-319.060 Y0.458 Z13.837 A0.0877 B8.9099 
N1796 X-318.893 Y0.757 Z13.980 A359.5654 B8.8859 
N1797 X-318.730 Y1.048 Z14.121 A359.0007 B8.8538 
N1798 X-318.571 Y1.330 Z14.258 A358.3953 B8.8167 
N1799 X-318.419 Y1.605 Z14.394 A357.7544 B8.7849 
N1800 X-318.270 Y1.872 Z14.526 A357.0723 B8.7466 
N1801 X-318.126 Y2.129 Z14.655 A356.3476 B8.6991 
N1802 X-317.988 Y2.379 Z14.783 A355.5868 B8.6566 
N1803 X-317.855 Y2.620 Z14.907 A354.7844 B8.6066 
N1804 X-317.725 Y2.853 Z15.029 A353.9409 B8.5488 
N1805 X-317.601 Y3.077 Z15.148 A353.0603 B8.4898 
N1806 X-317.483 Y3.294 Z15.265 A352.1436 B8.4303 
N1807 X-317.368 Y3.501 Z15.380 A351.1866 B8.3610 
N1808 X-317.259 Y3.701 Z15.493 A350.1934 B8.2946 
N1809 X-317.155 Y3.893 Z15.604 A349.1576 B8.2211 
N1810 X-317.054 Y4.078 Z15.715 A348.0768 B8.1412 
N1811 X-316.956 Y4.254 Z15.825 A346.9485 B8.0528 
N1812 X-316.862 Y4.423 Z15.934 A345.7721 B7.9556 
N1813 X-316.770 Y4.585 Z16.043 A344.5492 B7.8499 
N1814 X-316.680 Y4.741 Z16.151 A343.2811 B7.7326 
N1815 X-316.595 Y4.891 Z16.259 A341.9752 B7.6144 
N1816 X-316.511 Y5.035 Z16.367 A340.6301 B7.4852 
N1817 X-316.430 Y5.175 Z16.475 A339.2493 B7.3500 
N1818 X-316.353 Y5.311 Z16.583 A337.8359 B7.2146 
N1819 X-316.276 Y5.443 Z16.691 A336.3846 B7.0658 
N1820 X-316.200 Y5.571 Z16.800 A334.8962 B6.9058 
N1821 X-316.125 Y5.697 Z16.909 A333.3725 B6.7393 
N1822 X-316.050 Y5.821 Z17.019 A331.8134 B6.5646 
N1823 X-315.975 Y5.944 Z17.129 A330.2181 B6.3735 
N1824 X-315.898 Y6.065 Z17.240 A328.5906 B6.1691 
N1825 X-315.820 Y6.187 Z17.351 A326.9357 B5.9539 
N1826 X-315.743 Y6.308 Z17.462 A325.2584 B5.7301 
N1827 X-315.665 Y6.431 Z17.572 A323.5636 B5.4982 
N1828 X-315.587 Y6.554 Z17.681 A321.8560 B5.2583 
N1829 X-315.508 Y6.679 Z17.788 A320.1403 B5.0116 
N1830 X-315.429 Y6.805 Z17.893 A318.4207 B4.7588 
N1831 X-315.350 Y6.934 Z17.995 A316.7006 B4.5007 
N1832 X-315.271 Y7.063 Z18.095 A314.9830 B4.2377 
N1833 X-315.192 Y7.195 Z18.192 A313.2701 B3.9701 
N1834 X-315.113 Y7.329 Z18.285 A311.5637 B3.7002 
N1835 X-315.035 Y7.465 Z18.375 A309.8651 B3.4292 
N1836 X-314.957 Y7.604 Z18.461 A308.1746 B3.1569 
N1837 X-314.879 Y7.744 Z18.543 A306.4920 B2.8828 
N1838 X-314.801 Y7.887 Z18.621 A304.8172 B2.6064 
N1839 X-314.723 Y8.032 Z18.694 A303.1493 B2.3272 
N1840 X-314.645 Y8.179 Z18.764 A301.4878 B2.0449 
N1841 X-314.566 Y8.328 Z18.829 A299.8316 B1.7590 
N1842 X-314.487 Y8.480 Z18.889 A298.1798 B1.4688 
N1843 X-314.409 Y8.634 Z18.945 A296.5317 B1.1780 
N1844 X-314.331 Y8.791 Z18.996 A294.8863 B0.8882 
N1845 X-314.253 Y8.950 Z19.042 A293.2423 B0.5990 
N1846 X-314.176 Y9.111 Z19.082 A291.5988 B0.3096 
N1847 X-314.100 Y9.275 Z19.117 A289.9549 B0.0195 
N1848 X-314.023 Y9.441 Z19.147 A288.3097 B-0.2720 
N1849 X-313.947 Y9.609 Z19.171 A286.6630 B-0.5657 
N1850 X-313.870 Y9.779 Z19.188 A285.0144 B-0.8623 
N1851 X-313.793 Y9.952 Z19.199 A283.3644 B-1.1627 
N1852 X-313.716 Y10.126 Z19.204 A281.7134 B-1.4669 
N1853 X-313.639 Y10.301 Z19.201 A280.0623 B-1.7684 
N1854 X-313.565 Y10.478 Z19.191 A278.4121 B-2.0662 
N1855 X-313.492 Y10.655 Z19.174 A276.7649 B-2.3603 
N1856 X-313.422 Y10.833 Z19.148 A275.1231 B-2.6508 
N1857 X-313.353 Y11.010 Z19.115 A273.4898 B-2.9376 
N1858 X-313.286 Y11.186 Z19.073 A271.8688 B-3.2206 
N1859 X-313.221 Y11.360 Z19.022 A270.2643 B-3.4992 
N1860 X-313.160 Y11.533 Z18.963 A268.6808 B-3.7723 
N1861 X-313.102 Y11.702 Z18.894 A267.1226 B-4.0368 
N1862 X-313.049 Y11.867 Z18.817 A265.5941 B-4.2907 
N1863 X-313.001 Y12.027 Z18.732 A264.0991 B-4.5315 
N1864 X-312.959 Y12.182 Z18.637 A262.6401 B-4.7561 
N1865 X-312.924 Y12.332 Z18.535 A261.2183 B-4.9604 
N1866 X-312.895 Y12.476 Z18.424 A259.8367 B-5.1546 
N1867 X-312.870 Y12.614 Z18.304 A258.4956 B-5.3421 
N1868 X-312.851 Y12.746 Z18.175 A257.1920 B-5.5179 
N1869 X-312.840 Y12.872 Z18.038 A255.9219 B-5.6759 
N1870 X-312.832 Y12.992 Z17.891 A254.6871 B-5.8314 
N1871 X-312.828 Y13.106 Z17.735 A253.4863 B-5.9852 
N1872 X-312.831 Y13.214 Z17.569 A252.3161 B-6.1283 
N1873 X-312.838 Y13.315 Z17.394 A251.1795 B-6.2689 
N1874 X-312.851 Y13.409 Z17.210 A250.0769 B-6.4030 
N1875 X-312.871 Y13.496 Z17.017 A249.0076 B-6.5246 
N1876 X-312.897 Y13.576 Z16.815 A247.9738 B-6.6390 
N1877 X-312.931 Y13.648 Z16.606 A246.9733 B-6.7419 
N1878 X-312.970 Y13.712 Z16.387 A246.0055 B-6.8390 
N1879 X-313.016 Y13.770 Z16.161 A245.0655 B-6.9267 
N1880 X-313.066 Y13.821 Z15.926 A244.1531 B-7.0145 
N1881 X-313.121 Y13.865 Z15.683 A243.2646 B-7.1014 
N1882 X-313.182 Y13.902 Z15.432 A242.3954 B-7.1802 
N1883 X-313.247 Y13.932 Z15.174 A241.5483 B-7.2607 
N1884 X-313.317 Y13.955 Z14.909 A240.7217 B-7.3390 
N1885 X-313.393 Y13.971 Z14.637 A239.9131 B-7.4091 
N1886 X-313.474 Y13.980 Z14.360 A239.1232 B-7.4736 
N1887 X-313.558 Y13.982 Z14.077 A238.3547 B-7.5412 
N1888 X-313.648 Y13.978 Z13.790 A237.6026 B-7.6024 
N1889 X-313.743 Y13.967 Z13.498 A236.8655 B-7.6565 
N1890 X-313.840 Y13.949 Z13.201 A236.1455 B-7.7119 
N1891 X-313.940 Y13.925 Z12.901 A235.4420 B-7.7695 
N1892 X-314.046 Y13.896 Z12.598 A234.7496 B-7.8186 
N1893 X-314.155 Y13.860 Z12.292 A234.0691 B-7.8638 
N1894 X-314.266 Y13.819 Z11.984 A233.4011 B-7.9097 
N1895 X-314.380 Y13.773 Z11.673 A232.7446 B-7.9566 
N1896 X-314.497 Y13.721 Z11.361 A232.0959 B-7.9992 
N1897 X-314.616 Y13.664 Z11.048 A231.4540 B-8.0392 
N1898 X-314.738 Y13.603 Z10.733 A230.8175 B-8.0775 
N1899 X-314.862 Y13.538 Z10.418 A230.1850 B-8.1143 
N1900 X-314.987 Y13.468 Z10.103 A229.5556 B-8.1522 
N1901 X-315.112 Y13.394 Z9.787 A228.9276 B-8.1904 
N1902 X-315.240 Y13.316 Z9.471 A228.2988 B-8.2273 
N1903 X-315.369 Y13.235 Z9.156 A227.6673 B-8.2608 
N1904 X-315.500 Y13.151 Z8.841 A227.0330 B-8.2930 
N1905 X-315.630 Y13.063 Z8.527 A226.3970 B-8.3275 
N1906 X-315.761 Y12.971 Z8.214 A225.7579 B-8.3623 
N1907 X-315.893 Y12.877 Z7.902 A225.1146 B-8.3955 
N1908 X-316.027 Y12.779 Z7.592 A224.4662 B-8.4255 
N1909 X-316.160 Y12.679 Z7.283 A223.8136 B-8.4551 
N1910 X-316.294 Y12.575 Z6.976 A223.1568 B-8.4848 
N1911 X-316.428 Y12.469 Z6.671 A222.4951 B-8.5139 
N1912 X-316.562 Y12.360 Z6.368 A221.8278 B-8.5418 
N1913 X-316.697 Y12.248 Z6.068 A221.1543 B-8.5685 
N1914 X-316.832 Y12.134 Z5.769 A220.4742 B-8.5943 
N1915 X-316.966 Y12.018 Z5.473 A219.7868 B-8.6194 
N1916 X-317.101 Y11.899 Z5.179 A219.0915 B-8.6437 
N1917 X-317.235 Y11.778 Z4.887 A218.3877 B-8.6673 
N1918 X-317.369 Y11.655 Z4.598 A217.6747 B-8.6900 
N1919 X-317.503 Y11.530 Z4.312 A216.9522 B-8.7119 
N1920 X-317.637 Y11.402 Z4.028 A216.2196 B-8.7327 
N1921 X-317.771 Y11.273 Z3.747 A215.4769 B-8.7527 
N1922 X-317.904 Y11.141 Z3.468 A214.7236 B-8.7717 
N1923 X-318.036 Y11.008 Z3.192 A213.9598 B-8.7897 
N1924 X-318.169 Y10.873 Z2.920 A213.1852 B-8.8064 
N1925 X-318.301 Y10.736 Z2.650 A212.3998 B-8.8219 
N1926 X-318.432 Y10.597 Z2.382 A211.6037 B-8.8362 
N1927 X-318.563 Y10.456 Z2.118 A210.7970 B-8.8493 
N1928 X-318.694 Y10.313 Z1.857 A209.9797 B-8.8612 
N1929 X-318.824 Y10.168 Z1.599 A209.1517 B-8.8714 
N1930 X-318.953 Y10.021 Z1.344 A208.3133 B-8.8802 
N1931 X-319.082 Y9.873 Z1.092 A207.4645 B-8.8874 
N1932 X-319.211 Y9.723 Z0.843 A206.6055 B-8.8930 
N1933 X-319.339 Y9.570 Z0.598 A205.7364 B-8.8973 
N1934 X-319.467 Y9.416 Z0.355 A204.8574 B-8.8998 
N1935 X-319.594 Y9.260 Z0.116 A203.9685 B-8.9003 
N1936 X-319.721 Y9.102 Z-0.121 A203.0698 B-8.8991 
N1937 X-319.847 Y8.942 Z-0.354 A202.1618 B-8.8960 
N1938 X-319.973 Y8.780 Z-0.584 A201.2446 B-8.8911 
N1939 X-320.099 Y8.617 Z-0.810 A200.3185 B-8.8844 
N1940 X-320.224 Y8.451 Z-1.034 A199.3837 B-8.8756 
N1941 X-320.348 Y8.283 Z-1.254 A198.4405 B-8.8646 
N1942 X-320.472 Y8.114 Z-1.471 A197.4892 B-8.8514 
N1943 X-320.596 Y7.942 Z-1.685 A196.5303 B-8.8362 
N1944 X-320.719 Y7.768 Z-1.895 A195.5641 B-8.8189 
N1945 X-320.842 Y7.592 Z-2.102 A194.5910 B-8.7995 
N1946 X-320.965 Y7.414 Z-2.306 A193.6114 B-8.7777 
N1947 X-321.087 Y7.234 Z-2.506 A192.6256 B-8.7535 
N1948 X-321.209 Y7.052 Z-2.704 A191.6342 B-8.7269 
N1949 X-321.331 Y6.868 Z-2.897 A190.6376 B-8.6981 
N1950 X-321.452 Y6.682 Z-3.087 A189.6362 B-8.6670 
N1951 X-321.573 Y6.493 Z-3.274 A188.6305 B-8.6336 
N1952 X-321.694 Y6.302 Z-3.457 A187.6210 B-8.5977 
N1953 X-321.814 Y6.109 Z-3.637 A186.6082 B-8.5594 
N1954 X-321.934 Y5.913 Z-3.814 A185.5925 B-8.5186 
N1955 X-322.054 Y5.715 Z-3.986 A184.5745 B-8.4755 
N1956 X-322.174 Y5.515 Z-4.155 A183.5547 B-8.4299 
N1957 X-322.293 Y5.312 Z-4.321 A182.5336 B-8.3820 
N1958 X-322.413 Y5.107 Z-4.483 A181.5119 B-8.3317 
N1959 X-322.532 Y4.900 Z-4.641 A180.4901 B-8.2791 
N1960 X-322.650 Y4.690 Z-4.795 A179.4686 B-8.2242 
N1961 X-322.769 Y4.478 Z-4.946 A178.4480 B-8.1669 
N1962 X-322.887 Y4.263 Z-5.093 A177.4288 B-8.1074 
N1963 X-323.006 Y4.045 Z-5.236 A176.4115 B-8.0455 
N1964 X-323.123 Y3.825 Z-5.375 A175.3966 B-7.9815 
N1965 X-323.241 Y3.602 Z-5.510 A174.3847 B-7.9155 
N1966 X-323.359 Y3.377 Z-5.641 A173.3762 B-7.8474 
N1967 X-323.476 Y3.149 Z-5.768 A172.3716 B-7.7772 
N1968 X-323.593 Y2.918 Z-5.891 A171.3713 B-7.7049 
N1969 X-323.710 Y2.685 Z-6.010 A170.3758 B-7.6305 
N1970 X-323.827 Y2.449 Z-6.124 A169.3856 B-7.5544 
N1971 X-323.943 Y2.211 Z-6.235 A168.4012 B-7.4766 
N1972 X-324.059 Y1.969 Z-6.341 A167.4231 B-7.3971 
N1973 X-324.175 Y1.725 Z-6.442 A166.4517 B-7.3160 
N1974 X-324.291 Y1.478 Z-6.540 A165.4873 B-7.2332 
N1975 X-324.406 Y1.228 Z-6.632 A164.5303 B-7.1487 
N1976 X-324.521 Y0.976 Z-6.721 A163.5812 B-7.0629 
N1977 X-324.636 Y0.721 Z-6.804 A162.6405 B-6.9759 
N1978 X-324.750 Y0.463 Z-6.884 A161.7085 B-6.8878 
N1979 X-324.864 Y0.202 Z-6.958 A160.7855 B-6.7986 
N1980 X-324.978 Y-0.061 Z-7.028 A159.8717 B-6.7081 
N1981 X-325.091 Y-0.327 Z-7.093 A158.9674 B-6.6165 
N1982 X-325.204 Y-0.596 Z-7.153 A158.0731 B-6.5241 
N1983 X-325.317 Y-0.868 Z-7.208 A157.1891 B-6.4312 
N1984 X-325.428 Y-1.143 Z-7.258 A156.3156 B-6.3376 
N1985 X-325.540 Y-1.420 Z-7.303 A155.4528 B-6.2433 
N1986 X-325.651 Y-1.700 Z-7.344 A154.6009 B-6.1484 
N1987 X-325.761 Y-1.982 Z-7.379 A153.7603 B-6.0529 
N1988 X-325.871 Y-2.268 Z-7.409 A152.9312 B-5.9574 
N1989 X-325.980 Y-2.556 Z-7.434 A152.1139 B-5.8618 
