; PROGRAM NAME: A33333360
; ORDER       : A333333
; OPER. NAME  : Contact Milling:166
; OPER. DESCR.: Contact Milling/podciecie pod ceche
; OPER. TYPE  : contactMill
; GEO. OPTION : 1
; MACHINE     : HSTM_300_SIM840D_Py
;             : HSTM300/500 - HAMUEL: 5-axis milling machine-SIM840D Traori PP_Script
; CONTROL     : SINUMERIK 840D
; created:   2021-09-10 09:46:12.143358
;----------------------------------------
RAPORT("TA333333","Contact Milling:166")
N10 TRAFOOF
N11 D0
N12 G90 G94
N13 G0 G53 D0 Z550
N14 STOPRE
M9 ; chlodziwo wyl
; --- Contact Milling:166 - Contact Milling/podciecie pod ceche ---
N16 ;ToolChange : concat=None ,current_tdmid=None, PP.tdmId=957453
N17 TRAFOOF
N18 G0 G53 D0 X-200 Y150 Z550 B0
N19 T="7757453"
RAPORT("TA333333","ToolChangeStart 7757453")
N20 M6
RAPORT("TA333333","ToolChangeEnd")
N21 STOPRE
N22 MSG(" TLID=957453 D=5.0 R=0.0 Ang=0.0 Len=109.0 ")
N23 S12095 M03
N24 STOPRE
N25 TOL(0.01,1,1)
N26 G0 G53 A0.0000 B-0.0100
N27 TRAORI
N28 G54 D1
N29 D3 
N30 X-136.507 Y-15.502 Z53.608 A0.0001 B-0.0100 
N31 M342 ; chlodziwo woda
N32 X-136.502 Y-15.502 Z23.608 
N33 G01 X-136.501 Y-15.502 Z17.608 F544 
N34 X-136.550 Y-15.502 Z17.299 
N35 X-136.692 Y-15.502 Z17.020 
N36 X-136.913 Y-15.502 Z16.799 
N37 X-137.192 Y-15.502 Z16.657 
N38 X-137.501 Y-15.502 Z16.608 
N39 X-137.640 Y-15.502 Z16.608 
N40 X-137.778 Y-15.502 Z16.608 F543 
N41 X-137.917 Y-15.502 Z16.608 F544 
N42 X-138.056 Y-15.502 Z16.608 
N43 X-138.195 Y-15.502 Z16.608 
N44 X-138.334 Y-15.502 Z16.608 
N45 X-138.473 Y-15.502 Z16.608 
N46 X-138.612 Y-15.502 Z16.608 
N47 X-138.751 Y-15.502 Z16.608 
N48 X-138.890 Y-15.502 Z16.608 
N49 X-139.028 Y-15.502 Z16.608 
N50 X-139.167 Y-15.502 Z16.608 
N51 X-139.306 Y-15.502 Z16.608 
N52 X-139.445 Y-15.502 Z16.608 
N53 X-139.584 Y-15.502 Z16.608 
N54 X-139.723 Y-15.502 Z16.608 
N55 X-139.862 Y-15.502 Z16.608 
N56 X-140.001 Y-15.502 Z16.608 
N57 X-140.140 Y-15.502 Z16.608 
N58 X-140.278 Y-15.502 Z16.608 
N59 X-140.417 Y-15.502 Z16.608 
N60 X-140.556 Y-15.502 Z16.608 
N61 X-140.695 Y-15.502 Z16.608 
N62 X-140.834 Y-15.502 Z16.608 
N63 X-140.973 Y-15.502 Z16.608 
N64 X-141.112 Y-15.502 Z16.608 
N65 X-141.251 Y-15.502 Z16.608 
N66 X-141.390 Y-15.502 Z16.608 
N67 X-141.528 Y-15.502 Z16.608 
N68 X-141.667 Y-15.502 Z16.608 
N69 X-141.806 Y-15.502 Z16.608 
N70 X-141.945 Y-15.502 Z16.608 
N71 X-142.084 Y-15.502 Z16.608 
N72 X-142.223 Y-15.502 Z16.608 
N73 X-142.362 Y-15.502 Z16.608 
N74 X-142.501 Y-15.502 Z16.608 
N75 X-142.640 Y-15.502 Z16.608 F543 
N76 X-142.778 Y-15.502 Z16.608 F544 
N77 X-142.917 Y-15.502 Z16.608 
N78 X-143.056 Y-15.502 Z16.608 
N79 X-143.195 Y-15.502 Z16.608 
N80 X-143.334 Y-15.502 Z16.608 
N81 X-143.473 Y-15.502 Z16.608 
N82 X-143.612 Y-15.502 Z16.608 
N83 X-143.751 Y-15.502 Z16.608 
N84 X-143.890 Y-15.502 Z16.608 
N85 X-144.028 Y-15.502 Z16.608 
N86 X-144.167 Y-15.502 Z16.608 
N87 X-144.306 Y-15.502 Z16.608 
N88 X-144.445 Y-15.502 Z16.608 
N89 X-144.584 Y-15.502 Z16.608 
N90 X-144.723 Y-15.502 Z16.608 
N91 X-144.862 Y-15.502 Z16.608 
N92 X-145.001 Y-15.502 Z16.608 
N93 X-145.138 Y-15.502 Z16.608 F543 
N94 X-145.275 Y-15.502 Z16.608 F544 
N95 X-145.412 Y-15.502 Z16.608 
N96 X-145.550 Y-15.502 Z16.608 
N97 X-145.687 Y-15.502 Z16.608 
N98 X-145.824 Y-15.502 Z16.608 
N99 X-145.961 Y-15.502 Z16.608 
N100 X-146.099 Y-15.502 Z16.608 
N101 X-146.236 Y-15.502 Z16.608 
N102 X-146.373 Y-15.502 Z16.608 
N103 X-146.510 Y-15.502 Z16.608 
N104 X-146.648 Y-15.502 Z16.608 
N105 X-146.785 Y-15.502 Z16.608 
N106 X-146.922 Y-15.502 Z16.608 
N107 X-147.059 Y-15.502 Z16.608 
N108 X-147.197 Y-15.502 Z16.608 
N109 X-147.334 Y-15.502 Z16.608 
N110 X-147.471 Y-15.502 Z16.608 
N111 X-147.608 Y-15.502 Z16.608 
N112 X-147.746 Y-15.502 Z16.608 
N113 X-147.883 Y-15.502 Z16.608 
N114 X-148.020 Y-15.502 Z16.608 
N115 X-148.157 Y-15.502 Z16.608 
N116 X-148.295 Y-15.502 Z16.608 
N117 X-148.432 Y-15.502 Z16.608 
N118 X-148.569 Y-15.502 Z16.608 
N119 X-148.707 Y-15.502 Z16.608 
N120 X-148.844 Y-15.502 Z16.608 
N121 X-148.981 Y-15.502 Z16.608 
N122 X-149.118 Y-15.502 Z16.608 
N123 X-149.256 Y-15.502 Z16.608 
N124 X-149.393 Y-15.502 Z16.608 
N125 X-149.530 Y-15.502 Z16.608 
N126 X-149.667 Y-15.502 Z16.608 
N127 X-149.805 Y-15.502 Z16.608 
N128 X-149.942 Y-15.502 Z16.608 
N129 X-150.079 Y-15.502 Z16.608 
N130 X-150.216 Y-15.502 Z16.608 
N131 X-150.354 Y-15.502 Z16.608 
N132 X-150.491 Y-15.502 Z16.608 
N133 X-150.628 Y-15.502 Z16.608 
N134 X-150.765 Y-15.502 Z16.608 
N135 X-150.903 Y-15.502 Z16.608 
N136 X-151.040 Y-15.502 Z16.608 
N137 X-151.177 Y-15.502 Z16.608 
N138 X-151.314 Y-15.502 Z16.608 
N139 X-151.452 Y-15.502 Z16.608 
N140 X-151.589 Y-15.502 Z16.608 
N141 X-151.726 Y-15.502 Z16.608 
N142 X-151.863 Y-15.502 Z16.608 
N143 X-152.001 Y-15.502 Z16.608 
N144 X-152.140 Y-15.502 Z16.608 F543 
N145 X-152.278 Y-15.502 Z16.608 F544 
N146 X-152.417 Y-15.502 Z16.608 
N147 X-152.556 Y-15.502 Z16.608 
N148 X-152.695 Y-15.502 Z16.608 
N149 X-152.834 Y-15.502 Z16.608 
N150 X-152.973 Y-15.502 Z16.608 
N151 X-153.112 Y-15.502 Z16.608 
N152 X-153.251 Y-15.502 Z16.608 
N153 X-153.390 Y-15.502 Z16.608 
N154 X-153.528 Y-15.502 Z16.608 
N155 X-153.667 Y-15.502 Z16.608 
N156 X-153.806 Y-15.502 Z16.608 
N157 X-153.945 Y-15.502 Z16.608 
N158 X-154.084 Y-15.502 Z16.608 
N159 X-154.223 Y-15.502 Z16.608 
N160 X-154.362 Y-15.502 Z16.608 
N161 X-154.501 Y-15.502 Z16.608 
N162 X-154.810 Y-15.502 Z16.656 
N163 X-155.088 Y-15.502 Z16.798 
N164 X-155.310 Y-15.502 Z17.020 
N165 X-155.452 Y-15.502 Z17.298 
N166 X-155.501 Y-15.502 Z17.607 
N167 G00 X-155.510 Y-15.502 Z67.607 
RAPORT("TA333333","Contact Milling:166 End")
;trailer : concat=None
; points cnt = 134
N169 M9 ; chlodziwo wyl.
N170 MSG (" --- KONIEC PODPROGRAMU --- ")
N171 FGROUP()
N172 TRAFOOF
N173 STOPRE
N174 G0 G53 D0 Z550.0 M9 M5
N175 G0 G53 Y150 A0 B0
N176 M17
