; PROGRAM NAME: A33333340
; ORDER       : A333333
; OPER. NAME  : Slot Roughing:116
; OPER. DESCR.: roughig slot/BH zgr
; OPER. TYPE  : slotMillRough
; GEO. OPTION : 1
; MACHINE     : HSTM_300_SIM840D_Py
;             : HSTM300/500 - HAMUEL: 5-axis milling machine-SIM840D Traori PP_Script
; CONTROL     : SINUMERIK 840D
; created:   2021-09-10 08:44:44.253036
;----------------------------------------
RAPORT("TA333333","Slot Roughing:116")
N10 TRAFOOF
N11 D0
N12 G90 G94
N13 G0 G53 D0 Z550
N14 STOPRE
M9 ; chlodziwo wyl
; --- Slot Roughing:116 - roughig slot/BH zgr ---
N16 ;ToolChange : concat=None ,current_tdmid=None, PP.tdmId=940860
N17 TRAFOOF
N18 G0 G53 D0 X-200 Y150 Z550 B0
N19 T="7740860"
RAPORT("TA333333","ToolChangeStart 7740860")
N20 M6
RAPORT("TA333333","ToolChangeEnd")
N21 STOPRE
N22 MSG(" TLID=940860 D=20.0 R=4.0 Ang=0.0 Len=130.0 ")
N23 S4456 M03
N24 STOPRE
N25 TOL(0.1,1,1)
N26 G0 G53 A313.0000 B-0.0000
N27 TRAORI
N28 G54 D1
N29 FFWON
N30 COMPOF
N31 STOPRE
N32 D1 
N33 ; DELTA A > 40.1
N34 TRAFOOF
N35 D1
N36 STOPRE
N37 G00 G54 Z256.000
N38 G01 A313.0000 F10000
N39 TRAORI
N40 G54 D1
N41 STOPRE
N42 TRANS 
N43 G00 X-169.275 Y85.975 Z9.147 A313.0000 
N44 M342 ; chlodziwo woda
N45 X-169.275 Y49.407 Z-24.953 
N46 G01 X-169.985 Y42.604 Z-17.658 F712 
N47 X-170.163 Y40.904 Z-15.834 F356 
N48 X-170.170 Y40.834 Z-15.760 F406 
N49 X-170.178 Y40.756 Z-15.675 F457 
N50 X-170.188 Y40.668 Z-15.581 F508 
N51 X-170.198 Y40.571 Z-15.477 F559 
N52 X-170.209 Y40.464 Z-15.363 F610 
N53 X-170.221 Y40.348 Z-15.239 F661 
N54 X-170.234 Y40.223 Z-15.105 F712 
N55 X-170.246 Y40.118 Z-14.991 F712 
N56 X-170.599 Y36.731 Z-11.360 F712 
N57 X-170.942 Y32.986 Z-7.344 F712 
N58 X-171.259 Y28.923 Z-2.987 F712 
N59 X-171.539 Y24.494 Z1.763 F712 
N60 X-171.776 Y19.406 Z7.220 F712 
N61 X-171.930 Y13.940 Z13.081 F712 
N62 X-171.979 Y7.906 Z19.552 F712 
N63 X-171.917 Y2.630 Z25.210 F712 
N64 X-171.903 Y1.918 Z25.972 F712 
N65 X-171.899 Y1.773 Z26.128 F800 
N66 X-171.896 Y1.612 Z26.301 F890 
N67 X-171.892 Y1.433 Z26.493 F979 
N68 X-171.888 Y1.236 Z26.704 F1068 
N69 X-171.885 Y1.058 Z26.895 F1130 
N70 X-171.880 Y0.859 Z27.108 F1317 
N71 X-171.874 Y0.620 Z27.365 F1628 
N72 X-171.863 Y0.319 Z27.687 F2064 
N73 X-171.843 Y-0.063 Z28.097 F2624 
N74 X-171.805 Y-0.545 Z28.614 F3278 
N75 X-171.730 Y-1.128 Z29.239 F3839 
N76 X-171.583 Y-1.786 Z29.945 F4275 
N77 X-171.310 Y-2.489 Z30.698 F4586 
N78 X-170.859 Y-3.192 Z31.452 F4773 
N79 X-170.229 Y-3.852 Z32.160 F4835 
N80 X-169.417 Y-4.460 Z32.812 F4835 
N81 X-168.497 Y-4.935 Z33.321 F4773 
N82 X-167.430 Y-5.116 Z33.516 F4586 
N83 X-166.791 Y-4.577 Z32.938 F4275 
N84 X-166.626 Y-3.921 Z32.235 F3840 
N85 X-166.575 Y-3.338 Z31.609 F3280 
N86 X-166.560 Y-2.855 Z31.091 F2595 
N87 X-166.558 Y-2.488 Z30.697 F1911 
N88 X-166.560 Y-2.223 Z30.413 F1351 
N89 X-166.563 Y-2.039 Z30.216 F915 
N90 X-166.564 Y-1.917 Z30.085 F604 
N91 X-166.566 Y-1.835 Z29.997 F418 
N92 X-166.567 Y-1.773 Z29.931 F356 
N93 X-166.595 Y-0.069 Z28.103 F356 
N94 X-166.596 Y0.001 Z28.028 F406 
N95 X-166.597 Y0.080 Z27.944 F457 
N96 X-166.599 Y0.168 Z27.849 F508 
N97 X-166.600 Y0.266 Z27.745 F559 
N98 X-166.602 Y0.372 Z27.630 F610 
N99 X-166.604 Y0.488 Z27.506 F661 
N100 X-166.606 Y0.613 Z27.372 F712 
N101 X-166.715 Y7.236 Z20.270 F712 
N102 X-166.679 Y13.324 Z13.741 F712 
N103 X-166.524 Y19.126 Z7.519 F712 
N104 X-166.295 Y24.117 Z2.167 F712 
N105 X-166.007 Y28.713 Z-2.761 F712 
N106 X-165.686 Y32.828 Z-7.175 F712 
N107 X-165.340 Y36.587 Z-11.205 F712 
N108 X-164.965 Y40.156 Z-15.033 F712 
N109 X-164.950 Y40.301 Z-15.188 F800 
N110 X-164.933 Y40.462 Z-15.361 F890 
N111 X-164.915 Y40.641 Z-15.552 F979 
N112 X-164.894 Y40.836 Z-15.762 F1068 
N113 X-164.874 Y41.024 Z-15.964 F1137 
N114 X-164.853 Y41.236 Z-16.191 F1344 
N115 X-164.827 Y41.495 Z-16.470 F1691 
N116 X-164.797 Y41.825 Z-16.826 F2175 
N117 X-164.765 Y42.249 Z-17.287 F2798 
N118 X-164.738 Y42.780 Z-17.872 F3422 
N119 X-164.741 Y43.397 Z-18.569 F3906 
N120 X-164.821 Y44.060 Z-19.360 F4252 
N121 X-165.068 Y44.706 Z-20.220 F4460 
N122 X-165.575 Y45.237 Z-21.088 F4529 
N123 X-166.351 Y45.539 Z-21.841 F4529 
N124 X-167.373 Y45.394 Z-22.221 F4460 
N125 X-168.015 Y44.675 Z-21.752 F4253 
N126 X-168.262 Y43.947 Z-21.062 F3908 
N127 X-168.392 Y43.303 Z-20.404 F3426 
N128 X-168.473 Y42.761 Z-19.835 F2805 
N129 X-168.525 Y42.339 Z-19.387 F2080 
N130 X-168.560 Y42.036 Z-19.064 F1459 
N131 X-168.583 Y41.828 Z-18.842 F976 
N132 X-168.597 Y41.692 Z-18.696 F631 
N133 X-168.606 Y41.603 Z-18.600 F424 
N134 X-168.613 Y41.538 Z-18.530 F356 
N135 X-168.791 Y39.837 Z-16.706 F356 
N136 X-168.798 Y39.768 Z-16.632 F406 
N137 X-168.806 Y39.689 Z-16.548 F457 
N138 X-168.815 Y39.601 Z-16.453 F508 
N139 X-168.826 Y39.504 Z-16.349 F559 
N140 X-168.837 Y39.397 Z-16.235 F610 
N141 X-168.849 Y39.282 Z-16.111 F661 
N142 X-168.862 Y39.157 Z-15.977 F712 
N143 X-168.875 Y39.042 Z-15.854 F712 
N144 X-169.227 Y35.663 Z-12.230 F712 
N145 X-169.570 Y31.926 Z-8.223 F712 
N146 X-169.886 Y27.872 Z-3.876 F712 
N147 X-170.165 Y23.453 Z0.864 F712 
N148 X-170.402 Y18.374 Z6.310 F712 
N149 X-170.555 Y12.916 Z12.163 F712 
N150 X-170.604 Y6.891 Z18.624 F712 
N151 X-170.542 Y1.637 Z24.258 F712 
N152 X-170.526 Y0.865 Z25.086 F712 
N153 X-170.523 Y0.720 Z25.242 F800 
N154 X-170.520 Y0.558 Z25.415 F890 
N155 X-170.516 Y0.379 Z25.607 F979 
N156 X-170.512 Y0.183 Z25.818 F1068 
N157 X-170.508 Y-0.009 Z26.023 F1139 
N158 X-170.503 Y-0.227 Z26.256 F1355 
N159 X-170.497 Y-0.494 Z26.544 F1714 
N160 X-170.485 Y-0.838 Z26.912 F2216 
N161 X-170.464 Y-1.282 Z27.388 F2863 
N162 X-170.421 Y-1.844 Z27.991 F3509 
N163 X-170.336 Y-2.505 Z28.699 F4012 
N164 X-170.169 Y-3.235 Z29.482 F4371 
N165 X-169.864 Y-3.996 Z30.298 F4586 
N166 X-169.384 Y-4.741 Z31.098 F4658 
N167 X-168.757 Y-5.407 Z31.812 F4658 
N168 X-167.926 Y-5.984 Z32.431 F4587 
N169 X-166.925 Y-5.974 Z32.420 F4373 
N170 X-166.645 Y-5.269 Z31.664 F4018 
N171 X-166.577 Y-4.609 Z30.956 F3520 
N172 X-166.558 Y-4.046 Z30.353 F2880 
N173 X-166.556 Y-3.608 Z29.882 F2133 
N174 X-166.559 Y-3.293 Z29.545 F1493 
N175 X-166.562 Y-3.078 Z29.314 F996 
N176 X-166.564 Y-2.937 Z29.163 F640 
N177 X-166.566 Y-2.846 Z29.065 F427 
N178 X-166.567 Y-2.779 Z28.994 F356 
N179 X-166.595 Y-1.074 Z27.165 F356 
N180 X-166.596 Y-1.005 Z27.091 F406 
N181 X-166.597 Y-0.926 Z27.006 F457 
N182 X-166.599 Y-0.838 Z26.912 F508 
N183 X-166.600 Y-0.740 Z26.807 F559 
N184 X-166.602 Y-0.633 Z26.693 F610 
N185 X-166.604 Y-0.517 Z26.568 F661 
N186 X-166.606 Y-0.392 Z26.434 F712 
N187 X-166.715 Y6.240 Z19.322 F712 
N188 X-166.679 Y12.324 Z12.798 F712 
N189 X-166.524 Y18.122 Z6.580 F712 
N190 X-166.295 Y23.112 Z1.229 F712 
N191 X-166.007 Y27.707 Z-3.699 F712 
N192 X-165.686 Y31.823 Z-8.112 F712 
N193 X-165.340 Y35.581 Z-12.143 F712 
N194 X-164.965 Y39.151 Z-15.970 F712 
N195 X-164.950 Y39.295 Z-16.125 F800 
N196 X-164.933 Y39.457 Z-16.299 F889 
N197 X-164.915 Y39.635 Z-16.490 F979 
N198 X-164.894 Y39.831 Z-16.700 F1067 
N199 X-164.875 Y40.014 Z-16.896 F1134 
N200 X-164.854 Y40.220 Z-17.117 F1332 
N201 X-164.828 Y40.469 Z-17.386 F1662 
N202 X-164.798 Y40.785 Z-17.726 F2124 
N203 X-164.762 Y41.188 Z-18.164 F2718 
N204 X-164.726 Y41.691 Z-18.717 F3313 
N205 X-164.701 Y42.275 Z-19.373 F3775 
N206 X-164.713 Y42.908 Z-20.118 F4105 
N207 X-164.812 Y43.543 Z-20.937 F4303 
N208 X-165.074 Y44.108 Z-21.811 F4369 
N209 X-165.590 Y44.488 Z-22.682 F4369 
N210 X-166.420 Y44.226 Z-23.072 F4303 
N211 X-166.790 Y43.457 Z-22.489 F4104 
N212 X-166.948 Y42.764 Z-21.817 F3772 
N213 X-167.045 Y42.154 Z-21.190 F3308 
N214 X-167.112 Y41.640 Z-20.650 F2711 
N215 X-167.158 Y41.240 Z-20.225 F2014 
N216 X-167.190 Y40.951 Z-19.917 F1417 
N217 X-167.211 Y40.753 Z-19.705 F953 
N218 X-167.225 Y40.622 Z-19.565 F621 
N219 X-167.234 Y40.536 Z-19.473 F422 
N220 X-167.241 Y40.473 Z-19.404 F356 
N221 X-167.418 Y38.772 Z-17.581 F356 
N222 X-167.426 Y38.703 Z-17.506 F406 
N223 X-167.434 Y38.624 Z-17.422 F457 
N224 X-167.443 Y38.536 Z-17.327 F508 
N225 X-167.453 Y38.439 Z-17.223 F559 
N226 X-167.464 Y38.332 Z-17.109 F610 
N227 X-167.476 Y38.217 Z-16.985 F661 
N228 X-167.490 Y38.092 Z-16.851 F712 
N229 X-167.503 Y37.966 Z-16.716 F712 
N230 X-167.855 Y34.594 Z-13.101 F712 
N231 X-168.197 Y30.866 Z-9.103 F712 
N232 X-168.513 Y26.821 Z-4.764 F712 
N233 X-168.791 Y22.410 Z-0.035 F712 
N234 X-169.027 Y17.339 Z5.403 F712 
N235 X-169.181 Y11.883 Z11.255 F712 
N236 X-169.229 Y5.861 Z17.713 F712 
N237 X-169.168 Y0.645 Z23.306 F712 
N238 X-169.150 Y-0.201 Z24.213 F712 
N239 X-169.147 Y-0.346 Z24.368 F800 
N240 X-169.144 Y-0.508 Z24.542 F889 
N241 X-169.140 Y-0.687 Z24.734 F979 
N242 X-169.136 Y-0.883 Z24.944 F1068 
N243 X-169.132 Y-1.070 Z25.145 F1136 
N244 X-169.128 Y-1.282 Z25.372 F1342 
N245 X-169.122 Y-1.540 Z25.649 F1685 
N246 X-169.112 Y-1.869 Z26.002 F2166 
N247 X-169.097 Y-2.293 Z26.456 F2784 
N248 X-169.069 Y-2.826 Z27.028 F3402 
N249 X-169.017 Y-3.453 Z27.701 F3882 
N250 X-168.920 Y-4.149 Z28.447 F4226 
N251 X-168.743 Y-4.886 Z29.237 F4432 
N252 X-168.455 Y-5.630 Z30.034 F4500 
N253 X-168.042 Y-6.340 Z30.797 F4500 
N254 X-167.450 Y-6.992 Z31.496 F4432 
N255 X-166.716 Y-6.854 Z31.348 F4226 
N256 X-166.591 Y-6.163 Z30.606 F3884 
N257 X-166.559 Y-5.533 Z29.930 F3404 
N258 X-166.553 Y-5.000 Z29.359 F2787 
N259 X-166.555 Y-4.586 Z28.915 F2068 
N260 X-166.559 Y-4.286 Z28.594 F1452 
N261 X-166.562 Y-4.079 Z28.372 F972 
N262 X-166.564 Y-3.942 Z28.224 F630 
N263 X-166.566 Y-3.851 Z28.128 F424 
N264 X-166.567 Y-3.785 Z28.056 F356 
N265 X-166.595 Y-2.080 Z26.228 F356 
N266 X-166.596 Y-2.010 Z26.153 F406 
N267 X-166.597 Y-1.931 Z26.068 F457 
N268 X-166.599 Y-1.843 Z25.974 F508 
N269 X-166.600 Y-1.746 Z25.869 F559 
N270 X-166.602 Y-1.639 Z25.755 F610 
N271 X-166.604 Y-1.523 Z25.631 F661 
N272 X-166.606 Y-1.398 Z25.496 F712 
N273 X-166.715 Y5.260 Z18.357 F712 
N274 X-166.679 Y11.333 Z11.844 F712 
N275 X-166.523 Y17.120 Z5.638 F712 
N276 X-166.295 Y22.108 Z0.290 F712 
N277 X-166.007 Y26.702 Z-4.637 F712 
N278 X-165.686 Y30.817 Z-9.050 F712 
N279 X-165.340 Y34.576 Z-13.080 F712 
N280 X-164.965 Y38.145 Z-16.908 F712 
N281 X-164.950 Y38.289 Z-17.063 F800 
N282 X-164.933 Y38.451 Z-17.236 F889 
N283 X-164.915 Y38.630 Z-17.428 F979 
N284 X-164.894 Y38.825 Z-17.638 F1067 
N285 X-164.875 Y39.005 Z-17.831 F1131 
N286 X-164.854 Y39.206 Z-18.046 F1322 
N287 X-164.828 Y39.449 Z-18.307 F1641 
N288 X-164.796 Y39.754 Z-18.637 F2087 
N289 X-164.757 Y40.142 Z-19.058 F2660 
N290 X-164.711 Y40.625 Z-19.588 F3233 
N291 X-164.664 Y41.185 Z-20.215 F3679 
N292 X-164.627 Y41.793 Z-20.924 F3998 
N293 X-164.620 Y42.412 Z-21.705 F4189 
N294 X-164.678 Y42.985 Z-22.556 F4253 
N295 X-164.867 Y43.428 Z-23.495 F4253 
N296 X-165.319 Y43.038 Z-23.885 F4188 
N297 X-165.496 Y42.279 Z-23.259 F3995 
N298 X-165.597 Y41.614 Z-22.605 F3673 
N299 X-165.672 Y41.028 Z-22.001 F3222 
N300 X-165.730 Y40.533 Z-21.480 F2642 
N301 X-165.774 Y40.148 Z-21.071 F1966 
N302 X-165.804 Y39.871 Z-20.775 F1386 
N303 X-165.825 Y39.681 Z-20.571 F935 
N304 X-165.839 Y39.555 Z-20.436 F613 
N305 X-165.848 Y39.471 Z-20.347 F420 
N306 X-165.855 Y39.409 Z-20.280 F356 
N307 X-166.042 Y37.709 Z-18.457 F356 
N308 X-166.050 Y37.640 Z-18.382 F406 
N309 X-166.058 Y37.561 Z-18.298 F457 
N310 X-166.068 Y37.473 Z-18.204 F508 
N311 X-166.079 Y37.376 Z-18.100 F559 
N312 X-166.090 Y37.270 Z-17.986 F610 
N313 X-166.103 Y37.154 Z-17.861 F661 
N314 X-166.117 Y37.029 Z-17.728 F712 
N315 X-166.132 Y36.890 Z-17.578 F712 
N316 X-166.483 Y33.526 Z-13.971 F712 
N317 X-166.824 Y29.805 Z-9.980 F712 
N318 X-167.139 Y25.768 Z-5.651 F712 
N319 X-167.418 Y21.361 Z-0.926 F712 
N320 X-167.655 Y16.248 Z4.557 F712 
N321 X-167.810 Y10.601 Z10.613 F712 
N322 X-167.853 Y4.755 Z16.882 F712 
N323 X-167.826 Y1.533 Z20.337 F712 
N324 X-167.793 Y-0.347 Z22.353 F712 
N325 X-167.773 Y-1.282 Z23.356 F712 
N326 X-167.770 Y-1.427 Z23.511 F800 
N327 X-167.767 Y-1.589 Z23.685 F890 
N328 X-167.763 Y-1.768 Z23.877 F979 
N329 X-167.759 Y-1.964 Z24.087 F1068 
N330 X-167.755 Y-2.147 Z24.284 F1134 
N331 X-167.751 Y-2.354 Z24.505 F1332 
N332 X-167.745 Y-2.605 Z24.774 F1663 
N333 X-167.737 Y-2.922 Z25.115 F2125 
N334 X-167.725 Y-3.329 Z25.551 F2720 
N335 X-167.707 Y-3.840 Z26.100 F3316 
N336 X-167.678 Y-4.441 Z26.743 F3778 
N337 X-167.631 Y-5.107 Z27.458 F4109 
N338 X-167.551 Y-5.817 Z28.219 F4307 
N339 X-167.423 Y-6.546 Z29.001 F4373 
N340 X-167.231 Y-7.278 Z29.786 F4373 
N341 X-166.941 Y-7.986 Z30.545 F4307 
N342 X-166.571 Y-7.756 Z30.299 F4108 
N343 X-166.534 Y-7.091 Z29.585 F3776 
N344 X-166.530 Y-6.484 Z28.935 F3311 
N345 X-166.534 Y-5.987 Z28.401 F2713 
N346 X-166.540 Y-5.591 Z27.977 F2016 
N347 X-166.545 Y-5.297 Z27.662 F1418 
N348 X-166.549 Y-5.089 Z27.439 F953 
N349 X-166.552 Y-4.950 Z27.289 F621 
N350 X-166.554 Y-4.857 Z27.190 F422 
N351 X-166.556 Y-4.790 Z27.118 F356 
N352 X-166.592 Y-3.085 Z25.290 F356 
N353 X-166.593 Y-3.016 Z25.215 F406 
N354 X-166.595 Y-2.937 Z25.131 F457 
N355 X-166.597 Y-2.849 Z25.036 F508 
N356 X-166.599 Y-2.751 Z24.932 F559 
N357 X-166.601 Y-2.645 Z24.817 F610 
N358 X-166.604 Y-2.529 Z24.693 F661 
N359 X-166.606 Y-2.403 Z24.559 F712 
N360 X-166.690 Y1.541 Z20.329 F712 
N361 X-166.716 Y4.353 Z17.313 F712 
N362 X-166.674 Y10.591 Z10.623 F712 
N363 X-166.521 Y16.175 Z4.636 F712 
N364 X-166.295 Y21.109 Z-0.656 F712 
N365 X-166.007 Y25.698 Z-5.577 F712 
N366 X-165.686 Y29.813 Z-9.990 F712 
N367 X-165.340 Y33.570 Z-14.018 F712 
N368 X-164.965 Y37.139 Z-17.846 F712 
N369 X-164.950 Y37.284 Z-18.001 F800 
N370 X-164.933 Y37.445 Z-18.174 F889 
N371 X-164.915 Y37.624 Z-18.366 F979 
N372 X-164.894 Y37.820 Z-18.575 F1068 
N373 F712 
N374 G00 X-164.894 Y74.387 Z15.525 
RAPORT("TA333333","Slot Roughing:116 End")
;trailer : concat=None
; points cnt = 328
N376 MSG (" --- GROUPED OF SUBPROGRAM --- ")
N377 FGROUP()
N378 TRAFOOF
; PROGRAM NAME: A33333340
; ORDER       : A333333
; OPER. NAME  : Slot Roughing:117
; OPER. DESCR.: roughig slot
; OPER. TYPE  : slotMillRough
; GEO. OPTION : 1
; MACHINE     : HSTM_300_SIM840D_Py
;             : HSTM300/500 - HAMUEL: 5-axis milling machine-SIM840D Traori PP_Script
; CONTROL     : SINUMERIK 840D
; created:   2021-09-10 08:44:50.948067
;----------------------------------------
RAPORT("TA333333","Slot Roughing:117")
N10 TRAFOOF
N11 D0
N12 G90 G94
N13 G0 G53 D0 Z550
N14 STOPRE
M9 ; chlodziwo wyl
; --- Slot Roughing:117 - roughig slot ---
N16 ;ToolChange : concat=None ,current_tdmid=None, PP.tdmId=940860
N17 TRAFOOF
N18 G0 G53 D0 Z550 B0
N19 STOPRE
N20 MSG(" TLID=940860 D=20.0 R=4.0 Ang=0.0 Len=130.0 ")
N21 S4456 M03
N22 STOPRE
N23 TOL(0.1,1,1)
N24 G0 G53 A133.0000 B0.0000
N25 TRAORI
N26 G54 D1
N27 FFWON
N28 COMPOF
N29 STOPRE
N30 ; DELTA A > 40.1
N31 TRAFOOF
N32 D1
N33 STOPRE
N34 G00 G54 Z256.000
N35 G01 A133.0000 F10000
N36 TRAORI
N37 G54 D1
N38 STOPRE
N39 TRANS 
N40 G00 X-169.465 Y-94.920 Z0.713 A133.0000 
N41 M342 ; chlodziwo woda
N42 X-169.465 Y-58.353 Z34.813 
N43 G01 X-170.168 Y-51.549 Z27.518 F712 
N44 X-170.343 Y-49.849 Z25.694 F356 
N45 X-170.351 Y-49.779 Z25.619 F406 
N46 X-170.359 Y-49.701 Z25.535 F457 
N47 X-170.368 Y-49.613 Z25.441 F508 
N48 X-170.378 Y-49.515 Z25.336 F559 
N49 X-170.389 Y-49.409 Z25.222 F610 
N50 X-170.401 Y-49.293 Z25.098 F661 
N51 X-170.414 Y-49.168 Z24.964 F712 
N52 X-170.457 Y-48.747 Z24.512 F712 
N53 X-170.752 Y-45.735 Z21.282 F712 
N54 X-171.070 Y-42.043 Z17.323 F712 
N55 X-171.358 Y-38.099 Z13.094 F712 
N56 X-171.620 Y-33.569 Z8.236 F712 
N57 X-171.828 Y-28.541 Z2.844 F712 
N58 X-171.956 Y-22.903 Z-3.202 F712 
N59 X-171.969 Y-16.801 Z-9.745 F712 
N60 X-171.872 Y-11.366 Z-15.574 F712 
N61 X-171.860 Y-10.932 Z-16.040 F712 
N62 X-171.856 Y-10.787 Z-16.195 F800 
N63 X-171.852 Y-10.625 Z-16.369 F889 
N64 X-171.847 Y-10.446 Z-16.561 F979 
N65 X-171.842 Y-10.250 Z-16.771 F1068 
N66 X-171.836 Y-10.055 Z-16.980 F1142 
N67 X-171.830 Y-9.833 Z-17.218 F1364 
N68 X-171.821 Y-9.558 Z-17.512 F1735 
N69 X-171.804 Y-9.204 Z-17.892 F2254 
N70 X-171.774 Y-8.744 Z-18.385 F2921 
N71 X-171.712 Y-8.162 Z-19.009 F3588 
N72 X-171.583 Y-7.478 Z-19.743 F4107 
N73 X-171.321 Y-6.731 Z-20.545 F4478 
N74 X-170.842 Y-5.978 Z-21.352 F4700 
N75 X-170.117 Y-5.290 Z-22.090 F4774 
N76 X-169.240 Y-4.742 Z-22.677 F4774 
N77 X-168.154 Y-4.349 Z-23.098 F4701 
N78 X-167.050 Y-4.503 Z-22.933 F4482 
N79 X-166.650 Y-5.208 Z-22.177 F4117 
N80 X-166.545 Y-5.891 Z-21.445 F3606 
N81 X-166.516 Y-6.474 Z-20.820 F2948 
N82 X-166.511 Y-6.929 Z-20.332 F2181 
N83 X-166.514 Y-7.256 Z-19.982 F1524 
N84 X-166.518 Y-7.478 Z-19.743 F1013 
N85 X-166.521 Y-7.623 Z-19.587 F648 
N86 X-166.523 Y-7.717 Z-19.487 F429 
N87 X-166.525 Y-7.784 Z-19.415 F356 
N88 X-166.560 Y-9.489 Z-17.587 F356 
N89 X-166.562 Y-9.558 Z-17.512 F406 
N90 X-166.563 Y-9.637 Z-17.428 F457 
N91 X-166.565 Y-9.725 Z-17.333 F508 
N92 X-166.567 Y-9.823 Z-17.229 F559 
N93 X-166.570 Y-9.929 Z-17.114 F610 
N94 X-166.572 Y-10.045 Z-16.990 F661 
N95 X-166.575 Y-10.171 Z-16.856 F712 
N96 X-166.705 Y-16.405 Z-10.171 F712 
N97 X-166.699 Y-22.565 Z-3.564 F712 
N98 X-166.569 Y-28.428 Z2.723 F712 
N99 X-166.355 Y-33.586 Z8.254 F712 
N100 X-166.093 Y-38.072 Z13.065 F712 
N101 X-165.787 Y-42.227 Z17.521 F712 
N102 X-165.463 Y-45.919 Z21.480 F712 
N103 X-165.080 Y-49.719 Z25.555 F712 
N104 X-165.066 Y-49.864 Z25.710 F800 
N105 X-165.049 Y-50.025 Z25.883 F890 
N106 X-165.031 Y-50.204 Z26.075 F979 
N107 X-165.011 Y-50.400 Z26.285 F1068 
N108 X-164.993 Y-50.586 Z26.485 F1136 
N109 X-164.972 Y-50.797 Z26.711 F1342 
N110 X-164.947 Y-51.054 Z26.987 F1684 
N111 X-164.918 Y-51.381 Z27.340 F2164 
N112 X-164.887 Y-51.800 Z27.796 F2780 
N113 X-164.862 Y-52.324 Z28.374 F3397 
N114 X-164.867 Y-52.933 Z29.062 F3876 
N115 X-164.952 Y-53.586 Z29.843 F4219 
N116 X-165.226 Y-54.211 Z30.692 F4425 
N117 X-165.819 Y-54.668 Z31.523 F4493 
N118 X-166.727 Y-54.791 Z32.144 F4493 
N119 X-167.721 Y-54.368 Z32.196 F4425 
N120 X-168.233 Y-53.615 Z31.620 F4220 
N121 X-168.456 Y-52.897 Z30.929 F3878 
N122 X-168.579 Y-52.261 Z30.278 F3399 
N123 X-168.656 Y-51.725 Z29.715 F2783 
N124 X-168.707 Y-51.308 Z29.273 F2065 
N125 X-168.741 Y-51.008 Z28.953 F1450 
N126 X-168.763 Y-50.803 Z28.733 F971 
N127 X-168.777 Y-50.668 Z28.588 F629 
N128 X-168.786 Y-50.579 Z28.493 F424 
N129 X-168.792 Y-50.514 Z28.424 F356 
N130 X-168.968 Y-48.814 Z26.600 F356 
N131 X-168.975 Y-48.744 Z26.526 F406 
N132 X-168.983 Y-48.666 Z26.441 F457 
N133 X-168.992 Y-48.578 Z26.347 F508 
N134 X-169.002 Y-48.480 Z26.243 F559 
N135 X-169.013 Y-48.374 Z26.129 F610 
N136 X-169.025 Y-48.258 Z26.004 F661 
N137 X-169.038 Y-48.133 Z25.870 F712 
N138 X-169.086 Y-47.676 Z25.380 F712 
N139 X-169.380 Y-44.673 Z22.160 F712 
N140 X-169.697 Y-40.989 Z18.209 F712 
N141 X-169.984 Y-37.052 Z13.988 F712 
N142 X-170.246 Y-32.531 Z9.139 F712 
N143 X-170.453 Y-27.514 Z3.759 F712 
N144 X-170.581 Y-21.888 Z-2.274 F712 
N145 X-170.594 Y-15.798 Z-8.805 F712 
N146 X-170.497 Y-10.378 Z-14.617 F712 
N147 X-170.484 Y-9.906 Z-15.123 F712 
N148 X-170.480 Y-9.761 Z-15.279 F800 
N149 X-170.476 Y-9.599 Z-15.452 F890 
N150 X-170.471 Y-9.420 Z-15.644 F979 
N151 X-170.466 Y-9.224 Z-15.855 F1068 
N152 X-170.461 Y-9.034 Z-16.058 F1138 
N153 X-170.455 Y-8.819 Z-16.289 F1349 
N154 X-170.446 Y-8.555 Z-16.572 F1702 
N155 X-170.433 Y-8.218 Z-16.934 F2195 
N156 X-170.410 Y-7.782 Z-17.401 F2830 
N157 X-170.366 Y-7.233 Z-17.990 F3464 
N158 X-170.281 Y-6.587 Z-18.683 F3958 
N159 X-170.115 Y-5.873 Z-19.448 F4310 
N160 X-169.804 Y-5.132 Z-20.242 F4522 
N161 X-169.297 Y-4.416 Z-21.010 F4592 
N162 X-168.608 Y-3.794 Z-21.678 F4592 
N163 X-167.676 Y-3.330 Z-22.175 F4522 
N164 X-166.790 Y-3.633 Z-21.851 F4312 
N165 X-166.579 Y-4.336 Z-21.096 F3962 
N166 X-166.523 Y-4.983 Z-20.403 F3472 
N167 X-166.509 Y-5.533 Z-19.813 F2842 
N168 X-166.510 Y-5.962 Z-19.352 F2106 
N169 X-166.514 Y-6.271 Z-19.021 F1476 
N170 X-166.518 Y-6.483 Z-18.794 F986 
N171 X-166.521 Y-6.622 Z-18.645 F636 
N172 X-166.523 Y-6.712 Z-18.548 F426 
N173 X-166.525 Y-6.778 Z-18.477 F356 
N174 X-166.560 Y-8.483 Z-16.649 F356 
N175 X-166.562 Y-8.553 Z-16.575 F406 
N176 X-166.563 Y-8.632 Z-16.490 F457 
N177 X-166.565 Y-8.720 Z-16.395 F508 
N178 X-166.567 Y-8.817 Z-16.291 F559 
N179 X-166.570 Y-8.924 Z-16.177 F610 
N180 X-166.572 Y-9.040 Z-16.052 F661 
N181 X-166.575 Y-9.165 Z-15.918 F712 
N182 X-166.705 Y-15.401 Z-9.231 F712 
N183 X-166.699 Y-21.561 Z-2.625 F712 
N184 X-166.569 Y-27.423 Z3.661 F712 
N185 X-166.355 Y-32.581 Z9.192 F712 
N186 X-166.093 Y-37.066 Z14.002 F712 
N187 X-165.787 Y-41.220 Z18.457 F712 
N188 X-165.464 Y-44.911 Z22.415 F712 
N189 X-165.080 Y-48.714 Z26.493 F712 
N190 X-165.066 Y-48.858 Z26.648 F800 
N191 X-165.049 Y-49.020 Z26.821 F890 
N192 X-165.031 Y-49.198 Z27.013 F979 
N193 X-165.011 Y-49.394 Z27.222 F1068 
N194 X-164.993 Y-49.576 Z27.418 F1133 
N195 X-164.973 Y-49.780 Z27.637 F1328 
N196 X-164.948 Y-50.027 Z27.903 F1655 
N197 X-164.919 Y-50.339 Z28.239 F2111 
N198 X-164.885 Y-50.737 Z28.672 F2698 
N199 X-164.850 Y-51.233 Z29.217 F3285 
N200 X-164.827 Y-51.809 Z29.864 F3742 
N201 X-164.842 Y-52.432 Z30.597 F4068 
N202 X-164.951 Y-53.052 Z31.406 F4264 
N203 X-165.262 Y-53.573 Z32.269 F4329 
N204 X-165.931 Y-53.774 Z33.061 F4329 
N205 X-166.697 Y-53.184 Z33.017 F4263 
N206 X-166.991 Y-52.429 Z32.388 F4066 
N207 X-167.136 Y-51.747 Z31.721 F3738 
N208 X-167.227 Y-51.146 Z31.101 F3278 
N209 X-167.292 Y-50.639 Z30.568 F2687 
N210 X-167.337 Y-50.245 Z30.149 F1997 
N211 X-167.367 Y-49.960 Z29.845 F1406 
N212 X-167.388 Y-49.765 Z29.636 F947 
N213 X-167.401 Y-49.635 Z29.497 F618 
N214 X-167.410 Y-49.550 Z29.405 F421 
N215 X-167.416 Y-49.486 Z29.338 F356 
N216 X-167.592 Y-47.786 Z27.514 F356 
N217 X-167.599 Y-47.716 Z27.439 F406 
N218 X-167.607 Y-47.637 Z27.355 F457 
N219 X-167.616 Y-47.550 Z27.261 F508 
N220 X-167.626 Y-47.452 Z27.156 F559 
N221 X-167.637 Y-47.346 Z27.042 F610 
N222 X-167.649 Y-47.230 Z26.918 F661 
N223 X-167.662 Y-47.105 Z26.784 F712 
N224 X-167.714 Y-46.604 Z26.247 F712 
N225 X-168.007 Y-43.616 Z23.042 F712 
N226 X-168.324 Y-39.937 Z19.098 F712 
N227 X-168.610 Y-36.006 Z14.882 F712 
N228 X-168.872 Y-31.494 Z10.043 F712 
N229 X-169.079 Y-26.487 Z4.674 F712 
N230 X-169.206 Y-20.872 Z-1.348 F712 
N231 X-169.219 Y-14.791 Z-7.869 F712 
N232 X-169.123 Y-9.390 Z-13.661 F712 
N233 X-169.108 Y-8.873 Z-14.215 F712 
N234 X-169.104 Y-8.728 Z-14.370 F800 
N235 X-169.100 Y-8.566 Z-14.544 F890 
N236 X-169.095 Y-8.387 Z-14.736 F979 
N237 X-169.090 Y-8.191 Z-14.946 F1068 
N238 X-169.085 Y-8.006 Z-15.145 F1135 
N239 X-169.079 Y-7.797 Z-15.369 F1337 
N240 X-169.072 Y-7.543 Z-15.641 F1673 
N241 X-169.061 Y-7.220 Z-15.988 F2144 
N242 X-169.044 Y-6.806 Z-16.432 F2749 
N243 X-169.014 Y-6.284 Z-16.991 F3355 
N244 X-168.961 Y-5.672 Z-17.647 F3826 
N245 X-168.864 Y-4.994 Z-18.375 F4162 
N246 X-168.687 Y-4.277 Z-19.144 F4364 
N247 X-168.386 Y-3.555 Z-19.917 F4431 
N248 X-167.929 Y-2.870 Z-20.652 F4431 
N249 X-167.218 Y-2.308 Z-21.255 F4364 
N250 X-166.625 Y-2.768 Z-20.762 F4162 
N251 X-166.530 Y-3.446 Z-20.034 F3825 
N252 X-166.507 Y-4.060 Z-19.376 F3353 
N253 X-166.505 Y-4.580 Z-18.819 F2747 
N254 X-166.509 Y-4.987 Z-18.382 F2040 
N255 X-166.514 Y-5.282 Z-18.066 F1433 
N256 X-166.519 Y-5.485 Z-17.848 F962 
N257 X-166.522 Y-5.620 Z-17.704 F625 
N258 X-166.523 Y-5.708 Z-17.609 F423 
N259 X-166.525 Y-5.773 Z-17.540 F356 
N260 X-166.560 Y-7.478 Z-15.711 F356 
N261 X-166.562 Y-7.547 Z-15.637 F406 
N262 X-166.563 Y-7.626 Z-15.552 F457 
N263 X-166.565 Y-7.714 Z-15.458 F508 
N264 X-166.567 Y-7.812 Z-15.353 F559 
N265 X-166.570 Y-7.918 Z-15.239 F610 
N266 X-166.572 Y-8.034 Z-15.114 F661 
N267 X-166.575 Y-8.159 Z-14.980 F712 
N268 X-166.705 Y-14.402 Z-8.286 F712 
N269 X-166.699 Y-20.557 Z-1.685 F712 
N270 X-166.569 Y-26.418 Z4.599 F712 
N271 X-166.355 Y-31.575 Z10.130 F712 
N272 X-166.093 Y-36.059 Z14.939 F712 
N273 X-165.787 Y-40.210 Z19.390 F712 
N274 X-165.464 Y-43.899 Z23.346 F712 
N275 X-165.080 Y-47.708 Z27.430 F712 
N276 X-165.066 Y-47.853 Z27.585 F800 
N277 X-165.049 Y-48.014 Z27.759 F889 
N278 X-165.031 Y-48.193 Z27.950 F979 
N279 X-165.011 Y-48.388 Z28.160 F1068 
N280 X-164.993 Y-48.567 Z28.352 F1130 
N281 X-164.973 Y-48.766 Z28.566 F1319 
N282 X-164.949 Y-49.006 Z28.824 F1633 
N283 X-164.920 Y-49.308 Z29.149 F2073 
N284 X-164.883 Y-49.690 Z29.564 F2638 
N285 X-164.840 Y-50.166 Z30.086 F3204 
N286 X-164.797 Y-50.717 Z30.703 F3644 
N287 X-164.765 Y-51.315 Z31.401 F3958 
N288 X-164.765 Y-51.921 Z32.171 F4146 
N289 X-164.842 Y-52.467 Z33.015 F4209 
N290 X-165.131 Y-52.767 Z33.958 F4209 
N291 X-165.555 Y-52.028 Z33.843 F4145 
N292 X-165.705 Y-51.294 Z33.203 F3954 
N293 X-165.799 Y-50.641 Z32.555 F3636 
N294 X-165.869 Y-50.065 Z31.959 F3190 
N295 X-165.923 Y-49.579 Z31.448 F2617 
N296 X-165.963 Y-49.201 Z31.046 F1948 
N297 X-165.992 Y-48.928 Z30.754 F1375 
N298 X-166.011 Y-48.739 Z30.552 F929 
N299 X-166.024 Y-48.613 Z30.417 F610 
N300 X-166.033 Y-48.530 Z30.328 F419 
N301 X-166.039 Y-48.467 Z30.261 F356 
N302 X-166.215 Y-46.767 Z28.437 F356 
N303 X-166.222 Y-46.697 Z28.363 F406 
N304 X-166.230 Y-46.618 Z28.278 F457 
N305 X-166.239 Y-46.530 Z28.184 F508 
N306 X-166.249 Y-46.433 Z28.080 F559 
N307 X-166.260 Y-46.327 Z27.966 F610 
N308 X-166.272 Y-46.211 Z27.841 F661 
N309 X-166.285 Y-46.086 Z27.707 F712 
N310 X-166.342 Y-45.533 Z27.114 F712 
N311 X-166.632 Y-42.582 Z23.950 F712 
N312 X-166.949 Y-38.905 Z20.007 F712 
N313 X-167.236 Y-34.967 Z15.783 F712 
N314 X-167.497 Y-30.458 Z10.949 F712 
N315 X-167.704 Y-25.458 Z5.587 F712 
N316 X-167.831 Y-19.844 Z-0.434 F712 
N317 X-167.844 Y-13.759 Z-6.959 F712 
N318 X-167.748 Y-8.402 Z-12.704 F712 
N319 X-167.732 Y-7.831 Z-13.316 F712 
N320 X-167.728 Y-7.686 Z-13.472 F800 
N321 X-167.724 Y-7.524 Z-13.645 F890 
N322 X-167.719 Y-7.345 Z-13.837 F979 
N323 X-167.714 Y-7.149 Z-14.047 F1068 
N324 X-167.709 Y-6.967 Z-14.243 F1132 
N325 X-167.703 Y-6.764 Z-14.461 F1327 
N326 X-167.697 Y-6.517 Z-14.726 F1650 
N327 X-167.688 Y-6.205 Z-15.060 F2104 
N328 X-167.676 Y-5.807 Z-15.487 F2687 
N329 X-167.657 Y-5.308 Z-16.022 F3269 
N330 X-167.628 Y-4.722 Z-16.650 F3723 
N331 X-167.581 Y-4.073 Z-17.347 F4047 
N332 X-167.502 Y-3.381 Z-18.089 F4241 
N333 X-167.371 Y-2.671 Z-18.850 F4306 
N334 X-167.162 Y-1.953 Z-19.619 F4306 
N335 X-166.786 Y-1.288 Z-20.333 F4240 
N336 X-166.520 Y-1.871 Z-19.707 F4044 
N337 X-166.496 Y-2.532 Z-18.999 F3718 
N338 X-166.495 Y-3.109 Z-18.380 F3261 
N339 X-166.501 Y-3.605 Z-17.848 F2673 
N340 X-166.508 Y-4.002 Z-17.422 F1988 
N341 X-166.515 Y-4.293 Z-17.111 F1400 
N342 X-166.519 Y-4.493 Z-16.896 F943 
N343 X-166.522 Y-4.623 Z-16.756 F617 
N344 X-166.524 Y-4.707 Z-16.666 F421 
N345 X-166.525 Y-4.767 Z-16.602 F356 
N346 X-166.560 Y-6.472 Z-14.774 F356 
N347 X-166.562 Y-6.542 Z-14.699 F406 
N348 X-166.564 Y-6.620 Z-14.614 F457 
N349 X-166.565 Y-6.709 Z-14.520 F508 
N350 X-166.567 Y-6.806 Z-14.415 F559 
N351 X-166.570 Y-6.913 Z-14.301 F610 
N352 X-166.572 Y-7.029 Z-14.177 F661 
N353 X-166.575 Y-7.154 Z-14.042 F712 
N354 X-166.705 Y-13.427 Z-7.315 F712 
N355 X-166.698 Y-19.566 Z-0.732 F712 
N356 X-166.569 Y-25.415 Z5.540 F712 
N357 X-166.355 Y-30.568 Z11.066 F712 
N358 X-166.093 Y-35.046 Z15.868 F712 
N359 X-165.789 Y-39.181 Z20.302 F712 
N360 X-165.467 Y-42.863 Z24.250 F712 
N361 X-165.080 Y-46.702 Z28.368 F712 
N362 X-165.066 Y-46.847 Z28.523 F800 
N363 X-165.049 Y-47.009 Z28.697 F889 
N364 X-165.031 Y-47.187 Z28.888 F979 
N365 X-165.012 Y-47.383 Z29.098 F1068 
N366 F712 
N367 G00 X-165.012 Y-83.950 Z-5.002 
RAPORT("TA333333","Slot Roughing:117 End")
;trailer : concat=None
; points cnt = 324
N369 M9 ; chlodziwo wyl.
N370 MSG (" --- KONIEC PODPROGRAMU --- ")
N371 FGROUP()
N372 TRAFOOF
N373 STOPRE
N374 G0 G53 D0 Z550.0 M9 M5
N375 G0 G53 Y150 A0 B0
N376 M17
