; PROGRAM NAME: A33333352
; ORDER       : A333333
; OPER. NAME  : Side Milling:160
; OPER. DESCR.: Side Milling/BH wk
; OPER. TYPE  : sideMill
; GEO. OPTION : 1
; MACHINE     : HSTM_300_SIM840D_Py
;             : HSTM300/500 - HAMUEL: 5-axis milling machine-SIM840D Traori PP_Script
; CONTROL     : SINUMERIK 840D
; created:   2021-09-10 09:25:43.688863
;----------------------------------------
RAPORT("TA333333","Side Milling:160")
N10 TRAFOOF
N11 D0
N12 G90 G94
N13 G0 G53 D0 Z550
N14 STOPRE
M9 ; chlodziwo wyl
; --- Side Milling:160 - Side Milling/BH wk ---
N16 ;ToolChange : concat=None ,current_tdmid=None, PP.tdmId=941121
N17 TRAFOOF
N18 G0 G53 D0 X-200 Y150 Z550 B0
N19 T="7741121"
RAPORT("TA333333","ToolChangeStart 7741121")
N20 M6
RAPORT("TA333333","ToolChangeEnd")
N21 STOPRE
N22 MSG(" TLID=941121 D=16.0 R=4.0 Ang=0.0 Len=130.0 ")
N23 S4774 M03
N24 STOPRE
N25 TOL(0.1,1,1)
N26 G0 G53 A313.0200 B-0.0011
N27 TRAORI
N28 G54 D1
;tol5=0.03
N29 D1 
STOPRE
E_ZDARZ=300004
;ACS_FINISH_BH_C5=7741121
STOPRE
;UWAGA : ZMIENIONA TOLERANCJA OSI A i B, ruchy osi A i B beda usuniete : TOL5=0.03
N30 ; DELTA A > 40.1
N31 TRAFOOF
N32 D1
N33 STOPRE
N34 G00 G54 Z256.000
N35 G01 A313.0200 F10000
N36 TRAORI
N37 G54 D1
N38 STOPRE
N39 TRANS 
N40 G00 X-169.313 Y71.494 Z17.969 A313.0200 
N41 M342 ; chlodziwo woda
N42 X-169.312 Y34.938 Z-16.143 
N43 ;FSHE - BH od wlotu
N44 G01 G41 X-169.705 Y29.489 Z-10.299 F954
N45 G01 X-169.705 Y29.489 Z-10.299 F954 
N46 X-169.721 Y29.262 Z-10.056 
N47 X-169.738 Y29.035 Z-9.812 
N48 X-169.754 Y28.808 Z-9.569 
N49 X-169.767 Y28.626 Z-9.374 
N50 X-169.780 Y28.444 Z-9.179 
N51 X-169.794 Y28.263 Z-8.985 
N52 X-169.809 Y28.046 Z-8.752 
N53 X-169.825 Y27.829 Z-8.519 
N54 X-169.840 Y27.612 Z-8.287 
N55 X-169.856 Y27.395 Z-8.054 
N56 X-169.872 Y27.178 Z-7.822 
N57 X-169.887 Y26.961 Z-7.589 
N58 X-169.903 Y26.744 Z-7.357 
N59 X-169.919 Y26.528 Z-7.124 
N60 X-169.934 Y26.311 Z-6.891 
N61 X-169.950 Y26.094 Z-6.659 
N62 X-169.966 Y25.877 Z-6.426 
N63 X-169.981 Y25.660 Z-6.194 
N64 X-169.997 Y25.443 Z-5.961 
N65 X-170.012 Y25.226 Z-5.728 
N66 X-170.028 Y25.009 Z-5.496 
N67 X-170.044 Y24.793 Z-5.263 
N68 X-170.059 Y24.576 Z-5.031 
N69 X-170.075 Y24.359 Z-4.798 
N70 X-170.091 Y24.142 Z-4.566 
N71 X-170.106 Y23.925 Z-4.333 
N72 X-170.122 Y23.708 Z-4.100 
N73 X-170.138 Y23.491 Z-3.868 
N74 X-170.150 Y23.274 Z-3.635 
N75 X-170.161 Y23.057 Z-3.402 
N76 X-170.173 Y22.840 Z-3.170 
N77 X-170.185 Y22.623 Z-2.937 
N78 X-170.197 Y22.406 Z-2.704 
N79 X-170.208 Y22.189 Z-2.472 
N80 X-170.220 Y21.972 Z-2.239 
N81 X-170.232 Y21.755 Z-2.006 
N82 X-170.244 Y21.538 Z-1.774 
N83 X-170.255 Y21.321 Z-1.541 
N84 X-170.267 Y21.104 Z-1.308 
N85 X-170.279 Y20.887 Z-1.075 
N86 X-170.290 Y20.670 Z-0.843 
N87 X-170.302 Y20.453 Z-0.610 
N88 X-170.314 Y20.236 Z-0.377 
N89 X-170.326 Y20.019 Z-0.145 
N90 X-170.337 Y19.802 Z0.088 
N91 X-170.349 Y19.585 Z0.321 
N92 X-170.361 Y19.368 Z0.553 
N93 X-170.373 Y19.151 Z0.786 
N94 X-170.384 Y18.934 Z1.019 
N95 X-170.396 Y18.717 Z1.252 
N96 X-170.408 Y18.500 Z1.484 
N97 X-170.419 Y18.283 Z1.717 
N98 X-170.431 Y18.066 Z1.950 
N99 X-170.440 Y17.849 Z2.182 
N100 X-170.448 Y17.632 Z2.415 
N101 X-170.455 Y17.415 Z2.648 
N102 X-170.462 Y17.198 Z2.881 
N103 X-170.469 Y16.981 Z3.114 
N104 X-170.476 Y16.764 Z3.346 
N105 X-170.484 Y16.547 Z3.579 
N106 X-170.491 Y16.330 Z3.812 
N107 X-170.498 Y16.112 Z4.045 
N108 X-170.505 Y15.895 Z4.278 
N109 X-170.512 Y15.678 Z4.510 
N110 X-170.520 Y15.461 Z4.743 
N111 X-170.527 Y15.244 Z4.976 
N112 X-170.534 Y15.027 Z5.209 
N113 X-170.541 Y14.810 Z5.442 
N114 X-170.548 Y14.593 Z5.674 
N115 X-170.556 Y14.376 Z5.907 
N116 X-170.563 Y14.159 Z6.140 
N117 X-170.570 Y13.942 Z6.373 
N118 X-170.577 Y13.724 Z6.606 
N119 X-170.584 Y13.507 Z6.838 
N120 X-170.592 Y13.290 Z7.071 
N121 X-170.599 Y13.073 Z7.304 
N122 X-170.606 Y12.856 Z7.537 
N123 X-170.613 Y12.639 Z7.770 
N124 X-170.620 Y12.422 Z8.003 
N125 X-170.627 Y12.205 Z8.235 
N126 X-170.635 Y11.988 Z8.468 
N127 X-170.642 Y11.771 Z8.701 
N128 X-170.649 Y11.554 Z8.934 
N129 X-170.653 Y11.336 Z9.167 
N130 X-170.657 Y11.119 Z9.399 
N131 X-170.660 Y10.902 Z9.632 
N132 X-170.663 Y10.685 Z9.865 
N133 X-170.667 Y10.468 Z10.098 
N134 X-170.670 Y10.251 Z10.331 
N135 X-170.673 Y10.034 Z10.564 
N136 X-170.677 Y9.817 Z10.796 
N137 X-170.680 Y9.599 Z11.029 
N138 X-170.684 Y9.382 Z11.262 
N139 X-170.687 Y9.165 Z11.495 
N140 X-170.690 Y8.948 Z11.728 
N141 X-170.694 Y8.731 Z11.961 
N142 X-170.697 Y8.514 Z12.194 
N143 X-170.700 Y8.297 Z12.426 
N144 X-170.704 Y8.079 Z12.659 
N145 X-170.707 Y7.862 Z12.892 
N146 X-170.707 Y7.645 Z13.125 
N147 X-170.708 Y7.428 Z13.358 
N148 X-170.708 Y7.211 Z13.591 
N149 X-170.709 Y6.994 Z13.824 
N150 X-170.709 Y6.777 Z14.056 
N151 X-170.710 Y6.559 Z14.289 
N152 X-170.711 Y6.342 Z14.522 
N153 X-170.711 Y6.125 Z14.755 
N154 X-170.712 Y5.908 Z14.988 
N155 X-170.712 Y5.691 Z15.221 
N156 X-170.713 Y5.474 Z15.454 
N157 X-170.714 Y5.257 Z15.686 
N158 X-170.714 Y5.039 Z15.919 
N159 X-170.715 Y4.822 Z16.152 
N160 X-170.715 Y4.605 Z16.385 
N161 X-170.716 Y4.388 Z16.618 
N162 X-170.717 Y4.171 Z16.851 
N163 X-170.717 Y3.989 Z17.046 
N164 X-170.718 Y3.807 Z17.241 
N165 X-170.718 Y3.625 Z17.436 
N166 G40 X-170.733 Y-1.831 Z23.287 F954
N167 X-170.733 Y-1.831 Z23.287 
N168 G00 X-170.733 Y9.136 Z33.520 
N169 X-169.313 Y45.868 Z-5.944 
N170 X-169.312 Y34.902 Z-16.177 
N171 ;FSHE - BH od wlotu
N172 G01 G41 X-169.705 Y29.452 Z-10.334 F954
N173 G01 X-169.705 Y29.452 Z-10.334 F954 
N174 X-169.721 Y29.225 Z-10.090 
N175 X-169.738 Y28.998 Z-9.847 
N176 X-169.754 Y28.771 Z-9.603 
N177 X-169.767 Y28.589 Z-9.408 
N178 X-169.780 Y28.408 Z-9.213 
N179 X-169.794 Y28.226 Z-9.019 
N180 X-169.809 Y28.009 Z-8.786 
N181 X-169.825 Y27.792 Z-8.554 
N182 X-169.840 Y27.575 Z-8.321 
N183 X-169.856 Y27.359 Z-8.088 
N184 X-169.872 Y27.142 Z-7.856 
N185 X-169.887 Y26.925 Z-7.623 
N186 X-169.903 Y26.708 Z-7.391 
N187 X-169.919 Y26.491 Z-7.158 
N188 X-169.934 Y26.274 Z-6.925 
N189 X-169.950 Y26.057 Z-6.693 
N190 X-169.966 Y25.840 Z-6.460 
N191 X-169.981 Y25.623 Z-6.228 
N192 X-169.997 Y25.407 Z-5.995 
N193 X-170.012 Y25.190 Z-5.763 
N194 X-170.028 Y24.973 Z-5.530 
N195 X-170.044 Y24.756 Z-5.297 
N196 X-170.059 Y24.539 Z-5.065 
N197 X-170.075 Y24.322 Z-4.832 
N198 X-170.091 Y24.105 Z-4.600 
N199 X-170.106 Y23.888 Z-4.367 
N200 X-170.122 Y23.672 Z-4.135 
N201 X-170.138 Y23.455 Z-3.902 
N202 X-170.150 Y23.238 Z-3.669 
N203 X-170.161 Y23.021 Z-3.437 
N204 X-170.173 Y22.804 Z-3.204 
N205 X-170.185 Y22.587 Z-2.971 
N206 X-170.197 Y22.370 Z-2.738 
N207 X-170.208 Y22.153 Z-2.506 
N208 X-170.220 Y21.936 Z-2.273 
N209 X-170.232 Y21.719 Z-2.040 
N210 X-170.244 Y21.502 Z-1.808 
N211 X-170.255 Y21.285 Z-1.575 
N212 X-170.267 Y21.068 Z-1.342 
N213 X-170.279 Y20.851 Z-1.110 
N214 X-170.290 Y20.634 Z-0.877 
N215 X-170.302 Y20.417 Z-0.644 
N216 X-170.314 Y20.200 Z-0.411 
N217 X-170.326 Y19.983 Z-0.179 
N218 X-170.337 Y19.766 Z0.054 
N219 X-170.349 Y19.549 Z0.287 
N220 X-170.361 Y19.332 Z0.519 
N221 X-170.373 Y19.115 Z0.752 
N222 X-170.384 Y18.898 Z0.985 
N223 X-170.396 Y18.681 Z1.218 
N224 X-170.408 Y18.464 Z1.450 
N225 X-170.419 Y18.247 Z1.683 
N226 X-170.431 Y18.030 Z1.916 
N227 X-170.440 Y17.813 Z2.148 
N228 X-170.448 Y17.596 Z2.381 
N229 X-170.455 Y17.378 Z2.614 
N230 X-170.462 Y17.161 Z2.847 
N231 X-170.469 Y16.944 Z3.080 
N232 X-170.476 Y16.727 Z3.312 
N233 X-170.484 Y16.510 Z3.545 
N234 X-170.491 Y16.293 Z3.778 
N235 X-170.498 Y16.076 Z4.011 
N236 X-170.505 Y15.859 Z4.244 
N237 X-170.512 Y15.642 Z4.476 
N238 X-170.520 Y15.425 Z4.709 
N239 X-170.527 Y15.208 Z4.942 
N240 X-170.534 Y14.990 Z5.175 
N241 X-170.541 Y14.773 Z5.408 
N242 X-170.548 Y14.556 Z5.640 
N243 X-170.556 Y14.339 Z5.873 
N244 X-170.563 Y14.122 Z6.106 
N245 X-170.570 Y13.905 Z6.339 
N246 X-170.577 Y13.688 Z6.572 
N247 X-170.584 Y13.471 Z6.804 
N248 X-170.592 Y13.254 Z7.037 
N249 X-170.599 Y13.037 Z7.270 
N250 X-170.606 Y12.820 Z7.503 
N251 X-170.613 Y12.602 Z7.736 
N252 X-170.620 Y12.385 Z7.968 
N253 X-170.627 Y12.168 Z8.201 
N254 X-170.635 Y11.951 Z8.434 
N255 X-170.642 Y11.734 Z8.667 
N256 X-170.649 Y11.517 Z8.900 
N257 X-170.653 Y11.300 Z9.132 
N258 X-170.657 Y11.083 Z9.365 
N259 X-170.660 Y10.866 Z9.598 
N260 X-170.663 Y10.648 Z9.831 
N261 X-170.667 Y10.431 Z10.064 
N262 X-170.670 Y10.214 Z10.297 
N263 X-170.673 Y9.997 Z10.530 
N264 X-170.677 Y9.780 Z10.762 
N265 X-170.680 Y9.563 Z10.995 
N266 X-170.684 Y9.346 Z11.228 
N267 X-170.687 Y9.129 Z11.461 
N268 X-170.690 Y8.911 Z11.694 
N269 X-170.694 Y8.694 Z11.927 
N270 X-170.697 Y8.477 Z12.159 
N271 X-170.700 Y8.260 Z12.392 
N272 X-170.704 Y8.043 Z12.625 
N273 X-170.707 Y7.826 Z12.858 
N274 X-170.707 Y7.609 Z13.091 
N275 X-170.708 Y7.391 Z13.324 
N276 X-170.708 Y7.174 Z13.557 
N277 X-170.709 Y6.957 Z13.789 
N278 X-170.709 Y6.740 Z14.022 
N279 X-170.710 Y6.523 Z14.255 
N280 X-170.711 Y6.306 Z14.488 
N281 X-170.711 Y6.089 Z14.721 
N282 X-170.712 Y5.871 Z14.954 
N283 X-170.712 Y5.654 Z15.187 
N284 X-170.713 Y5.437 Z15.419 
N285 X-170.714 Y5.220 Z15.652 
N286 X-170.714 Y5.003 Z15.885 
N287 X-170.715 Y4.786 Z16.118 
N288 X-170.715 Y4.569 Z16.351 
N289 X-170.716 Y4.351 Z16.584 
N290 X-170.717 Y4.134 Z16.817 
N291 X-170.717 Y3.952 Z17.012 
N292 X-170.718 Y3.771 Z17.207 
N293 X-170.718 Y3.589 Z17.402 
N294 G40 X-170.733 Y-1.867 Z23.253 F954
N295 X-170.733 Y-1.867 Z23.253 
N296 G00 X-170.733 Y9.099 Z33.486 
RAPORT("TA333333","Side Milling:160 End")
;trailer : concat=None
; points cnt = 244
N298 MSG (" --- GROUPED OF SUBPROGRAM --- ")
N299 FGROUP()
N300 TRAFOOF
; PROGRAM NAME: A33333352
; ORDER       : A333333
; OPER. NAME  : Side Milling:161
; OPER. DESCR.: BH Chamfer Finish milling MFBBE
; OPER. TYPE  : sideMill
; GEO. OPTION : 1
; MACHINE     : HSTM_300_SIM840D_Py
;             : HSTM300/500 - HAMUEL: 5-axis milling machine-SIM840D Traori PP_Script
; CONTROL     : SINUMERIK 840D
; created:   2021-09-10 09:31:06.781169
;----------------------------------------
RAPORT("TA333333","Side Milling:161")
N10 TRAFOOF
N11 D0
N12 G90 G94
N13 G0 G53 D0 Z550
N14 STOPRE
M9 ; chlodziwo wyl
; --- Side Milling:161 - BH Chamfer Finish milling MFBBE ---
N16 ;ToolChange : concat=None ,current_tdmid=None, PP.tdmId=941121
N17 TRAFOOF
N18 G0 G53 D0 Z550 B0
N19 STOPRE
N20 MSG(" TLID=941121 D=16.0 R=4.0 Ang=0.0 Len=130.0 ")
N21 S4774 M03
N22 STOPRE
N23 TOL(0.1,1,1)
N24 G0 G53 A319.6859 B-0.0000
N25 TRAORI
N26 G54 D3
;tol5=0.03
N27 D3 
STOPRE
E_ZDARZ=300004
;ACS_FINISH_BH_C5=7741121
STOPRE
;UWAGA : ZMIENIONA TOLERANCJA OSI A i B, ruchy osi A i B beda usuniete : TOL5=0.03
N28 ; DELTA A > 40.1
N29 TRAFOOF
N30 D3
N31 STOPRE
N32 G00 G54 Z256.000
N33 G01 A319.6859 F10000
N34 TRAORI
N35 G54 D3
N36 STOPRE
N37 TRANS 
N38 G00 X-170.717 Y53.766 Z39.812 A319.6859 
N39 M342 ; chlodziwo woda
N40 X-170.717 Y21.417 Z1.687 
N41 ;MFBBE - faza na BH od wlotu
N42 G01 G41 X-170.717 Y15.319 Z6.865 F954
N43 G01 X-170.717 Y15.319 Z6.865 F954 
N44 X-170.717 Y15.065 Z7.081 
N45 X-170.717 Y14.811 Z7.296 
N46 X-170.717 Y14.557 Z7.512 
N47 X-170.717 Y14.313 Z7.719 
N48 X-170.717 Y14.069 Z7.926 
N49 X-170.717 Y13.825 Z8.133 
N50 X-170.717 Y13.581 Z8.341 
N51 X-170.717 Y13.337 Z8.548 
N52 X-170.717 Y13.093 Z8.755 
N53 X-170.717 Y12.849 Z8.962 
N54 X-170.717 Y12.605 Z9.169 
N55 X-170.717 Y12.361 Z9.376 
N56 X-170.717 Y12.118 Z9.583 
N57 X-170.717 Y11.874 Z9.790 
N58 X-170.717 Y11.630 Z9.997 
N59 X-170.717 Y11.386 Z10.205 
N60 X-170.717 Y11.142 Z10.412 
N61 X-170.717 Y10.898 Z10.619 
N62 X-170.717 Y10.654 Z10.826 
N63 X-170.717 Y10.410 Z11.033 
N64 X-170.717 Y10.166 Z11.240 
N65 X-170.717 Y9.922 Z11.447 
N66 X-170.717 Y9.678 Z11.654 
N67 X-170.717 Y9.434 Z11.862 
N68 X-170.717 Y9.190 Z12.069 
N69 X-170.717 Y8.946 Z12.276 
N70 X-170.717 Y8.703 Z12.483 
N71 X-170.717 Y8.459 Z12.690 
N72 X-170.717 Y8.212 Z12.899 
N73 X-170.717 Y7.966 Z13.108 
N74 X-170.717 Y7.720 Z13.317 
N75 X-170.717 Y7.474 Z13.526 
N76 X-170.717 Y7.228 Z13.735 
N77 X-170.717 Y6.981 Z13.944 
N78 X-170.717 Y6.735 Z14.153 
N79 X-170.717 Y6.489 Z14.363 
N80 X-170.717 Y6.243 Z14.572 
N81 X-170.717 Y5.996 Z14.781 
N82 X-170.717 Y5.750 Z14.990 
N83 X-170.717 Y5.504 Z15.199 
N84 X-170.717 Y5.258 Z15.408 
N85 X-170.717 Y5.012 Z15.617 
N86 X-170.717 Y4.765 Z15.826 
N87 X-170.717 Y4.519 Z16.035 
N88 X-170.717 Y4.273 Z16.244 
N89 X-170.717 Y4.027 Z16.453 
N90 X-170.717 Y3.780 Z16.662 
N91 X-170.717 Y3.534 Z16.871 
N92 X-170.717 Y3.288 Z17.080 
N93 X-170.717 Y3.044 Z17.287 
N94 X-170.717 Y2.800 Z17.495 
N95 X-170.717 Y2.556 Z17.702 
N96 X-170.717 Y2.312 Z17.909 
N97 X-170.717 Y2.068 Z18.116 
N98 G40 X-170.717 Y1.306 Z18.763 F954
N99 X-170.717 Y1.306 Z18.763 
N100 G00 X-170.717 Y11.011 Z30.201 
RAPORT("TA333333","Side Milling:161 End")
;trailer : concat=None
; points cnt = 56
N102 MSG (" --- GROUPED OF SUBPROGRAM --- ")
N103 FGROUP()
N104 TRAFOOF
; PROGRAM NAME: A33333352
; ORDER       : A333333
; OPER. NAME  : Side Milling:162
; OPER. DESCR.: BH Finish milling FSHA
; OPER. TYPE  : sideMill
; GEO. OPTION : 1
; MACHINE     : HSTM_300_SIM840D_Py
;             : HSTM300/500 - HAMUEL: 5-axis milling machine-SIM840D Traori PP_Script
; CONTROL     : SINUMERIK 840D
; created:   2021-09-10 09:33:05.078438
;----------------------------------------
RAPORT("TA333333","Side Milling:162")
N10 TRAFOOF
N11 D0
N12 G90 G94
N13 G0 G53 D0 Z550
N14 STOPRE
M9 ; chlodziwo wyl
; --- Side Milling:162 - BH Finish milling FSHA ---
N16 ;ToolChange : concat=None ,current_tdmid=None, PP.tdmId=941121
N17 TRAFOOF
N18 G0 G53 D0 Z550 B0
N19 STOPRE
N20 MSG(" TLID=941121 D=16.0 R=4.0 Ang=0.0 Len=130.0 ")
N21 S4774 M03
N22 STOPRE
N23 TOL(0.1,1,1)
N24 G0 G53 A133.0200 B-0.0010
N25 TRAORI
N26 G54 D2
;tol5=0.03
N27 D2 
STOPRE
E_ZDARZ=300004
;ACS_FINISH_BH_C5=7741121
STOPRE
;UWAGA : ZMIENIONA TOLERANCJA OSI A i B, ruchy osi A i B beda usuniete : TOL5=0.03
N28 ; DELTA A > 40.1
N29 TRAFOOF
N30 D2
N31 STOPRE
N32 G00 G54 Z256.000
N33 G01 A133.0200 F10000
N34 TRAORI
N35 G54 D2
N36 STOPRE
N37 TRANS 
N38 G00 X-169.487 Y-80.367 Z-8.187 A133.0200 
N39 M342 ; chlodziwo woda
N40 X-169.486 Y-43.812 Z25.926 
N41 ;FSHA - BH od wylotu
N42 G01 G41 X-169.847 Y-38.361 Z20.081 F954
N43 G01 X-169.847 Y-38.361 Z20.081 F954 
N44 X-169.862 Y-38.134 Z19.838 
N45 X-169.877 Y-37.907 Z19.594 
N46 X-169.892 Y-37.680 Z19.351 
N47 X-169.904 Y-37.498 Z19.156 
N48 X-169.916 Y-37.317 Z18.961 
N49 X-169.928 Y-37.135 Z18.766 
N50 X-169.943 Y-36.919 Z18.534 
N51 X-169.957 Y-36.702 Z18.302 
N52 X-169.971 Y-36.486 Z18.071 
N53 X-169.985 Y-36.270 Z17.839 
N54 X-170.000 Y-36.054 Z17.607 
N55 X-170.014 Y-35.838 Z17.375 
N56 X-170.028 Y-35.621 Z17.143 
N57 X-170.043 Y-35.405 Z16.911 
N58 X-170.057 Y-35.189 Z16.679 
N59 X-170.071 Y-34.973 Z16.448 
N60 X-170.086 Y-34.757 Z16.216 
N61 X-170.100 Y-34.540 Z15.984 
N62 X-170.114 Y-34.324 Z15.752 
N63 X-170.129 Y-34.108 Z15.520 
N64 X-170.143 Y-33.892 Z15.288 
N65 X-170.157 Y-33.676 Z15.057 
N66 X-170.172 Y-33.459 Z14.825 
N67 X-170.186 Y-33.243 Z14.593 
N68 X-170.200 Y-33.027 Z14.361 
N69 X-170.215 Y-32.811 Z14.129 
N70 X-170.229 Y-32.595 Z13.897 
N71 X-170.242 Y-32.378 Z13.665 
N72 X-170.252 Y-32.162 Z13.434 
N73 X-170.263 Y-31.946 Z13.202 
N74 X-170.273 Y-31.730 Z12.970 
N75 X-170.284 Y-31.513 Z12.738 
N76 X-170.294 Y-31.297 Z12.506 
N77 X-170.305 Y-31.081 Z12.274 
N78 X-170.315 Y-30.864 Z12.042 
N79 X-170.326 Y-30.648 Z11.810 
N80 X-170.336 Y-30.432 Z11.578 
N81 X-170.346 Y-30.215 Z11.346 
N82 X-170.357 Y-29.999 Z11.114 
N83 X-170.367 Y-29.783 Z10.882 
N84 X-170.378 Y-29.567 Z10.650 
N85 X-170.388 Y-29.350 Z10.418 
N86 X-170.399 Y-29.134 Z10.186 
N87 X-170.409 Y-28.918 Z9.954 
N88 X-170.420 Y-28.701 Z9.722 
N89 X-170.430 Y-28.485 Z9.490 
N90 X-170.441 Y-28.269 Z9.258 
N91 X-170.451 Y-28.052 Z9.026 
N92 X-170.462 Y-27.836 Z8.794 
N93 X-170.472 Y-27.620 Z8.562 
N94 X-170.483 Y-27.404 Z8.331 
N95 X-170.493 Y-27.187 Z8.099 
N96 X-170.503 Y-26.971 Z7.867 
N97 X-170.509 Y-26.755 Z7.635 
N98 X-170.515 Y-26.538 Z7.403 
N99 X-170.521 Y-26.322 Z7.171 
N100 X-170.527 Y-26.105 Z6.938 
N101 X-170.533 Y-25.889 Z6.706 
N102 X-170.539 Y-25.673 Z6.474 
N103 X-170.545 Y-25.456 Z6.242 
N104 X-170.550 Y-25.240 Z6.010 
N105 X-170.556 Y-25.023 Z5.778 
N106 X-170.562 Y-24.807 Z5.546 
N107 X-170.568 Y-24.591 Z5.314 
N108 X-170.574 Y-24.374 Z5.082 
N109 X-170.580 Y-24.158 Z4.850 
N110 X-170.586 Y-23.942 Z4.618 
N111 X-170.592 Y-23.725 Z4.386 
N112 X-170.598 Y-23.509 Z4.154 
N113 X-170.604 Y-23.292 Z3.922 
N114 X-170.610 Y-23.076 Z3.690 
N115 X-170.616 Y-22.860 Z3.458 
N116 X-170.622 Y-22.643 Z3.226 
N117 X-170.628 Y-22.427 Z2.994 
N118 X-170.633 Y-22.211 Z2.762 
N119 X-170.639 Y-21.994 Z2.530 
N120 X-170.645 Y-21.778 Z2.298 
N121 X-170.651 Y-21.561 Z2.066 
N122 X-170.657 Y-21.345 Z1.834 
N123 X-170.663 Y-21.129 Z1.602 
N124 X-170.669 Y-20.912 Z1.369 
N125 X-170.675 Y-20.696 Z1.137 
N126 X-170.681 Y-20.480 Z0.905 
N127 X-170.684 Y-20.263 Z0.673 
N128 X-170.686 Y-20.047 Z0.441 
N129 X-170.688 Y-19.830 Z0.209 
N130 X-170.690 Y-19.614 Z-0.023 
N131 X-170.692 Y-19.397 Z-0.255 
N132 X-170.694 Y-19.181 Z-0.487 
N133 X-170.696 Y-18.965 Z-0.719 
N134 X-170.698 Y-18.748 Z-0.951 
N135 X-170.700 Y-18.532 Z-1.183 
N136 X-170.702 Y-18.315 Z-1.415 
N137 X-170.704 Y-18.099 Z-1.647 
N138 X-170.706 Y-17.883 Z-1.879 
N139 X-170.708 Y-17.666 Z-2.112 
N140 X-170.710 Y-17.450 Z-2.344 
N141 X-170.712 Y-17.233 Z-2.576 
N142 X-170.714 Y-17.017 Z-2.808 
N143 X-170.716 Y-16.800 Z-3.040 
N144 X-170.717 Y-16.584 Z-3.272 
N145 X-170.716 Y-16.368 Z-3.504 
N146 X-170.715 Y-16.151 Z-3.736 
N147 X-170.715 Y-15.935 Z-3.968 
N148 X-170.714 Y-15.718 Z-4.200 
N149 X-170.713 Y-15.502 Z-4.432 
N150 X-170.712 Y-15.286 Z-4.664 
N151 X-170.711 Y-15.069 Z-4.896 
N152 X-170.711 Y-14.853 Z-5.129 
N153 X-170.710 Y-14.636 Z-5.361 
N154 X-170.709 Y-14.420 Z-5.593 
N155 X-170.708 Y-14.203 Z-5.825 
N156 X-170.707 Y-13.987 Z-6.057 
N157 X-170.706 Y-13.771 Z-6.289 
N158 X-170.706 Y-13.554 Z-6.521 
N159 X-170.705 Y-13.338 Z-6.753 
N160 X-170.704 Y-13.121 Z-6.985 
N161 X-170.703 Y-12.905 Z-7.217 
N162 X-170.703 Y-12.723 Z-7.412 
N163 X-170.702 Y-12.541 Z-7.607 
N164 X-170.701 Y-12.359 Z-7.802 
N165 G40 X-170.681 Y-6.903 Z-13.653 F954
N166 X-170.681 Y-6.903 Z-13.653 
N167 G00 X-170.681 Y-17.870 Z-23.887 
N168 X-169.486 Y-54.742 Z15.726 
N169 X-169.486 Y-43.775 Z25.960 
N170 ;FSHA - BH od wylotu
N171 G01 G41 X-169.847 Y-38.325 Z20.115 F954
N172 G01 X-169.847 Y-38.325 Z20.115 F954 
N173 X-169.862 Y-38.098 Z19.872 
N174 X-169.877 Y-37.870 Z19.628 
N175 X-169.892 Y-37.643 Z19.385 
N176 X-169.904 Y-37.462 Z19.190 
N177 X-169.916 Y-37.280 Z18.995 
N178 X-169.928 Y-37.098 Z18.800 
N179 X-169.943 Y-36.882 Z18.568 
N180 X-169.957 Y-36.666 Z18.337 
N181 X-169.971 Y-36.450 Z18.105 
N182 X-169.985 Y-36.233 Z17.873 
N183 X-170.000 Y-36.017 Z17.641 
N184 X-170.014 Y-35.801 Z17.409 
N185 X-170.028 Y-35.585 Z17.177 
N186 X-170.043 Y-35.369 Z16.945 
N187 X-170.057 Y-35.153 Z16.714 
N188 X-170.071 Y-34.936 Z16.482 
N189 X-170.086 Y-34.720 Z16.250 
N190 X-170.100 Y-34.504 Z16.018 
N191 X-170.114 Y-34.288 Z15.786 
N192 X-170.129 Y-34.072 Z15.554 
N193 X-170.143 Y-33.855 Z15.323 
N194 X-170.157 Y-33.639 Z15.091 
N195 X-170.172 Y-33.423 Z14.859 
N196 X-170.186 Y-33.207 Z14.627 
N197 X-170.200 Y-32.991 Z14.395 
N198 X-170.215 Y-32.774 Z14.163 
N199 X-170.229 Y-32.558 Z13.931 
N200 X-170.242 Y-32.342 Z13.700 
N201 X-170.252 Y-32.126 Z13.468 
N202 X-170.263 Y-31.909 Z13.236 
N203 X-170.273 Y-31.693 Z13.004 
N204 X-170.284 Y-31.477 Z12.772 
N205 X-170.294 Y-31.260 Z12.540 
N206 X-170.305 Y-31.044 Z12.308 
N207 X-170.315 Y-30.828 Z12.076 
N208 X-170.326 Y-30.611 Z11.844 
N209 X-170.336 Y-30.395 Z11.612 
N210 X-170.346 Y-30.179 Z11.380 
N211 X-170.357 Y-29.963 Z11.148 
N212 X-170.367 Y-29.746 Z10.916 
N213 X-170.378 Y-29.530 Z10.684 
N214 X-170.388 Y-29.314 Z10.452 
N215 X-170.399 Y-29.097 Z10.220 
N216 X-170.409 Y-28.881 Z9.988 
N217 X-170.420 Y-28.665 Z9.756 
N218 X-170.430 Y-28.448 Z9.524 
N219 X-170.441 Y-28.232 Z9.292 
N220 X-170.451 Y-28.016 Z9.061 
N221 X-170.462 Y-27.800 Z8.829 
N222 X-170.472 Y-27.583 Z8.597 
N223 X-170.483 Y-27.367 Z8.365 
N224 X-170.493 Y-27.151 Z8.133 
N225 X-170.503 Y-26.934 Z7.901 
N226 X-170.509 Y-26.718 Z7.669 
N227 X-170.515 Y-26.502 Z7.437 
N228 X-170.521 Y-26.285 Z7.205 
N229 X-170.527 Y-26.069 Z6.973 
N230 X-170.533 Y-25.852 Z6.741 
N231 X-170.539 Y-25.636 Z6.508 
N232 X-170.545 Y-25.420 Z6.276 
N233 X-170.550 Y-25.203 Z6.044 
N234 X-170.556 Y-24.987 Z5.812 
N235 X-170.562 Y-24.771 Z5.580 
N236 X-170.568 Y-24.554 Z5.348 
N237 X-170.574 Y-24.338 Z5.116 
N238 X-170.580 Y-24.121 Z4.884 
N239 X-170.586 Y-23.905 Z4.652 
N240 X-170.592 Y-23.689 Z4.420 
N241 X-170.598 Y-23.472 Z4.188 
N242 X-170.604 Y-23.256 Z3.956 
N243 X-170.610 Y-23.040 Z3.724 
N244 X-170.616 Y-22.823 Z3.492 
N245 X-170.622 Y-22.607 Z3.260 
N246 X-170.628 Y-22.390 Z3.028 
N247 X-170.633 Y-22.174 Z2.796 
N248 X-170.639 Y-21.958 Z2.564 
N249 X-170.645 Y-21.741 Z2.332 
N250 X-170.651 Y-21.525 Z2.100 
N251 X-170.657 Y-21.308 Z1.868 
N252 X-170.663 Y-21.092 Z1.636 
N253 X-170.669 Y-20.876 Z1.404 
N254 X-170.675 Y-20.659 Z1.172 
N255 X-170.681 Y-20.443 Z0.940 
N256 X-170.684 Y-20.227 Z0.707 
N257 X-170.686 Y-20.010 Z0.475 
N258 X-170.688 Y-19.794 Z0.243 
N259 X-170.690 Y-19.577 Z0.011 
N260 X-170.692 Y-19.361 Z-0.221 
N261 X-170.694 Y-19.144 Z-0.453 
N262 X-170.696 Y-18.928 Z-0.685 
N263 X-170.698 Y-18.712 Z-0.917 
N264 X-170.700 Y-18.495 Z-1.149 
N265 X-170.702 Y-18.279 Z-1.381 
N266 X-170.704 Y-18.062 Z-1.613 
N267 X-170.706 Y-17.846 Z-1.845 
N268 X-170.708 Y-17.630 Z-2.077 
N269 X-170.710 Y-17.413 Z-2.310 
N270 X-170.712 Y-17.197 Z-2.542 
N271 X-170.714 Y-16.980 Z-2.774 
N272 X-170.716 Y-16.764 Z-3.006 
N273 X-170.717 Y-16.547 Z-3.238 
N274 X-170.716 Y-16.331 Z-3.470 
N275 X-170.715 Y-16.115 Z-3.702 
N276 X-170.715 Y-15.898 Z-3.934 
N277 X-170.714 Y-15.682 Z-4.166 
N278 X-170.713 Y-15.465 Z-4.398 
N279 X-170.712 Y-15.249 Z-4.630 
N280 X-170.711 Y-15.033 Z-4.862 
N281 X-170.711 Y-14.816 Z-5.094 
N282 X-170.710 Y-14.600 Z-5.327 
N283 X-170.709 Y-14.383 Z-5.559 
N284 X-170.708 Y-14.167 Z-5.791 
N285 X-170.707 Y-13.950 Z-6.023 
N286 X-170.706 Y-13.734 Z-6.255 
N287 X-170.706 Y-13.518 Z-6.487 
N288 X-170.705 Y-13.301 Z-6.719 
N289 X-170.704 Y-13.085 Z-6.951 
N290 X-170.703 Y-12.868 Z-7.183 
N291 X-170.703 Y-12.687 Z-7.378 
N292 X-170.702 Y-12.505 Z-7.573 
N293 X-170.701 Y-12.323 Z-7.768 
N294 G40 X-170.681 Y-6.867 Z-13.619 F954
N295 X-170.681 Y-6.867 Z-13.619 
N296 G00 X-170.681 Y-17.834 Z-23.853 
RAPORT("TA333333","Side Milling:162 End")
;trailer : concat=None
; points cnt = 246
N298 MSG (" --- GROUPED OF SUBPROGRAM --- ")
N299 FGROUP()
N300 TRAFOOF
; PROGRAM NAME: A33333352
; ORDER       : A333333
; OPER. NAME  : Side Milling:163
; OPER. DESCR.: BH Chamfer Finish milling MFBBA
; OPER. TYPE  : sideMill
; GEO. OPTION : 1
; MACHINE     : HSTM_300_SIM840D_Py
;             : HSTM300/500 - HAMUEL: 5-axis milling machine-SIM840D Traori PP_Script
; CONTROL     : SINUMERIK 840D
; created:   2021-09-10 09:35:07.593141
;----------------------------------------
RAPORT("TA333333","Side Milling:163")
N10 TRAFOOF
N11 D0
N12 G90 G94
N13 G0 G53 D0 Z550
N14 STOPRE
M9 ; chlodziwo wyl
; --- Side Milling:163 - BH Chamfer Finish milling MFBBA ---
N16 ;ToolChange : concat=None ,current_tdmid=None, PP.tdmId=941121
N17 TRAFOOF
N18 G0 G53 D0 Z550 B0
N19 STOPRE
N20 MSG(" TLID=941121 D=16.0 R=4.0 Ang=0.0 Len=130.0 ")
N21 S4774 M03
N22 STOPRE
N23 TOL(0.1,1,1)
N24 G0 G53 A139.6859 B0.0000
N25 TRAORI
N26 G54 D4
;tol5=0.03
N27 D4 
STOPRE
E_ZDARZ=300004
;ACS_FINISH_BH_C5=7741121
STOPRE
;UWAGA : ZMIENIONA TOLERANCJA OSI A i B, ruchy osi A i B beda usuniete : TOL5=0.03
N28 ; DELTA A > 40.1
N29 TRAFOOF
N30 D4
N31 STOPRE
N32 G00 G54 Z256.000
N33 G01 A139.6859 F10000
N34 TRAORI
N35 G54 D4
N36 STOPRE
N37 TRANS 
N38 G00 X-170.717 Y-62.488 Z-30.192 A139.6859 
N39 M342 ; chlodziwo woda
N40 X-170.717 Y-30.139 Z7.933 
N41 ;MFBBA - faza na BH od wylotu
N42 G01 G41 X-170.717 Y-24.041 Z2.756 F954
N43 G01 X-170.717 Y-24.041 Z2.756 F954 
N44 X-170.717 Y-23.787 Z2.540 
N45 X-170.717 Y-23.533 Z2.324 
N46 X-170.717 Y-23.279 Z2.108 
N47 X-170.717 Y-23.035 Z1.901 
N48 X-170.717 Y-22.791 Z1.694 
N49 X-170.717 Y-22.547 Z1.487 
N50 X-170.717 Y-22.303 Z1.280 
N51 X-170.717 Y-22.059 Z1.073 
N52 X-170.717 Y-21.815 Z0.866 
N53 X-170.717 Y-21.571 Z0.658 
N54 X-170.717 Y-21.327 Z0.451 
N55 X-170.717 Y-21.083 Z0.244 
N56 X-170.717 Y-20.839 Z0.037 
N57 X-170.717 Y-20.596 Z-0.170 
N58 X-170.717 Y-20.352 Z-0.377 
N59 X-170.717 Y-20.108 Z-0.584 
N60 X-170.717 Y-19.864 Z-0.791 
N61 X-170.717 Y-19.620 Z-0.999 
N62 X-170.717 Y-19.376 Z-1.206 
N63 X-170.717 Y-19.132 Z-1.413 
N64 X-170.717 Y-18.888 Z-1.620 
N65 X-170.717 Y-18.644 Z-1.827 
N66 X-170.717 Y-18.400 Z-2.034 
N67 X-170.717 Y-18.156 Z-2.241 
N68 X-170.717 Y-17.912 Z-2.448 
N69 X-170.717 Y-17.668 Z-2.655 
N70 X-170.717 Y-17.424 Z-2.863 
N71 X-170.717 Y-17.180 Z-3.070 
N72 X-170.717 Y-16.943 Z-3.272 
N73 X-170.717 Y-16.705 Z-3.474 
N74 X-170.717 Y-16.467 Z-3.676 
N75 X-170.717 Y-16.229 Z-3.878 
N76 X-170.717 Y-15.991 Z-4.080 
N77 X-170.717 Y-15.753 Z-4.282 
N78 X-170.717 Y-15.515 Z-4.484 
N79 X-170.717 Y-15.277 Z-4.686 
N80 X-170.717 Y-15.039 Z-4.888 
N81 X-170.717 Y-14.801 Z-5.090 
N82 X-170.717 Y-14.563 Z-5.292 
N83 X-170.717 Y-14.325 Z-5.494 
N84 X-170.717 Y-14.087 Z-5.696 
N85 X-170.717 Y-13.849 Z-5.898 
N86 X-170.717 Y-13.611 Z-6.100 
N87 X-170.717 Y-13.374 Z-6.302 
N88 X-170.717 Y-13.136 Z-6.504 
N89 X-170.717 Y-12.898 Z-6.706 
N90 X-170.717 Y-12.660 Z-6.908 
N91 X-170.717 Y-12.422 Z-7.110 
N92 X-170.717 Y-12.184 Z-7.312 
N93 X-170.717 Y-11.940 Z-7.519 
N94 X-170.717 Y-11.696 Z-7.727 
N95 X-170.717 Y-11.452 Z-7.934 
N96 X-170.717 Y-11.208 Z-8.141 
N97 X-170.717 Y-10.964 Z-8.348 
N98 G40 X-170.717 Y-10.202 Z-8.995 F954
N99 X-170.717 Y-10.202 Z-8.995 
N100 G00 X-170.717 Y-19.907 Z-20.433 
RAPORT("TA333333","Side Milling:163 End")
;trailer : concat=None
; points cnt = 56
N102 M9 ; chlodziwo wyl.
N103 MSG (" --- KONIEC PODPROGRAMU --- ")
N104 FGROUP()
N105 TRAFOOF
N106 STOPRE
N107 G0 G53 D0 Z550.0 M9 M5
N108 G0 G53 Y150 A0 B0
N109 M17
