; PROGRAM NAME: 09_HSTM
; ORDER       : 09_TEST
; OPER. NAME  : Pin Milling:101
; OPER. DESCR.: spiral milling pin/zataczanie
; OPER. TYPE  : pinMill
; GEO. OPTION : 3
; MACHINE     : HSTM_300_SIM840D_Py
;             : HSTM300/500 - HAMUEL: 5-axis milling machine-SIM840D Traori PP_Script
; CONTROL     : SINUMERIK 840D
; created:   2017-11-29 14:55:06.140413
;----------------------------------------
;RAPORT("T09_TEST","Spiral Finish Airfoil:101")
N10 TRAFOOF
N11 D0
N12 G90 G94
N13 G0 G53 D0 Z550
N14 STOPRE
N14 M9 ; chlodziwo wyl
N14 E_ZDARZ=1 ; ACS start obrobki
; --- Spiral Finish Airfoil:101 - Spiral Finishing Airfoil ---
N16 ;ToolChange : concat=None ,current_tdmid=None, PP.tdmId=958435
N17 TRAFOOF
N18 G0 G53 D0 X-200 Y150 Z550 B0
N19 T="7758435"
;RAPORT("T09_TEST","ToolChangeStart 7758435")
N20 M6
;RAPORT("T09_TEST","ToolChangeEnd")
N21 STOPRE
N22 MSG(" TLID=958435 D=16.0 R=1.0 Ang=0.0 Len=150.0 ")
N23 S3580 M03
N24 STOPRE
N25 TOL(0.01,1,1)
N26 G0 G53 A353.6750 B0.0000
N27 TRAORI
N28 G54 D1
N29 ;-----------VVV---   DLUGOSC KLOCKA BEZ NITA
N30 TRANS X=R24-243.6
N30 ;-----------^^^---   DLUGOSC KLOCKA BEZ NITA
N31 X-141.500 Y-7.525 Z89.941 A353.6750 
N32 M342 ; chlodziwo woda
N33 X-141.500 Y-16.339 Z10.428 
N34 G01 X-141.500 Y-6.356 Z9.848 F1224 
N35 X-141.500 Y-5.979 Z10.074 A351.5339 
N36 X-141.500 Y-5.592 Z10.290 A349.3560 
N37 X-141.500 Y-5.197 Z10.492 A347.1751 
N38 X-141.500 Y-4.794 Z10.679 A344.9938 
N39 X-141.500 Y-4.385 Z10.850 A342.8123 
N40 X-141.500 Y-3.970 Z11.006 A340.6307 
N41 X-141.500 Y-3.550 Z11.146 A338.4489 
N42 X-141.500 Y-3.124 Z11.270 A336.2669 
N43 X-141.500 Y-2.695 Z11.377 A334.0849 
N44 X-141.500 Y-2.261 Z11.468 A331.9029 
N45 X-141.500 Y-1.825 Z11.543 A329.7208 
N46 X-141.500 Y-1.386 Z11.601 A327.5388 
N47 X-141.500 Y-0.946 Z11.642 A325.3568 
N48 X-141.500 Y-0.504 Z11.667 A323.1748 
N49 X-141.500 Y-0.062 Z11.675 A320.9927 
N50 X-141.500 Y0.380 Z11.666 A318.8107 
N51 X-141.500 Y0.821 Z11.641 A316.6287 
N52 X-141.500 Y1.261 Z11.598 A314.4466 
N53 X-141.500 Y1.698 Z11.540 A312.2645 
N54 X-141.500 Y2.133 Z11.464 A310.0824 
N55 X-141.500 Y2.565 Z11.373 A307.9003 
N56 X-141.500 Y2.993 Z11.265 A305.7182 
N57 X-141.500 Y3.417 Z11.140 A303.5361 
N58 X-141.500 Y3.835 Z11.000 A301.3541 
N59 X-141.500 Y4.248 Z10.845 A299.1720 
N60 X-141.500 Y4.654 Z10.674 A296.9899 
N61 X-141.500 Y5.053 Z10.487 A294.8079 
N62 X-141.500 Y5.445 Z10.286 A292.6258 
N63 X-141.500 Y5.829 Z10.070 A290.4437 
N64 X-141.500 Y6.205 Z9.840 A288.2616 
N65 X-141.500 Y6.571 Z9.595 A286.0795 
N66 X-141.500 Y6.928 Z9.337 A283.8974 
N67 X-141.500 Y7.275 Z9.066 A281.7154 
N68 X-141.500 Y7.611 Z8.782 A279.5335 
N69 X-141.500 Y7.935 Z8.485 A277.3518 
N70 X-141.500 Y8.249 Z8.176 A275.1702 
N71 X-141.500 Y8.550 Z7.856 A272.9888 
N72 X-141.500 Y8.839 Z7.525 A270.8074 
N73 X-141.500 Y9.115 Z7.183 A268.6261 
N74 X-141.500 Y9.378 Z6.830 A266.4448 
N75 X-141.500 Y9.627 Z6.469 A264.2636 
N76 X-141.500 Y9.863 Z6.098 A262.0824 
N77 X-141.500 Y10.084 Z5.718 A259.9012 
N78 X-141.500 Y10.290 Z5.331 A257.7201 
N79 X-141.500 Y10.482 Z4.936 A255.5389 
N80 X-141.500 Y10.659 Z4.535 A253.3578 
N81 X-141.500 Y10.820 Z4.127 A251.1765 
N82 X-141.500 Y10.966 Z3.713 A248.9949 
N83 X-141.500 Y11.097 Z3.294 A246.8129 
N84 X-141.500 Y11.211 Z2.871 A244.6303 
N85 X-141.500 Y11.310 Z2.444 A242.4471 
N86 X-141.500 Y11.392 Z2.014 A240.2635 
N87 X-141.500 Y11.458 Z1.581 A238.0795 
N88 X-141.500 Y11.506 Z1.146 A235.8955 
N89 X-141.500 Y11.537 Z0.711 A233.7138 
N90 X-141.500 Y11.552 Z0.274 A231.5331 
N91 X-141.500 Y11.551 Z-0.164 A229.3524 
N92 X-141.500 Y11.533 Z-0.601 A227.1716 
N93 X-141.500 Y11.499 Z-1.037 A224.9907 
N94 X-141.500 Y11.449 Z-1.471 A222.8097 
N95 X-141.500 Y11.381 Z-1.903 A220.6287 
N96 X-141.500 Y11.298 Z-2.333 A218.4477 
N97 X-141.500 Y11.198 Z-2.758 A216.2666 
N98 X-141.500 Y11.083 Z-3.180 A214.0856 
N99 X-141.500 Y10.951 Z-3.596 A211.9046 
N100 X-141.500 Y10.804 Z-4.007 A209.7237 
N101 X-141.500 Y10.641 Z-4.412 A207.5428 
N102 X-141.500 Y10.464 Z-4.811 A205.3621 
N103 X-141.500 Y10.272 Z-5.202 A203.1814 
N104 X-141.500 Y10.065 Z-5.587 A201.0008 
N105 X-141.500 Y9.845 Z-5.964 A198.8187 
N106 X-141.500 Y9.610 Z-6.331 A196.6354 
N107 X-141.500 Y9.361 Z-6.689 A194.4520 
N108 X-141.500 Y9.100 Z-7.037 A192.2683 
N109 X-141.500 Y8.825 Z-7.375 A190.0844 
N110 X-141.500 Y8.538 Z-7.702 A187.9006 
N111 X-141.500 Y8.239 Z-8.018 A185.7170 
N112 X-141.500 Y7.928 Z-8.321 A183.5338 
N113 X-141.500 Y7.606 Z-8.613 A181.3509 
N114 X-141.500 Y7.273 Z-8.892 A179.1683 
N115 X-141.500 Y6.929 Z-9.158 A176.9862 
N116 X-141.500 Y6.576 Z-9.411 A174.8043 
N117 X-141.500 Y6.213 Z-9.651 A172.6228 
N118 X-141.500 Y5.842 Z-9.876 A170.4415 
N119 X-141.500 Y5.462 Z-10.087 A168.2604 
N120 X-141.500 Y5.075 Z-10.284 A166.0793 
N121 X-141.500 Y4.681 Z-10.466 A163.8981 
N122 X-141.500 Y4.280 Z-10.633 A161.7169 
N123 X-141.500 Y3.873 Z-10.784 A159.5356 
N124 X-141.500 Y3.461 Z-10.920 A157.3542 
N125 X-141.500 Y3.044 Z-11.041 A155.1727 
N126 X-141.500 Y2.623 Z-11.145 A152.9912 
N127 X-141.500 Y2.199 Z-11.234 A150.8096 
N128 X-141.500 Y1.771 Z-11.306 A148.6280 
N129 X-141.500 Y1.341 Z-11.362 A146.4463 
N130 X-141.500 Y0.910 Z-11.402 A144.2646 
N131 X-141.500 Y0.478 Z-11.425 A142.0828 
N132 X-141.500 Y0.045 Z-11.432 A139.9011 
N133 X-141.500 Y-0.388 Z-11.423 A137.7193 
N134 X-141.500 Y-0.820 Z-11.397 A135.5375 
N135 X-141.500 Y-1.251 Z-11.355 A133.3557 
N136 X-141.500 Y-1.679 Z-11.296 A131.1739 
N137 X-141.500 Y-2.105 Z-11.222 A128.9921 
N138 X-141.500 Y-2.528 Z-11.131 A126.8103 
N139 X-141.500 Y-2.946 Z-11.025 A124.6285 
N140 X-141.500 Y-3.361 Z-10.903 A122.4467 
N141 X-141.500 Y-3.770 Z-10.765 A120.2650 
N142 X-141.500 Y-4.174 Z-10.612 A118.0832 
N143 X-141.500 Y-4.571 Z-10.443 A115.9015 
N144 X-141.500 Y-4.962 Z-10.260 A113.7198 
N145 X-141.500 Y-5.346 Z-10.062 A111.5382 
N146 X-141.500 Y-5.721 Z-9.850 A109.3566 
N147 X-141.500 Y-6.089 Z-9.624 A107.1751 
N148 X-141.500 Y-6.447 Z-9.384 A104.9937 
N149 X-141.500 Y-6.796 Z-9.130 A102.8123 
N150 X-141.500 Y-7.135 Z-8.864 A100.6310 
N151 X-141.500 Y-7.463 Z-8.585 A98.4498 
N152 X-141.500 Y-7.781 Z-8.294 A96.2686 
N153 X-141.500 Y-8.087 Z-7.991 A94.0876 
N154 X-141.500 Y-8.382 Z-7.677 A91.9066 
N155 X-141.500 Y-8.665 Z-7.353 A89.7254 
N156 X-141.500 Y-8.935 Z-7.018 A87.5441 
N157 X-141.500 Y-9.192 Z-6.673 A85.3625 
N158 X-141.500 Y-9.436 Z-6.318 A83.1805 
N159 X-141.500 Y-9.667 Z-5.955 A80.9982 
N160 X-141.500 Y-9.883 Z-5.584 A78.8155 
N161 X-141.500 Y-10.086 Z-5.205 A76.6325 
N162 X-141.500 Y-10.274 Z-4.819 A74.4492 
N163 X-141.500 Y-10.446 Z-4.426 A72.2656 
N164 X-141.500 Y-10.604 Z-4.026 A70.0818 
N165 X-141.500 Y-10.747 Z-3.622 A67.8981 
N166 X-141.500 Y-10.873 Z-3.212 A65.7147 
N167 X-141.500 Y-10.984 Z-2.798 A63.5317 
N168 X-141.500 Y-11.078 Z-2.380 A61.3492 
N169 X-141.500 Y-11.157 Z-1.959 A59.1685 
N170 X-141.500 Y-11.220 Z-1.535 A56.9878 
N171 X-141.500 Y-11.267 Z-1.109 A54.8070 
N172 X-141.500 Y-11.298 Z-0.681 A52.6261 
N173 X-141.500 Y-11.312 Z-0.253 A50.4452 
N174 X-141.500 Y-11.311 Z0.175 A48.2642 
N175 X-141.500 Y-11.293 Z0.603 A46.0832 
N176 X-141.500 Y-11.258 Z1.030 A43.9022 
N177 X-141.500 Y-11.208 Z1.456 A41.7212 
N178 X-141.500 Y-11.142 Z1.879 A39.5402 
N179 X-141.500 Y-11.060 Z2.298 A37.3592 
N180 X-141.500 Y-10.962 Z2.715 A35.1783 
N181 X-141.500 Y-10.848 Z3.127 A32.9975 
N182 X-141.500 Y-10.719 Z3.534 A30.8168 
N183 X-141.500 Y-10.575 Z3.936 A28.6361 
N184 X-141.500 Y-10.416 Z4.333 A26.4555 
N185 X-141.500 Y-10.243 Z4.724 A24.2742 
N186 X-141.500 Y-10.055 Z5.108 A22.0910 
N187 X-141.500 Y-9.852 Z5.484 A19.9077 
N188 X-141.500 Y-9.635 Z5.851 A17.7247 
N189 X-141.500 Y-9.405 Z6.209 A15.5422 
N190 X-141.500 Y-9.161 Z6.559 A13.3603 
N191 X-141.500 Y-8.904 Z6.898 A11.1790 
N192 X-141.500 Y-8.634 Z7.228 A8.9981 
N193 X-141.500 Y-8.352 Z7.547 A6.8175 
N194 X-141.500 Y-8.058 Z7.856 A4.6371 
N195 X-141.500 Y-7.753 Z8.153 A2.4567 
N196 X-141.500 Y-7.437 Z8.438 A0.2763 
N197 X-141.500 Y-7.110 Z8.711 A358.0960 
N198 X-141.500 Y-6.774 Z8.972 A355.9167 
N199 X-141.500 Y-6.424 Z9.227 A353.6750 
N200 X-141.500 Y-6.071 Z9.456 A351.5339 
N201 X-141.500 Y-5.707 Z9.676 A349.3560 
N202 X-141.500 Y-5.335 Z9.883 A347.1751 
N203 X-141.500 Y-4.956 Z10.075 A344.9938 
N204 X-141.500 Y-4.570 Z10.253 A342.8123 
N205 X-141.500 Y-4.177 Z10.416 A340.6307 
N206 X-141.500 Y-3.779 Z10.564 A338.4489 
N207 X-141.500 Y-3.376 Z10.697 A336.2669 
N208 X-141.500 Y-2.968 Z10.815 A334.0849 
N209 X-141.500 Y-2.556 Z10.917 A331.9029 
N210 X-141.500 Y-2.140 Z11.003 A329.7208 
N211 X-141.500 Y-1.722 Z11.074 A327.5388 
N212 X-141.500 Y-1.301 Z11.128 A325.3568 
N213 X-141.500 Y-0.879 Z11.167 A323.1748 
N214 X-141.500 Y-0.456 Z11.189 A320.9927 
N215 X-141.500 Y-0.032 Z11.196 A318.8107 
N216 X-141.500 Y0.392 Z11.186 A316.6287 
N217 X-141.500 Y0.814 Z11.161 A314.4466 
N218 X-141.500 Y1.236 Z11.119 A312.2645 
N219 X-141.500 Y1.655 Z11.062 A310.0824 
N220 X-141.500 Y2.072 Z10.989 A307.9003 
N221 X-141.500 Y2.486 Z10.900 A305.7182 
N222 X-141.500 Y2.896 Z10.795 A303.5361 
N223 X-141.500 Y3.301 Z10.675 A301.3541 
N224 X-141.500 Y3.702 Z10.540 A299.1720 
N225 X-141.500 Y4.097 Z10.390 A296.9899 
N226 X-141.500 Y4.486 Z10.225 A294.8079 
N227 X-141.500 Y4.869 Z10.045 A292.6258 
N228 X-141.500 Y5.244 Z9.852 A290.4437 
N229 X-141.500 Y5.611 Z9.644 A288.2616 
N230 X-141.500 Y5.971 Z9.422 A286.0795 
N231 X-141.500 Y6.321 Z9.187 A283.8974 
N232 X-141.500 Y6.663 Z8.939 A281.7154 
N233 X-141.500 Y6.994 Z8.678 A279.5335 
N234 X-141.500 Y7.315 Z8.405 A277.3518 
N235 X-141.500 Y7.626 Z8.120 A275.1702 
N236 X-141.500 Y7.926 Z7.824 A272.9888 
N237 X-141.500 Y8.214 Z7.516 A270.8074 
N238 X-141.500 Y8.490 Z7.198 A268.6261 
N239 X-141.500 Y8.754 Z6.869 A266.4448 
N240 X-141.500 Y9.005 Z6.531 A264.2636 
N241 X-141.500 Y9.244 Z6.184 A262.0824 
N242 X-141.500 Y9.468 Z5.828 A259.9012 
N243 X-141.500 Y9.680 Z5.464 A257.7201 
N244 X-141.500 Y9.877 Z5.092 A255.5389 
N245 X-141.500 Y10.060 Z4.714 A253.3578 
N246 X-141.500 Y10.229 Z4.328 A251.1765 
N247 X-141.500 Y10.383 Z3.937 A248.9949 
N248 X-141.500 Y10.522 Z3.541 A246.8129 
N249 X-141.500 Y10.647 Z3.139 A244.6303 
N250 X-141.500 Y10.756 Z2.733 A242.4471 
N251 X-141.500 Y10.850 Z2.324 A240.2635 
N252 X-141.500 Y10.927 Z1.911 A238.0795 
N253 X-141.500 Y10.989 Z1.496 A235.8955 
N254 X-141.500 Y11.033 Z1.081 A233.7138 
N255 X-141.500 Y11.063 Z0.662 A231.5331 
N256 X-141.500 Y11.077 Z0.243 A229.3524 
N257 X-141.500 Y11.075 Z-0.176 A227.1716 
N258 X-141.500 Y11.057 Z-0.595 A224.9907 
N259 X-141.500 Y11.024 Z-1.013 A222.8097 
N260 X-141.500 Y10.974 Z-1.429 A220.6287 
N261 X-141.500 Y10.909 Z-1.843 A218.4477 
N262 X-141.500 Y10.829 Z-2.254 A216.2666 
N263 X-141.500 Y10.732 Z-2.662 A214.0856 
N264 X-141.500 Y10.621 Z-3.066 A211.9046 
N265 X-141.500 Y10.494 Z-3.465 A209.7237 
N266 X-141.500 Y10.352 Z-3.858 A207.5428 
N267 X-141.500 Y10.196 Z-4.246 A205.3621 
N268 X-141.500 Y10.025 Z-4.628 A203.1814 
N269 X-141.500 Y9.841 Z-5.003 A201.0008 
N270 X-141.500 Y9.643 Z-5.372 A198.8187 
N271 X-141.500 Y9.431 Z-5.732 A196.6354 
N272 X-141.500 Y9.205 Z-6.084 A194.4520 
N273 X-141.500 Y8.967 Z-6.427 A192.2683 
N274 X-141.500 Y8.716 Z-6.760 A190.0844 
N275 X-141.500 Y8.452 Z-7.083 A187.9006 
N276 X-141.500 Y8.177 Z-7.396 A185.7170 
N277 X-141.500 Y7.889 Z-7.698 A183.5338 
N278 X-141.500 Y7.591 Z-7.988 A181.3509 
N279 X-141.500 Y7.282 Z-8.267 A179.1683 
N280 X-141.500 Y6.962 Z-8.534 A176.9862 
N281 X-141.500 Y6.632 Z-8.789 A174.8043 
N282 X-141.500 Y6.294 Z-9.031 A172.6228 
N283 X-141.500 Y5.946 Z-9.260 A170.4415 
N284 X-141.500 Y5.590 Z-9.475 A168.2604 
N285 X-141.500 Y5.226 Z-9.677 A166.0793 
N286 X-141.500 Y4.854 Z-9.865 A163.8981 
N287 X-141.500 Y4.476 Z-10.039 A161.7169 
N288 X-141.500 Y4.092 Z-10.199 A159.5356 
N289 X-141.500 Y3.702 Z-10.344 A157.3542 
N290 X-141.500 Y3.306 Z-10.473 A155.1727 
N291 X-141.500 Y2.907 Z-10.588 A152.9912 
N292 X-141.500 Y2.503 Z-10.688 A150.8096 
N293 X-141.500 Y2.096 Z-10.772 A148.6280 
N294 X-141.500 Y1.687 Z-10.841 A146.4463 
N295 X-141.500 Y1.275 Z-10.894 A144.2646 
N296 X-141.500 Y0.862 Z-10.932 A142.0828 
N297 X-141.500 Y0.447 Z-10.954 A139.9011 
N298 X-141.500 Y0.032 Z-10.960 A137.7193 
N299 X-141.500 Y-0.382 Z-10.951 A135.5375 
N300 X-141.500 Y-0.796 Z-10.926 A133.3557 
N301 X-141.500 Y-1.209 Z-10.885 A131.1739 
N302 X-141.500 Y-1.619 Z-10.829 A128.9921 
N303 X-141.500 Y-2.027 Z-10.757 A126.8103 
N304 X-141.500 Y-2.432 Z-10.670 A124.6285 
N305 X-141.500 Y-2.833 Z-10.567 A122.4467 
N306 X-141.500 Y-3.230 Z-10.450 A120.2650 
N307 X-141.500 Y-3.622 Z-10.318 A118.0832 
N308 X-141.500 Y-4.009 Z-10.170 A115.9015 
N309 X-141.500 Y-4.390 Z-10.009 A113.7198 
N310 X-141.500 Y-4.764 Z-9.833 A111.5382 
N311 X-141.500 Y-5.132 Z-9.643 A109.3566 
N312 X-141.500 Y-5.491 Z-9.439 A107.1751 
N313 X-141.500 Y-5.843 Z-9.222 A104.9937 
N314 X-141.500 Y-6.186 Z-8.992 A102.8123 
N315 X-141.500 Y-6.520 Z-8.749 A100.6310 
N316 X-141.500 Y-6.845 Z-8.493 A98.4498 
N317 X-141.500 Y-7.160 Z-8.226 A96.2686 
N318 X-141.500 Y-7.464 Z-7.947 A94.0876 
N319 X-141.500 Y-7.757 Z-7.657 A91.9066 
N320 X-141.500 Y-8.040 Z-7.356 A89.7254 
N321 X-141.500 Y-8.310 Z-7.044 A87.5441 
N322 X-141.500 Y-8.569 Z-6.723 A85.3625 
N323 X-141.500 Y-8.816 Z-6.393 A83.1805 
N324 X-141.500 Y-9.049 Z-6.053 A80.9982 
N325 X-141.500 Y-9.270 Z-5.705 A78.8155 
N326 X-141.500 Y-9.478 Z-5.349 A76.6325 
N327 X-141.500 Y-9.671 Z-4.986 A74.4492 
N328 X-141.500 Y-9.851 Z-4.616 A72.2656 
N329 X-141.500 Y-10.017 Z-4.239 A70.0818 
N330 X-141.500 Y-10.167 Z-3.857 A67.8981 
N331 X-141.500 Y-10.303 Z-3.469 A65.7147 
N332 X-141.500 Y-10.424 Z-3.076 A63.5317 
N333 X-141.500 Y-10.530 Z-2.680 A61.3492 
N334 X-141.500 Y-10.620 Z-2.280 A59.1685 
N335 X-141.500 Y-10.696 Z-1.876 A56.9878 
N336 X-141.500 Y-10.756 Z-1.469 A54.8070 
N337 X-141.500 Y-10.801 Z-1.061 A52.6261 
N338 X-141.500 Y-10.830 Z-0.651 A50.4452 
N339 X-141.500 Y-10.844 Z-0.241 A48.2642 
N340 X-141.500 Y-10.842 Z0.170 A46.0832 
N341 X-141.500 Y-10.825 Z0.580 A43.9022 
N342 X-141.500 Y-10.792 Z0.989 A41.7212 
N343 X-141.500 Y-10.744 Z1.397 A39.5402 
N344 X-141.500 Y-10.681 Z1.802 A37.3592 
N345 X-141.500 Y-10.602 Z2.204 A35.1783 
N346 X-141.500 Y-10.508 Z2.603 A32.9975 
N347 X-141.500 Y-10.399 Z2.998 A30.8168 
N348 X-141.500 Y-10.276 Z3.388 A28.6361 
N349 X-141.500 Y-10.138 Z3.773 A26.4555 
N350 X-141.500 Y-9.986 Z4.154 A24.2742 
N351 X-141.500 Y-9.820 Z4.529 A22.0910 
N352 X-141.500 Y-9.639 Z4.896 A19.9077 
N353 X-141.500 Y-9.445 Z5.256 A17.7247 
N354 X-141.500 Y-9.237 Z5.607 A15.5422 
N355 X-141.500 Y-9.016 Z5.950 A13.3603 
N356 X-141.500 Y-8.783 Z6.285 A11.1790 
N357 X-141.500 Y-8.536 Z6.611 A8.9981 
N358 X-141.500 Y-8.278 Z6.927 A6.8175 
N359 X-141.500 Y-8.008 Z7.233 A4.6371 
N360 X-141.500 Y-7.726 Z7.529 A2.4567 
N361 X-141.500 Y-7.434 Z7.813 A0.2763 
N362 X-141.500 Y-7.131 Z8.087 A358.0960 
N363 X-141.500 Y-6.818 Z8.348 A355.9167 
N364 X-141.500 Y-6.493 Z8.605 A353.6750 
N365 X-141.500 Y-6.163 Z8.838 A351.5339 
N366 X-141.500 Y-5.823 Z9.062 A349.3560 
N367 X-141.500 Y-5.474 Z9.273 A347.1751 
N368 X-141.500 Y-5.118 Z9.471 A344.9938 
N369 X-141.500 Y-4.755 Z9.656 A342.8123 
N370 X-141.500 Y-4.385 Z9.827 A340.6307 
N371 X-141.500 Y-4.009 Z9.983 A338.4489 
N372 X-141.500 Y-3.627 Z10.125 A336.2669 
N373 X-141.500 Y-3.241 Z10.253 A334.0849 
N374 X-141.500 Y-2.850 Z10.366 A331.9029 
N375 X-141.500 Y-2.455 Z10.463 A329.7208 
N376 X-141.500 Y-2.057 Z10.546 A327.5388 
N377 X-141.500 Y-1.657 Z10.614 A325.3568 
N378 X-141.500 Y-1.254 Z10.666 A323.1748 
N379 X-141.500 Y-0.849 Z10.704 A320.9927 
N380 X-141.500 Y-0.444 Z10.725 A318.8107 
N381 X-141.500 Y-0.038 Z10.732 A316.6287 
N382 X-141.500 Y0.368 Z10.723 A314.4466 
N383 X-141.500 Y0.773 Z10.699 A312.2645 
N384 X-141.500 Y1.177 Z10.659 A310.0824 
N385 X-141.500 Y1.579 Z10.605 A307.9003 
N386 X-141.500 Y1.978 Z10.535 A305.7182 
N387 X-141.500 Y2.375 Z10.450 A303.5361 
N388 X-141.500 Y2.768 Z10.350 A301.3541 
N389 X-141.500 Y3.156 Z10.235 A299.1720 
N390 X-141.500 Y3.540 Z10.106 A296.9899 
N391 X-141.500 Y3.919 Z9.963 A294.8079 
N392 X-141.500 Y4.292 Z9.805 A292.6258 
N393 X-141.500 Y4.658 Z9.633 A290.4437 
N394 X-141.500 Y5.018 Z9.448 A288.2616 
N395 X-141.500 Y5.370 Z9.249 A286.0795 
N396 X-141.500 Y5.715 Z9.037 A283.8974 
N397 X-141.500 Y6.051 Z8.812 A281.7154 
N398 X-141.500 Y6.378 Z8.575 A279.5335 
N399 X-141.500 Y6.696 Z8.325 A277.3518 
N400 X-141.500 Y7.004 Z8.064 A275.1702 
N401 X-141.500 Y7.302 Z7.791 A272.9888 
N402 X-141.500 Y7.589 Z7.507 A270.8074 
N403 X-141.500 Y7.865 Z7.213 A268.6261 
N404 X-141.500 Y8.130 Z6.908 A266.4448 
N405 X-141.500 Y8.383 Z6.594 A264.2636 
N406 X-141.500 Y8.624 Z6.270 A262.0824 
N407 X-141.500 Y8.853 Z5.937 A259.9012 
N408 X-141.500 Y9.069 Z5.597 A257.7201 
N409 X-141.500 Y9.272 Z5.248 A255.5389 
N410 X-141.500 Y9.461 Z4.893 A253.3578 
N411 X-141.500 Y9.637 Z4.530 A251.1765 
N412 X-141.500 Y9.799 Z4.161 A248.9949 
N413 X-141.500 Y9.948 Z3.787 A246.8129 
N414 X-141.500 Y10.082 Z3.407 A244.6303 
N415 X-141.500 Y10.202 Z3.022 A242.4471 
N416 X-141.500 Y10.307 Z2.634 A240.2635 
N417 X-141.500 Y10.397 Z2.241 A238.0795 
N418 X-141.500 Y10.471 Z1.847 A235.8955 
N419 X-141.500 Y10.529 Z1.450 A233.7138 
N420 X-141.500 Y10.573 Z1.051 A231.5331 
N421 X-141.500 Y10.603 Z0.650 A229.3524 
N422 X-141.500 Y10.617 Z0.249 A227.1716 
N423 X-141.500 Y10.615 Z-0.153 A224.9907 
N424 X-141.500 Y10.599 Z-0.554 A222.8097 
N425 X-141.500 Y10.567 Z-0.955 A220.6287 
N426 X-141.500 Y10.521 Z-1.354 A218.4477 
N427 X-141.500 Y10.459 Z-1.750 A216.2666 
N428 X-141.500 Y10.382 Z-2.144 A214.0856 
N429 X-141.500 Y10.290 Z-2.535 A211.9046 
N430 X-141.500 Y10.184 Z-2.922 A209.7237 
N431 X-141.500 Y10.063 Z-3.304 A207.5428 
N432 X-141.500 Y9.928 Z-3.681 A205.3621 
N433 X-141.500 Y9.779 Z-4.053 A203.1814 
N434 X-141.500 Y9.617 Z-4.420 A201.0008 
N435 X-141.500 Y9.441 Z-4.781 A198.8187 
N436 X-141.500 Y9.252 Z-5.134 A196.6354 
N437 X-141.500 Y9.049 Z-5.479 A194.4520 
N438 X-141.500 Y8.834 Z-5.816 A192.2683 
N439 X-141.500 Y8.606 Z-6.144 A190.0844 
N440 X-141.500 Y8.366 Z-6.464 A187.9006 
N441 X-141.500 Y8.114 Z-6.774 A185.7170 
N442 X-141.500 Y7.851 Z-7.074 A183.5338 
N443 X-141.500 Y7.576 Z-7.363 A181.3509 
N444 X-141.500 Y7.291 Z-7.642 A179.1683 
N445 X-141.500 Y6.995 Z-7.910 A176.9862 
N446 X-141.500 Y6.689 Z-8.166 A174.8043 
N447 X-141.500 Y6.374 Z-8.411 A172.6228 
N448 X-141.500 Y6.050 Z-8.643 A170.4415 
N449 X-141.500 Y5.717 Z-8.863 A168.2604 
N450 X-141.500 Y5.376 Z-9.071 A166.0793 
N451 X-141.500 Y5.027 Z-9.265 A163.8981 
N452 X-141.500 Y4.672 Z-9.446 A161.7169 
N453 X-141.500 Y4.310 Z-9.613 A159.5356 
N454 X-141.500 Y3.942 Z-9.767 A157.3542 
N455 X-141.500 Y3.569 Z-9.906 A155.1727 
N456 X-141.500 Y3.191 Z-10.031 A152.9912 
N457 X-141.500 Y2.808 Z-10.142 A150.8096 
N458 X-141.500 Y2.422 Z-10.239 A148.6280 
N459 X-141.500 Y2.032 Z-10.320 A146.4463 
N460 X-141.500 Y1.640 Z-10.387 A144.2646 
N461 X-141.500 Y1.246 Z-10.439 A142.0828 
N462 X-141.500 Y0.850 Z-10.476 A139.9011 
N463 X-141.500 Y0.453 Z-10.498 A137.7193 
N464 X-141.500 Y0.056 Z-10.505 A135.5375 
N465 X-141.500 Y-0.342 Z-10.497 A133.3557 
N466 X-141.500 Y-0.738 Z-10.473 A131.1739 
N467 X-141.500 Y-1.133 Z-10.435 A128.9921 
N468 X-141.500 Y-1.527 Z-10.382 A126.8103 
N469 X-141.500 Y-1.918 Z-10.315 A124.6285 
N470 X-141.500 Y-2.306 Z-10.232 A122.4467 
N471 X-141.500 Y-2.691 Z-10.135 A120.2650 
N472 X-141.500 Y-3.071 Z-10.023 A118.0832 
N473 X-141.500 Y-3.447 Z-9.897 A115.9015 
N474 X-141.500 Y-3.818 Z-9.757 A113.7198 
N475 X-141.500 Y-4.183 Z-9.603 A111.5382 
N476 X-141.500 Y-4.542 Z-9.436 A109.3566 
N477 X-141.500 Y-4.894 Z-9.255 A107.1751 
N478 X-141.500 Y-5.239 Z-9.060 A104.9937 
N479 X-141.500 Y-5.577 Z-8.853 A102.8123 
N480 X-141.500 Y-5.906 Z-8.634 A100.6310 
N481 X-141.500 Y-6.227 Z-8.402 A98.4498 
N482 X-141.500 Y-6.538 Z-8.158 A96.2686 
N483 X-141.500 Y-6.840 Z-7.902 A94.0876 
N484 X-141.500 Y-7.133 Z-7.636 A91.9066 
N485 X-141.500 Y-7.415 Z-7.359 A89.7254 
N486 X-141.500 Y-7.686 Z-7.071 A87.5441 
N487 X-141.500 Y-7.946 Z-6.774 A85.3625 
N488 X-141.500 Y-8.195 Z-6.467 A83.1805 
N489 X-141.500 Y-8.432 Z-6.151 A80.9982 
N490 X-141.500 Y-8.657 Z-5.827 A78.8155 
N491 X-141.500 Y-8.870 Z-5.494 A76.6325 
N492 X-141.500 Y-9.069 Z-5.154 A74.4492 
N493 X-141.500 Y-9.256 Z-4.806 A72.2656 
N494 X-141.500 Y-9.429 Z-4.452 A70.0818 
N495 X-141.500 Y-9.588 Z-4.092 A67.8981 
N496 X-141.500 Y-9.734 Z-3.726 A65.7147 
N497 X-141.500 Y-9.865 Z-3.355 A63.5317 
N498 X-141.500 Y-9.981 Z-2.979 A61.3492 
N499 X-141.500 Y-10.083 Z-2.600 A59.1685 
N500 X-141.500 Y-10.172 Z-2.216 A56.9878 
N501 X-141.500 Y-10.245 Z-1.829 A54.8070 
N502 X-141.500 Y-10.304 Z-1.440 A52.6261 
N503 X-141.500 Y-10.348 Z-1.049 A50.4452 
N504 X-141.500 Y-10.378 Z-0.657 A48.2642 
N505 X-141.500 Y-10.392 Z-0.264 A46.0832 
N506 X-141.500 Y-10.392 Z0.130 A43.9022 
N507 X-141.500 Y-10.376 Z0.523 A41.7212 
N508 X-141.500 Y-10.346 Z0.915 A39.5402 
N509 X-141.500 Y-10.301 Z1.305 A37.3592 
N510 X-141.500 Y-10.242 Z1.693 A35.1783 
N511 X-141.500 Y-10.168 Z2.079 A32.9975 
N512 X-141.500 Y-10.079 Z2.461 A30.8168 
N513 X-141.500 Y-9.976 Z2.839 A28.6361 
N514 X-141.500 Y-9.859 Z3.214 A26.4555 
N515 X-141.500 Y-9.729 Z3.585 A24.2742 
N516 X-141.500 Y-9.585 Z3.950 A22.0910 
N517 X-141.500 Y-9.427 Z4.308 A19.9077 
N518 X-141.500 Y-9.255 Z4.660 A17.7247 
N519 X-141.500 Y-9.070 Z5.005 A15.5422 
N520 X-141.500 Y-8.872 Z5.342 A13.3603 
N521 X-141.500 Y-8.661 Z5.672 A11.1790 
N522 X-141.500 Y-8.439 Z5.993 A8.9981 
N523 X-141.500 Y-8.204 Z6.306 A6.8175 
N524 X-141.500 Y-7.957 Z6.610 A4.6371 
N525 X-141.500 Y-7.700 Z6.904 A2.4567 
N526 X-141.500 Y-7.431 Z7.188 A0.2763 
N527 X-141.500 Y-7.152 Z7.462 A358.0960 
N528 X-141.500 Y-6.863 Z7.725 A355.9167 
N529 X-141.500 Y-6.562 Z7.984 A353.6750 
N530 X-141.500 Y-6.255 Z8.220 A351.5339 
N531 X-141.500 Y-5.938 Z8.448 A349.3560 
N532 X-141.500 Y-5.613 Z8.664 A347.1751 
N533 X-141.500 Y-5.280 Z8.868 A344.9938 
N534 X-141.500 Y-4.939 Z9.059 A342.8123 
N535 X-141.500 Y-4.592 Z9.237 A340.6307 
N536 X-141.500 Y-4.238 Z9.402 A338.4489 
N537 X-141.500 Y-3.879 Z9.553 A336.2669 
N538 X-141.500 Y-3.514 Z9.691 A334.0849 
N539 X-141.500 Y-3.144 Z9.814 A331.9029 
N540 X-141.500 Y-2.771 Z9.924 A329.7208 
N541 X-141.500 Y-2.393 Z10.019 A327.5388 
N542 X-141.500 Y-2.012 Z10.100 A325.3568 
N543 X-141.500 Y-1.628 Z10.166 A323.1748 
N544 X-141.500 Y-1.243 Z10.218 A320.9927 
N545 X-141.500 Y-0.855 Z10.255 A318.8107 
N546 X-141.500 Y-0.467 Z10.278 A316.6287 
N547 X-141.500 Y-0.078 Z10.285 A314.4466 
N548 X-141.500 Y0.311 Z10.279 A312.2645 
N549 X-141.500 Y0.699 Z10.257 A310.0824 
N550 X-141.500 Y1.086 Z10.221 A307.9003 
N551 X-141.500 Y1.471 Z10.170 A305.7182 
N552 X-141.500 Y1.854 Z10.105 A303.5361 
N553 X-141.500 Y2.234 Z10.025 A301.3541 
N554 X-141.500 Y2.610 Z9.931 A299.1720 
N555 X-141.500 Y2.983 Z9.823 A296.9899 
N556 X-141.500 Y3.351 Z9.700 A294.8079 
N557 X-141.500 Y3.715 Z9.565 A292.6258 
N558 X-141.500 Y4.073 Z9.415 A290.4437 
N559 X-141.500 Y4.424 Z9.252 A288.2616 
N560 X-141.500 Y4.770 Z9.076 A286.0795 
N561 X-141.500 Y5.108 Z8.887 A283.8974 
N562 X-141.500 Y5.439 Z8.685 A281.7154 
N563 X-141.500 Y5.761 Z8.471 A279.5335 
N564 X-141.500 Y6.076 Z8.245 A277.3518 
N565 X-141.500 Y6.381 Z8.007 A275.1702 
N566 X-141.500 Y6.677 Z7.758 A272.9888 
N567 X-141.500 Y6.964 Z7.498 A270.8074 
N568 X-141.500 Y7.240 Z7.228 A268.6261 
N569 X-141.500 Y7.506 Z6.947 A266.4448 
N570 X-141.500 Y7.762 Z6.656 A264.2636 
N571 X-141.500 Y8.005 Z6.356 A262.0824 
N572 X-141.500 Y8.238 Z6.047 A259.9012 
N573 X-141.500 Y8.458 Z5.730 A257.7201 
N574 X-141.500 Y8.666 Z5.404 A255.5389 
N575 X-141.500 Y8.862 Z5.072 A253.3578 
N576 X-141.500 Y9.045 Z4.732 A251.1765 
N577 X-141.500 Y9.216 Z4.385 A248.9949 
N578 X-141.500 Y9.373 Z4.033 A246.8129 
N579 X-141.500 Y9.517 Z3.675 A244.6303 
N580 X-141.500 Y9.648 Z3.311 A242.4471 
N581 X-141.500 Y9.764 Z2.944 A240.2635 
N582 X-141.500 Y9.866 Z2.572 A238.0795 
N583 X-141.500 Y9.954 Z2.197 A235.8955 
N584 X-141.500 Y10.025 Z1.820 A233.7138 
N585 X-141.500 Y10.084 Z1.440 A231.5331 
N586 X-141.500 Y10.128 Z1.058 A229.3524 
N587 X-141.500 Y10.158 Z0.674 A227.1716 
N588 X-141.500 Y10.174 Z0.289 A224.9907 
N589 X-141.500 Y10.174 Z-0.096 A222.8097 
N590 X-141.500 Y10.160 Z-0.480 A220.6287 
N591 X-141.500 Y10.132 Z-0.864 A218.4477 
N592 X-141.500 Y10.089 Z-1.246 A216.2666 
N593 X-141.500 Y10.032 Z-1.627 A214.0856 
N594 X-141.500 Y9.960 Z-2.004 A211.9046 
N595 X-141.500 Y9.874 Z-2.379 A209.7237 
N596 X-141.500 Y9.774 Z-2.750 A207.5428 
N597 X-141.500 Y9.661 Z-3.117 A205.3621 
N598 X-141.500 Y9.533 Z-3.479 A203.1814 
N599 X-141.500 Y9.393 Z-3.836 A201.0008 
N600 X-141.500 Y9.240 Z-4.189 A198.8187 
N601 X-141.500 Y9.073 Z-4.535 A196.6354 
N602 X-141.500 Y8.893 Z-4.874 A194.4520 
N603 X-141.500 Y8.701 Z-5.205 A192.2683 
N604 X-141.500 Y8.497 Z-5.529 A190.0844 
N605 X-141.500 Y8.280 Z-5.845 A187.9006 
N606 X-141.500 Y8.052 Z-6.152 A185.7170 
N607 X-141.500 Y7.812 Z-6.450 A183.5338 
N608 X-141.500 Y7.561 Z-6.739 A181.3509 
N609 X-141.500 Y7.300 Z-7.017 A179.1683 
N610 X-141.500 Y7.028 Z-7.286 A176.9862 
N611 X-141.500 Y6.746 Z-7.544 A174.8043 
N612 X-141.500 Y6.454 Z-7.791 A172.6228 
N613 X-141.500 Y6.153 Z-8.027 A170.4415 
N614 X-141.500 Y5.844 Z-8.251 A168.2604 
N615 X-141.500 Y5.526 Z-8.464 A166.0793 
N616 X-141.500 Y5.201 Z-8.664 A163.8981 
N617 X-141.500 Y4.868 Z-8.852 A161.7169 
N618 X-141.500 Y4.529 Z-9.028 A159.5356 
N619 X-141.500 Y4.183 Z-9.190 A157.3542 
N620 X-141.500 Y3.831 Z-9.339 A155.1727 
N621 X-141.500 Y3.475 Z-9.475 A152.9912 
N622 X-141.500 Y3.113 Z-9.597 A150.8096 
N623 X-141.500 Y2.747 Z-9.705 A148.6280 
N624 X-141.500 Y2.378 Z-9.799 A146.4463 
N625 X-141.500 Y2.005 Z-9.880 A144.2646 
N626 X-141.500 Y1.630 Z-9.946 A142.0828 
N627 X-141.500 Y1.252 Z-9.998 A139.9011 
N628 X-141.500 Y0.873 Z-10.035 A137.7193 
N629 X-141.500 Y0.493 Z-10.059 A135.5375 
N630 X-141.500 Y0.113 Z-10.067 A133.3557 
N631 X-141.500 Y-0.268 Z-10.062 A131.1739 
N632 X-141.500 Y-0.648 Z-10.042 A128.9921 
N633 X-141.500 Y-1.026 Z-10.008 A126.8103 
N634 X-141.500 Y-1.404 Z-9.959 A124.6285 
N635 X-141.500 Y-1.778 Z-9.897 A122.4467 
N636 X-141.500 Y-2.151 Z-9.820 A120.2650 
N637 X-141.500 Y-2.520 Z-9.729 A118.0832 
N638 X-141.500 Y-2.885 Z-9.624 A115.9015 
N639 X-141.500 Y-3.246 Z-9.506 A113.7198 
N640 X-141.500 Y-3.602 Z-9.374 A111.5382 
N641 X-141.500 Y-3.952 Z-9.229 A109.3566 
N642 X-141.500 Y-4.297 Z-9.070 A107.1751 
N643 X-141.500 Y-4.636 Z-8.899 A104.9937 
N644 X-141.500 Y-4.967 Z-8.715 A102.8123 
N645 X-141.500 Y-5.292 Z-8.518 A100.6310 
N646 X-141.500 Y-5.609 Z-8.310 A98.4498 
N647 X-141.500 Y-5.917 Z-8.089 A96.2686 
N648 X-141.500 Y-6.217 Z-7.858 A94.0876 
N649 X-141.500 Y-6.508 Z-7.615 A91.9066 
N650 X-141.500 Y-6.790 Z-7.362 A89.7254 
N651 X-141.500 Y-7.061 Z-7.098 A87.5441 
N652 X-141.500 Y-7.323 Z-6.824 A85.3625 
N653 X-141.500 Y-7.574 Z-6.541 A83.1805 
N654 X-141.500 Y-7.815 Z-6.249 A80.9982 
N655 X-141.500 Y-8.044 Z-5.948 A78.8155 
N656 X-141.500 Y-8.261 Z-5.638 A76.6325 
N657 X-141.500 Y-8.467 Z-5.321 A74.4492 
N658 X-141.500 Y-8.661 Z-4.997 A72.2656 
N659 X-141.500 Y-8.841 Z-4.665 A70.0818 
N660 X-141.500 Y-9.009 Z-4.327 A67.8981 
N661 X-141.500 Y-9.164 Z-3.983 A65.7147 
N662 X-141.500 Y-9.305 Z-3.633 A63.5317 
N663 X-141.500 Y-9.433 Z-3.279 A61.3492 
N664 X-141.500 Y-9.547 Z-2.920 A59.1685 
N665 X-141.500 Y-9.647 Z-2.557 A56.9878 
N666 X-141.500 Y-9.735 Z-2.190 A54.8070 
N667 X-141.500 Y-9.808 Z-1.820 A52.6261 
N668 X-141.500 Y-9.867 Z-1.447 A50.4452 
N669 X-141.500 Y-9.911 Z-1.073 A48.2642 
N670 X-141.500 Y-9.942 Z-0.697 A46.0832 
N671 X-141.500 Y-9.958 Z-0.321 A43.9022 
N672 X-141.500 Y-9.960 Z0.056 A41.7212 
N673 X-141.500 Y-9.948 Z0.433 A39.5402 
N674 X-141.500 Y-9.922 Z0.808 A37.3592 
N675 X-141.500 Y-9.882 Z1.182 A35.1783 
N676 X-141.500 Y-9.827 Z1.554 A32.9975 
N677 X-141.500 Y-9.759 Z1.924 A30.8168 
N678 X-141.500 Y-9.677 Z2.291 A28.6361 
N679 X-141.500 Y-9.581 Z2.654 A26.4555 
N680 X-141.500 Y-9.472 Z3.015 A24.2742 
N681 X-141.500 Y-9.350 Z3.371 A22.0910 
N682 X-141.500 Y-9.214 Z3.721 A19.9077 
N683 X-141.500 Y-9.065 Z4.065 A17.7247 
N684 X-141.500 Y-8.902 Z4.403 A15.5422 
N685 X-141.500 Y-8.727 Z4.734 A13.3603 
N686 X-141.500 Y-8.540 Z5.059 A11.1790 
N687 X-141.500 Y-8.341 Z5.376 A8.9981 
N688 X-141.500 Y-8.130 Z5.686 A6.8175 
N689 X-141.500 Y-7.907 Z5.987 A4.6371 
N690 X-141.500 Y-7.673 Z6.280 A2.4567 
N691 X-141.500 Y-7.428 Z6.563 A0.2763 
N692 X-141.500 Y-7.173 Z6.837 A358.0960 
N693 X-141.500 Y-6.907 Z7.102 A355.9167 
N694 X-141.500 Y-6.631 Z7.363 A353.6750 
N695 X-141.500 Y-6.346 Z7.605 A351.5339 
N696 X-141.500 Y-6.052 Z7.841 A349.3560 
N697 X-141.500 Y-5.749 Z8.066 A347.1751 
N698 X-141.500 Y-5.438 Z8.279 A344.9938 
N699 X-141.500 Y-5.118 Z8.480 A342.8123 
N700 X-141.500 Y-4.792 Z8.669 A340.6307 
N701 X-141.500 Y-4.458 Z8.845 A338.4489 
N702 X-141.500 Y-4.118 Z9.009 A336.2669 
N703 X-141.500 Y-3.772 Z9.159 A334.0849 
N704 X-141.500 Y-3.421 Z9.296 A331.9029 
N705 X-141.500 Y-3.065 Z9.420 A329.7208 
N706 X-141.500 Y-2.704 Z9.530 A327.5388 
N707 X-141.500 Y-2.339 Z9.626 A325.3568 
N708 X-141.500 Y-1.971 Z9.708 A323.1748 
N709 X-141.500 Y-1.600 Z9.776 A320.9927 
N710 X-141.500 Y-1.227 Z9.830 A318.8107 
N711 X-141.500 Y-0.852 Z9.870 A316.6287 
N712 X-141.500 Y-0.476 Z9.896 A314.4466 
N713 X-141.500 Y-0.099 Z9.907 A312.2645 
N714 X-141.500 Y0.279 Z9.903 A310.0824 
N715 X-141.500 Y0.655 Z9.886 A307.9003 
N716 X-141.500 Y1.031 Z9.854 A305.7182 
N717 X-141.500 Y1.405 Z9.807 A303.5361 
N718 X-141.500 Y1.778 Z9.747 A301.3541 
N719 X-141.500 Y2.147 Z9.672 A299.1720 
N720 X-141.500 Y2.514 Z9.584 A296.9899 
N721 X-141.500 Y2.877 Z9.481 A294.8079 
N722 X-141.500 Y3.236 Z9.365 A292.6258 
N723 X-141.500 Y3.590 Z9.235 A290.4437 
N724 X-141.500 Y3.939 Z9.092 A288.2616 
N725 X-141.500 Y4.282 Z8.935 A286.0795 
N726 X-141.500 Y4.619 Z8.766 A283.8974 
N727 X-141.500 Y4.949 Z8.584 A281.7154 
N728 X-141.500 Y5.272 Z8.389 A279.5335 
N729 X-141.500 Y5.587 Z8.182 A277.3518 
N730 X-141.500 Y5.895 Z7.963 A275.1702 
N731 X-141.500 Y6.193 Z7.733 A272.9888 
N732 X-141.500 Y6.483 Z7.491 A270.8074 
N733 X-141.500 Y6.763 Z7.239 A268.6261 
N734 X-141.500 Y7.034 Z6.976 A266.4448 
N735 X-141.500 Y7.294 Z6.703 A264.2636 
N736 X-141.500 Y7.544 Z6.420 A262.0824 
N737 X-141.500 Y7.783 Z6.128 A259.9012 
N738 X-141.500 Y8.010 Z5.827 A257.7201 
N739 X-141.500 Y8.226 Z5.518 A255.5389 
N740 X-141.500 Y8.430 Z5.201 A253.3578 
N741 X-141.500 Y8.622 Z4.876 A251.1765 
N742 X-141.500 Y8.802 Z4.544 A248.9949 
N743 X-141.500 Y8.969 Z4.206 A246.8129 
N744 X-141.500 Y9.124 Z3.861 A244.6303 
N745 X-141.500 Y9.265 Z3.511 A242.4471 
N746 X-141.500 Y9.393 Z3.156 A240.2635 
N747 X-141.500 Y9.506 Z2.796 A238.0795 
N748 X-141.500 Y9.605 Z2.433 A235.8955 
N749 X-141.500 Y9.689 Z2.067 A233.7138 
N750 X-141.500 Y9.761 Z1.697 A231.5331 
N751 X-141.500 Y9.818 Z1.324 A229.3524 
N752 X-141.500 Y9.861 Z0.949 A227.1716 
N753 X-141.500 Y9.890 Z0.573 A224.9907 
N754 X-141.500 Y9.904 Z0.196 A222.8097 
N755 X-141.500 Y9.904 Z-0.181 A220.6287 
N756 X-141.500 Y9.889 Z-0.559 A218.4477 
N757 X-141.500 Y9.861 Z-0.935 A216.2666 
N758 X-141.500 Y9.817 Z-1.310 A214.0856 
N759 X-141.500 Y9.760 Z-1.683 A211.9046 
N760 X-141.500 Y9.688 Z-2.053 A209.7237 
N761 X-141.500 Y9.603 Z-2.421 A207.5428 
N762 X-141.500 Y9.503 Z-2.785 A205.3621 
N763 X-141.500 Y9.390 Z-3.144 A203.1814 
N764 X-141.500 Y9.264 Z-3.500 A201.0008 
N765 X-141.500 Y9.125 Z-3.852 A198.8187 
N766 X-141.500 Y8.972 Z-4.197 A196.6354 
N767 X-141.500 Y8.806 Z-4.536 A194.4520 
N768 X-141.500 Y8.628 Z-4.868 A192.2683 
N769 X-141.500 Y8.437 Z-5.194 A190.0844 
N770 X-141.500 Y8.234 Z-5.511 A187.9006 
N771 X-141.500 Y8.019 Z-5.820 A185.7170 
N772 X-141.500 Y7.792 Z-6.121 A183.5338 
N773 X-141.500 Y7.554 Z-6.413 A181.3509 
N774 X-141.500 Y7.304 Z-6.695 A179.1683 
N775 X-141.500 Y7.044 Z-6.968 A176.9862 
N776 X-141.500 Y6.774 Z-7.231 A174.8043 
N777 X-141.500 Y6.494 Z-7.483 A172.6228 
N778 X-141.500 Y6.204 Z-7.724 A170.4415 
N779 X-141.500 Y5.906 Z-7.955 A168.2604 
N780 X-141.500 Y5.598 Z-8.174 A166.0793 
N781 X-141.500 Y5.283 Z-8.381 A163.8981 
N782 X-141.500 Y4.960 Z-8.576 A161.7169 
N783 X-141.500 Y4.629 Z-8.758 A159.5356 
N784 X-141.500 Y4.292 Z-8.928 A157.3542 
N785 X-141.500 Y3.949 Z-9.085 A155.1727 
N786 X-141.500 Y3.600 Z-9.228 A152.9912 
N787 X-141.500 Y3.246 Z-9.359 A150.8096 
N788 X-141.500 Y2.887 Z-9.475 A148.6280 
N789 X-141.500 Y2.524 Z-9.578 A146.4463 
N790 X-141.500 Y2.158 Z-9.667 A144.2646 
N791 X-141.500 Y1.788 Z-9.743 A142.0828 
N792 X-141.500 Y1.416 Z-9.804 A139.9011 
N793 X-141.500 Y1.042 Z-9.850 A137.7193 
N794 X-141.500 Y0.666 Z-9.883 A135.5375 
N795 X-141.500 Y0.289 Z-9.901 A133.3557 
N796 X-141.500 Y-0.088 Z-9.905 A131.1739 
N797 X-141.500 Y-0.465 Z-9.894 A128.9921 
N798 X-141.500 Y-0.841 Z-9.869 A126.8103 
N799 X-141.500 Y-1.217 Z-9.830 A124.6285 
N800 X-141.500 Y-1.590 Z-9.777 A122.4467 
N801 X-141.500 Y-1.961 Z-9.709 A120.2650 
N802 X-141.500 Y-2.329 Z-9.627 A118.0832 
N803 X-141.500 Y-2.694 Z-9.532 A115.9015 
N804 X-141.500 Y-3.055 Z-9.422 A113.7198 
N805 X-141.500 Y-3.411 Z-9.299 A111.5382 
N806 X-141.500 Y-3.763 Z-9.162 A109.3566 
N807 X-141.500 Y-4.109 Z-9.012 A107.1751 
N808 X-141.500 Y-4.449 Z-8.849 A104.9937 
N809 X-141.500 Y-4.783 Z-8.673 A102.8123 
N810 X-141.500 Y-5.109 Z-8.484 A100.6310 
N811 X-141.500 Y-5.429 Z-8.283 A98.4498 
N812 X-141.500 Y-5.740 Z-8.070 A96.2686 
N813 X-141.500 Y-6.043 Z-7.845 A94.0876 
N814 X-141.500 Y-6.338 Z-7.609 A91.9066 
N815 X-141.500 Y-6.623 Z-7.362 A89.7254 
N816 X-141.500 Y-6.899 Z-7.105 A87.5441 
N817 X-141.500 Y-7.165 Z-6.837 A85.3625 
N818 X-141.500 Y-7.420 Z-6.560 A83.1805 
N819 X-141.500 Y-7.665 Z-6.272 A80.9982 
N820 X-141.500 Y-7.899 Z-5.976 A78.8155 
N821 X-141.500 Y-8.121 Z-5.672 A76.6325 
N822 X-141.500 Y-8.332 Z-5.359 A74.4492 
N823 X-141.500 Y-8.531 Z-5.038 A72.2656 
N824 X-141.500 Y-8.717 Z-4.710 A70.0818 
N825 X-141.500 Y-8.890 Z-4.376 A67.8981 
N826 X-141.500 Y-9.050 Z-4.034 A65.7147 
N827 X-141.500 Y-9.197 Z-3.687 A63.5317 
N828 X-141.500 Y-9.330 Z-3.335 A61.3492 
N829 X-141.500 Y-9.449 Z-2.978 A59.1685 
N830 X-141.500 Y-9.555 Z-2.617 A56.9878 
N831 X-141.500 Y-9.648 Z-2.251 A54.8070 
N832 X-141.500 Y-9.726 Z-1.882 A52.6261 
N833 X-141.500 Y-9.791 Z-1.510 A50.4452 
N834 X-141.500 Y-9.841 Z-1.136 A48.2642 
N835 X-141.500 Y-9.876 Z-0.760 A46.0832 
N836 X-141.500 Y-9.898 Z-0.383 A43.9022 
N837 X-141.500 Y-9.905 Z-0.006 A41.7212 
N838 X-141.500 Y-9.898 Z0.371 A39.5402 
N839 X-141.500 Y-9.876 Z0.748 A37.3592 
N840 X-141.500 Y-9.840 Z1.123 A35.1783 
N841 X-141.500 Y-9.790 Z1.497 A32.9975 
N842 X-141.500 Y-9.726 Z1.869 A30.8168 
N843 X-141.500 Y-9.648 Z2.238 A28.6361 
N844 X-141.500 Y-9.555 Z2.603 A26.4555 
N845 X-141.500 Y-9.450 Z2.967 A24.2742 
N846 X-141.500 Y-9.331 Z3.325 A22.0910 
N847 X-141.500 Y-9.198 Z3.678 A19.9077 
N848 X-141.500 Y-9.052 Z4.025 A17.7247 
N849 X-141.500 Y-8.892 Z4.366 A15.5422 
N850 X-141.500 Y-8.720 Z4.701 A13.3603 
N851 X-141.500 Y-8.534 Z5.029 A11.1790 
N852 X-141.500 Y-8.337 Z5.350 A8.9981 
N853 X-141.500 Y-8.127 Z5.663 A6.8175 
N854 X-141.500 Y-7.905 Z5.968 A4.6371 
N855 X-141.500 Y-7.672 Z6.265 A2.4567 
N856 X-141.500 Y-7.428 Z6.552 A0.2763 
N857 X-141.500 Y-7.173 Z6.830 A358.0960 
N858 X-141.500 Y-6.907 Z7.098 A355.9167 
N859 X-141.500 Y-6.631 Z7.363 A353.6750 
N860 X-141.500 Y-6.346 Z7.605 A351.5319 
N861 X-141.500 Y-6.051 Z7.841 A349.3552 
N862 X-141.500 Y-5.748 Z8.065 A347.1764 
N863 X-141.501 Y-5.437 Z8.278 A344.9973 
N864 X-141.501 Y-5.117 Z8.479 A342.8180 
N865 X-141.502 Y-4.791 Z8.667 A340.6387 
N866 X-141.502 Y-4.457 Z8.843 A338.4593 
N867 X-141.503 Y-4.117 Z9.007 A336.2799 
N868 X-141.505 Y-3.772 Z9.157 A334.1006 
N869 X-141.506 Y-3.421 Z9.294 A331.9213 
N870 X-141.508 Y-3.065 Z9.417 A329.7422 
N871 X-141.510 Y-2.704 Z9.527 A327.5633 
N872 X-141.513 Y-2.340 Z9.623 A325.3846 
N873 X-141.517 Y-1.973 Z9.705 A323.2061 
N874 X-141.521 Y-1.603 Z9.773 A321.0278 
N875 X-141.526 Y-1.231 Z9.827 A318.8497 
N876 X-141.532 Y-0.856 Z9.867 A316.6718 
N877 X-141.540 Y-0.481 Z9.893 A314.4942 
N878 X-141.549 Y-0.105 Z9.904 A312.3168 
N879 X-141.559 Y0.271 Z9.902 A310.1398 
N880 X-141.571 Y0.646 Z9.885 A307.9630 
N881 X-141.585 Y1.021 Z9.853 A305.7864 
N882 X-141.601 Y1.394 Z9.808 A303.6102 
N883 X-141.619 Y1.765 Z9.748 A301.4342 
N884 X-141.638 Y2.133 Z9.675 A299.2582 
N885 X-141.659 Y2.499 Z9.587 A297.0824 
N886 X-141.682 Y2.861 Z9.486 A294.9063 
N887 X-141.706 Y3.218 Z9.371 A292.7301 
N888 X-141.732 Y3.572 Z9.243 A290.5534 
N889 X-141.758 Y3.920 Z9.101 A288.3763 
N890 X-141.785 Y4.263 Z8.946 A286.1987 
N891 X-141.812 Y4.599 Z8.778 A284.0206 
N892 X-141.839 Y4.929 Z8.597 A281.8422 
N893 X-141.866 Y5.252 Z8.404 A279.6633 
N894 X-141.892 Y5.568 Z8.198 A277.4842 
N895 X-141.918 Y5.875 Z7.980 A275.3049 
N896 X-141.943 Y6.174 Z7.751 A273.1254 
N897 X-141.967 Y6.465 Z7.510 A270.9459 
N898 X-141.991 Y6.746 Z7.259 A268.7662 
N899 X-142.013 Y7.017 Z6.997 A266.5863 
N900 X-142.035 Y7.278 Z6.724 A264.4064 
N901 X-142.056 Y7.528 Z6.442 A262.2264 
N902 X-142.076 Y7.768 Z6.151 A260.0463 
N903 X-142.095 Y7.996 Z5.851 A257.8662 
N904 X-142.114 Y8.213 Z5.542 A255.6860 
N905 X-142.132 Y8.418 Z5.225 A253.5057 
N906 X-142.150 Y8.610 Z4.901 A251.3252 
N907 X-142.167 Y8.791 Z4.570 A249.1443 
N908 X-142.184 Y8.959 Z4.232 A246.9629 
N909 X-142.200 Y9.114 Z3.887 A244.7808 
N910 X-142.216 Y9.256 Z3.538 A242.5981 
N911 X-142.232 Y9.385 Z3.183 A240.4148 
N912 X-142.248 Y9.500 Z2.823 A238.2310 
N913 X-142.263 Y9.600 Z2.460 A236.0471 
N914 X-142.278 Y9.685 Z2.094 A233.8651 
N915 X-142.293 Y9.757 Z1.724 A231.6838 
N916 X-142.307 Y9.816 Z1.351 A229.5030 
N917 X-142.321 Y9.860 Z0.976 A227.3221 
N918 X-142.335 Y9.889 Z0.600 A225.1409 
N919 X-142.349 Y9.905 Z0.223 A222.9597 
N920 X-142.363 Y9.905 Z-0.155 A220.7783 
N921 X-142.377 Y9.892 Z-0.532 A218.5967 
N922 X-142.391 Y9.864 Z-0.909 A216.4151 
N923 X-142.406 Y9.822 Z-1.284 A214.2335 
N924 X-142.420 Y9.765 Z-1.657 A212.0518 
N925 X-142.434 Y9.694 Z-2.028 A209.8701 
N926 X-142.448 Y9.610 Z-2.396 A207.6884 
N927 X-142.462 Y9.511 Z-2.760 A205.5068 
N928 X-142.476 Y9.399 Z-3.121 A203.3253 
N929 X-142.490 Y9.273 Z-3.477 A201.1437 
N930 X-142.504 Y9.135 Z-3.829 A198.9608 
N931 X-142.518 Y8.983 Z-4.175 A196.7765 
N932 X-142.532 Y8.818 Z-4.514 A194.5919 
N933 X-142.546 Y8.640 Z-4.847 A192.4071 
N934 X-142.560 Y8.450 Z-5.173 A190.2221 
N935 X-142.574 Y8.247 Z-5.491 A188.0371 
N936 X-142.588 Y8.033 Z-5.801 A185.8523 
N937 X-142.602 Y7.806 Z-6.103 A183.6678 
N938 X-142.617 Y7.569 Z-6.395 A181.4836 
N939 X-142.631 Y7.320 Z-6.679 A179.2997 
N940 X-142.645 Y7.060 Z-6.952 A177.1162 
N941 X-142.659 Y6.790 Z-7.216 A174.9330 
N942 X-142.673 Y6.510 Z-7.469 A172.7501 
N943 X-142.687 Y6.221 Z-7.711 A170.5674 
N944 X-142.701 Y5.923 Z-7.942 A168.3849 
N945 X-142.715 Y5.616 Z-8.162 A166.2024 
N946 X-142.729 Y5.300 Z-8.369 A164.0198 
N947 X-142.743 Y4.977 Z-8.565 A161.8372 
N948 X-142.757 Y4.647 Z-8.748 A159.6544 
N949 X-142.771 Y4.310 Z-8.919 A157.4715 
N950 X-142.785 Y3.967 Z-9.076 A155.2886 
N951 X-142.799 Y3.618 Z-9.221 A153.1055 
N952 X-142.814 Y3.264 Z-9.352 A150.9225 
N953 X-142.828 Y2.905 Z-9.469 A148.7393 
N954 X-142.842 Y2.542 Z-9.573 A146.5561 
N955 X-142.856 Y2.176 Z-9.663 A144.3729 
N956 X-142.870 Y1.806 Z-9.739 A142.1896 
N957 X-142.884 Y1.433 Z-9.801 A140.0063 
N958 X-142.898 Y1.059 Z-9.848 A137.8230 
N959 X-142.912 Y0.683 Z-9.881 A135.6396 
N960 X-142.926 Y0.306 Z-9.900 A133.4563 
N961 X-142.940 Y-0.071 Z-9.905 A131.2729 
N962 X-142.954 Y-0.449 Z-9.895 A129.0895 
N963 X-142.968 Y-0.825 Z-9.870 A126.9062 
N964 X-142.983 Y-1.201 Z-9.832 A124.7228 
N965 X-142.997 Y-1.574 Z-9.779 A122.5394 
N966 X-143.011 Y-1.946 Z-9.712 A120.3561 
N967 X-143.025 Y-2.314 Z-9.631 A118.1727 
N968 X-143.039 Y-2.680 Z-9.535 A115.9894 
N969 X-143.053 Y-3.041 Z-9.426 A113.8062 
N970 X-143.067 Y-3.398 Z-9.303 A111.6230 
N971 X-143.081 Y-3.750 Z-9.167 A109.4398 
N972 X-143.095 Y-4.096 Z-9.017 A107.2567 
N973 X-143.110 Y-4.437 Z-8.854 A105.0736 
N974 X-143.124 Y-4.771 Z-8.679 A102.8906 
N975 X-143.138 Y-5.098 Z-8.490 A100.7077 
N976 X-143.152 Y-5.418 Z-8.290 A98.5249 
N977 X-143.166 Y-5.730 Z-8.077 A96.3422 
N978 X-143.180 Y-6.033 Z-7.852 A94.1595 
N979 X-143.194 Y-6.328 Z-7.617 A91.9769 
N980 X-143.209 Y-6.614 Z-7.370 A89.7941 
N981 X-143.223 Y-6.890 Z-7.112 A87.6112 
N982 X-143.237 Y-7.157 Z-6.845 A85.4280 
N983 X-143.251 Y-7.413 Z-6.567 A83.2444 
N984 X-143.265 Y-7.658 Z-6.280 A81.0605 
N985 X-143.279 Y-7.893 Z-5.984 A78.8763 
N986 X-143.293 Y-8.115 Z-5.679 A76.6917 
N987 X-143.308 Y-8.327 Z-5.367 A74.5067 
N988 X-143.322 Y-8.526 Z-5.046 A72.3215 
N989 X-143.336 Y-8.712 Z-4.718 A70.1362 
N990 X-143.350 Y-8.886 Z-4.383 A67.9509 
N991 X-143.364 Y-9.046 Z-4.042 A65.7659 
N992 X-143.378 Y-9.193 Z-3.695 A63.5813 
N993 X-143.392 Y-9.327 Z-3.343 A61.3973 
N994 X-143.407 Y-9.446 Z-2.985 A59.2149 
N995 X-143.421 Y-9.553 Z-2.623 A57.0327 
N996 X-143.435 Y-9.646 Z-2.257 A54.8503 
N997 X-143.449 Y-9.724 Z-1.888 A52.6679 
N998 X-143.463 Y-9.789 Z-1.516 A50.4854 
N999 X-143.478 Y-9.839 Z-1.142 A48.3029 
N1000 X-143.492 Y-9.875 Z-0.766 A46.1204 
N1001 X-143.506 Y-9.897 Z-0.389 A43.9378 
N1002 X-143.520 Y-9.904 Z-0.011 A41.7553 
N1003 X-143.535 Y-9.897 Z0.366 A39.5728 
N1004 X-143.549 Y-9.876 Z0.743 A37.3903 
N1005 X-143.563 Y-9.840 Z1.119 A35.2079 
N1006 X-143.577 Y-9.790 Z1.493 A33.0256 
N1007 X-143.591 Y-9.726 Z1.865 A30.8433 
N1008 X-143.606 Y-9.648 Z2.234 A28.6612 
N1009 X-143.620 Y-9.556 Z2.600 A26.4792 
N1010 X-143.634 Y-9.451 Z2.963 A24.2964 
N1011 X-143.648 Y-9.332 Z3.322 A22.1118 
N1012 X-143.663 Y-9.199 Z3.675 A19.9271 
N1013 X-143.677 Y-9.052 Z4.023 A17.7427 
N1014 X-143.691 Y-8.893 Z4.364 A15.5588 
N1015 X-143.705 Y-8.720 Z4.699 A13.3755 
N1016 X-143.719 Y-8.535 Z5.027 A11.1928 
N1017 X-143.734 Y-8.337 Z5.348 A9.0106 
N1018 X-143.748 Y-8.127 Z5.662 A6.8287 
N1019 X-143.762 Y-7.905 Z5.967 A4.6469 
N1020 X-143.776 Y-7.672 Z6.264 A2.4652 
N1021 X-143.791 Y-7.428 Z6.551 A0.2836 
N1022 X-143.805 Y-7.173 Z6.829 A358.1020 
N1023 X-143.819 Y-6.907 Z7.097 A355.9217 
N1024 X-143.833 Y-6.631 Z7.361 A353.6913 
N1025 X-143.857 Y-6.346 Z7.604 A351.5435 
N1026 X-143.914 Y-6.052 Z7.840 A349.3650 
N1027 X-143.982 Y-5.748 Z8.064 A347.1835 
N1028 X-144.051 Y-5.436 Z8.277 A345.0015 
N1029 X-144.119 Y-5.116 Z8.478 A342.8193 
N1030 X-144.186 Y-4.787 Z8.666 A340.6370 
N1031 X-144.252 Y-4.452 Z8.842 A338.4544 
N1032 X-144.317 Y-4.110 Z9.004 A336.2718 
N1033 X-144.381 Y-3.761 Z9.153 A334.0891 
N1034 X-144.443 Y-3.407 Z9.289 A331.9064 
N1035 X-144.504 Y-3.049 Z9.410 A329.7236 
N1036 X-144.564 Y-2.685 Z9.518 A327.5410 
N1037 X-144.622 Y-2.318 Z9.611 A325.3584 
N1038 X-144.678 Y-1.948 Z9.690 A323.1759 
N1039 X-144.733 Y-1.574 Z9.755 A320.9933 
N1040 X-144.785 Y-1.199 Z9.806 A318.8108 
N1041 X-144.835 Y-0.822 Z9.842 A316.6283 
N1042 X-144.883 Y-0.444 Z9.864 A314.4459 
N1043 X-144.929 Y-0.066 Z9.871 A312.2634 
N1044 X-144.972 Y0.312 Z9.864 A310.0810 
N1045 X-145.013 Y0.689 Z9.842 A307.8986 
N1046 X-145.051 Y1.065 Z9.807 A305.7163 
N1047 X-145.087 Y1.439 Z9.757 A303.5340 
N1048 X-145.119 Y1.811 Z9.693 A301.3517 
N1049 X-145.148 Y2.179 Z9.615 A299.1696 
N1050 X-145.174 Y2.545 Z9.524 A296.9874 
N1051 X-145.197 Y2.906 Z9.419 A294.8053 
N1052 X-145.216 Y3.262 Z9.301 A292.6233 
N1053 X-145.231 Y3.614 Z9.170 A290.4412 
N1054 X-145.242 Y3.960 Z9.027 A288.2592 
N1055 X-145.250 Y4.301 Z8.870 A286.0773 
N1056 X-145.258 Y4.635 Z8.701 A283.8955 
N1057 X-145.268 Y4.963 Z8.519 A281.7138 
N1058 X-145.278 Y5.283 Z8.324 A279.5326 
N1059 X-145.290 Y5.596 Z8.117 A277.3517 
N1060 X-145.301 Y5.900 Z7.899 A275.1711 
N1061 X-145.314 Y6.196 Z7.668 A272.9910 
N1062 X-145.327 Y6.483 Z7.427 A270.8111 
N1063 X-145.340 Y6.761 Z7.174 A268.6314 
N1064 X-145.353 Y7.029 Z6.912 A266.4518 
N1065 X-145.367 Y7.287 Z6.639 A264.2723 
N1066 X-145.381 Y7.534 Z6.357 A262.0929 
N1067 X-145.395 Y7.770 Z6.065 A259.9136 
N1068 X-145.409 Y7.995 Z5.765 A257.7346 
N1069 X-145.424 Y8.208 Z5.456 A255.5557 
N1070 X-145.439 Y8.410 Z5.139 A253.3769 
N1071 X-145.454 Y8.599 Z4.815 A251.1978 
N1072 X-145.470 Y8.776 Z4.484 A249.0181 
N1073 X-145.487 Y8.941 Z4.147 A246.8373 
N1074 X-145.504 Y9.093 Z3.803 A244.6553 
N1075 X-145.522 Y9.231 Z3.454 A242.4719 
N1076 X-145.541 Y9.357 Z3.099 A240.2874 
N1077 X-145.562 Y9.468 Z2.740 A238.1020 
N1078 X-145.578 Y9.565 Z2.378 A235.9167 
N1079 X-145.591 Y9.647 Z2.014 A233.7343 
N1080 X-145.600 Y9.717 Z1.646 A231.5534 
N1081 X-145.605 Y9.773 Z1.276 A229.3724 
N1082 X-145.607 Y9.815 Z0.904 A227.1912 
N1083 X-145.606 Y9.844 Z0.531 A225.0100 
N1084 X-145.602 Y9.859 Z0.157 A222.8287 
N1085 X-145.595 Y9.859 Z-0.217 A220.6473 
N1086 X-145.585 Y9.846 Z-0.591 A218.4659 
N1087 X-145.573 Y9.818 Z-0.963 A216.2845 
N1088 X-145.559 Y9.777 Z-1.335 A214.1031 
N1089 X-145.542 Y9.721 Z-1.704 A211.9218 
N1090 X-145.522 Y9.652 Z-2.072 A209.7405 
N1091 X-145.501 Y9.569 Z-2.436 A207.5594 
N1092 X-145.478 Y9.473 Z-2.797 A205.3784 
N1093 X-145.453 Y9.363 Z-3.154 A203.1975 
N1094 X-145.426 Y9.239 Z-3.508 A201.0167 
N1095 X-145.398 Y9.103 Z-3.857 A198.8340 
N1096 X-145.368 Y8.954 Z-4.201 A196.6497 
N1097 X-145.337 Y8.791 Z-4.538 A194.4651 
N1098 X-145.305 Y8.615 Z-4.870 A192.2803 
N1099 X-145.272 Y8.427 Z-5.194 A190.0953 
N1100 X-145.237 Y8.226 Z-5.511 A187.9103 
N1101 X-145.202 Y8.013 Z-5.820 A185.7257 
N1102 X-145.166 Y7.788 Z-6.120 A183.5415 
N1103 X-145.130 Y7.551 Z-6.412 A181.3577 
N1104 X-145.093 Y7.303 Z-6.695 A179.1744 
N1105 X-145.056 Y7.044 Z-6.967 A176.9916 
N1106 X-145.018 Y6.774 Z-7.230 A174.8092 
N1107 X-144.981 Y6.494 Z-7.483 A172.6272 
N1108 X-144.944 Y6.204 Z-7.724 A170.4456 
N1109 X-144.906 Y5.904 Z-7.954 A168.2641 
N1110 X-144.870 Y5.596 Z-8.173 A166.0827 
N1111 X-144.833 Y5.279 Z-8.379 A163.9013 
N1112 X-144.797 Y4.954 Z-8.573 A161.7197 
N1113 X-144.762 Y4.622 Z-8.755 A159.5381 
N1114 X-144.728 Y4.283 Z-8.924 A157.3563 
N1115 X-144.695 Y3.937 Z-9.079 A155.1745 
N1116 X-144.662 Y3.586 Z-9.221 A152.9926 
N1117 X-144.631 Y3.230 Z-9.349 A150.8107 
N1118 X-144.601 Y2.868 Z-9.464 A148.6287 
N1119 X-144.573 Y2.503 Z-9.564 A146.4467 
N1120 X-144.546 Y2.134 Z-9.650 A144.2647 
N1121 X-144.521 Y1.762 Z-9.722 A142.0826 
N1122 X-144.498 Y1.388 Z-9.780 A139.9006 
N1123 X-144.476 Y1.012 Z-9.823 A137.7186 
N1124 X-144.457 Y0.634 Z-9.852 A135.5366 
N1125 X-144.440 Y0.256 Z-9.866 A133.3546 
N1126 X-144.425 Y-0.122 Z-9.866 A131.1727 
N1127 X-144.413 Y-0.499 Z-9.852 A128.9908 
N1128 X-144.403 Y-0.876 Z-9.824 A126.8090 
N1129 X-144.396 Y-1.251 Z-9.781 A124.6272 
N1130 X-144.392 Y-1.624 Z-9.724 A122.4455 
N1131 X-144.391 Y-1.994 Z-9.653 A120.2638 
N1132 X-144.393 Y-2.360 Z-9.569 A118.0822 
N1133 X-144.398 Y-2.724 Z-9.471 A115.9008 
N1134 X-144.407 Y-3.082 Z-9.360 A113.7194 
N1135 X-144.419 Y-3.437 Z-9.235 A111.5381 
N1136 X-144.435 Y-3.785 Z-9.098 A109.3570 
N1137 X-144.455 Y-4.129 Z-8.948 A107.1761 
N1138 X-144.474 Y-4.466 Z-8.784 A104.9953 
N1139 X-144.492 Y-4.797 Z-8.608 A102.8148 
N1140 X-144.509 Y-5.121 Z-8.419 A100.6345 
N1141 X-144.525 Y-5.438 Z-8.218 A98.4546 
N1142 X-144.540 Y-5.746 Z-8.005 A96.2749 
N1143 X-144.555 Y-6.047 Z-7.780 A94.0956 
N1144 X-144.569 Y-6.339 Z-7.544 A91.9163 
N1145 X-144.583 Y-6.621 Z-7.297 A89.7368 
N1146 X-144.596 Y-6.894 Z-7.039 A87.5570 
N1147 X-144.609 Y-7.158 Z-6.772 A85.3765 
N1148 X-144.622 Y-7.411 Z-6.494 A83.1952 
N1149 X-144.634 Y-7.653 Z-6.207 A81.0131 
N1150 X-144.646 Y-7.884 Z-5.912 A78.8301 
N1151 X-144.658 Y-8.104 Z-5.607 A76.6464 
N1152 X-144.669 Y-8.313 Z-5.295 A74.4619 
N1153 X-144.680 Y-8.509 Z-4.974 A72.2767 
N1154 X-144.690 Y-8.692 Z-4.646 A70.0911 
N1155 X-144.699 Y-8.863 Z-4.312 A67.9057 
N1156 X-144.707 Y-9.021 Z-3.971 A65.7211 
N1157 X-144.714 Y-9.165 Z-3.624 A63.5374 
N1158 X-144.719 Y-9.294 Z-3.273 A61.3552 
N1159 X-144.729 Y-9.411 Z-2.916 A59.1751 
N1160 X-144.743 Y-9.515 Z-2.556 A56.9950 
N1161 X-144.760 Y-9.605 Z-2.192 A54.8148 
N1162 X-144.781 Y-9.682 Z-1.826 A52.6343 
N1163 X-144.805 Y-9.745 Z-1.457 A50.4537 
N1164 X-144.833 Y-9.795 Z-1.086 A48.2730 
N1165 X-144.864 Y-9.830 Z-0.714 A46.0922 
N1166 X-144.897 Y-9.852 Z-0.340 A43.9113 
N1167 X-144.934 Y-9.859 Z0.033 A41.7304 
N1168 X-144.973 Y-9.853 Z0.407 A39.5495 
N1169 X-145.015 Y-9.833 Z0.779 A37.3685 
N1170 X-145.060 Y-9.799 Z1.151 A35.1876 
N1171 X-145.106 Y-9.751 Z1.521 A33.0068 
N1172 X-145.155 Y-9.689 Z1.889 A30.8260 
N1173 X-145.206 Y-9.614 Z2.255 A28.6453 
N1174 X-145.260 Y-9.524 Z2.617 A26.4647 
N1175 X-145.315 Y-9.422 Z2.978 A24.2830 
N1176 X-145.372 Y-9.306 Z3.334 A22.0988 
N1177 X-145.430 Y-9.177 Z3.685 A19.9145 
N1178 X-145.490 Y-9.033 Z4.030 A17.7306 
N1179 X-145.552 Y-8.877 Z4.370 A15.5472 
N1180 X-145.615 Y-8.707 Z4.704 A13.3646 
N1181 X-145.680 Y-8.525 Z5.031 A11.1827 
N1182 X-145.745 Y-8.329 Z5.351 A9.0013 
N1183 X-145.812 Y-8.122 Z5.663 A6.8204 
N1184 X-145.880 Y-7.902 Z5.968 A4.6395 
N1185 X-145.948 Y-7.670 Z6.264 A2.4587 
N1186 X-146.017 Y-7.427 Z6.552 A0.2779 
N1187 X-146.085 Y-7.173 Z6.830 A358.0970 
N1188 X-146.143 Y-6.907 Z7.098 A355.9168 
N1189 X-146.167 Y-6.631 Z7.361 A353.6913 
N1190 X-146.190 Y-6.346 Z7.604 A351.5432 
N1191 X-146.248 Y-6.052 Z7.840 A349.3636 
N1192 X-146.315 Y-5.748 Z8.065 A347.1809 
N1193 X-146.384 Y-5.436 Z8.278 A344.9975 
N1194 X-146.452 Y-5.115 Z8.479 A342.8140 
N1195 X-146.519 Y-4.787 Z8.667 A340.6303 
N1196 X-146.586 Y-4.451 Z8.843 A338.4463 
N1197 X-146.651 Y-4.108 Z9.005 A336.2623 
N1198 X-146.715 Y-3.760 Z9.154 A334.0781 
N1199 X-146.777 Y-3.406 Z9.289 A331.8939 
N1200 X-146.839 Y-3.047 Z9.411 A329.7098 
N1201 X-146.898 Y-2.683 Z9.519 A327.5256 
N1202 X-146.956 Y-2.315 Z9.612 A325.3415 
N1203 X-147.012 Y-1.945 Z9.691 A323.1574 
N1204 X-147.067 Y-1.571 Z9.756 A320.9734 
N1205 X-147.119 Y-1.195 Z9.806 A318.7893 
N1206 X-147.170 Y-0.818 Z9.842 A316.6053 
N1207 X-147.218 Y-0.440 Z9.864 A314.4212 
N1208 X-147.264 Y-0.061 Z9.871 A312.2372 
N1209 X-147.307 Y0.317 Z9.864 A310.0532 
N1210 X-147.348 Y0.694 Z9.842 A307.8692 
N1211 X-147.386 Y1.071 Z9.806 A305.6852 
N1212 X-147.421 Y1.445 Z9.756 A303.5013 
N1213 X-147.453 Y1.817 Z9.692 A301.3174 
N1214 X-147.483 Y2.186 Z9.614 A299.1336 
N1215 X-147.509 Y2.551 Z9.522 A296.9499 
N1216 X-147.531 Y2.912 Z9.417 A294.7661 
N1217 X-147.550 Y3.269 Z9.299 A292.5824 
N1218 X-147.566 Y3.621 Z9.168 A290.3987 
N1219 X-147.577 Y3.967 Z9.024 A288.2150 
N1220 X-147.584 Y4.308 Z8.867 A286.0314 
N1221 X-147.593 Y4.642 Z8.697 A283.8479 
N1222 X-147.602 Y4.970 Z8.514 A281.6646 
N1223 X-147.613 Y5.290 Z8.319 A279.4817 
N1224 X-147.624 Y5.603 Z8.112 A277.2991 
N1225 X-147.636 Y5.908 Z7.893 A275.1169 
N1226 X-147.648 Y6.204 Z7.662 A272.9350 
N1227 X-147.661 Y6.491 Z7.420 A270.7535 
N1228 X-147.674 Y6.769 Z7.167 A268.5720 
N1229 X-147.687 Y7.036 Z6.904 A266.3907 
N1230 X-147.701 Y7.294 Z6.631 A264.2095 
N1231 X-147.715 Y7.541 Z6.348 A262.0284 
N1232 X-147.729 Y7.777 Z6.056 A259.8475 
N1233 X-147.743 Y8.002 Z5.755 A257.6667 
N1234 X-147.758 Y8.215 Z5.446 A255.4862 
N1235 X-147.773 Y8.416 Z5.129 A253.3056 
N1236 X-147.788 Y8.605 Z4.804 A251.1248 
N1237 X-147.804 Y8.782 Z4.473 A248.9433 
N1238 X-147.820 Y8.946 Z4.135 A246.7608 
N1239 X-147.838 Y9.098 Z3.791 A244.5770 
N1240 X-147.856 Y9.236 Z3.441 A242.3919 
N1241 X-147.875 Y9.361 Z3.086 A240.2056 
N1242 X-147.895 Y9.472 Z2.726 A238.0184 
N1243 X-147.912 Y9.568 Z2.364 A235.8315 
N1244 X-147.924 Y9.650 Z1.999 A233.6475 
N1245 X-147.933 Y9.719 Z1.631 A231.4649 
N1246 X-147.938 Y9.775 Z1.260 A229.2822 
N1247 X-147.940 Y9.817 Z0.888 A227.0993 
N1248 X-147.939 Y9.845 Z0.515 A224.9164 
N1249 X-147.935 Y9.859 Z0.141 A222.7334 
N1250 X-147.928 Y9.859 Z-0.234 A220.5503 
N1251 X-147.918 Y9.845 Z-0.608 A218.3672 
N1252 X-147.906 Y9.817 Z-0.981 A216.1841 
N1253 X-147.891 Y9.774 Z-1.352 A214.0010 
N1254 X-147.874 Y9.718 Z-1.722 A211.8180 
N1255 X-147.855 Y9.649 Z-2.089 A209.6350 
N1256 X-147.833 Y9.565 Z-2.454 A207.4522 
N1257 X-147.810 Y9.467 Z-2.815 A205.2695 
N1258 X-147.785 Y9.357 Z-3.172 A203.0870 
N1259 X-147.758 Y9.233 Z-3.526 A200.9044 
N1260 X-147.730 Y9.096 Z-3.875 A198.7199 
N1261 X-147.700 Y8.945 Z-4.219 A196.5339 
N1262 X-147.669 Y8.782 Z-4.556 A194.3477 
N1263 X-147.637 Y8.605 Z-4.888 A192.1611 
N1264 X-147.603 Y8.416 Z-5.212 A189.9744 
N1265 X-147.569 Y8.214 Z-5.528 A187.7878 
N1266 X-147.533 Y8.001 Z-5.837 A185.6016 
N1267 X-147.497 Y7.775 Z-6.137 A183.4157 
N1268 X-147.461 Y7.537 Z-6.429 A181.2303 
N1269 X-147.424 Y7.288 Z-6.711 A179.0454 
N1270 X-147.387 Y7.028 Z-6.983 A176.8610 
N1271 X-147.349 Y6.757 Z-7.246 A174.6771 
N1272 X-147.312 Y6.476 Z-7.498 A172.4935 
N1273 X-147.274 Y6.185 Z-7.738 A170.3103 
N1274 X-147.237 Y5.885 Z-7.968 A168.1272 
N1275 X-147.200 Y5.576 Z-8.186 A165.9443 
N1276 X-147.164 Y5.258 Z-8.392 A163.7613 
N1277 X-147.128 Y4.933 Z-8.586 A161.5782 
N1278 X-147.093 Y4.600 Z-8.766 A159.3950 
N1279 X-147.059 Y4.260 Z-8.934 A157.2117 
N1280 X-147.025 Y3.914 Z-9.089 A155.0283 
N1281 X-146.993 Y3.562 Z-9.230 A152.8450 
N1282 X-146.962 Y3.205 Z-9.357 A150.6616 
N1283 X-146.932 Y2.843 Z-9.471 A148.4782 
N1284 X-146.904 Y2.477 Z-9.570 A146.2948 
N1285 X-146.877 Y2.107 Z-9.655 A144.1114 
N1286 X-146.852 Y1.735 Z-9.726 A141.9280 
N1287 X-146.829 Y1.360 Z-9.783 A139.7446 
N1288 X-146.808 Y0.984 Z-9.825 A137.5613 
N1289 X-146.789 Y0.606 Z-9.853 A135.3780 
N1290 X-146.772 Y0.228 Z-9.866 A133.1948 
N1291 X-146.757 Y-0.150 Z-9.865 A131.0117 
N1292 X-146.745 Y-0.528 Z-9.850 A128.8287 
N1293 X-146.735 Y-0.905 Z-9.820 A126.6457 
N1294 X-146.728 Y-1.280 Z-9.776 A124.4629 
N1295 X-146.724 Y-1.652 Z-9.718 A122.2801 
N1296 X-146.723 Y-2.022 Z-9.646 A120.0976 
N1297 X-146.726 Y-2.389 Z-9.561 A117.9152 
N1298 X-146.731 Y-2.752 Z-9.461 A115.7332 
N1299 X-146.741 Y-3.111 Z-9.349 A113.5514 
N1300 X-146.755 Y-3.464 Z-9.223 A111.3697 
N1301 X-146.773 Y-3.813 Z-9.085 A109.1882 
N1302 X-146.795 Y-4.156 Z-8.933 A107.0069 
N1303 X-146.816 Y-4.493 Z-8.769 A104.8260 
N1304 X-146.836 Y-4.823 Z-8.592 A102.6456 
N1305 X-146.855 Y-5.147 Z-8.402 A100.4656 
N1306 X-146.874 Y-5.462 Z-8.200 A98.2863 
N1307 X-146.893 Y-5.770 Z-7.985 A96.1075 
N1308 X-146.911 Y-6.070 Z-7.760 A93.9292 
N1309 X-146.930 Y-6.361 Z-7.523 A91.7513 
N1310 X-146.949 Y-6.642 Z-7.275 A89.5736 
N1311 X-146.968 Y-6.914 Z-7.017 A87.3958 
N1312 X-146.987 Y-7.176 Z-6.748 A85.2177 
N1313 X-147.007 Y-7.428 Z-6.470 A83.0392 
N1314 X-147.027 Y-7.669 Z-6.183 A80.8602 
N1315 X-147.048 Y-7.899 Z-5.887 A78.6808 
N1316 X-147.069 Y-8.118 Z-5.582 A76.5009 
N1317 X-147.090 Y-8.325 Z-5.269 A74.3207 
N1318 X-147.112 Y-8.519 Z-4.949 A72.1401 
N1319 X-147.133 Y-8.702 Z-4.622 A69.9594 
N1320 X-147.155 Y-8.871 Z-4.288 A67.7792 
N1321 X-147.176 Y-9.027 Z-3.948 A65.6001 
N1322 X-147.196 Y-9.170 Z-3.602 A63.4224 
N1323 X-147.216 Y-9.299 Z-3.251 A61.2456 
N1324 X-147.239 Y-9.415 Z-2.896 A59.0699 
N1325 X-147.265 Y-9.518 Z-2.537 A56.8945 
N1326 X-147.295 Y-9.608 Z-2.175 A54.7187 
N1327 X-147.326 Y-9.685 Z-1.809 A52.5425 
N1328 X-147.360 Y-9.747 Z-1.442 A50.3660 
N1329 X-147.394 Y-9.797 Z-1.072 A48.1893 
N1330 X-147.431 Y-9.832 Z-0.701 A46.0126 
N1331 X-147.468 Y-9.854 Z-0.329 A43.8359 
N1332 X-147.505 Y-9.862 Z0.043 A41.6592 
N1333 X-147.544 Y-9.855 Z0.415 A39.4825 
N1334 X-147.583 Y-9.835 Z0.787 A37.3060 
N1335 X-147.623 Y-9.801 Z1.158 A35.1295 
N1336 X-147.664 Y-9.754 Z1.527 A32.9531 
N1337 X-147.706 Y-9.692 Z1.895 A30.7767 
N1338 X-147.748 Y-9.616 Z2.260 A28.6002 
N1339 X-147.792 Y-9.527 Z2.622 A26.4237 
N1340 X-147.837 Y-9.425 Z2.982 A24.2460 
N1341 X-147.882 Y-9.309 Z3.337 A22.0656 
N1342 X-147.929 Y-9.180 Z3.688 A19.8848 
N1343 X-147.977 Y-9.036 Z4.033 A17.7042 
N1344 X-148.025 Y-8.880 Z4.372 A15.5240 
N1345 X-148.075 Y-8.710 Z4.705 A13.3444 
N1346 X-148.126 Y-8.527 Z5.032 A11.1653 
N1347 X-148.178 Y-8.331 Z5.352 A8.9866 
N1348 X-148.231 Y-8.124 Z5.665 A6.8081 
N1349 X-148.284 Y-7.904 Z5.969 A4.6296 
N1350 X-148.339 Y-7.672 Z6.265 A2.4511 
N1351 X-148.393 Y-7.428 Z6.552 A0.2725 
N1352 X-148.447 Y-7.173 Z6.830 A358.0936 
N1353 X-148.491 Y-6.908 Z7.098 A355.9144 
N1354 X-148.500 Y-6.631 Z7.363 A353.6750 
N1355 X-148.500 Y-6.346 Z7.605 A351.5339 
N1356 X-148.500 Y-6.052 Z7.841 A349.3560 
N1357 X-148.500 Y-5.749 Z8.066 A347.1751 
N1358 X-148.500 Y-5.438 Z8.279 A344.9938 
N1359 X-148.500 Y-5.118 Z8.480 A342.8123 
N1360 X-148.500 Y-4.792 Z8.669 A340.6307 
N1361 X-148.500 Y-4.458 Z8.845 A338.4489 
N1362 X-148.500 Y-4.118 Z9.009 A336.2669 
N1363 X-148.500 Y-3.772 Z9.159 A334.0849 
N1364 X-148.500 Y-3.421 Z9.296 A331.9029 
N1365 X-148.500 Y-3.065 Z9.420 A329.7208 
N1366 X-148.500 Y-2.704 Z9.530 A327.5388 
N1367 X-148.500 Y-2.339 Z9.626 A325.3568 
N1368 X-148.500 Y-1.971 Z9.708 A323.1748 
N1369 X-148.500 Y-1.600 Z9.776 A320.9927 
N1370 X-148.500 Y-1.227 Z9.830 A318.8107 
N1371 X-148.500 Y-0.852 Z9.870 A316.6287 
N1372 X-148.500 Y-0.476 Z9.896 A314.4466 
N1373 X-148.500 Y-0.099 Z9.907 A312.2645 
N1374 X-148.500 Y0.279 Z9.903 A310.0824 
N1375 X-148.500 Y0.655 Z9.886 A307.9003 
N1376 X-148.500 Y1.031 Z9.854 A305.7182 
N1377 X-148.500 Y1.405 Z9.807 A303.5361 
N1378 X-148.500 Y1.778 Z9.747 A301.3541 
N1379 X-148.500 Y2.147 Z9.672 A299.1720 
N1380 X-148.500 Y2.514 Z9.584 A296.9899 
N1381 X-148.500 Y2.877 Z9.481 A294.8079 
N1382 X-148.500 Y3.236 Z9.365 A292.6258 
N1383 X-148.500 Y3.590 Z9.235 A290.4437 
N1384 X-148.500 Y3.939 Z9.092 A288.2616 
N1385 X-148.500 Y4.282 Z8.935 A286.0795 
N1386 X-148.500 Y4.619 Z8.766 A283.8974 
N1387 X-148.500 Y4.949 Z8.584 A281.7154 
N1388 X-148.500 Y5.272 Z8.389 A279.5335 
N1389 X-148.500 Y5.587 Z8.182 A277.3518 
N1390 X-148.500 Y5.895 Z7.963 A275.1702 
N1391 X-148.500 Y6.193 Z7.733 A272.9888 
N1392 X-148.500 Y6.483 Z7.491 A270.8074 
N1393 X-148.500 Y6.763 Z7.239 A268.6261 
N1394 X-148.500 Y7.034 Z6.976 A266.4448 
N1395 X-148.500 Y7.294 Z6.703 A264.2636 
N1396 X-148.500 Y7.544 Z6.420 A262.0824 
N1397 X-148.500 Y7.783 Z6.128 A259.9012 
N1398 X-148.500 Y8.010 Z5.827 A257.7201 
N1399 X-148.500 Y8.226 Z5.518 A255.5389 
N1400 X-148.500 Y8.430 Z5.201 A253.3578 
N1401 X-148.500 Y8.622 Z4.876 A251.1765 
N1402 X-148.500 Y8.802 Z4.544 A248.9949 
N1403 X-148.500 Y8.969 Z4.206 A246.8129 
N1404 X-148.500 Y9.124 Z3.861 A244.6303 
N1405 X-148.500 Y9.265 Z3.511 A242.4471 
N1406 X-148.500 Y9.393 Z3.156 A240.2635 
N1407 X-148.500 Y9.506 Z2.796 A238.0795 
N1408 X-148.500 Y9.605 Z2.433 A235.8955 
N1409 X-148.500 Y9.689 Z2.067 A233.7138 
N1410 X-148.500 Y9.761 Z1.697 A231.5331 
N1411 X-148.500 Y9.818 Z1.324 A229.3524 
N1412 X-148.500 Y9.861 Z0.949 A227.1716 
N1413 X-148.500 Y9.890 Z0.573 A224.9907 
N1414 X-148.500 Y9.904 Z0.196 A222.8097 
N1415 X-148.500 Y9.904 Z-0.181 A220.6287 
N1416 X-148.500 Y9.889 Z-0.559 A218.4477 
N1417 X-148.500 Y9.861 Z-0.935 A216.2666 
N1418 X-148.500 Y9.817 Z-1.310 A214.0856 
N1419 X-148.500 Y9.760 Z-1.683 A211.9046 
N1420 X-148.500 Y9.688 Z-2.053 A209.7237 
N1421 X-148.500 Y9.603 Z-2.421 A207.5428 
N1422 X-148.500 Y9.503 Z-2.785 A205.3621 
N1423 X-148.500 Y9.390 Z-3.144 A203.1814 
N1424 X-148.500 Y9.264 Z-3.500 A201.0008 
N1425 X-148.500 Y9.125 Z-3.852 A198.8187 
N1426 X-148.500 Y8.972 Z-4.197 A196.6354 
N1427 X-148.500 Y8.806 Z-4.536 A194.4520 
N1428 X-148.500 Y8.628 Z-4.868 A192.2683 
N1429 X-148.500 Y8.437 Z-5.194 A190.0844 
N1430 X-148.500 Y8.234 Z-5.511 A187.9006 
N1431 X-148.500 Y8.019 Z-5.820 A185.7170 
N1432 X-148.500 Y7.792 Z-6.121 A183.5338 
N1433 X-148.500 Y7.554 Z-6.413 A181.3509 
N1434 X-148.500 Y7.304 Z-6.695 A179.1683 
N1435 X-148.500 Y7.044 Z-6.968 A176.9862 
N1436 X-148.500 Y6.774 Z-7.231 A174.8043 
N1437 X-148.500 Y6.494 Z-7.483 A172.6228 
N1438 X-148.500 Y6.204 Z-7.724 A170.4415 
N1439 X-148.500 Y5.906 Z-7.955 A168.2604 
N1440 X-148.500 Y5.598 Z-8.174 A166.0793 
N1441 X-148.500 Y5.283 Z-8.381 A163.8981 
N1442 X-148.500 Y4.960 Z-8.576 A161.7169 
N1443 X-148.500 Y4.629 Z-8.758 A159.5356 
N1444 X-148.500 Y4.292 Z-8.928 A157.3542 
N1445 X-148.500 Y3.949 Z-9.085 A155.1727 
N1446 X-148.500 Y3.600 Z-9.228 A152.9912 
N1447 X-148.500 Y3.246 Z-9.359 A150.8096 
N1448 X-148.500 Y2.887 Z-9.475 A148.6280 
N1449 X-148.500 Y2.524 Z-9.578 A146.4463 
N1450 X-148.500 Y2.158 Z-9.667 A144.2646 
N1451 X-148.500 Y1.788 Z-9.743 A142.0828 
N1452 X-148.500 Y1.416 Z-9.804 A139.9011 
N1453 X-148.500 Y1.042 Z-9.850 A137.7193 
N1454 X-148.500 Y0.666 Z-9.883 A135.5375 
N1455 X-148.500 Y0.289 Z-9.901 A133.3557 
N1456 X-148.500 Y-0.088 Z-9.905 A131.1739 
N1457 X-148.500 Y-0.465 Z-9.894 A128.9921 
N1458 X-148.500 Y-0.841 Z-9.869 A126.8103 
N1459 X-148.500 Y-1.217 Z-9.830 A124.6285 
N1460 X-148.500 Y-1.590 Z-9.777 A122.4467 
N1461 X-148.500 Y-1.961 Z-9.709 A120.2650 
N1462 X-148.500 Y-2.329 Z-9.627 A118.0832 
N1463 X-148.500 Y-2.694 Z-9.532 A115.9015 
N1464 X-148.500 Y-3.055 Z-9.422 A113.7198 
N1465 X-148.500 Y-3.411 Z-9.299 A111.5382 
N1466 X-148.500 Y-3.763 Z-9.162 A109.3566 
N1467 X-148.500 Y-4.109 Z-9.012 A107.1751 
N1468 X-148.500 Y-4.449 Z-8.849 A104.9937 
N1469 X-148.500 Y-4.783 Z-8.673 A102.8123 
N1470 X-148.500 Y-5.109 Z-8.484 A100.6310 
N1471 X-148.500 Y-5.429 Z-8.283 A98.4498 
N1472 X-148.500 Y-5.740 Z-8.070 A96.2686 
N1473 X-148.500 Y-6.043 Z-7.845 A94.0876 
N1474 X-148.500 Y-6.338 Z-7.609 A91.9066 
N1475 X-148.500 Y-6.623 Z-7.362 A89.7254 
N1476 X-148.500 Y-6.899 Z-7.105 A87.5441 
N1477 X-148.500 Y-7.165 Z-6.837 A85.3625 
N1478 X-148.500 Y-7.420 Z-6.560 A83.1805 
N1479 X-148.500 Y-7.665 Z-6.272 A80.9982 
N1480 X-148.500 Y-7.899 Z-5.976 A78.8155 
N1481 X-148.500 Y-8.121 Z-5.672 A76.6325 
N1482 X-148.500 Y-8.332 Z-5.359 A74.4492 
N1483 X-148.500 Y-8.531 Z-5.038 A72.2656 
N1484 X-148.500 Y-8.717 Z-4.710 A70.0818 
N1485 X-148.500 Y-8.890 Z-4.376 A67.8981 
N1486 X-148.500 Y-9.050 Z-4.034 A65.7147 
N1487 X-148.500 Y-9.197 Z-3.687 A63.5317 
N1488 X-148.500 Y-9.330 Z-3.335 A61.3492 
N1489 X-148.500 Y-9.449 Z-2.978 A59.1685 
N1490 X-148.500 Y-9.555 Z-2.617 A56.9878 
N1491 X-148.500 Y-9.648 Z-2.251 A54.8070 
N1492 X-148.500 Y-9.726 Z-1.882 A52.6261 
N1493 X-148.500 Y-9.791 Z-1.510 A50.4452 
N1494 X-148.500 Y-9.841 Z-1.136 A48.2642 
N1495 X-148.500 Y-9.876 Z-0.760 A46.0832 
N1496 X-148.500 Y-9.898 Z-0.383 A43.9022 
N1497 X-148.500 Y-9.905 Z-0.006 A41.7212 
N1498 X-148.500 Y-9.898 Z0.371 A39.5402 
N1499 X-148.500 Y-9.876 Z0.748 A37.3592 
N1500 X-148.500 Y-9.840 Z1.123 A35.1783 
N1501 X-148.500 Y-9.790 Z1.497 A32.9975 
N1502 X-148.500 Y-9.726 Z1.869 A30.8168 
N1503 X-148.500 Y-9.648 Z2.238 A28.6361 
N1504 X-148.500 Y-9.555 Z2.603 A26.4555 
N1505 X-148.500 Y-9.450 Z2.967 A24.2742 
N1506 X-148.500 Y-9.331 Z3.325 A22.0910 
N1507 X-148.500 Y-9.198 Z3.678 A19.9077 
N1508 X-148.500 Y-9.052 Z4.025 A17.7247 
N1509 X-148.500 Y-8.892 Z4.366 A15.5422 
N1510 X-148.500 Y-8.720 Z4.701 A13.3603 
N1511 X-148.500 Y-8.534 Z5.029 A11.1790 
N1512 X-148.500 Y-8.337 Z5.350 A8.9981 
N1513 X-148.500 Y-8.127 Z5.663 A6.8175 
N1514 X-148.500 Y-7.905 Z5.968 A4.6371 
N1515 X-148.500 Y-7.672 Z6.265 A2.4567 
N1516 X-148.500 Y-7.428 Z6.552 A0.2763 
N1517 X-148.500 Y-7.173 Z6.830 A358.0960 
N1518 X-148.500 Y-6.907 Z7.098 A355.9167 
N1519 X-148.500 Y-6.632 Z7.351 A353.7718 
N1520 X-148.500 Y-5.070 Z7.427 
N1521 X-148.500 Y-3.607 Z7.982 
N1522 X-148.500 Y-2.388 Z8.961 
N1523 X-148.500 Y-1.530 Z10.270 
N1524 X-148.500 Y-1.119 Z11.779 
N1525 G00 X-148.500 Y7.017 Z86.336 
N1526 TRANS
;RAPORT("T09_TEST","Spiral Finish Airfoil:101 End")
;trailer : concat=None
; points cnt = 1491
N1527 M9 ; chlodziwo wyl.
N1528 MSG (" --- KONIEC PODPROGRAMU --- ")
N1529 FGROUP()
N1530 TRAFOOF
N1531 STOPRE
N1532 G0 G53 D0 Z550.0 M9 M5
N1533 G0 G53 Y150 A0 B0
N1534 M17
