; PROGRAM NAME: A33333313
; ORDER       : A333333
; OPER. NAME  : Spiral Rough Airfoil:104
; OPER. DESCR.: spiral roughing airfoil/pioro zgr
; OPER. TYPE  : rouAirfoil
; GEO. OPTION : 6
; MACHINE     : HSTM_300_SIM840D_Py
;             : HSTM300/500 - HAMUEL: 5-axis milling machine-SIM840D Traori PP_Script
; CONTROL     : SINUMERIK 840D
; created:   2021-09-10 08:42:26.075736
;----------------------------------------
RAPORT("TA333333","Spiral Rough Airfoil:104")
N10 TRAFOOF
N11 D0
N12 G90 G94
N13 G0 G53 D0 Z550
N14 STOPRE
M9 ; chlodziwo wyl
; --- Spiral Rough Airfoil:104 - spiral roughing airfoil/pioro zgr ---
N16 ;ToolChange : concat=None ,current_tdmid=None, PP.tdmId=941291
N17 TRAFOOF
N18 G0 G53 D0 X-200 Y150 Z550 B0
N19 T="7741291"
RAPORT("TA333333","ToolChangeStart 7741291")
N20 M6
RAPORT("TA333333","ToolChangeEnd")
N21 STOPRE
N22 MSG(" TLID=941291 D=50.0 R=6.0 Ang=0.0 Len=90.0 ")
N23 S1718 M03
N24 STOPRE
N25 TOL(0.1,1,1)
N26 G0 G53 A90.9437 B-0.0000
N27 TRAORI
N28 G54 D1
N29 D1 
N30 ; DELTA A > 40.1
N31 TRAFOOF
N32 D1
N33 STOPRE
N34 G00 G54 Z296.000
N35 G01 A90.9437 F10000
N36 TRAORI
N37 G54 D1
N38 STOPRE
N39 TRANS 
N40 G00 X-256.077 Y-110.318 Z51.788 A90.9437 
N41 M346 ; chlodziwo mgla
N42 X-256.077 Y-60.325 Z52.612 
N43 G01 X-256.077 Y-57.235 Z52.119 F2834 
N44 X-256.077 Y-54.449 Z50.696 
N45 X-256.077 Y-52.239 Z48.482 
N46 X-256.077 Y-50.821 Z45.693 
N47 X-256.077 Y-50.335 Z42.602 
N48 X-256.077 Y-50.370 Z38.125 A91.0366 
N49 X-256.077 Y-50.387 Z33.722 A91.0875 
N50 X-256.077 Y-50.360 Z29.465 A90.9723 
N51 X-256.077 Y-50.379 Z25.407 
N52 X-256.077 Y-50.405 Z21.604 A90.9970 
N53 X-256.077 Y-50.432 Z18.100 A91.0318 
N54 X-256.077 Y-50.449 Z14.922 A91.0373 
N55 X-256.077 Y-50.454 Z12.084 A91.0115 
N56 X-256.077 Y-50.456 Z9.590 A90.9723 
N57 X-256.077 Y-50.471 Z7.429 
N58 X-256.077 Y-50.484 Z5.571 
N59 X-256.077 Y-50.585 Z4.007 A91.2599 
N60 X-256.077 Y-50.815 Z2.697 A91.9738 
N61 X-256.077 Y-51.259 Z1.603 A93.3864 
N62 X-256.077 Y-51.983 Z0.666 A95.7150 
N63 X-256.077 Y-52.999 Z-0.181 A99.0179 
N64 X-256.077 Y-54.223 Z-1.006 A103.0604 
N65 X-256.077 Y-55.512 Z-1.839 A107.4202 
N66 X-256.077 Y-56.728 Z-2.672 A111.6713 
N67 X-256.077 Y-57.822 Z-3.492 A115.6456 
N68 X-256.077 Y-58.793 Z-4.292 A119.3245 
N69 X-256.077 Y-59.651 Z-5.068 A122.7163 
N70 X-256.077 Y-60.401 Z-5.817 A125.8309 
N71 X-256.077 Y-61.060 Z-6.540 A128.7078 
N72 X-256.077 Y-61.650 Z-7.251 A131.4265 
N73 X-256.077 Y-62.191 Z-7.964 A134.0610 
N74 X-256.077 Y-62.691 Z-8.690 A136.6540 
N75 X-256.077 Y-63.158 Z-9.440 A139.2568 
N76 X-256.077 Y-63.603 Z-10.235 A141.9362 
N77 X-256.077 Y-64.026 Z-11.091 A144.7462 
N78 X-256.077 Y-64.424 Z-12.025 A147.7294 
N79 X-256.077 Y-64.796 Z-13.069 A150.9804 
N80 X-256.077 Y-65.133 Z-14.262 A154.6124 
N81 X-256.077 Y-65.402 Z-15.623 A158.6656 
N82 X-256.077 Y-65.544 Z-17.107 A162.9931 
N83 X-256.077 Y-65.495 Z-18.610 A167.2935 
N84 X-256.077 Y-65.218 Z-20.024 A171.2793 
N85 X-256.077 Y-64.702 Z-21.257 A174.7323 
N86 X-256.077 Y-63.946 Z-22.240 A177.4783 
N87 X-256.077 Y-62.954 Z-22.935 A179.4325 
N88 X-256.077 Y-61.719 Z-23.347 A180.6067 
N89 X-256.077 Y-60.222 Z-23.533 A181.1557 
N90 X-256.077 Y-58.434 Z-23.578 A181.3062 
N91 X-256.077 Y-56.324 Z-23.562 A181.2787 
N92 X-256.077 Y-53.866 Z-23.539 A181.2202 
N93 X-256.077 Y-51.045 Z-23.532 A181.2033 
N94 X-256.077 Y-47.853 Z-23.534 
N95 X-256.077 Y-44.296 Z-23.536 
N96 X-256.077 Y-40.398 Z-23.538 A181.2045 
N97 X-256.077 Y-36.194 Z-23.541 A181.2075 
N98 X-256.077 Y-31.732 Z-23.543 A181.2081 
N99 X-256.077 Y-27.073 Z-23.545 
N100 X-256.077 Y-22.286 Z-23.546 A181.2080 
N101 X-256.077 Y-17.448 Z-23.548 A181.2086 
N102 X-256.077 Y-12.636 Z-23.550 A181.2112 
N103 X-256.077 Y-7.930 Z-23.554 A181.2171 
N104 X-256.077 Y-3.400 Z-23.559 A181.2283 
N105 X-256.077 Y0.888 Z-23.566 A181.2472 
N106 X-256.077 Y4.883 Z-23.575 A181.2725 
N107 X-256.077 Y8.546 Z-23.583 A181.2983 
N108 X-256.077 Y11.851 Z-23.585 A181.3036 
N109 X-256.077 Y14.786 Z-23.580 A181.2805 
N110 X-256.077 Y17.356 Z-23.560 A181.2035 
N111 X-256.077 Y19.565 Z-23.568 A181.2033 
N112 X-256.077 Y21.457 Z-23.576 
N113 X-256.077 Y23.049 Z-23.681 A181.5159 
N114 X-256.077 Y24.376 Z-23.944 A182.3470 
N115 X-256.077 Y25.482 Z-24.408 A183.8406 
N116 X-256.077 Y26.423 Z-25.099 A186.0910 
N117 X-256.077 Y27.262 Z-26.029 A189.1399 
N118 X-256.077 Y28.066 Z-27.172 A192.9315 
N119 X-256.077 Y28.886 Z-28.452 A197.2515 
N120 X-256.077 Y29.737 Z-29.741 A201.7235 
N121 X-256.077 Y30.586 Z-30.910 A205.9444 
N122 X-256.077 Y31.402 Z-31.911 A209.7294 
N123 X-256.077 Y32.178 Z-32.765 A213.1180 
N124 X-256.077 Y32.924 Z-33.511 A216.2191 
N125 X-256.077 Y33.651 Z-34.174 A219.1184 
N126 X-256.077 Y34.366 Z-34.767 A221.8534 
N127 X-256.077 Y35.077 Z-35.305 A224.4814 
N128 X-256.077 Y35.801 Z-35.803 A227.0715 
N129 X-256.077 Y36.550 Z-36.269 A229.6727 
N130 X-256.077 Y37.336 Z-36.708 A232.3256 
N131 X-256.077 Y38.180 Z-37.125 A235.0978 
N132 X-256.077 Y39.104 Z-37.522 A238.0577 
N133 X-256.077 Y40.121 Z-37.888 A241.2350 
N134 X-256.077 Y41.238 Z-38.206 A244.6391 
N135 X-256.077 Y42.463 Z-38.453 A248.2892 
N136 X-256.077 Y43.796 Z-38.602 A252.1897 
N137 X-256.077 Y45.211 Z-38.617 A256.2683 
N138 X-256.077 Y46.606 Z-38.453 A260.2442 
N139 X-256.077 Y47.851 Z-38.088 A263.7651 
N140 X-256.077 Y48.849 Z-37.528 A266.5753 
N141 X-256.077 Y49.565 Z-36.792 A268.5915 
N142 X-256.077 Y50.032 Z-35.893 A269.9103 
N143 X-256.077 Y50.307 Z-34.833 A270.6983 
N144 X-256.077 Y50.450 Z-33.609 A271.1214 
N145 X-256.077 Y50.509 Z-32.217 A271.3137 
N146 X-256.077 Y50.520 Z-30.658 A271.3698 
N147 X-256.077 Y50.507 Z-28.937 A271.3570 
N148 X-256.077 Y50.489 Z-27.068 A271.3243 
N149 X-256.077 Y50.474 Z-25.072 A271.3008 
N150 X-256.077 Y50.469 Z-22.976 
N151 X-256.077 Y50.465 Z-20.811 A271.3028 
N152 X-256.077 Y50.469 Z-18.616 A271.3295 
N153 X-256.077 Y50.474 Z-16.428 A271.3611 
N154 X-256.077 Y50.479 Z-14.286 A271.3927 
N155 X-256.077 Y50.479 Z-12.226 A271.4093 
N156 X-256.077 Y50.471 Z-10.277 A271.3977 
N157 X-256.077 Y50.454 Z-8.465 A271.3504 
N158 X-256.077 Y50.438 Z-6.808 A271.3008 
N159 X-256.077 Y50.441 Z-5.315 
N160 X-256.077 Y50.462 Z-3.977 A271.3607 
N161 X-256.077 Y50.621 Z-2.808 A271.8543 
N162 X-256.077 Y50.941 Z-1.789 A272.8715 
N163 X-256.077 Y51.465 Z-0.898 A274.5552 
N164 X-256.077 Y52.189 Z-0.101 A276.9065 
N165 X-256.077 Y53.095 Z0.641 A279.8834 
N166 X-256.077 Y54.145 Z1.368 A283.3773 
N167 X-256.077 Y55.286 Z2.111 A287.2408 
N168 X-256.077 Y56.449 Z2.885 A291.2794 
N169 X-256.077 Y57.552 Z3.675 A295.2396 
N170 X-256.077 Y58.533 Z4.455 A298.9112 
N171 X-256.077 Y59.384 Z5.206 A302.2425 
N172 X-256.077 Y60.127 Z5.931 A305.2935 
N173 X-256.077 Y60.791 Z6.640 A308.1542 
N174 X-256.077 Y61.394 Z7.345 A310.8855 
N175 X-256.077 Y61.944 Z8.049 A313.5195 
N176 X-256.077 Y62.454 Z8.765 A316.1102 
N177 X-256.077 Y62.934 Z9.509 A318.7198 
N178 X-256.077 Y63.390 Z10.295 A321.3948 
N179 X-256.077 Y63.824 Z11.139 A324.1904 
N180 X-256.077 Y64.242 Z12.071 A327.1972 
N181 X-256.077 Y64.640 Z13.119 A330.4955 
N182 X-256.077 Y64.994 Z14.298 A334.1063 
N183 X-256.077 Y65.271 Z15.607 A338.0198 
N184 X-256.077 Y65.432 Z17.038 A342.2033 
N185 X-256.077 Y65.429 Z18.557 A346.5702 
N186 X-256.077 Y65.209 Z20.061 A350.8415 
N187 X-256.077 Y64.741 Z21.387 A354.5792 
N188 X-256.077 Y64.024 Z22.410 A357.4539 
N189 X-256.077 Y63.073 Z23.090 A359.3666 
N190 X-256.077 Y61.884 Z23.480 A0.4722 
N191 X-256.077 Y60.438 Z23.668 A1.0201 
N192 X-256.077 Y58.705 Z23.739 A1.2425 
N193 X-256.077 Y56.653 Z23.750 A1.3026 
N194 X-256.077 Y54.257 Z23.737 A1.2939 
N195 X-256.077 Y51.497 Z23.718 A1.2676 
N196 X-256.077 Y48.368 Z23.704 A1.2509 
N197 X-256.077 Y44.872 Z23.696 
N198 X-256.077 Y41.028 Z23.688 
N199 X-256.077 Y36.868 Z23.679 
N200 X-256.077 Y32.441 Z23.670 A1.2543 
N201 X-256.077 Y27.804 Z23.660 A1.2556 
N202 X-256.077 Y23.026 Z23.649 A1.2556 
N203 X-256.077 Y18.184 Z23.638 A1.2554 
N204 X-256.077 Y13.356 Z23.627 A1.2560 
N205 X-256.077 Y8.621 Z23.617 A1.2587 
N206 X-256.077 Y4.053 Z23.608 A1.2642 
N207 X-256.077 Y-0.284 Z23.600 A1.2723 
N208 X-256.077 Y-4.333 Z23.593 A1.2808 
N209 X-256.077 Y-8.053 Z23.585 A1.2852 
N210 X-256.077 Y-11.418 Z23.576 A1.2813 
N211 X-256.077 Y-14.412 Z23.566 A1.2684 
N212 X-256.077 Y-17.037 Z23.557 A1.2509 
N213 X-256.077 Y-19.303 Z23.554 
N214 X-256.077 Y-21.238 Z23.552 
N215 X-256.077 Y-22.863 Z23.608 A1.4323 
N216 X-256.077 Y-24.216 Z23.775 A1.9725 
N217 X-256.077 Y-25.338 Z24.150 A3.1773 
N218 X-256.077 Y-26.290 Z24.833 A5.3779 
N219 X-256.077 Y-27.147 Z25.866 A8.7214 
N220 X-256.077 Y-27.987 Z27.156 A12.9597 
N221 X-256.077 Y-28.836 Z28.490 A17.4639 
N222 X-256.077 Y-29.685 Z29.742 A21.8339 
N223 X-256.077 Y-30.520 Z30.862 A25.9036 
N224 X-256.077 Y-31.314 Z31.818 A29.5363 
N225 X-256.077 Y-32.077 Z32.656 A32.8588 
N226 X-256.077 Y-32.828 Z33.413 A35.9944 
N227 X-256.077 Y-33.575 Z34.105 A38.9964 
N228 X-256.077 Y-34.323 Z34.737 A41.8869 
N229 X-256.077 Y-35.069 Z35.310 A44.6625 
N230 X-256.077 Y-35.818 Z35.827 A47.3492 
N231 X-256.077 Y-36.580 Z36.299 A49.9933 
N232 X-256.077 Y-37.371 Z36.734 A52.6520 
N233 X-256.077 Y-38.212 Z37.143 A55.4048 
N234 X-256.077 Y-39.128 Z37.527 A58.3265 
N235 X-256.077 Y-40.134 Z37.880 A61.4583 
N236 X-256.077 Y-41.267 Z38.196 A64.9060 
N237 X-256.077 Y-42.557 Z38.458 A68.7598 
N238 X-256.077 Y-43.967 Z38.614 A72.8924 
N239 X-256.077 Y-45.388 Z38.605 A76.9826 
N240 X-256.077 Y-46.723 Z38.404 A80.7747 
N241 X-256.077 Y-47.904 Z38.010 A84.1043 
N242 X-256.077 Y-48.864 Z37.429 A86.8049 
N243 X-256.077 Y-49.567 Z36.676 A88.7881 
N244 X-256.077 Y-50.014 Z35.761 A90.0547 
N245 X-256.077 Y-50.250 Z34.687 A90.7285 
N246 X-256.077 Y-50.343 Z33.451 A90.9981 
N247 X-256.077 Y-50.360 Z32.050 A91.0455 
N248 X-256.077 Y-50.351 Z30.484 A91.0155 
N249 X-256.077 Y-50.343 Z28.762 A90.9801 
N250 X-256.077 Y-50.345 Z26.898 A90.9711 
N251 X-256.077 Y-50.352 Z24.913 
N252 X-256.077 Y-50.359 Z22.836 
N253 X-256.077 Y-50.368 Z20.700 A90.9739 
N254 X-256.077 Y-50.376 Z18.542 A90.9737 
N255 X-256.077 Y-50.385 Z16.399 A90.9711 
N256 X-256.077 Y-50.394 Z14.307 
N257 X-256.077 Y-50.403 Z12.299 
N258 X-256.077 Y-50.411 Z10.402 
N259 X-256.077 Y-50.424 Z8.639 A90.9895 
N260 X-256.077 Y-50.466 Z7.031 A91.1045 
N261 X-256.077 Y-50.547 Z5.583 A91.3555 
N262 X-256.077 Y-50.695 Z4.300 A91.8310 
N263 X-256.077 Y-50.945 Z3.172 A92.6488 
N264 X-256.077 Y-51.345 Z2.185 A93.9585 
N265 X-256.077 Y-51.937 Z1.310 A95.9058 
N266 X-256.077 Y-52.744 Z0.508 A98.5707 
N267 X-256.077 Y-53.737 Z-0.263 A101.8783 
N268 X-256.077 Y-54.840 Z-1.035 A105.6139 
N269 X-256.077 Y-55.954 Z-1.816 A109.4828 
N270 X-256.077 Y-57.005 Z-2.597 A113.2557 
N271 X-256.077 Y-57.973 Z-3.373 A116.8547 
N272 X-256.077 Y-58.849 Z-4.139 A120.2472 
N273 X-256.077 Y-59.633 Z-4.888 A123.4187 
N274 X-256.077 Y-60.329 Z-5.617 A126.3710 
N275 X-256.077 Y-60.950 Z-6.331 A129.1452 
N276 X-256.077 Y-61.515 Z-7.042 A131.8091 
N277 X-256.077 Y-62.037 Z-7.761 A134.4173 
N278 X-256.077 Y-62.522 Z-8.496 A137.0031 
N279 X-256.077 Y-62.977 Z-9.261 A139.6157 
N280 X-256.077 Y-63.409 Z-10.073 A142.3138 
N281 X-256.077 Y-63.817 Z-10.947 A145.1405 
N282 X-256.077 Y-64.197 Z-11.900 A148.1431 
N283 X-256.077 Y-64.546 Z-12.963 A151.4146 
N284 X-256.077 Y-64.851 Z-14.170 A155.0457 
N285 X-256.077 Y-65.078 Z-15.526 A159.0391 
N286 X-256.077 Y-65.165 Z-16.975 A163.2182 
N287 X-256.077 Y-65.057 Z-18.418 A167.2997 
N288 X-256.077 Y-64.724 Z-19.759 A171.0339 
N289 X-256.077 Y-64.154 Z-20.919 A174.2314 
N290 X-256.077 Y-63.346 Z-21.846 A176.7713 
N291 X-256.077 Y-62.298 Z-22.521 A178.6178 
N292 X-256.077 Y-61.000 Z-22.961 A179.8212 
N293 X-256.077 Y-59.431 Z-23.216 A180.5203 
N294 X-256.077 Y-57.566 Z-23.344 A180.8774 
N295 X-256.077 Y-55.379 Z-23.398 A181.0353 
N296 X-256.077 Y-52.849 Z-23.414 A181.0910 
N297 X-256.077 Y-49.964 Z-23.413 A181.0996 
N298 X-256.077 Y-46.722 Z-23.406 A181.0920 
N299 X-256.077 Y-43.135 Z-23.400 A181.0831 
N300 X-256.077 Y-39.227 Z-23.396 A181.0807 
N301 X-256.077 Y-35.036 Z-23.393 
N302 X-256.077 Y-30.613 Z-23.390 A181.0813 
N303 X-256.077 Y-26.020 Z-23.388 A181.0846 
N304 X-256.077 Y-21.327 Z-23.387 A181.0890 
N305 X-256.077 Y-16.609 Z-23.386 A181.0962 
N306 X-256.077 Y-11.941 Z-23.386 A181.1060 
N307 X-256.077 Y-7.396 Z-23.387 A181.1161 
N308 X-256.077 Y-3.043 Z-23.385 A181.1197 
N309 X-256.077 Y1.062 Z-23.381 A181.1123 
N310 X-256.077 Y4.873 Z-23.374 A181.0904 
N311 X-256.077 Y8.355 Z-23.374 A181.0807 
N312 X-256.077 Y11.491 Z-23.377 
N313 X-256.077 Y14.278 Z-23.393 A181.1245 
N314 X-256.077 Y16.714 Z-23.453 A181.3190 
N315 X-256.077 Y18.819 Z-23.572 A181.7237 
N316 X-256.077 Y20.616 Z-23.781 A182.4427 
N317 X-256.077 Y22.142 Z-24.109 A183.5789 
N318 X-256.077 Y23.438 Z-24.584 A185.2251 
N319 X-256.077 Y24.552 Z-25.221 A187.4331 
N320 X-256.077 Y25.540 Z-26.024 A190.2166 
N321 X-256.077 Y26.454 Z-26.974 A193.5288 
N322 X-256.077 Y27.339 Z-28.026 A197.2444 
N323 X-256.077 Y28.217 Z-29.108 A201.1495 
N324 X-256.077 Y29.085 Z-30.139 A204.9927 
N325 X-256.077 Y29.930 Z-31.071 A208.6131 
N326 X-256.077 Y30.747 Z-31.898 A211.9763 
N327 X-256.077 Y31.537 Z-32.631 A215.1057 
N328 X-256.077 Y32.307 Z-33.283 A218.0394 
N329 X-256.077 Y33.061 Z-33.864 A220.8112 
N330 X-256.077 Y33.810 Z-34.389 A223.4730 
N331 X-256.077 Y34.565 Z-34.869 A226.0815 
N332 X-256.077 Y35.338 Z-35.312 A228.6745 
N333 X-256.077 Y36.135 Z-35.719 A231.2801 
N334 X-256.077 Y36.969 Z-36.093 A233.9385 
N335 X-256.077 Y37.853 Z-36.434 A236.6895 
N336 X-256.077 Y38.795 Z-36.735 A239.5547 
N337 X-256.077 Y39.800 Z-36.987 A242.5425 
N338 X-256.077 Y40.869 Z-37.173 A245.6545 
N339 X-256.077 Y41.997 Z-37.275 A248.8764 
N340 X-256.077 Y43.166 Z-37.271 A252.1598 
N341 X-256.077 Y44.337 Z-37.135 A255.3935 
N342 X-256.077 Y45.459 Z-36.846 A258.4484 
N343 X-256.077 Y46.491 Z-36.395 A261.2272 
N344 X-256.077 Y47.406 Z-35.780 A263.6699 
N345 X-256.077 Y48.187 Z-35.001 A265.7438 
N346 X-256.077 Y48.827 Z-34.061 A267.4429 
N347 X-256.077 Y49.328 Z-32.962 A268.7797 
N348 X-256.077 Y49.701 Z-31.709 A269.7882 
N349 X-256.077 Y49.965 Z-30.306 A270.5174 
N350 X-256.077 Y50.138 Z-28.761 A271.0176 
N351 X-256.077 Y50.239 Z-27.087 A271.3345 
N352 X-256.077 Y50.285 Z-25.300 A271.5095 
N353 X-256.077 Y50.294 Z-23.422 A271.5807 
N354 X-256.077 Y50.278 Z-21.478 A271.5833 
N355 X-256.077 Y50.253 Z-19.497 A271.5519 
N356 X-256.077 Y50.228 Z-17.510 A271.5103 
N357 X-256.077 Y50.210 Z-15.550 A271.4856 
N358 X-256.077 Y50.203 Z-13.645 
N359 X-256.077 Y50.197 Z-11.817 
N360 X-256.077 Y50.207 Z-10.091 A271.5374 
N361 X-256.077 Y50.267 Z-8.490 A271.7543 
N362 X-256.077 Y50.391 Z-7.023 A272.1865 
N363 X-256.077 Y50.608 Z-5.694 A272.9373 
N364 X-256.077 Y50.945 Z-4.497 A274.0972 
N365 X-256.077 Y51.422 Z-3.419 A275.7389 
N366 X-256.077 Y52.038 Z-2.439 A277.8694 
N367 X-256.077 Y52.772 Z-1.531 A280.4296 
N368 X-256.077 Y53.590 Z-0.674 A283.3234 
N369 X-256.077 Y54.457 Z0.152 A286.4390 
N370 X-256.077 Y55.342 Z0.961 A289.6880 
N371 X-256.077 Y56.216 Z1.760 A292.9787 
N372 X-256.077 Y57.046 Z2.548 A296.2060 
N373 X-256.077 Y57.810 Z3.319 A299.2951 
N374 X-256.077 Y58.506 Z4.072 A302.2290 
N375 X-256.077 Y59.140 Z4.811 A305.0244 
N376 X-256.077 Y59.720 Z5.540 A307.7088 
N377 X-256.077 Y60.251 Z6.265 A310.3037 
N378 X-256.077 Y60.740 Z6.992 A312.8357 
N379 X-256.077 Y61.195 Z7.730 A315.3442 
N380 X-256.077 Y61.620 Z8.490 A317.8662 
N381 X-256.077 Y62.018 Z9.280 A320.4282 
N382 X-256.077 Y62.389 Z10.114 A323.0699 
N383 X-256.077 Y62.736 Z11.010 A325.8489 
N384 X-256.077 Y63.054 Z11.987 A328.8166 
N385 X-256.077 Y63.330 Z13.058 A332.0031 
N386 X-256.077 Y63.543 Z14.233 A335.4293 
N387 X-256.077 Y63.664 Z15.512 A339.0883 
N388 X-256.077 Y63.653 Z16.873 A342.9159 
N389 X-256.077 Y63.463 Z18.253 A346.7349 
N390 X-256.077 Y63.058 Z19.562 A350.3110 
N391 X-256.077 Y62.419 Z20.728 A353.4627 
N392 X-256.077 Y61.537 Z21.702 A356.0849 
N393 X-256.077 Y60.406 Z22.461 A358.1317 
N394 X-256.077 Y59.015 Z23.003 A359.6053 
N395 X-256.077 Y57.350 Z23.343 A0.5510 
N396 X-256.077 Y55.388 Z23.524 A1.0767 
N397 X-256.077 Y53.111 Z23.596 A1.3170 
N398 X-256.077 Y50.501 Z23.607 A1.3988 
N399 X-256.077 Y47.550 Z23.591 A1.4108 
N400 X-256.077 Y44.261 Z23.566 A1.4010 
N401 X-256.077 Y40.651 Z23.539 A1.3894 
N402 X-256.077 Y36.749 Z23.515 A1.3885 
N403 X-256.077 Y32.596 Z23.491 
N404 X-256.077 Y28.244 Z23.464 
N405 X-256.077 Y23.759 Z23.439 A1.3951 
N406 X-256.077 Y19.209 Z23.413 A1.4033 
N407 X-256.077 Y14.667 Z23.387 A1.4142 
N408 X-256.077 Y10.205 Z23.363 A1.4297 
N409 X-256.077 Y5.892 Z23.340 A1.4502 
N410 X-256.077 Y1.789 Z23.318 A1.4722 
N411 X-256.077 Y-2.054 Z23.294 A1.4822 
N412 X-256.077 Y-5.599 Z23.266 A1.4714 
N413 X-256.077 Y-8.819 Z23.231 A1.4241 
N414 X-256.077 Y-11.700 Z23.212 A1.4118 
N415 X-256.077 Y-14.251 Z23.201 
N416 X-256.077 Y-16.476 Z23.257 A1.6241 
N417 X-256.077 Y-18.396 Z23.419 A2.1876 
N418 X-256.077 Y-20.043 Z23.731 A3.2583 
N419 X-256.077 Y-21.459 Z24.239 A5.0018 
N420 X-256.077 Y-22.703 Z24.990 A7.5814 
N421 X-256.077 Y-23.841 Z25.983 A11.0129 
N422 X-256.077 Y-24.925 Z27.105 A14.9764 
N423 X-256.077 Y-25.952 Z28.170 A18.8937 
N424 X-256.077 Y-26.914 Z29.110 A22.5209 
N425 X-256.077 Y-27.826 Z29.957 A25.9334 
N426 X-256.077 Y-28.696 Z30.719 A29.1455 
N427 X-256.077 Y-29.529 Z31.399 A32.1538 
N428 X-256.077 Y-30.331 Z32.003 A34.9749 
N429 X-256.077 Y-31.101 Z32.533 A37.6083 
N430 X-256.077 Y-31.849 Z33.002 A40.0947 
N431 X-256.077 Y-32.588 Z33.426 A42.4989 
N432 X-256.077 Y-33.336 Z33.818 A44.8839 
N433 X-256.077 Y-34.103 Z34.186 A47.2928 
N434 X-256.077 Y-34.896 Z34.529 A49.7441 
N435 X-256.077 Y-35.718 Z34.842 A52.2345 
N436 X-256.077 Y-36.570 Z35.119 A54.7680 
N437 X-256.077 Y-37.459 Z35.355 A57.3609 
N438 X-256.077 Y-38.390 Z35.547 A60.0276 
N439 X-256.077 Y-39.369 Z35.684 A62.7853 
N440 X-256.077 Y-40.402 Z35.758 A65.6530 
N441 X-256.077 Y-41.487 Z35.752 A68.6212 
N442 X-256.077 Y-42.613 Z35.646 A71.6654 
N443 X-256.077 Y-43.772 Z35.425 A74.7760 
N444 X-256.077 Y-44.953 Z35.070 A77.9346 
N445 X-256.077 Y-46.096 Z34.559 A80.9908 
N446 X-256.077 Y-47.121 Z33.878 A83.7242 
N447 X-256.077 Y-47.966 Z33.029 A85.9763 
N448 X-256.077 Y-48.614 Z32.025 A87.6987 
N449 X-256.077 Y-49.081 Z30.878 A88.9395 
N450 X-256.077 Y-49.398 Z29.599 A89.7788 
N451 X-256.077 Y-49.594 Z28.197 A90.2967 
N452 X-256.077 Y-49.702 Z26.685 A90.5703 
N453 X-256.077 Y-49.749 Z25.078 A90.6724 
N454 X-256.077 Y-49.761 Z23.392 A90.6705 
N455 X-256.077 Y-49.763 Z21.651 A90.6281 
N456 X-256.077 Y-49.766 Z19.879 A90.5814 
N457 X-256.077 Y-49.782 Z18.104 A90.5665 
N458 X-256.077 Y-49.804 Z16.348 
N459 X-256.077 Y-49.827 Z14.636 
N460 X-256.077 Y-49.855 Z12.989 A90.5931 
N461 X-256.077 Y-49.933 Z11.435 A90.7819 
N462 X-256.077 Y-50.079 Z9.984 A91.2039 
N463 X-256.077 Y-50.333 Z8.644 A91.9976 
N464 X-256.077 Y-50.726 Z7.413 A93.2706 
N465 X-256.077 Y-51.271 Z6.281 A95.0854 
N466 X-256.077 Y-51.950 Z5.229 A97.3970 
N467 X-256.077 Y-52.719 Z4.239 A100.0774 
N468 X-256.077 Y-53.528 Z3.299 A102.9757 
N469 X-256.077 Y-54.337 Z2.399 A105.9627 
N470 X-256.077 Y-55.128 Z1.532 A108.9762 
N471 X-256.077 Y-55.889 Z0.690 A111.9690 
N472 X-256.077 Y-56.605 Z-0.128 A114.8892 
N473 X-256.077 Y-57.267 Z-0.924 A117.7054 
N474 X-256.077 Y-57.877 Z-1.701 A120.4171 
N475 X-256.077 Y-58.440 Z-2.464 A123.0384 
N476 X-256.077 Y-58.960 Z-3.220 A125.5858 
N477 X-256.077 Y-59.438 Z-3.971 A128.0699 
N478 X-256.077 Y-59.879 Z-4.724 A130.5053 
N479 X-256.077 Y-60.285 Z-5.482 A132.9121 
N480 X-256.077 Y-60.658 Z-6.252 A135.3079 
N481 X-256.077 Y-60.998 Z-7.038 A137.7046 
N482 X-256.077 Y-61.306 Z-7.845 A140.1190 
N483 X-256.077 Y-61.580 Z-8.680 A142.5730 
N484 X-256.077 Y-61.817 Z-9.551 A145.0854 
N485 X-256.077 Y-62.013 Z-10.465 A147.6741 
N486 X-256.077 Y-62.160 Z-11.432 A150.3676 
N487 X-256.077 Y-62.247 Z-12.461 A153.1924 
N488 X-256.077 Y-62.257 Z-13.559 A156.1572 
N489 X-256.077 Y-62.168 Z-14.727 A159.2691 
N490 X-256.077 Y-61.953 Z-15.967 A162.5438 
N491 X-256.077 Y-61.581 Z-17.275 A165.9807 
N492 X-256.077 Y-61.009 Z-18.602 A169.4638 
N493 X-256.077 Y-60.197 Z-19.849 A172.7324 
N494 X-256.077 Y-59.122 Z-20.916 A175.5296 
N495 X-256.077 Y-57.777 Z-21.746 A177.7095 
N496 X-256.077 Y-56.158 Z-22.336 A179.2718 
N497 X-256.077 Y-54.256 Z-22.716 A180.2935 
N498 X-256.077 Y-52.059 Z-22.926 A180.8758 
N499 X-256.077 Y-49.553 Z-23.014 A181.1373 
N500 X-256.077 Y-46.731 Z-23.028 A181.1996 
N501 X-256.077 Y-43.595 Z-23.014 A181.1763 
N502 X-256.077 Y-40.157 Z-22.999 A181.1407 
N503 X-256.077 Y-36.443 Z-22.996 A181.1339 
N504 X-256.077 Y-32.490 Z-22.996 
N505 X-256.077 Y-28.345 Z-22.997 A181.1341 
N506 X-256.077 Y-24.070 Z-23.001 A181.1437 
N507 X-256.077 Y-19.726 Z-23.005 A181.1533 
N508 X-256.077 Y-15.384 Z-23.009 A181.1664 
N509 X-256.077 Y-11.109 Z-23.013 A181.1815 
N510 X-256.077 Y-6.968 Z-23.017 A181.1938 
N511 X-256.077 Y-3.016 Z-23.016 A181.1923 
N512 X-256.077 Y0.696 Z-23.011 A181.1696 
N513 X-256.077 Y4.133 Z-23.004 A181.1339 
N514 X-256.077 Y7.268 Z-23.010 
N515 X-256.077 Y10.099 Z-23.020 A181.1475 
N516 X-256.077 Y12.611 Z-23.106 A181.4138 
N517 X-256.077 Y14.820 Z-23.279 A181.9928 
N518 X-256.077 Y16.746 Z-23.576 A183.0214 
N519 X-256.077 Y18.422 Z-24.026 A184.6030 
N520 X-256.077 Y19.891 Z-24.649 A186.8175 
N521 X-256.077 Y21.204 Z-25.432 A189.6330 
N522 X-256.077 Y22.406 Z-26.316 A192.8803 
N523 X-256.077 Y23.522 Z-27.226 A196.3176 
N524 X-256.077 Y24.568 Z-28.099 A199.7383 
N525 X-256.077 Y25.555 Z-28.912 A203.0545 
N526 X-256.077 Y26.489 Z-29.655 A206.2210 
N527 X-256.077 Y27.378 Z-30.325 A209.2142 
N528 X-256.077 Y28.229 Z-30.924 A212.0367 
N529 X-256.077 Y29.049 Z-31.462 A214.7179 
N530 X-256.077 Y29.851 Z-31.949 A217.2962 
N531 X-256.077 Y30.643 Z-32.393 A219.7980 
N532 X-256.077 Y31.431 Z-32.795 A222.2417 
N533 X-256.077 Y32.221 Z-33.160 A224.6495 
N534 X-256.077 Y33.021 Z-33.490 A227.0419 
N535 X-256.077 Y33.833 Z-33.784 A229.4318 
N536 X-256.077 Y34.664 Z-34.043 A231.8313 
N537 X-256.077 Y35.517 Z-34.263 A234.2561 
N538 X-256.077 Y36.398 Z-34.443 A236.7194 
N539 X-256.077 Y37.309 Z-34.576 A239.2288 
N540 X-256.077 Y38.254 Z-34.656 A241.7928 
N541 X-256.077 Y39.235 Z-34.674 A244.4208 
N542 X-256.077 Y40.254 Z-34.621 A247.1174 
N543 X-256.077 Y41.304 Z-34.482 A249.8708 
N544 X-256.077 Y42.374 Z-34.241 A252.6472 
N545 X-256.077 Y43.444 Z-33.884 A255.4065 
N546 X-256.077 Y44.497 Z-33.398 A258.1108 
N547 X-256.077 Y45.504 Z-32.772 A260.6935 
N548 X-256.077 Y46.427 Z-32.000 A263.0613 
N549 X-256.077 Y47.231 Z-31.081 A265.1253 
N550 X-256.077 Y47.892 Z-30.023 A266.8261 
N551 X-256.077 Y48.410 Z-28.836 A268.1623 
N552 X-256.077 Y48.799 Z-27.531 A269.1716 
N553 X-256.077 Y49.080 Z-26.121 A269.9079 
N554 X-256.077 Y49.275 Z-24.621 A270.4279 
N555 X-256.077 Y49.404 Z-23.045 A270.7841 
N556 X-256.077 Y49.487 Z-21.413 A271.0246 
N557 X-256.077 Y49.540 Z-19.747 A271.1951 
N558 X-256.077 Y49.580 Z-18.068 A271.3383 
N559 X-256.077 Y49.620 Z-16.399 A271.4950 
N560 X-256.077 Y49.675 Z-14.763 A271.7096 
N561 X-256.077 Y49.759 Z-13.180 A272.0338 
N562 X-256.077 Y49.888 Z-11.667 A272.5209 
N563 X-256.077 Y50.076 Z-10.236 A273.2225 
N564 X-256.077 Y50.336 Z-8.895 A274.1869 
N565 X-256.077 Y50.676 Z-7.646 A275.4545 
N566 X-256.077 Y51.108 Z-6.484 A277.0592 
N567 X-256.077 Y51.632 Z-5.398 A279.0167 
N568 X-256.077 Y52.240 Z-4.376 A281.3034 
N569 X-256.077 Y52.908 Z-3.404 A283.8498 
N570 X-256.077 Y53.606 Z-2.472 A286.5642 
N571 X-256.077 Y54.306 Z-1.575 A289.3565 
N572 X-256.077 Y54.991 Z-0.706 A292.1713 
N573 X-256.077 Y55.651 Z0.141 A294.9725 
N574 X-256.077 Y56.275 Z0.966 A297.7240 
N575 X-256.077 Y56.856 Z1.773 A300.4020 
N576 X-256.077 Y57.396 Z2.564 A303.0046 
N577 X-256.077 Y57.895 Z3.345 A305.5428 
N578 X-256.077 Y58.358 Z4.122 A308.0305 
N579 X-256.077 Y58.785 Z4.897 A310.4780 
N580 X-256.077 Y59.178 Z5.677 A312.8958 
N581 X-256.077 Y59.539 Z6.464 A315.3002 
N582 X-256.077 Y59.868 Z7.267 A317.7084 
N583 X-256.077 Y60.164 Z8.089 A320.1339 
N584 X-256.077 Y60.426 Z8.936 A322.5937 
N585 X-256.077 Y60.653 Z9.818 A325.1116 
N586 X-256.077 Y60.839 Z10.741 A327.7093 
N587 X-256.077 Y60.975 Z11.714 A330.4032 
N588 X-256.077 Y61.052 Z12.747 A333.2208 
N589 X-256.077 Y61.054 Z13.851 A336.1933 
N590 X-256.077 Y60.961 Z15.030 A339.3321 
N591 X-256.077 Y60.740 Z16.272 A342.6078 
N592 X-256.077 Y60.357 Z17.552 A345.9548 
N593 X-256.077 Y59.777 Z18.832 A349.2918 
N594 X-256.077 Y58.968 Z20.057 A352.4869 
N595 X-256.077 Y57.904 Z21.145 A355.3350 
N596 X-256.077 Y56.572 Z22.024 A357.6556 
N597 X-256.077 Y54.964 Z22.662 A359.3632 
N598 X-256.077 Y53.073 Z23.076 A0.5041 
N599 X-256.077 Y50.888 Z23.310 A1.1918 
N600 X-256.077 Y48.394 Z23.413 A1.5501 
N601 X-256.077 Y45.584 Z23.431 A1.6900 
N602 X-256.077 Y42.458 Z23.400 A1.7045 
N603 X-256.077 Y39.027 Z23.353 A1.6719 
N604 X-256.077 Y35.315 Z23.306 A1.6420 
N605 X-256.077 Y31.359 Z23.270 
N606 X-256.077 Y27.205 Z23.233 
N607 X-256.077 Y22.911 Z23.194 A1.6435 
N608 X-256.077 Y18.544 Z23.157 A1.6521 
N609 X-256.077 Y14.173 Z23.118 A1.6598 
N610 X-256.077 Y9.867 Z23.079 A1.6703 
N611 X-256.077 Y5.692 Z23.043 A1.6837 
N612 X-256.077 Y1.709 Z23.007 A1.6978 
N613 X-256.077 Y-2.033 Z22.971 A1.7028 
N614 X-256.077 Y-5.492 Z22.933 A1.6922 
N615 X-256.077 Y-8.643 Z22.893 A1.6589 
N616 X-256.077 Y-11.468 Z22.864 A1.6420 
N617 X-256.077 Y-13.972 Z22.844 
N618 X-256.077 Y-16.161 Z22.857 A1.7419 
N619 X-256.077 Y-18.051 Z22.957 A2.1185 
N620 X-256.077 Y-19.671 Z23.196 A2.9525 
N621 X-256.077 Y-21.061 Z23.659 A4.5274 
N622 X-256.077 Y-22.284 Z24.426 A7.1175 
N623 X-256.077 Y-23.412 Z25.490 A10.7367 
N624 X-256.077 Y-24.497 Z26.688 A14.9184 
N625 X-256.077 Y-25.527 Z27.797 A18.9646 
N626 X-256.077 Y-26.491 Z28.762 A22.6682 
N627 X-256.077 Y-27.402 Z29.620 A26.1152 
N628 X-256.077 Y-28.266 Z30.380 A29.3138 
N629 X-256.077 Y-29.090 Z31.054 A32.2973 
N630 X-256.077 Y-29.887 Z31.658 A35.1155 
N631 X-256.077 Y-30.663 Z32.201 A37.7905 
N632 X-256.077 Y-31.425 Z32.690 A40.3557 
N633 X-256.077 Y-32.182 Z33.134 A42.8436 
N634 X-256.077 Y-32.941 Z33.536 A45.2819 
N635 X-256.077 Y-33.710 Z33.903 A47.6972 
N636 X-256.077 Y-34.495 Z34.235 A50.1104 
N637 X-256.077 Y-35.299 Z34.531 A52.5350 
N638 X-256.077 Y-36.129 Z34.791 A54.9892 
N639 X-256.077 Y-36.991 Z35.013 A57.4945 
N640 X-256.077 Y-37.891 Z35.192 A60.0630 
N641 X-256.077 Y-38.831 Z35.320 A62.7055 
N642 X-256.077 Y-39.817 Z35.388 A65.4361 
N643 X-256.077 Y-40.847 Z35.384 A68.2503 
N644 X-256.077 Y-41.912 Z35.292 A71.1276 
N645 X-256.077 Y-43.005 Z35.097 A74.0542 
N646 X-256.077 Y-44.116 Z34.785 A77.0158 
N647 X-256.077 Y-45.207 Z34.336 A79.9202 
N648 X-256.077 Y-46.222 Z33.739 A82.6211 
N649 X-256.077 Y-47.119 Z32.991 A85.0110 
N650 X-256.077 Y-47.873 Z32.099 A87.0351 
N651 X-256.077 Y-48.476 Z31.070 A88.6738 
N652 X-256.077 Y-48.927 Z29.916 A89.9227 
N653 X-256.077 Y-49.228 Z28.649 A90.7845 
N654 X-256.077 Y-49.399 Z27.280 A91.2975 
N655 X-256.077 Y-49.470 Z25.823 A91.5349 
N656 X-256.077 Y-49.475 Z24.294 A91.5845 
N657 X-256.077 Y-49.449 Z22.709 A91.5418 
N658 X-256.077 Y-49.417 Z21.089 A91.4694 
N659 X-256.077 Y-49.401 Z19.458 A91.4367 
N660 X-256.077 Y-49.398 Z17.833 
N661 X-256.077 Y-49.395 Z16.230 
N662 X-256.077 Y-49.450 Z14.683 A91.6242 
N663 X-256.077 Y-49.566 Z13.204 A92.0193 
N664 X-256.077 Y-49.769 Z11.807 A92.7149 
N665 X-256.077 Y-50.080 Z10.496 A93.7901 
N666 X-256.077 Y-50.515 Z9.269 A95.3126 
N667 X-256.077 Y-51.075 Z8.116 A97.2994 
N668 X-256.077 Y-51.733 Z7.024 A99.6806 
N669 X-256.077 Y-52.446 Z5.983 A102.3264 
N670 X-256.077 Y-53.170 Z4.988 A105.1002 
N671 X-256.077 Y-53.876 Z4.034 A107.9025 
N672 X-256.077 Y-54.554 Z3.116 A110.6987 
N673 X-256.077 Y-55.200 Z2.227 A113.4649 
N674 X-256.077 Y-55.806 Z1.363 A116.1746 
N675 X-256.077 Y-56.370 Z0.522 A118.8123 
N676 X-256.077 Y-56.891 Z-0.301 A121.3788 
N677 X-256.077 Y-57.372 Z-1.111 A123.8822 
N678 X-256.077 Y-57.814 Z-1.914 A126.3321 
N679 X-256.077 Y-58.220 Z-2.713 A128.7363 
N680 X-256.077 Y-58.590 Z-3.513 A131.1065 
N681 X-256.077 Y-58.926 Z-4.318 A133.4568 
N682 X-256.077 Y-59.228 Z-5.133 A135.7985 
N683 X-256.077 Y-59.495 Z-5.960 A138.1401 
N684 X-256.077 Y-59.726 Z-6.805 A140.4938 
N685 X-256.077 Y-59.919 Z-7.672 A142.8740 
N686 X-256.077 Y-60.071 Z-8.566 A145.2925 
N687 X-256.077 Y-60.176 Z-9.493 A147.7631 
N688 X-256.077 Y-60.227 Z-10.461 A150.3059 
N689 X-256.077 Y-60.214 Z-11.475 A152.9376 
N690 X-256.077 Y-60.122 Z-12.539 A155.6658 
N691 X-256.077 Y-59.932 Z-13.657 A158.5021 
N692 X-256.077 Y-59.624 Z-14.832 A161.4612 
N693 X-256.077 Y-59.169 Z-16.059 A164.5419 
N694 X-256.077 Y-58.534 Z-17.309 A167.6776 
N695 X-256.077 Y-57.682 Z-18.529 A170.7419 
N696 X-256.077 Y-56.586 Z-19.666 A173.6091 
N697 X-256.077 Y-55.229 Z-20.662 A176.1527 
N698 X-256.077 Y-53.599 Z-21.466 A178.2368 
N699 X-256.077 Y-51.690 Z-22.036 A179.7523 
N700 X-256.077 Y-49.502 Z-22.372 A180.6699 
N701 X-256.077 Y-47.030 Z-22.519 A181.0957 
N702 X-256.077 Y-44.272 Z-22.551 A181.2061 
N703 X-256.077 Y-41.233 Z-22.538 A181.1849 
N704 X-256.077 Y-37.927 Z-22.520 A181.1429 
N705 X-256.077 Y-34.382 Z-22.517 A181.1327 
N706 X-256.077 Y-30.633 Z-22.519 
N707 X-256.077 Y-26.726 Z-22.522 A181.1338 
N708 X-256.077 Y-22.719 Z-22.528 A181.1470 
N709 X-256.077 Y-18.672 Z-22.536 A181.1626 
N710 X-256.077 Y-14.645 Z-22.543 A181.1817 
N711 X-256.077 Y-10.701 Z-22.550 A181.1997 
N712 X-256.077 Y-6.895 Z-22.553 A181.2042 
N713 X-256.077 Y-3.278 Z-22.551 A181.1878 
N714 X-256.077 Y0.111 Z-22.538 A181.1327 
N715 X-256.077 Y3.237 Z-22.547 
N716 X-256.077 Y6.098 Z-22.556 
N717 X-256.077 Y8.672 Z-22.653 A181.4256 
N718 X-256.077 Y10.968 Z-22.867 A182.1320 
N719 X-256.077 Y13.001 Z-23.224 A183.3690 
N720 X-256.077 Y14.801 Z-23.727 A185.1673 
N721 X-256.077 Y16.404 Z-24.368 A187.5159 
N722 X-256.077 Y17.853 Z-25.121 A190.3439 
N723 X-256.077 Y19.183 Z-25.938 A193.5009 
N724 X-256.077 Y20.416 Z-26.754 A196.7773 
N725 X-256.077 Y21.563 Z-27.515 A199.9795 
N726 X-256.077 Y22.631 Z-28.202 A203.0317 
N727 X-256.077 Y23.635 Z-28.823 A205.9414 
N728 X-256.077 Y24.589 Z-29.387 A208.7262 
N729 X-256.077 Y25.504 Z-29.897 A211.3963 
N730 X-256.077 Y26.389 Z-30.356 A213.9633 
N731 X-256.077 Y27.254 Z-30.771 A216.4493 
N732 X-256.077 Y28.106 Z-31.145 A218.8759 
N733 X-256.077 Y28.953 Z-31.480 A221.2568 
N734 X-256.077 Y29.800 Z-31.777 A223.6062 
N735 X-256.077 Y30.652 Z-32.037 A225.9383 
N736 X-256.077 Y31.513 Z-32.261 A228.2634 
N737 X-256.077 Y32.385 Z-32.444 A230.5877 
N738 X-256.077 Y33.272 Z-32.587 A232.9177 
N739 X-256.077 Y34.175 Z-32.684 A235.2595 
N740 X-256.077 Y35.096 Z-32.732 A237.6159 
N741 X-256.077 Y36.034 Z-32.726 A239.9872 
N742 X-256.077 Y36.988 Z-32.659 A242.3714 
N743 X-256.077 Y37.957 Z-32.524 A244.7654 
N744 X-256.077 Y38.937 Z-32.315 A247.1625 
N745 X-256.077 Y39.920 Z-32.022 A249.5472 
N746 X-256.077 Y40.897 Z-31.638 A251.8981 
N747 X-256.077 Y41.858 Z-31.155 A254.1948 
N748 X-256.077 Y42.792 Z-30.570 A256.4155 
N749 X-256.077 Y43.683 Z-29.877 A258.5303 
N750 X-256.077 Y44.518 Z-29.077 A260.5083 
N751 X-256.077 Y45.284 Z-28.171 A262.3232 
N752 X-256.077 Y45.973 Z-27.165 A263.9584 
N753 X-256.077 Y46.580 Z-26.066 A265.4068 
N754 X-256.077 Y47.103 Z-24.886 A266.6662 
N755 X-256.077 Y47.544 Z-23.635 A267.7393 
N756 X-256.077 Y47.911 Z-22.327 A268.6450 
N757 X-256.077 Y48.214 Z-20.977 A269.4174 
N758 X-256.077 Y48.472 Z-19.600 A270.1023 
N759 X-256.077 Y48.703 Z-18.211 A270.7510 
N760 X-256.077 Y48.921 Z-16.825 A271.4113 
N761 X-256.077 Y49.142 Z-15.456 A272.1286 
N762 X-256.077 Y49.380 Z-14.117 A272.9487 
N763 X-256.077 Y49.647 Z-12.816 A273.9138 
N764 X-256.077 Y49.953 Z-11.562 A275.0567 
N765 X-256.077 Y50.302 Z-10.358 A276.3963 
N766 X-256.077 Y50.693 Z-9.206 A277.9322 
N767 X-256.077 Y51.122 Z-8.106 A279.6548 
N768 X-256.077 Y51.586 Z-7.055 A281.5516 
N769 X-256.077 Y52.079 Z-6.047 A283.6044 
N770 X-256.077 Y52.592 Z-5.077 A285.7883 
N771 X-256.077 Y53.117 Z-4.141 A288.0718 
N772 X-256.077 Y53.643 Z-3.233 A290.4223 
N773 X-256.077 Y54.163 Z-2.349 A292.8161 
N774 X-256.077 Y54.672 Z-1.484 A295.2356 
N775 X-256.077 Y55.164 Z-0.635 A297.6626 
N776 X-256.077 Y55.634 Z0.202 A300.0820 
N777 X-256.077 Y56.079 Z1.030 A302.4869 
N778 X-256.077 Y56.498 Z1.851 A304.8756 
N779 X-256.077 Y56.890 Z2.670 A307.2483 
N780 X-256.077 Y57.253 Z3.489 A309.6061 
N781 X-256.077 Y57.587 Z4.310 A311.9517 
N782 X-256.077 Y57.890 Z5.137 A314.2912 
N783 X-256.077 Y58.163 Z5.974 A316.6321 
N784 X-256.077 Y58.402 Z6.824 A318.9815 
N785 X-256.077 Y58.607 Z7.689 A321.3486 
N786 X-256.077 Y58.775 Z8.577 A323.7476 
N787 X-256.077 Y58.902 Z9.493 A326.1941 
N788 X-256.077 Y58.982 Z10.443 A328.7008 
N789 X-256.077 Y59.007 Z11.433 A331.2865 
N790 X-256.077 Y58.967 Z12.473 A333.9742 
N791 X-256.077 Y58.845 Z13.568 A336.7777 
N792 X-256.077 Y58.621 Z14.719 A339.7008 
N793 X-256.077 Y58.269 Z15.925 A342.7515 
N794 X-256.077 Y57.761 Z17.184 A345.9336 
N795 X-256.077 Y57.061 Z18.469 A349.1980 
N796 X-256.077 Y56.130 Z19.710 A352.3677 
N797 X-256.077 Y54.941 Z20.818 A355.2235 
N798 X-256.077 Y53.478 Z21.729 A357.5996 
N799 X-256.077 Y51.738 Z22.412 A359.4261 
N800 X-256.077 Y49.714 Z22.871 A0.7062 
N801 X-256.077 Y47.400 Z23.125 A1.4818 
N802 X-256.077 Y44.788 Z23.218 A1.8490 
N803 X-256.077 Y41.875 Z23.207 A1.9445 
N804 X-256.077 Y38.666 Z23.151 A1.9159 
N805 X-256.077 Y35.177 Z23.088 A1.8672 
N806 X-256.077 Y31.437 Z23.040 A1.8607 
N807 X-256.077 Y27.485 Z22.993 
N808 X-256.077 Y23.372 Z22.944 
N809 X-256.077 Y19.160 Z22.895 A1.8668 
N810 X-256.077 Y14.915 Z22.844 A1.8723 
N811 X-256.077 Y10.704 Z22.794 A1.8783 
N812 X-256.077 Y6.593 Z22.744 A1.8859 
N813 X-256.077 Y2.643 Z22.697 A1.8946 
N814 X-256.077 Y-1.092 Z22.651 A1.9015 
N815 X-256.077 Y-4.567 Z22.606 A1.9012 
N816 X-256.077 Y-7.751 Z22.563 A1.8930 
N817 X-256.077 Y-10.625 Z22.520 A1.8720 
N818 X-256.077 Y-13.179 Z22.487 A1.8607 
N819 X-256.077 Y-15.421 Z22.461 
N820 X-256.077 Y-17.366 Z22.466 A1.9492 
N821 X-256.077 Y-19.032 Z22.588 A2.4000 
N822 X-256.077 Y-20.457 Z22.916 A3.5167 
N823 X-256.077 Y-21.691 Z23.562 A5.6679 
N824 X-256.077 Y-22.810 Z24.551 A8.9758 
N825 X-256.077 Y-23.879 Z25.763 A13.1101 
N826 X-256.077 Y-24.917 Z26.980 A17.4107 
N827 X-256.077 Y-25.911 Z28.083 A21.4939 
N828 X-256.077 Y-26.853 Z29.047 A25.2411 
N829 X-256.077 Y-27.735 Z29.870 A28.6176 
N830 X-256.077 Y-28.568 Z30.584 A31.7065 
N831 X-256.077 Y-29.370 Z31.219 A34.5987 
N832 X-256.077 Y-30.145 Z31.785 A37.3227 
N833 X-256.077 Y-30.903 Z32.291 A39.9131 
N834 X-256.077 Y-31.651 Z32.747 A42.4053 
N835 X-256.077 Y-32.397 Z33.159 A44.8289 
N836 X-256.077 Y-33.147 Z33.532 A47.2126 
N837 X-256.077 Y-33.908 Z33.870 A49.5802 
N838 X-256.077 Y-34.685 Z34.173 A51.9470 
N839 X-256.077 Y-35.483 Z34.441 A54.3301 
N840 X-256.077 Y-36.307 Z34.674 A56.7494 
N841 X-256.077 Y-37.163 Z34.868 A59.2183 
N842 X-256.077 Y-38.054 Z35.018 A61.7479 
N843 X-256.077 Y-38.985 Z35.117 A64.3554 
N844 X-256.077 Y-39.959 Z35.157 A67.0481 
N845 X-256.077 Y-40.972 Z35.124 A69.8177 
N846 X-256.077 Y-42.020 Z35.006 A72.6588 
N847 X-256.077 Y-43.099 Z34.789 A75.5668 
N848 X-256.077 Y-44.187 Z34.456 A78.4918 
N849 X-256.077 Y-45.239 Z33.991 A81.3236 
N850 X-256.077 Y-46.219 Z33.386 A83.9698 
N851 X-256.077 Y-47.098 Z32.641 A86.3686 
N852 X-256.077 Y-47.849 Z31.761 A88.4526 
N853 X-256.077 Y-48.446 Z30.754 A90.1547 
N854 X-256.077 Y-48.871 Z29.632 A91.4182 
N855 X-256.077 Y-49.127 Z28.408 A92.2404 
N856 X-256.077 Y-49.244 Z27.094 A92.6883 
N857 X-256.077 Y-49.260 Z25.702 A92.8634 
N858 X-256.077 Y-49.221 Z24.244 A92.8794 
N859 X-256.077 Y-49.159 Z22.737 A92.8292 
N860 X-256.077 Y-49.097 Z21.199 A92.7745 
N861 X-256.077 Y-49.054 Z19.650 
N862 X-256.077 Y-49.012 Z18.102 
N863 X-256.077 Y-49.022 Z16.585 A92.9379 
N864 X-256.077 Y-49.092 Z15.114 A93.2984 
N865 X-256.077 Y-49.245 Z13.704 A93.9404 
N866 X-256.077 Y-49.501 Z12.360 A94.9425 
N867 X-256.077 Y-49.877 Z11.085 A96.3684 
N868 X-256.077 Y-50.371 Z9.874 A98.2352 
N869 X-256.077 Y-50.958 Z8.717 A100.4798 
N870 X-256.077 Y-51.599 Z7.609 A102.9832 
N871 X-256.077 Y-52.253 Z6.547 A105.6242 
N872 X-256.077 Y-52.894 Z5.528 A108.3133 
N873 X-256.077 Y-53.513 Z4.547 A111.0152 
N874 X-256.077 Y-54.105 Z3.599 A113.7040 
N875 X-256.077 Y-54.661 Z2.679 A116.3506 
N876 X-256.077 Y-55.178 Z1.786 A118.9383 
N877 X-256.077 Y-55.656 Z0.913 A121.4663 
N878 X-256.077 Y-56.096 Z0.056 A123.9390 
N879 X-256.077 Y-56.498 Z-0.790 A126.3625 
N880 X-256.077 Y-56.864 Z-1.630 A128.7429 
N881 X-256.077 Y-57.194 Z-2.466 A131.0903 
N882 X-256.077 Y-57.490 Z-3.305 A133.4173 
N883 X-256.077 Y-57.752 Z-4.150 A135.7336 
N884 X-256.077 Y-57.978 Z-5.005 A138.0469 
N885 X-256.077 Y-58.167 Z-5.874 A140.3681 
N886 X-256.077 Y-58.318 Z-6.761 A142.7097 
N887 X-256.077 Y-58.425 Z-7.671 A145.0822 
N888 X-256.077 Y-58.485 Z-8.609 A147.4979 
N889 X-256.077 Y-58.491 Z-9.582 A149.9749 
N890 X-256.077 Y-58.432 Z-10.596 A152.5287 
N891 X-256.077 Y-58.297 Z-11.654 A155.1682 
N892 X-256.077 Y-58.067 Z-12.761 A157.9052 
N893 X-256.077 Y-57.722 Z-13.919 A160.7520 
N894 X-256.077 Y-57.238 Z-15.123 A163.7068 
N895 X-256.077 Y-56.582 Z-16.354 A166.7253 
N896 X-256.077 Y-55.724 Z-17.574 A169.7286 
N897 X-256.077 Y-54.634 Z-18.745 A172.6353 
N898 X-256.077 Y-53.292 Z-19.810 A175.3182 
N899 X-256.077 Y-51.682 Z-20.698 A177.5942 
N900 X-256.077 Y-49.803 Z-21.347 A179.2953 
N901 X-256.077 Y-47.655 Z-21.745 A180.3599 
N902 X-256.077 Y-45.242 Z-21.937 A180.8910 
N903 X-256.077 Y-42.566 Z-21.999 A181.0725 
N904 X-256.077 Y-39.632 Z-22.003 A181.0915 
N905 X-256.077 Y-36.458 Z-21.993 A181.0645 
N906 X-256.077 Y-33.070 Z-21.987 A181.0404 
N907 X-256.077 Y-29.506 Z-21.989 A181.0354 
N908 X-256.077 Y-25.811 Z-21.995 
N909 X-256.077 Y-22.037 Z-22.005 A181.0481 
N910 X-256.077 Y-18.240 Z-22.018 A181.0664 
N911 X-256.077 Y-14.480 Z-22.031 A181.0869 
N912 X-256.077 Y-10.811 Z-22.042 A181.1011 
N913 X-256.077 Y-7.284 Z-22.049 A181.1003 
N914 X-256.077 Y-3.943 Z-22.047 A181.0685 
N915 X-256.077 Y-0.823 Z-22.048 A181.0354 
N916 X-256.077 Y2.054 Z-22.062 
N917 X-256.077 Y4.682 Z-22.110 A181.1504 
N918 X-256.077 Y7.046 Z-22.291 A181.7153 
N919 X-256.077 Y9.163 Z-22.630 A182.8484 
N920 X-256.077 Y11.053 Z-23.142 A184.6367 
N921 X-256.077 Y12.752 Z-23.795 A187.0032 
N922 X-256.077 Y14.296 Z-24.545 A189.8208 
N923 X-256.077 Y15.716 Z-25.341 A192.9303 
N924 X-256.077 Y17.036 Z-26.137 A196.1756 
N925 X-256.077 Y18.270 Z-26.885 A199.3926 
N926 X-256.077 Y19.423 Z-27.556 A202.4629 
N927 X-256.077 Y20.506 Z-28.150 A205.3672 
N928 X-256.077 Y21.533 Z-28.677 A208.1309 
N929 X-256.077 Y22.519 Z-29.148 A210.7804 
N930 X-256.077 Y23.473 Z-29.566 A213.3308 
N931 X-256.077 Y24.406 Z-29.934 A215.7980 
N932 X-256.077 Y25.325 Z-30.257 A218.2028 
N933 X-256.077 Y26.237 Z-30.537 A220.5612 
N934 X-256.077 Y27.149 Z-30.774 A222.8830 
N935 X-256.077 Y28.063 Z-30.967 A225.1776 
N936 X-256.077 Y28.984 Z-31.115 A227.4529 
N937 X-256.077 Y29.912 Z-31.216 A229.7136 
N938 X-256.077 Y30.849 Z-31.267 A231.9609 
N939 X-256.077 Y31.794 Z-31.265 A234.1940 
N940 X-256.077 Y32.746 Z-31.206 A236.4104 
N941 X-256.077 Y33.703 Z-31.087 A238.6061 
N942 X-256.077 Y34.661 Z-30.903 A240.7747 
N943 X-256.077 Y35.617 Z-30.650 A242.9087 
N944 X-256.077 Y36.565 Z-30.325 A245.0012 
N945 X-256.077 Y37.502 Z-29.927 A247.0454 
N946 X-256.077 Y38.423 Z-29.453 A249.0329 
N947 X-256.077 Y39.320 Z-28.902 A250.9551 
N948 X-256.077 Y40.190 Z-28.275 A252.8048 
N949 X-256.077 Y41.027 Z-27.574 A254.5769 
N950 X-256.077 Y41.828 Z-26.801 A256.2690 
N951 X-256.077 Y42.590 Z-25.961 A257.8805 
N952 X-256.077 Y43.310 Z-25.061 A259.4131 
N953 X-256.077 Y43.988 Z-24.105 A260.8732 
N954 X-256.077 Y44.627 Z-23.103 A262.2710 
N955 X-256.077 Y45.228 Z-22.062 A263.6194 
N956 X-256.077 Y45.796 Z-20.991 A264.9336 
N957 X-256.077 Y46.333 Z-19.898 A266.2296 
N958 X-256.077 Y46.846 Z-18.793 A267.5247 
N959 X-256.077 Y47.338 Z-17.683 A268.8360 
N960 X-256.077 Y47.816 Z-16.575 A270.1800 
N961 X-256.077 Y48.282 Z-15.477 A271.5711 
N962 X-256.077 Y48.741 Z-14.392 A273.0210 
N963 X-256.077 Y49.196 Z-13.327 A274.5378 
N964 X-256.077 Y49.648 Z-12.282 A276.1269 
N965 X-256.077 Y50.100 Z-11.261 A277.7921 
N966 X-256.077 Y50.552 Z-10.264 A279.5337 
N967 X-256.077 Y51.003 Z-9.291 A281.3485 
N968 X-256.077 Y51.454 Z-8.340 A283.2315 
N969 X-256.077 Y51.902 Z-7.411 A285.1765 
N970 X-256.077 Y52.347 Z-6.502 A287.1773 
N971 X-256.077 Y52.786 Z-5.609 A289.2265 
N972 X-256.077 Y53.217 Z-4.731 A291.3158 
N973 X-256.077 Y53.637 Z-3.865 A293.4374 
N974 X-256.077 Y54.046 Z-3.009 A295.5856 
N975 X-256.077 Y54.440 Z-2.160 A297.7550 
N976 X-256.077 Y54.819 Z-1.316 A299.9404 
N977 X-256.077 Y55.179 Z-0.475 A302.1376 
N978 X-256.077 Y55.519 Z0.364 A304.3444 
N979 X-256.077 Y55.838 Z1.205 A306.5592 
N980 X-256.077 Y56.134 Z2.048 A308.7807 
N981 X-256.077 Y56.405 Z2.895 A311.0084 
N982 X-256.077 Y56.649 Z3.748 A313.2430 
N983 X-256.077 Y56.865 Z4.609 A315.4867 
N984 X-256.077 Y57.050 Z5.479 A317.7431 
N985 X-256.077 Y57.204 Z6.362 A320.0161 
N986 X-256.077 Y57.322 Z7.261 A322.3132 
N987 X-256.077 Y57.402 Z8.180 A324.6451 
N988 X-256.077 Y57.438 Z9.124 A327.0225 
N989 X-256.077 Y57.425 Z10.097 A329.4567 
N990 X-256.077 Y57.354 Z11.107 A331.9653 
N991 X-256.077 Y57.213 Z12.161 A334.5673 
N992 X-256.077 Y56.987 Z13.263 A337.2739 
N993 X-256.077 Y56.656 Z14.415 A340.0955 
N994 X-256.077 Y56.194 Z15.622 A343.0488 
N995 X-256.077 Y55.575 Z16.878 A346.1421 
N996 X-256.077 Y54.762 Z18.155 A349.3126 
N997 X-256.077 Y53.716 Z19.387 A352.3990 
N998 X-256.077 Y52.412 Z20.499 A355.2232 
N999 X-256.077 Y50.835 Z21.431 A357.6406 
N1000 X-256.077 Y48.979 Z22.144 A359.5483 
N1001 X-256.077 Y46.841 Z22.619 A0.8877 
N1002 X-256.077 Y44.420 Z22.866 A1.6667 
N1003 X-256.077 Y41.712 Z22.939 A2.0010 
N1004 X-256.077 Y38.719 Z22.908 A2.0617 
N1005 X-256.077 Y35.448 Z22.841 A2.0216 
N1006 X-256.077 Y31.922 Z22.773 A1.9788 
N1007 X-256.077 Y28.173 Z22.718 
N1008 X-256.077 Y24.243 Z22.663 
N1009 X-256.077 Y20.187 Z22.605 
N1010 X-256.077 Y16.068 Z22.548 A1.9846 
N1011 X-256.077 Y11.949 Z22.490 A1.9900 
N1012 X-256.077 Y7.896 Z22.433 A1.9970 
N1013 X-256.077 Y3.971 Z22.378 A2.0055 
N1014 X-256.077 Y0.231 Z22.325 A2.0140 
N1015 X-256.077 Y-3.277 Z22.275 A2.0201 
N1016 X-256.077 Y-6.516 Z22.226 A2.0186 
N1017 X-256.077 Y-9.460 Z22.180 A2.0105 
N1018 X-256.077 Y-12.096 Z22.134 A1.9831 
N1019 X-256.077 Y-14.420 Z22.101 A1.9788 
N1020 X-256.077 Y-16.448 Z22.074 
N1021 X-256.077 Y-18.196 Z22.112 A2.1741 
N1022 X-256.077 Y-19.689 Z22.314 A2.8831 
N1023 X-256.077 Y-20.969 Z22.791 A4.4763 
N1024 X-256.077 Y-22.102 Z23.628 A7.2537 
N1025 X-256.077 Y-23.165 Z24.774 A11.0999 
N1026 X-256.077 Y-24.200 Z26.031 A15.4424 
N1027 X-256.077 Y-25.203 Z27.215 A19.7026 
N1028 X-256.077 Y-26.162 Z28.264 A23.6612 
N1029 X-256.077 Y-27.062 Z29.161 A27.2282 
N1030 X-256.077 Y-27.908 Z29.930 A30.4523 
N1031 X-256.077 Y-28.717 Z30.611 A33.4519 
N1032 X-256.077 Y-29.497 Z31.216 A36.2640 
N1033 X-256.077 Y-30.256 Z31.756 A38.9199 
N1034 X-256.077 Y-31.000 Z32.240 A41.4572 
N1035 X-256.077 Y-31.738 Z32.677 A43.9079 
N1036 X-256.077 Y-32.477 Z33.073 A46.3034 
N1037 X-256.077 Y-33.223 Z33.433 A48.6697 
N1038 X-256.077 Y-33.981 Z33.758 A51.0236 
N1039 X-256.077 Y-34.756 Z34.048 A53.3806 
N1040 X-256.077 Y-35.552 Z34.305 A55.7579 
N1041 X-256.077 Y-36.373 Z34.525 A58.1682 
N1042 X-256.077 Y-37.222 Z34.705 A60.6208 
N1043 X-256.077 Y-38.103 Z34.841 A63.1301 
N1044 X-256.077 Y-39.021 Z34.927 A65.7063 
N1045 X-256.077 Y-39.973 Z34.953 A68.3489 
N1046 X-256.077 Y-40.958 Z34.910 A71.0554 
N1047 X-256.077 Y-41.972 Z34.784 A73.8197 
N1048 X-256.077 Y-43.003 Z34.564 A76.6166 
N1049 X-256.077 Y-44.028 Z34.235 A79.3915 
N1050 X-256.077 Y-45.025 Z33.786 A82.0967 
N1051 X-256.077 Y-45.976 Z33.212 A84.6966 
N1052 X-256.077 Y-46.848 Z32.510 A87.1174 
N1053 X-256.077 Y-47.605 Z31.680 A89.2662 
N1054 X-256.077 Y-48.218 Z30.731 A91.0645 
N1055 X-256.077 Y-48.675 Z29.673 A92.4784 
N1056 X-256.077 Y-48.983 Z28.519 A93.5260 
N1057 X-256.077 Y-49.161 Z27.278 A94.2469 
N1058 X-256.077 Y-49.228 Z25.962 A94.6874 
N1059 X-256.077 Y-49.208 Z24.585 A94.9027 
N1060 X-256.077 Y-49.131 Z23.159 A94.9627 
N1061 X-256.077 Y-49.023 Z21.699 A94.9410 
N1062 X-256.077 Y-48.922 Z20.223 A94.9406 
N1063 X-256.077 Y-48.840 Z18.746 A94.9998 
N1064 X-256.077 Y-48.814 Z17.287 A95.2310 
N1065 X-256.077 Y-48.858 Z15.861 A95.6939 
N1066 X-256.077 Y-48.996 Z14.478 A96.4687 
N1067 X-256.077 Y-49.238 Z13.146 A97.6083 
N1068 X-256.077 Y-49.586 Z11.866 A99.1343 
N1069 X-256.077 Y-50.024 Z10.637 A101.0096 
N1070 X-256.077 Y-50.525 Z9.458 A103.1628 
N1071 X-256.077 Y-51.065 Z8.324 A105.5222 
N1072 X-256.077 Y-51.624 Z7.232 A108.0262 
N1073 X-256.077 Y-52.189 Z6.176 A110.6287 
N1074 X-256.077 Y-52.744 Z5.153 A113.2795 
N1075 X-256.077 Y-53.274 Z4.161 A115.9266 
N1076 X-256.077 Y-53.770 Z3.198 A118.5389 
N1077 X-256.077 Y-54.231 Z2.259 A121.1072 
N1078 X-256.077 Y-54.655 Z1.341 A123.6258 
N1079 X-256.077 Y-55.040 Z0.440 A126.0921 
N1080 X-256.077 Y-55.386 Z-0.449 A128.5092 
N1081 X-256.077 Y-55.696 Z-1.331 A130.8864 
N1082 X-256.077 Y-55.969 Z-2.210 A133.2354 
N1083 X-256.077 Y-56.205 Z-3.090 A135.5658 
N1084 X-256.077 Y-56.404 Z-3.976 A137.8854 
N1085 X-256.077 Y-56.565 Z-4.872 A140.2056 
N1086 X-256.077 Y-56.684 Z-5.783 A142.5383 
N1087 X-256.077 Y-56.759 Z-6.713 A144.8932 
N1088 X-256.077 Y-56.784 Z-7.666 A147.2823 
N1089 X-256.077 Y-56.754 Z-8.649 A149.7212 
N1090 X-256.077 Y-56.659 Z-9.667 A152.2235 
N1091 X-256.077 Y-56.486 Z-10.724 A154.7972 
N1092 X-256.077 Y-56.220 Z-11.823 A157.4515 
N1093 X-256.077 Y-55.842 Z-12.963 A160.1921 
N1094 X-256.077 Y-55.328 Z-14.141 A163.0124 
N1095 X-256.077 Y-54.651 Z-15.341 A165.8855 
N1096 X-256.077 Y-53.784 Z-16.542 A168.7757 
N1097 X-256.077 Y-52.701 Z-17.721 A171.6425 
N1098 X-256.077 Y-51.378 Z-18.822 A174.3639 
N1099 X-256.077 Y-49.797 Z-19.765 A176.7363 
N1100 X-256.077 Y-47.957 Z-20.482 A178.5656 
N1101 X-256.077 Y-45.861 Z-20.952 A179.7797 
N1102 X-256.077 Y-43.518 Z-21.215 A180.4663 
N1103 X-256.077 Y-40.932 Z-21.339 A180.7858 
N1104 X-256.077 Y-38.114 Z-21.385 A180.8989 
N1105 X-256.077 Y-35.082 Z-21.397 A180.9122 
N1106 X-256.077 Y-31.863 Z-21.399 A180.8893 
N1107 X-256.077 Y-28.492 Z-21.403 A180.8647 
N1108 X-256.077 Y-25.015 Z-21.415 A180.8564 
N1109 X-256.077 Y-21.479 Z-21.433 A180.8615 
N1110 X-256.077 Y-17.938 Z-21.455 A180.8754 
N1111 X-256.077 Y-14.444 Z-21.475 A180.8825 
N1112 X-256.077 Y-11.047 Z-21.493 A180.8804 
N1113 X-256.077 Y-7.793 Z-21.506 A180.8606 
N1114 X-256.077 Y-4.720 Z-21.525 A180.8564 
N1115 X-256.077 Y-1.854 Z-21.545 
N1116 X-256.077 Y0.789 Z-21.587 A180.9358 
N1117 X-256.077 Y3.191 Z-21.728 A181.3498 
N1118 X-256.077 Y5.358 Z-22.009 A182.2618 
N1119 X-256.077 Y7.307 Z-22.468 A183.8292 
N1120 X-256.077 Y9.068 Z-23.094 A186.0509 
N1121 X-256.077 Y10.673 Z-23.835 A188.7882 
N1122 X-256.077 Y12.153 Z-24.628 A191.8498 
N1123 X-256.077 Y13.531 Z-25.422 A195.0619 
N1124 X-256.077 Y14.824 Z-26.179 A198.2969 
N1125 X-256.077 Y16.041 Z-26.871 A201.4393 
N1126 X-256.077 Y17.188 Z-27.482 A204.4251 
N1127 X-256.077 Y18.278 Z-28.019 A207.2586 
N1128 X-256.077 Y19.325 Z-28.490 A209.9668 
N1129 X-256.077 Y20.340 Z-28.904 A212.5737 
N1130 X-256.077 Y21.335 Z-29.262 A215.0941 
N1131 X-256.077 Y22.316 Z-29.568 A217.5449 
N1132 X-256.077 Y23.292 Z-29.823 A219.9423 
N1133 X-256.077 Y24.267 Z-30.027 A222.2964 
N1134 X-256.077 Y25.246 Z-30.178 A224.6113 
N1135 X-256.077 Y26.228 Z-30.273 A226.8884 
N1136 X-256.077 Y27.215 Z-30.309 A229.1262 
N1137 X-256.077 Y28.204 Z-30.282 A231.3206 
N1138 X-256.077 Y29.192 Z-30.190 A233.4646 
N1139 X-256.077 Y30.175 Z-30.029 A235.5497 
N1140 X-256.077 Y31.150 Z-29.797 A237.5677 
N1141 X-256.077 Y32.111 Z-29.494 A239.5121 
N1142 X-256.077 Y33.055 Z-29.119 A241.3802 
N1143 X-256.077 Y33.980 Z-28.675 A243.1737 
N1144 X-256.077 Y34.884 Z-28.164 A244.8973 
N1145 X-256.077 Y35.767 Z-27.591 A246.5586 
N1146 X-256.077 Y36.629 Z-26.960 A248.1670 
N1147 X-256.077 Y37.469 Z-26.275 A249.7327 
N1148 X-256.077 Y38.289 Z-25.542 A251.2667 
N1149 X-256.077 Y39.089 Z-24.767 A252.7798 
N1150 X-256.077 Y39.869 Z-23.955 A254.2820 
N1151 X-256.077 Y40.630 Z-23.113 A255.7820 
N1152 X-256.077 Y41.373 Z-22.245 A257.2871 
N1153 X-256.077 Y42.096 Z-21.357 A258.8049 
N1154 X-256.077 Y42.801 Z-20.455 A260.3419 
N1155 X-256.077 Y43.488 Z-19.544 A261.9035 
N1156 X-256.077 Y44.158 Z-18.628 A263.4939 
N1157 X-256.077 Y44.810 Z-17.712 A265.1173 
N1158 X-256.077 Y45.447 Z-16.798 A266.7768 
N1159 X-256.077 Y46.067 Z-15.889 A268.4742 
N1160 X-256.077 Y46.673 Z-14.989 A270.2106 
N1161 X-256.077 Y47.263 Z-14.097 A271.9864 
N1162 X-256.077 Y47.839 Z-13.215 A273.8011 
N1163 X-256.077 Y48.402 Z-12.344 A275.6535 
N1164 X-256.077 Y48.950 Z-11.483 A277.5416 
N1165 X-256.077 Y49.484 Z-10.631 A279.4628 
N1166 X-256.077 Y50.003 Z-9.789 A281.4147 
N1167 X-256.077 Y50.508 Z-8.954 A283.3945 
N1168 X-256.077 Y50.998 Z-8.126 A285.3988 
N1169 X-256.077 Y51.472 Z-7.303 A287.4246 
N1170 X-256.077 Y51.929 Z-6.484 A289.4695 
N1171 X-256.077 Y52.369 Z-5.667 A291.5308 
N1172 X-256.077 Y52.791 Z-4.852 A293.6061 
N1173 X-256.077 Y53.194 Z-4.037 A295.6934 
N1174 X-256.077 Y53.577 Z-3.221 A297.7912 
N1175 X-256.077 Y53.939 Z-2.402 A299.8981 
N1176 X-256.077 Y54.279 Z-1.580 A302.0131 
N1177 X-256.077 Y54.596 Z-0.754 A304.1354 
N1178 X-256.077 Y54.889 Z0.078 A306.2645 
N1179 X-256.077 Y55.157 Z0.915 A308.4005 
N1180 X-256.077 Y55.398 Z1.760 A310.5435 
N1181 X-256.077 Y55.611 Z2.613 A312.6939 
N1182 X-256.077 Y55.795 Z3.474 A314.8533 
N1183 X-256.077 Y55.947 Z4.346 A317.0240 
N1184 X-256.077 Y56.067 Z5.229 A319.2091 
N1185 X-256.077 Y56.150 Z6.126 A321.4127 
N1186 X-256.077 Y56.196 Z7.039 A323.6419 
N1187 X-256.077 Y56.199 Z7.972 A325.9059 
N1188 X-256.077 Y56.155 Z8.929 A328.2137 
N1189 X-256.077 Y56.057 Z9.915 A330.5766 
N1190 X-256.077 Y55.895 Z10.935 A333.0113 
N1191 X-256.077 Y55.658 Z11.995 A335.5328 
N1192 X-256.077 Y55.330 Z13.099 A338.1504 
N1193 X-256.077 Y54.889 Z14.249 A340.8777 
N1194 X-256.077 Y54.314 Z15.448 A343.7315 
N1195 X-256.077 Y53.575 Z16.688 A346.7116 
N1196 X-256.077 Y52.636 Z17.939 A349.7487 
N1197 X-256.077 Y51.463 Z19.143 A352.7161 
N1198 X-256.077 Y50.032 Z20.244 A355.4816 
N1199 X-256.077 Y48.327 Z21.178 A357.8956 
N1200 X-256.077 Y46.343 Z21.888 A359.8073 
N1201 X-256.077 Y44.080 Z22.341 A1.1071 
N1202 X-256.077 Y41.541 Z22.556 A1.8156 
N1203 X-256.077 Y38.727 Z22.600 A2.0851 
N1204 X-256.077 Y35.643 Z22.554 A2.1180 
N1205 X-256.077 Y32.302 Z22.482 A2.0807 
N1206 X-256.077 Y28.731 Z22.412 A2.0515 
N1207 X-256.077 Y24.968 Z22.350 
N1208 X-256.077 Y21.058 Z22.287 
N1209 X-256.077 Y17.060 Z22.223 
N1210 X-256.077 Y13.034 Z22.160 A2.0564 
N1211 X-256.077 Y9.045 Z22.097 A2.0633 
N1212 X-256.077 Y5.155 Z22.036 A2.0721 
N1213 X-256.077 Y1.421 Z21.978 A2.0821 
N1214 X-256.077 Y-2.106 Z21.922 A2.0917 
N1215 X-256.077 Y-5.383 Z21.870 A2.0986 
N1216 X-256.077 Y-8.382 Z21.820 A2.0975 
N1217 X-256.077 Y-11.084 Z21.772 A2.0857 
N1218 X-256.077 Y-13.483 Z21.723 A2.0515 
N1219 X-256.077 Y-15.580 Z21.692 
N1220 X-256.077 Y-17.400 Z21.673 A2.0769 
N1221 X-256.077 Y-18.954 Z21.784 A2.4978 
N1222 X-256.077 Y-20.282 Z22.116 A3.6246 
N1223 X-256.077 Y-21.435 Z22.789 A5.8511 
N1224 X-256.077 Y-22.488 Z23.815 A9.2566 
N1225 X-256.077 Y-23.507 Z25.058 A13.4689 
N1226 X-256.077 Y-24.506 Z26.306 A17.8473 
N1227 X-256.077 Y-25.475 Z27.448 A22.0295 
N1228 X-256.077 Y-26.393 Z28.432 A25.8197 
N1229 X-256.077 Y-27.252 Z29.266 A29.2076 
N1230 X-256.077 Y-28.070 Z29.998 A32.3330 
N1231 X-256.077 Y-28.857 Z30.648 A35.2525 
N1232 X-256.077 Y-29.619 Z31.226 A37.9910 
N1233 X-256.077 Y-30.363 Z31.742 A40.5880 
N1234 X-256.077 Y-31.096 Z32.205 A43.0787 
N1235 X-256.077 Y-31.826 Z32.625 A45.4977 
N1236 X-256.077 Y-32.561 Z33.007 A47.8742 
N1237 X-256.077 Y-33.305 Z33.352 A50.2268 
N1238 X-256.077 Y-34.061 Z33.664 A52.5700 
N1239 X-256.077 Y-34.834 Z33.941 A54.9188 
N1240 X-256.077 Y-35.627 Z34.183 A57.2846 
N1241 X-256.077 Y-36.442 Z34.387 A59.6749 
N1242 X-256.077 Y-37.281 Z34.551 A62.1002 
N1243 X-256.077 Y-38.148 Z34.670 A64.5698 
N1244 X-256.077 Y-39.043 Z34.739 A67.0864 
N1245 X-256.077 Y-39.966 Z34.749 A69.6538 
N1246 X-256.077 Y-40.916 Z34.693 A72.2744 
N1247 X-256.077 Y-41.888 Z34.561 A74.9376 
N1248 X-256.077 Y-42.868 Z34.340 A77.6142 
N1249 X-256.077 Y-43.842 Z34.021 A80.2725 
N1250 X-256.077 Y-44.797 Z33.594 A82.8895 
N1251 X-256.077 Y-45.710 Z33.054 A85.4183 
N1252 X-256.077 Y-46.555 Z32.396 A87.7930 
N1253 X-256.077 Y-47.306 Z31.622 A89.9607 
N1254 X-256.077 Y-47.948 Z30.735 A91.8850 
N1255 X-256.077 Y-48.468 Z29.745 A93.5360 
N1256 X-256.077 Y-48.858 Z28.660 A94.8858 
N1257 X-256.077 Y-49.109 Z27.492 A95.9085 
N1258 X-256.077 Y-49.229 Z26.253 A96.6094 
N1259 X-256.077 Y-49.239 Z24.956 A97.0362 
N1260 X-256.077 Y-49.170 Z23.611 A97.2624 
N1261 X-256.077 Y-49.055 Z22.229 A97.3772 
N1262 X-256.077 Y-48.926 Z20.825 A97.4642 
N1263 X-256.077 Y-48.811 Z19.412 A97.6014 
N1264 X-256.077 Y-48.736 Z18.005 A97.8715 
N1265 X-256.077 Y-48.727 Z16.615 A98.3613 
N1266 X-256.077 Y-48.804 Z15.253 A99.1393 
N1267 X-256.077 Y-48.976 Z13.928 A100.2460 
N1268 X-256.077 Y-49.236 Z12.642 A101.6808 
N1269 X-256.077 Y-49.572 Z11.399 A103.4129 
N1270 X-256.077 Y-49.971 Z10.198 A105.4086 
N1271 X-256.077 Y-50.417 Z9.035 A107.6292 
N1272 X-256.077 Y-50.894 Z7.908 A110.0273 
N1273 X-256.077 Y-51.384 Z6.813 A112.5440 
N1274 X-256.077 Y-51.868 Z5.750 A115.1180 
N1275 X-256.077 Y-52.333 Z4.717 A117.7058 
N1276 X-256.077 Y-52.772 Z3.711 A120.2851 
N1277 X-256.077 Y-53.179 Z2.728 A122.8360 
N1278 X-256.077 Y-53.551 Z1.767 A125.3433 
N1279 X-256.077 Y-53.885 Z0.824 A127.8034 
N1280 X-256.077 Y-54.181 Z-0.106 A130.2215 
N1281 X-256.077 Y-54.440 Z-1.027 A132.6053 
N1282 X-256.077 Y-54.662 Z-1.944 A134.9623 
N1283 X-256.077 Y-54.845 Z-2.862 A137.3003 
N1284 X-256.077 Y-54.989 Z-3.784 A139.6304 
N1285 X-256.077 Y-55.091 Z-4.717 A141.9641 
N1286 X-256.077 Y-55.148 Z-5.663 A144.3111 
N1287 X-256.077 Y-55.156 Z-6.628 A146.6827 
N1288 X-256.077 Y-55.109 Z-7.619 A149.0939 
N1289 X-256.077 Y-54.998 Z-8.639 A151.5570 
N1290 X-256.077 Y-54.813 Z-9.692 A154.0803 
N1291 X-256.077 Y-54.538 Z-10.782 A156.6725 
N1292 X-256.077 Y-54.157 Z-11.909 A159.3379 
N1293 X-256.077 Y-53.648 Z-13.068 A162.0696 
N1294 X-256.077 Y-52.988 Z-14.249 A164.8537 
N1295 X-256.077 Y-52.153 Z-15.442 A167.6783 
N1296 X-256.077 Y-51.118 Z-16.629 A170.5236 
N1297 X-256.077 Y-49.857 Z-17.758 A173.2739 
N1298 X-256.077 Y-48.354 Z-18.751 A175.7278 
N1299 X-256.077 Y-46.602 Z-19.538 A177.6925 
N1300 X-256.077 Y-44.610 Z-20.094 A179.0910 
N1301 X-256.077 Y-42.386 Z-20.446 A179.9807 
N1302 X-256.077 Y-39.939 Z-20.645 A180.4791 
N1303 X-256.077 Y-37.281 Z-20.742 A180.7099 
N1304 X-256.077 Y-34.430 Z-20.779 A180.7750 
N1305 X-256.077 Y-31.412 Z-20.789 A180.7577 
N1306 X-256.077 Y-28.261 Z-20.798 A180.7227 
N1307 X-256.077 Y-25.016 Z-20.816 A180.7063 
N1308 X-256.077 Y-21.724 Z-20.843 A180.7108 
N1309 X-256.077 Y-18.431 Z-20.873 A180.7225 
N1310 X-256.077 Y-15.187 Z-20.901 A180.7246 
N1311 X-256.077 Y-12.035 Z-20.924 A180.7070 
N1312 X-256.077 Y-9.019 Z-20.953 A180.7063 
N1313 X-256.077 Y-6.166 Z-20.982 
N1314 X-256.077 Y-3.500 Z-21.020 A180.7457 
N1315 X-256.077 Y-1.045 Z-21.131 A181.0358 
N1316 X-256.077 Y1.195 Z-21.349 A181.7111 
N1317 X-256.077 Y3.226 Z-21.727 A182.9651 
N1318 X-256.077 Y5.070 Z-22.282 A184.8983 
N1319 X-256.077 Y6.758 Z-22.987 A187.4480 
N1320 X-256.077 Y8.318 Z-23.766 A190.4001 
N1321 X-256.077 Y9.770 Z-24.544 A193.5180 
N1322 X-256.077 Y11.126 Z-25.280 A196.6464 
N1323 X-256.077 Y12.402 Z-25.959 A199.7207 
N1324 X-256.077 Y13.607 Z-26.571 A202.6914 
N1325 X-256.077 Y14.752 Z-27.113 A205.5342 
N1326 X-256.077 Y15.850 Z-27.589 A208.2561 
N1327 X-256.077 Y16.912 Z-28.005 A210.8767 
N1328 X-256.077 Y17.950 Z-28.366 A213.4140 
N1329 X-256.077 Y18.972 Z-28.674 A215.8806 
N1330 X-256.077 Y19.986 Z-28.928 A218.2898 
N1331 X-256.077 Y20.999 Z-29.130 A220.6531 
N1332 X-256.077 Y22.013 Z-29.277 A222.9756 
N1333 X-256.077 Y23.030 Z-29.366 A225.2576 
N1334 X-256.077 Y24.051 Z-29.394 A227.4964 
N1335 X-256.077 Y25.073 Z-29.358 A229.6868 
N1336 X-256.077 Y26.094 Z-29.253 A231.8222 
N1337 X-256.077 Y27.110 Z-29.078 A233.8939 
N1338 X-256.077 Y28.116 Z-28.829 A235.8924 
N1339 X-256.077 Y29.106 Z-28.507 A237.8090 
N1340 X-256.077 Y30.077 Z-28.112 A239.6387 
N1341 X-256.077 Y31.025 Z-27.647 A241.3817 
N1342 X-256.077 Y31.949 Z-27.115 A243.0426 
N1343 X-256.077 Y32.847 Z-26.523 A244.6299 
N1344 X-256.077 Y33.721 Z-25.875 A246.1552 
N1345 X-256.077 Y34.572 Z-25.179 A247.6331 
N1346 X-256.077 Y35.402 Z-24.443 A249.0799 
N1347 X-256.077 Y36.213 Z-23.672 A250.5122 
N1348 X-256.077 Y37.008 Z-22.875 A251.9455 
N1349 X-256.077 Y37.787 Z-22.057 A253.3928 
N1350 X-256.077 Y38.552 Z-21.224 A254.8646 
N1351 X-256.077 Y39.304 Z-20.383 A256.3693 
N1352 X-256.077 Y40.043 Z-19.538 A257.9141 
N1353 X-256.077 Y40.770 Z-18.692 A259.5043 
N1354 X-256.077 Y41.484 Z-17.851 A261.1423 
N1355 X-256.077 Y42.187 Z-17.015 A262.8294 
N1356 X-256.077 Y42.876 Z-16.188 A264.5658 
N1357 X-256.077 Y43.554 Z-15.370 A266.3507 
N1358 X-256.077 Y44.218 Z-14.562 A268.1816 
N1359 X-256.077 Y44.870 Z-13.764 A270.0552 
N1360 X-256.077 Y45.507 Z-12.977 A271.9677 
N1361 X-256.077 Y46.131 Z-12.198 A273.9157 
N1362 X-256.077 Y46.740 Z-11.427 A275.8953 
N1363 X-256.077 Y47.333 Z-10.662 A277.9021 
N1364 X-256.077 Y47.911 Z-9.903 A279.9321 
N1365 X-256.077 Y48.472 Z-9.148 A281.9822 
N1366 X-256.077 Y49.017 Z-8.394 A284.0494 
N1367 X-256.077 Y49.543 Z-7.641 A286.1303 
N1368 X-256.077 Y50.051 Z-6.888 A288.2225 
N1369 X-256.077 Y50.539 Z-6.132 A290.3239 
N1370 X-256.077 Y51.007 Z-5.373 A292.4328 
N1371 X-256.077 Y51.454 Z-4.609 A294.5476 
N1372 X-256.077 Y51.879 Z-3.840 A296.6672 
N1373 X-256.077 Y52.281 Z-3.064 A298.7906 
N1374 X-256.077 Y52.659 Z-2.282 A300.9173 
N1375 X-256.077 Y53.012 Z-1.491 A303.0468 
N1376 X-256.077 Y53.340 Z-0.692 A305.1786 
N1377 X-256.077 Y53.640 Z0.117 A307.3129 
N1378 X-256.077 Y53.912 Z0.934 A309.4499 
N1379 X-256.077 Y54.154 Z1.762 A311.5902 
N1380 X-256.077 Y54.365 Z2.601 A313.7346 
N1381 X-256.077 Y54.543 Z3.450 A315.8850 
N1382 X-256.077 Y54.687 Z4.312 A318.0440 
N1383 X-256.077 Y54.795 Z5.187 A320.2146 
N1384 X-256.077 Y54.864 Z6.077 A322.4013 
N1385 X-256.077 Y54.891 Z6.985 A324.6116 
N1386 X-256.077 Y54.873 Z7.913 A326.8542 
N1387 X-256.077 Y54.803 Z8.866 A329.1377 
N1388 X-256.077 Y54.676 Z9.848 A331.4747 
N1389 X-256.077 Y54.480 Z10.864 A333.8813 
N1390 X-256.077 Y54.205 Z11.920 A336.3702 
N1391 X-256.077 Y53.832 Z13.018 A338.9510 
N1392 X-256.077 Y53.342 Z14.160 A341.6384 
N1393 X-256.077 Y52.712 Z15.348 A344.4460 
N1394 X-256.077 Y51.912 Z16.570 A347.3615 
N1395 X-256.077 Y50.907 Z17.794 A350.3181 
N1396 X-256.077 Y49.669 Z18.975 A353.2219 
N1397 X-256.077 Y48.171 Z20.060 A355.9580 
N1398 X-256.077 Y46.399 Z20.975 A358.3439 
N1399 X-256.077 Y44.348 Z21.649 A0.1853 
N1400 X-256.077 Y42.025 Z22.049 A1.3650 
N1401 X-256.077 Y39.432 Z22.215 A1.9535 
N1402 X-256.077 Y36.572 Z22.227 A2.1429 
N1403 X-256.077 Y33.453 Z22.169 A2.1501 
N1404 X-256.077 Y30.092 Z22.095 A2.1148 
N1405 X-256.077 Y26.519 Z22.026 A2.0944 
N1406 X-256.077 Y22.775 Z21.961 
N1407 X-256.077 Y18.908 Z21.896 
N1408 X-256.077 Y14.976 Z21.830 
N1409 X-256.077 Y11.041 Z21.765 A2.1003 
N1410 X-256.077 Y7.165 Z21.701 A2.1082 
N1411 X-256.077 Y3.407 Z21.640 A2.1183 
N1412 X-256.077 Y-0.177 Z21.583 A2.1306 
N1413 X-256.077 Y-3.540 Z21.529 A2.1447 
N1414 X-256.077 Y-6.648 Z21.480 A2.1578 
N1415 X-256.077 Y-9.473 Z21.432 A2.1603 
N1416 X-256.077 Y-12.002 Z21.383 A2.1416 
N1417 X-256.077 Y-14.234 Z21.332 A2.0944 
N1418 X-256.077 Y-16.173 Z21.304 
N1419 X-256.077 Y-17.851 Z21.304 A2.1722 
N1420 X-256.077 Y-19.278 Z21.476 A2.7817 
N1421 X-256.077 Y-20.499 Z21.910 A4.2262 
N1422 X-256.077 Y-21.571 Z22.689 A6.7937 
N1423 X-256.077 Y-22.569 Z23.781 A10.4283 
N1424 X-256.077 Y-23.550 Z25.054 A14.7547 
N1425 X-256.077 Y-24.535 Z26.344 A19.2868 
N1426 X-256.077 Y-25.494 Z27.500 A23.5396 
N1427 X-256.077 Y-26.387 Z28.455 A27.2554 
N1428 X-256.077 Y-27.225 Z29.264 A30.5751 
N1429 X-256.077 Y-28.028 Z29.978 A33.6557 
N1430 X-256.077 Y-28.801 Z30.609 A36.5234 
N1431 X-256.077 Y-29.550 Z31.168 A39.2121 
N1432 X-256.077 Y-30.282 Z31.667 A41.7613 
N1433 X-256.077 Y-31.005 Z32.114 A44.2092 
N1434 X-256.077 Y-31.726 Z32.519 A46.5921 
N1435 X-256.077 Y-32.453 Z32.887 A48.9364 
N1436 X-256.077 Y-33.188 Z33.220 A51.2572 
N1437 X-256.077 Y-33.935 Z33.519 A53.5679 
N1438 X-256.077 Y-34.698 Z33.783 A55.8807 
N1439 X-256.077 Y-35.477 Z34.012 A58.2032 
N1440 X-256.077 Y-36.274 Z34.204 A60.5422 
N1441 X-256.077 Y-37.092 Z34.357 A62.9065 
N1442 X-256.077 Y-37.932 Z34.467 A65.3019 
N1443 X-256.077 Y-38.794 Z34.529 A67.7326 
N1444 X-256.077 Y-39.680 Z34.537 A70.2056 
N1445 X-256.077 Y-40.588 Z34.487 A72.7241 
N1446 X-256.077 Y-41.516 Z34.368 A75.2809 
N1447 X-256.077 Y-42.454 Z34.172 A77.8607 
N1448 X-256.077 Y-43.395 Z33.889 A80.4496 
N1449 X-256.077 Y-44.328 Z33.512 A83.0306 
N1450 X-256.077 Y-45.233 Z33.032 A85.5600 
N1451 X-256.077 Y-46.088 Z32.445 A87.9874 
N1452 X-256.077 Y-46.873 Z31.750 A90.2755 
N1453 X-256.077 Y-47.572 Z30.947 A92.3870 
N1454 X-256.077 Y-48.165 Z30.043 A94.2758 
N1455 X-256.077 Y-48.634 Z29.046 A95.8951 
N1456 X-256.077 Y-48.969 Z27.966 A97.2088 
N1457 X-256.077 Y-49.171 Z26.815 A98.2184 
N1458 X-256.077 Y-49.257 Z25.603 A98.9538 
N1459 X-256.077 Y-49.244 Z24.340 A99.4584 
N1460 X-256.077 Y-49.156 Z23.037 A99.7849 
N1461 X-256.077 Y-49.020 Z21.705 A99.9985 
N1462 X-256.077 Y-48.865 Z20.355 A100.1808 
N1463 X-256.077 Y-48.729 Z18.996 A100.4343 
N1464 X-256.077 Y-48.642 Z17.640 A100.8572 
N1465 X-256.077 Y-48.625 Z16.296 A101.5202 
N1466 X-256.077 Y-48.689 Z14.972 A102.4645 
N1467 X-256.077 Y-48.834 Z13.676 A103.7008 
N1468 X-256.077 Y-49.056 Z12.411 A105.2284 
N1469 X-256.077 Y-49.348 Z11.179 A107.0378 
N1470 X-256.077 Y-49.698 Z9.977 A109.0988 
N1471 X-256.077 Y-50.088 Z8.806 A111.3578 
N1472 X-256.077 Y-50.497 Z7.665 A113.7552 
N1473 X-256.077 Y-50.908 Z6.554 A116.2366 
N1474 X-256.077 Y-51.310 Z5.471 A118.7654 
N1475 X-256.077 Y-51.694 Z4.414 A121.3099 
N1476 X-256.077 Y-52.050 Z3.382 A123.8391 
N1477 X-256.077 Y-52.372 Z2.375 A126.3346 
N1478 X-256.077 Y-52.660 Z1.386 A128.7927 
N1479 X-256.077 Y-52.911 Z0.414 A131.2145 
N1480 X-256.077 Y-53.125 Z-0.547 A133.6031 
N1481 X-256.077 Y-53.301 Z-1.501 A135.9635 
N1482 X-256.077 Y-53.438 Z-2.452 A138.3049 
N1483 X-256.077 Y-53.534 Z-3.406 A140.6386 
N1484 X-256.077 Y-53.587 Z-4.368 A142.9745 
N1485 X-256.077 Y-53.593 Z-5.341 A145.3225 
N1486 X-256.077 Y-53.548 Z-6.333 A147.6963 
N1487 X-256.077 Y-53.444 Z-7.347 A150.1095 
N1488 X-256.077 Y-53.273 Z-8.389 A152.5719 
N1489 X-256.077 Y-53.023 Z-9.462 A155.0927 
N1490 X-256.077 Y-52.678 Z-10.568 A157.6796 
N1491 X-256.077 Y-52.221 Z-11.706 A160.3319 
N1492 X-256.077 Y-51.632 Z-12.870 A163.0423 
N1493 X-256.077 Y-50.887 Z-14.053 A165.8076 
N1494 X-256.077 Y-49.967 Z-15.246 A168.6275 
N1495 X-256.077 Y-48.845 Z-16.418 A171.4409 
N1496 X-256.077 Y-47.499 Z-17.499 A174.0757 
N1497 X-256.077 Y-45.919 Z-18.414 A176.3323 
N1498 X-256.077 Y-44.109 Z-19.116 A178.0777 
N1499 X-256.077 Y-42.079 Z-19.606 A179.3056 
N1500 X-256.077 Y-39.840 Z-19.916 A180.0845 
N1501 X-256.077 Y-37.405 Z-20.088 A180.5089 
N1502 X-256.077 Y-34.790 Z-20.166 A180.6803 
N1503 X-256.077 Y-32.017 Z-20.190 A180.6989 
N1504 X-256.077 Y-29.115 Z-20.199 A180.6597 
N1505 X-256.077 Y-26.119 Z-20.214 A180.6269 
N1506 X-256.077 Y-23.069 Z-20.242 A180.6225 
N1507 X-256.077 Y-20.009 Z-20.277 A180.6329 
N1508 X-256.077 Y-16.981 Z-20.309 A180.6338 
N1509 X-256.077 Y-14.028 Z-20.336 A180.6115 
N1510 X-256.077 Y-11.190 Z-20.372 
N1511 X-256.077 Y-8.489 Z-20.408 
N1512 X-256.077 Y-5.952 Z-20.469 A180.7082 
N1513 X-256.077 Y-3.604 Z-20.614 A181.0990 
N1514 X-256.077 Y-1.447 Z-20.866 A181.8823 
N1515 X-256.077 Y0.521 Z-21.263 A183.2116 
N1516 X-256.077 Y2.321 Z-21.823 A185.1754 
N1517 X-256.077 Y3.981 Z-22.527 A187.7396 
N1518 X-256.077 Y5.527 Z-23.303 A190.7001 
N1519 X-256.077 Y6.975 Z-24.072 A193.8035 
N1520 X-256.077 Y8.330 Z-24.780 A196.8677 
N1521 X-256.077 Y9.607 Z-25.422 A199.8460 
N1522 X-256.077 Y10.816 Z-25.999 A202.7269 
N1523 X-256.077 Y11.971 Z-26.512 A205.5019 
N1524 X-256.077 Y13.081 Z-26.964 A208.1717 
N1525 X-256.077 Y14.159 Z-27.357 A210.7493 
N1526 X-256.077 Y15.214 Z-27.696 A213.2508 
N1527 X-256.077 Y16.255 Z-27.981 A215.6879 
N1528 X-256.077 Y17.289 Z-28.213 A218.0707 
N1529 X-256.077 Y18.322 Z-28.392 A220.4083 
N1530 X-256.077 Y19.356 Z-28.514 A222.7051 
N1531 X-256.077 Y20.393 Z-28.578 A224.9605 
N1532 X-256.077 Y21.433 Z-28.579 A227.1702 
N1533 X-256.077 Y22.472 Z-28.514 A229.3280 
N1534 X-256.077 Y23.509 Z-28.380 A231.4262 
N1535 X-256.077 Y24.538 Z-28.174 A233.4566 
N1536 X-256.077 Y25.555 Z-27.896 A235.4109 
N1537 X-256.077 Y26.556 Z-27.545 A237.2816 
N1538 X-256.077 Y27.535 Z-27.123 A239.0646 
N1539 X-256.077 Y28.491 Z-26.632 A240.7615 
N1540 X-256.077 Y29.423 Z-26.079 A242.3791 
N1541 X-256.077 Y30.329 Z-25.469 A243.9282 
N1542 X-256.077 Y31.211 Z-24.808 A245.4224 
N1543 X-256.077 Y32.072 Z-24.105 A246.8777 
N1544 X-256.077 Y32.912 Z-23.366 A248.3111 
N1545 X-256.077 Y33.736 Z-22.598 A249.7401 
N1546 X-256.077 Y34.544 Z-21.810 A251.1800 
N1547 X-256.077 Y35.338 Z-21.006 A252.6429 
N1548 X-256.077 Y36.119 Z-20.193 A254.1374 
N1549 X-256.077 Y36.886 Z-19.376 A255.6690 
N1550 X-256.077 Y37.640 Z-18.559 A257.2426 
N1551 X-256.077 Y38.381 Z-17.745 A258.8616 
N1552 X-256.077 Y39.109 Z-16.938 A260.5277 
N1553 X-256.077 Y39.824 Z-16.139 A262.2410 
N1554 X-256.077 Y40.526 Z-15.351 A264.0012 
N1555 X-256.077 Y41.214 Z-14.575 A265.8073 
N1556 X-256.077 Y41.890 Z-13.810 A267.6574 
N1557 X-256.077 Y42.553 Z-13.056 A269.5486 
N1558 X-256.077 Y43.202 Z-12.312 A271.4776 
N1559 X-256.077 Y43.839 Z-11.578 A273.4411 
N1560 X-256.077 Y44.461 Z-10.851 A275.4357 
N1561 X-256.077 Y45.070 Z-10.131 A277.4575 
N1562 X-256.077 Y45.663 Z-9.416 A279.5025 
N1563 X-256.077 Y46.242 Z-8.703 A281.5677 
N1564 X-256.077 Y46.805 Z-7.992 A283.6502 
N1565 X-256.077 Y47.351 Z-7.280 A285.7470 
N1566 X-256.077 Y47.879 Z-6.566 A287.8553 
N1567 X-256.077 Y48.390 Z-5.849 A289.9734 
N1568 X-256.077 Y48.881 Z-5.127 A292.0995 
N1569 X-256.077 Y49.352 Z-4.399 A294.2320 
N1570 X-256.077 Y49.802 Z-3.665 A296.3696 
N1571 X-256.077 Y50.230 Z-2.922 A298.5113 
N1572 X-256.077 Y50.636 Z-2.171 A300.6565 
N1573 X-256.077 Y51.017 Z-1.411 A302.8045 
N1574 X-256.077 Y51.373 Z-0.641 A304.9549 
N1575 X-256.077 Y51.702 Z0.139 A307.1077 
N1576 X-256.077 Y52.004 Z0.931 A309.2633 
N1577 X-256.077 Y52.276 Z1.734 A311.4222 
N1578 X-256.077 Y52.518 Z2.548 A313.5853 
N1579 X-256.077 Y52.729 Z3.375 A315.7545 
N1580 X-256.077 Y52.905 Z4.216 A317.9322 
N1581 X-256.077 Y53.046 Z5.071 A320.1215 
N1582 X-256.077 Y53.148 Z5.942 A322.3266 
N1583 X-256.077 Y53.209 Z6.832 A324.5554 
N1584 X-256.077 Y53.226 Z7.745 A326.8176 
N1585 X-256.077 Y53.192 Z8.683 A329.1228 
N1586 X-256.077 Y53.101 Z9.653 A331.4843 
N1587 X-256.077 Y52.943 Z10.659 A333.9191 
N1588 X-256.077 Y52.706 Z11.708 A336.4401 
N1589 X-256.077 Y52.373 Z12.800 A339.0561 
N1590 X-256.077 Y51.923 Z13.939 A341.7818 
N1591 X-256.077 Y51.333 Z15.126 A344.6320 
N1592 X-256.077 Y50.574 Z16.349 A347.5953 
N1593 X-256.077 Y49.610 Z17.574 A350.5949 
N1594 X-256.077 Y48.412 Z18.749 A353.5209 
N1595 X-256.077 Y46.956 Z19.818 A356.2482 
N1596 X-256.077 Y45.228 Z20.709 A358.5985 
N1597 X-256.077 Y43.226 Z21.357 A0.3900 
N1598 X-256.077 Y40.956 Z21.734 A1.5180 
N1599 X-256.077 Y38.419 Z21.880 A2.0618 
N1600 X-256.077 Y35.618 Z21.878 A2.2185 
N1601 X-256.077 Y32.560 Z21.813 A2.2087 
N1602 X-256.077 Y29.262 Z21.737 A2.1681 
N1603 X-256.077 Y25.755 Z21.669 A2.1559 
N1604 X-256.077 Y22.077 Z21.604 
N1605 X-256.077 Y18.278 Z21.537 
N1606 X-256.077 Y14.415 Z21.469 A2.1569 
N1607 X-256.077 Y10.551 Z21.402 A2.1627 
N1608 X-256.077 Y6.745 Z21.337 A2.1699 
N1609 X-256.077 Y3.058 Z21.274 A2.1799 
N1610 X-256.077 Y-0.458 Z21.215 A2.1931 
N1611 X-256.077 Y-3.755 Z21.161 A2.2095 
N1612 X-256.077 Y-6.798 Z21.112 A2.2264 
N1613 X-256.077 Y-9.563 Z21.063 A2.2313 
N1614 X-256.077 Y-12.035 Z21.014 A2.2129 
N1615 X-256.077 Y-14.213 Z20.959 A2.1559 
N1616 X-256.077 Y-16.103 Z20.930 
N1617 X-256.077 Y-17.738 Z20.922 A2.2123 
N1618 X-256.077 Y-19.125 Z21.090 A2.8045 
N1619 X-256.077 Y-20.311 Z21.512 A4.2081 
N1620 X-256.077 Y-21.349 Z22.268 A6.6996 
N1621 X-256.077 Y-22.314 Z23.344 A10.2664 
N1622 X-256.077 Y-23.270 Z24.636 A14.6287 
N1623 X-256.077 Y-24.247 Z25.980 A19.3065 
N1624 X-256.077 Y-25.203 Z27.174 A23.6654 
N1625 X-256.077 Y-26.089 Z28.145 A27.4176 
N1626 X-256.077 Y-26.920 Z28.968 A30.7685 
N1627 X-256.077 Y-27.718 Z29.695 A33.8763 
N1628 X-256.077 Y-28.486 Z30.335 A36.7605 
N1629 X-256.077 Y-29.229 Z30.900 A39.4569 
N1630 X-256.077 Y-29.954 Z31.403 A42.0067 
N1631 X-256.077 Y-30.669 Z31.854 A44.4520 
N1632 X-256.077 Y-31.383 Z32.264 A46.8313 
N1633 X-256.077 Y-32.102 Z32.636 A49.1701 
N1634 X-256.077 Y-32.829 Z32.973 A51.4830 
N1635 X-256.077 Y-33.567 Z33.276 A53.7831 
N1636 X-256.077 Y-34.319 Z33.546 A56.0810 
N1637 X-256.077 Y-35.085 Z33.780 A58.3827 
N1638 X-256.077 Y-35.867 Z33.978 A60.6940 
N1639 X-256.077 Y-36.666 Z34.138 A63.0208 
N1640 X-256.077 Y-37.482 Z34.257 A65.3672 
N1641 X-256.077 Y-38.316 Z34.331 A67.7372 
N1642 X-256.077 Y-39.168 Z34.357 A70.1359 
N1643 X-256.077 Y-40.038 Z34.329 A72.5657 
N1644 X-256.077 Y-40.923 Z34.241 A75.0237 
N1645 X-256.077 Y-41.819 Z34.086 A77.5045 
N1646 X-256.077 Y-42.721 Z33.858 A80.0023 
N1647 X-256.077 Y-43.620 Z33.548 A82.5051 
N1648 X-256.077 Y-44.504 Z33.149 A84.9856 
N1649 X-256.077 Y-45.358 Z32.655 A87.4142 
N1650 X-256.077 Y-46.168 Z32.063 A89.7678 
N1651 X-256.077 Y-46.917 Z31.372 A92.0112 
N1652 X-256.077 Y-47.584 Z30.583 A94.0982 
N1653 X-256.077 Y-48.152 Z29.701 A95.9852 
N1654 X-256.077 Y-48.608 Z28.732 A97.6414 
N1655 X-256.077 Y-48.947 Z27.687 A99.0529 
N1656 X-256.077 Y-49.170 Z26.574 A100.2154 
N1657 X-256.077 Y-49.279 Z25.405 A101.1278 
N1658 X-256.077 Y-49.284 Z24.190 A101.8083 
N1659 X-256.077 Y-49.208 Z22.939 A102.3046 
N1660 X-256.077 Y-49.078 Z21.659 A102.6875 
N1661 X-256.077 Y-48.926 Z20.358 A103.0446 
N1662 X-256.077 Y-48.782 Z19.046 A103.4553 
N1663 X-256.077 Y-48.666 Z17.731 A103.9853 
N1664 X-256.077 Y-48.599 Z16.423 A104.6927 
N1665 X-256.077 Y-48.594 Z15.127 A105.6289 
N1666 X-256.077 Y-48.663 Z13.848 A106.8324 
N1667 X-256.077 Y-48.806 Z12.590 A108.3202 
N1668 X-256.077 Y-49.017 Z11.354 A110.0756 
N1669 X-256.077 Y-49.279 Z10.143 A112.0596 
N1670 X-256.077 Y-49.578 Z8.956 A114.2309 
N1671 X-256.077 Y-49.899 Z7.794 A116.5479 
N1672 X-256.077 Y-50.230 Z6.656 A118.9697 
N1673 X-256.077 Y-50.555 Z5.542 A121.4506 
N1674 X-256.077 Y-50.861 Z4.453 A123.9482 
N1675 X-256.077 Y-51.142 Z3.389 A126.4377 
N1676 X-256.077 Y-51.392 Z2.346 A128.9080 
N1677 X-256.077 Y-51.609 Z1.322 A131.3503 
N1678 X-256.077 Y-51.789 Z0.315 A133.7607 
N1679 X-256.077 Y-51.932 Z-0.681 A136.1419 
N1680 X-256.077 Y-52.035 Z-1.671 A138.5022 
N1681 X-256.077 Y-52.098 Z-2.658 A140.8509 
N1682 X-256.077 Y-52.117 Z-3.649 A143.1966 
N1683 X-256.077 Y-52.088 Z-4.647 A145.5503 
N1684 X-256.077 Y-52.008 Z-5.660 A147.9259 
N1685 X-256.077 Y-51.869 Z-6.693 A150.3359 
N1686 X-256.077 Y-51.661 Z-7.749 A152.7896 
N1687 X-256.077 Y-51.374 Z-8.833 A155.2972 
N1688 X-256.077 Y-50.993 Z-9.946 A157.8654 
N1689 X-256.077 Y-50.500 Z-11.086 A160.4919 
N1690 X-256.077 Y-49.876 Z-12.249 A163.1745 
N1691 X-256.077 Y-49.102 Z-13.431 A165.9179 
N1692 X-256.077 Y-48.157 Z-14.621 A168.7176 
N1693 X-256.077 Y-47.016 Z-15.778 A171.4801 
N1694 X-256.077 Y-45.662 Z-16.834 A174.0345 
N1695 X-256.077 Y-44.087 Z-17.725 A176.2146 
N1696 X-256.077 Y-42.300 Z-18.420 A177.9296 
N1697 X-256.077 Y-40.311 Z-18.918 A179.1716 
N1698 X-256.077 Y-38.133 Z-19.240 A179.9741 
N1699 X-256.077 Y-35.782 Z-19.418 A180.4027 
N1700 X-256.077 Y-33.277 Z-19.495 A180.5577 
N1701 X-256.077 Y-30.641 Z-19.519 A180.5567 
N1702 X-256.077 Y-27.902 Z-19.533 A180.5115 
N1703 X-256.077 Y-25.096 Z-19.558 A180.4845 
N1704 X-256.077 Y-22.258 Z-19.595 A180.4857 
N1705 X-256.077 Y-19.430 Z-19.636 A180.4931 
N1706 X-256.077 Y-16.650 Z-19.670 A180.4731 
N1707 X-256.077 Y-13.956 Z-19.710 A180.4656 
N1708 X-256.077 Y-11.374 Z-19.754 
N1709 X-256.077 Y-8.922 Z-19.805 A180.5020 
N1710 X-256.077 Y-6.636 Z-19.955 A180.8760 
N1711 X-256.077 Y-4.520 Z-20.207 A181.6303 
N1712 X-256.077 Y-2.575 Z-20.591 A182.8853 
N1713 X-256.077 Y-0.787 Z-21.114 A184.6958 
N1714 X-256.077 Y0.866 Z-21.772 A187.0696 
N1715 X-256.077 Y2.409 Z-22.518 A189.8847 
N1716 X-256.077 Y3.860 Z-23.283 A192.9223 
N1717 X-256.077 Y5.226 Z-24.001 A195.9682 
N1718 X-256.077 Y6.513 Z-24.649 A198.9216 
N1719 X-256.077 Y7.734 Z-25.229 A201.7781 
N1720 X-256.077 Y8.901 Z-25.749 A204.5411 
N1721 X-256.077 Y10.025 Z-26.209 A207.2106 
N1722 X-256.077 Y11.116 Z-26.611 A209.7917 
N1723 X-256.077 Y12.184 Z-26.958 A212.2974 
N1724 X-256.077 Y13.238 Z-27.252 A214.7399 
N1725 X-256.077 Y14.284 Z-27.492 A217.1276 
N1726 X-256.077 Y15.327 Z-27.678 A219.4673 
N1727 X-256.077 Y16.372 Z-27.807 A221.7633 
N1728 X-256.077 Y17.418 Z-27.877 A224.0155 
N1729 X-256.077 Y18.466 Z-27.884 A226.2192 
N1730 X-256.077 Y19.513 Z-27.824 A228.3671 
N1731 X-256.077 Y20.556 Z-27.696 A230.4500 
N1732 X-256.077 Y21.590 Z-27.495 A232.4591 
N1733 X-256.077 Y22.611 Z-27.222 A234.3874 
N1734 X-256.077 Y23.614 Z-26.878 A236.2300 
N1735 X-256.077 Y24.597 Z-26.463 A237.9847 
N1736 X-256.077 Y25.557 Z-25.983 A239.6548 
N1737 X-256.077 Y26.493 Z-25.442 A241.2503 
N1738 X-256.077 Y27.408 Z-24.848 A242.7864 
N1739 X-256.077 Y28.303 Z-24.207 A244.2814 
N1740 X-256.077 Y29.181 Z-23.526 A245.7532 
N1741 X-256.077 Y30.043 Z-22.812 A247.2186 
N1742 X-256.077 Y30.892 Z-22.072 A248.6925 
N1743 X-256.077 Y31.728 Z-21.311 A250.1872 
N1744 X-256.077 Y32.552 Z-20.536 A251.7113 
N1745 X-256.077 Y33.363 Z-19.750 A253.2684 
N1746 X-256.077 Y34.158 Z-18.958 A254.8575 
N1747 X-256.077 Y34.936 Z-18.163 A256.4770 
N1748 X-256.077 Y35.695 Z-17.369 A258.1267 
N1749 X-256.077 Y36.436 Z-16.579 A259.8067 
N1750 X-256.077 Y37.159 Z-15.796 A261.5175 
N1751 X-256.077 Y37.864 Z-15.022 A263.2597 
N1752 X-256.077 Y38.552 Z-14.259 A265.0344 
N1753 X-256.077 Y39.224 Z-13.506 A266.8429 
N1754 X-256.077 Y39.881 Z-12.766 A268.6864 
N1755 X-256.077 Y40.525 Z-12.036 A270.5648 
N1756 X-256.077 Y41.157 Z-11.317 A272.4775 
N1757 X-256.077 Y41.776 Z-10.607 A274.4232 
N1758 X-256.077 Y42.382 Z-9.905 A276.4000 
N1759 X-256.077 Y42.977 Z-9.208 A278.4053 
N1760 X-256.077 Y43.559 Z-8.517 A280.4367 
N1761 X-256.077 Y44.129 Z-7.828 A282.4917 
N1762 X-256.077 Y44.685 Z-7.140 A284.5674 
N1763 X-256.077 Y45.227 Z-6.451 A286.6611 
N1764 X-256.077 Y45.753 Z-5.760 A288.7703 
N1765 X-256.077 Y46.264 Z-5.065 A290.8930 
N1766 X-256.077 Y46.758 Z-4.364 A293.0269 
N1767 X-256.077 Y47.233 Z-3.658 A295.1701 
N1768 X-256.077 Y47.690 Z-2.944 A297.3213 
N1769 X-256.077 Y48.126 Z-2.222 A299.4791 
N1770 X-256.077 Y48.540 Z-1.491 A301.6425 
N1771 X-256.077 Y48.932 Z-0.750 A303.8107 
N1772 X-256.077 Y49.299 Z0.002 A305.9831 
N1773 X-256.077 Y49.641 Z0.764 A308.1599 
N1774 X-256.077 Y49.957 Z1.539 A310.3415 
N1775 X-256.077 Y50.245 Z2.325 A312.5286 
N1776 X-256.077 Y50.503 Z3.125 A314.7228 
N1777 X-256.077 Y50.730 Z3.939 A316.9264 
N1778 X-256.077 Y50.924 Z4.767 A319.1424 
N1779 X-256.077 Y51.082 Z5.613 A321.3741 
N1780 X-256.077 Y51.203 Z6.478 A323.6289 
N1781 X-256.077 Y51.282 Z7.366 A325.9182 
N1782 X-256.077 Y51.315 Z8.282 A328.2545 
N1783 X-256.077 Y51.297 Z9.231 A330.6522 
N1784 X-256.077 Y51.218 Z10.220 A333.1298 
N1785 X-256.077 Y51.067 Z11.255 A335.7038 
N1786 X-256.077 Y50.826 Z12.338 A338.3812 
N1787 X-256.077 Y50.476 Z13.473 A341.1742 
N1788 X-256.077 Y49.994 Z14.661 A344.1025 
N1789 X-256.077 Y49.351 Z15.898 A347.1695 
N1790 X-256.077 Y48.510 Z17.146 A350.2960 
N1791 X-256.077 Y47.439 Z18.344 A353.3317 
N1792 X-256.077 Y46.115 Z19.424 A356.1221 
N1793 X-256.077 Y44.525 Z20.322 A358.5075 
N1794 X-256.077 Y42.667 Z20.983 A0.3411 
N1795 X-256.077 Y40.544 Z21.380 A1.5298 
N1796 X-256.077 Y38.157 Z21.545 A2.1256 
N1797 X-256.077 Y35.506 Z21.551 A2.3069 
N1798 X-256.077 Y32.596 Z21.484 A2.2940 
N1799 X-256.077 Y29.439 Z21.404 A2.2425 
N1800 X-256.077 Y26.063 Z21.335 A2.2285 
N1801 X-256.077 Y22.502 Z21.270 
N1802 X-256.077 Y18.805 Z21.202 
N1803 X-256.077 Y15.026 Z21.133 A2.2311 
N1804 X-256.077 Y11.226 Z21.065 A2.2356 
N1805 X-256.077 Y7.466 Z20.997 A2.2410 
N1806 X-256.077 Y3.805 Z20.931 A2.2490 
N1807 X-256.077 Y0.301 Z20.869 A2.2615 
N1808 X-256.077 Y-3.001 Z20.813 A2.2796 
N1809 X-256.077 Y-6.060 Z20.763 A2.3022 
N1810 X-256.077 Y-8.850 Z20.715 A2.3167 
N1811 X-256.077 Y-11.353 Z20.666 A2.3111 
N1812 X-256.077 Y-13.566 Z20.608 A2.2546 
N1813 X-256.077 Y-15.489 Z20.568 A2.2285 
N1814 X-256.077 Y-17.151 Z20.542 
N1815 X-256.077 Y-18.568 Z20.626 A2.5589 
N1816 X-256.077 Y-19.770 Z20.933 A3.5906 
N1817 X-256.077 Y-20.807 Z21.543 A5.5961 
N1818 X-256.077 Y-21.745 Z22.493 A8.7157 
N1819 X-256.077 Y-22.663 Z23.743 A12.8711 
N1820 X-256.077 Y-23.619 Z25.157 A17.6843 
N1821 X-256.077 Y-24.587 Z26.485 A22.3955 
N1822 X-256.077 Y-25.492 Z27.558 A26.4285 
N1823 X-256.077 Y-26.331 Z28.440 A29.9326 
N1824 X-256.077 Y-27.134 Z29.214 A33.1570 
N1825 X-256.077 Y-27.907 Z29.895 A36.1398 
N1826 X-256.077 Y-28.651 Z30.493 A38.9100 
N1827 X-256.077 Y-29.375 Z31.021 A41.5110 
N1828 X-256.077 Y-30.085 Z31.494 A43.9883 
N1829 X-256.077 Y-30.792 Z31.922 A46.3860 
N1830 X-256.077 Y-31.502 Z32.311 A48.7355 
N1831 X-256.077 Y-32.220 Z32.664 A51.0534 
N1832 X-256.077 Y-32.947 Z32.983 A53.3523 
N1833 X-256.077 Y-33.686 Z33.268 A55.6430 
N1834 X-256.077 Y-34.438 Z33.519 A57.9320 
N1835 X-256.077 Y-35.204 Z33.734 A60.2234 
N1836 X-256.077 Y-35.984 Z33.912 A62.5215 
N1837 X-256.077 Y-36.778 Z34.050 A64.8297 
N1838 X-256.077 Y-37.587 Z34.147 A67.1503 
N1839 X-256.077 Y-38.409 Z34.199 A69.4865 
N1840 X-256.077 Y-39.245 Z34.202 A71.8404 
N1841 X-256.077 Y-40.092 Z34.153 A74.2117 
N1842 X-256.077 Y-40.948 Z34.045 A76.5987 
N1843 X-256.077 Y-41.810 Z33.874 A78.9992 
N1844 X-256.077 Y-42.673 Z33.635 A81.4088 
N1845 X-256.077 Y-43.530 Z33.320 A83.8150 
N1846 X-256.077 Y-44.371 Z32.924 A86.2010 
N1847 X-256.077 Y-45.187 Z32.442 A88.5532 
N1848 X-256.077 Y-45.966 Z31.871 A90.8512 
N1849 X-256.077 Y-46.692 Z31.209 A93.0612 
N1850 X-256.077 Y-47.348 Z30.457 A95.1498 
N1851 X-256.077 Y-47.922 Z29.617 A97.0898 
N1852 X-256.077 Y-48.402 Z28.696 A98.8563 
N1853 X-256.077 Y-48.779 Z27.700 A100.4251 
N1854 X-256.077 Y-49.046 Z26.640 A101.7725 
N1855 X-256.077 Y-49.202 Z25.525 A102.8879 
N1856 X-256.077 Y-49.255 Z24.365 A103.7890 
N1857 X-256.077 Y-49.223 Z23.168 A104.5140 
N1858 X-256.077 Y-49.127 Z21.942 A105.1137 
N1859 X-256.077 Y-48.990 Z20.695 A105.6447 
N1860 X-256.077 Y-48.835 Z19.434 A106.1668 
N1861 X-256.077 Y-48.685 Z18.165 A106.7477 
N1862 X-256.077 Y-48.567 Z16.895 A107.4625 
N1863 X-256.077 Y-48.499 Z15.628 A108.3733 
N1864 X-256.077 Y-48.494 Z14.368 A109.5208 
N1865 X-256.077 Y-48.552 Z13.118 A110.9178 
N1866 X-256.077 Y-48.669 Z11.884 A112.5553 
N1867 X-256.077 Y-48.837 Z10.665 A114.4180 
N1868 X-256.077 Y-49.046 Z9.463 A116.4814 
N1869 X-256.077 Y-49.283 Z8.278 A118.7065 
N1870 X-256.077 Y-49.531 Z7.112 A121.0457 
N1871 X-256.077 Y-49.776 Z5.969 A123.4521 
N1872 X-256.077 Y-50.006 Z4.847 A125.8920 
N1873 X-256.077 Y-50.216 Z3.748 A128.3434 
N1874 X-256.077 Y-50.397 Z2.669 A130.7859 
N1875 X-256.077 Y-50.545 Z1.609 A133.2059 
N1876 X-256.077 Y-50.658 Z0.566 A135.6006 
N1877 X-256.077 Y-50.732 Z-0.465 A137.9736 
N1878 X-256.077 Y-50.767 Z-1.488 A140.3306 
N1879 X-256.077 Y-50.759 Z-2.509 A142.6785 
N1880 X-256.077 Y-50.705 Z-3.532 A145.0274 
N1881 X-256.077 Y-50.601 Z-4.564 A147.3908 
N1882 X-256.077 Y-50.439 Z-5.610 A149.7808 
N1883 X-256.077 Y-50.213 Z-6.675 A152.2073 
N1884 X-256.077 Y-49.911 Z-7.763 A154.6815 
N1885 X-256.077 Y-49.520 Z-8.877 A157.2118 
N1886 X-256.077 Y-49.025 Z-10.015 A159.7980 
N1887 X-256.077 Y-48.407 Z-11.174 A162.4398 
N1888 X-256.077 Y-47.649 Z-12.352 A165.1416 
N1889 X-256.077 Y-46.732 Z-13.537 A167.8973 
N1890 X-256.077 Y-45.632 Z-14.693 A170.6249 
N1891 X-256.077 Y-44.333 Z-15.764 A173.1829 
N1892 X-256.077 Y-42.830 Z-16.695 A175.4350 
N1893 X-256.077 Y-41.126 Z-17.452 A177.2885 
N1894 X-256.077 Y-39.235 Z-18.021 A178.6975 
N1895 X-256.077 Y-37.170 Z-18.403 A179.6454 
N1896 X-256.077 Y-34.949 Z-18.621 A180.1686 
N1897 X-256.077 Y-32.591 Z-18.720 A180.3679 
N1898 X-256.077 Y-30.121 Z-18.755 A180.3791 
N1899 X-256.077 Y-27.563 Z-18.775 A180.3341 
N1900 X-256.077 Y-24.951 Z-18.805 A180.3041 
N1901 X-256.077 Y-22.319 Z-18.847 A180.3012 
N1902 X-256.077 Y-19.703 Z-18.892 A180.3010 
N1903 X-256.077 Y-17.136 Z-18.931 A180.2735 
N1904 X-256.077 Y-14.655 Z-18.980 
N1905 X-256.077 Y-12.275 Z-19.028 
N1906 X-256.077 Y-10.021 Z-19.122 A180.4301 
N1907 X-256.077 Y-7.919 Z-19.331 A180.9903 
N1908 X-256.077 Y-5.971 Z-19.665 A182.0131 
N1909 X-256.077 Y-4.173 Z-20.131 A183.5576 
N1910 X-256.077 Y-2.510 Z-20.720 A185.6167 
N1911 X-256.077 Y-0.960 Z-21.411 A188.1438 
N1912 X-256.077 Y0.498 Z-22.159 A191.0089 
N1913 X-256.077 Y1.876 Z-22.906 A194.0253 
N1914 X-256.077 Y3.181 Z-23.600 A197.0193 
N1915 X-256.077 Y4.418 Z-24.224 A199.9193 
N1916 X-256.077 Y5.599 Z-24.785 A202.7270 
N1917 X-256.077 Y6.736 Z-25.287 A205.4479 
N1918 X-256.077 Y7.839 Z-25.730 A208.0838 
N1919 X-256.077 Y8.916 Z-26.117 A210.6401 
N1920 X-256.077 Y9.977 Z-26.449 A213.1288 
N1921 X-256.077 Y11.030 Z-26.727 A215.5600 
N1922 X-256.077 Y12.078 Z-26.949 A217.9394 
N1923 X-256.077 Y13.127 Z-27.114 A220.2708 
N1924 X-256.077 Y14.178 Z-27.219 A222.5545 
N1925 X-256.077 Y15.230 Z-27.261 A224.7872 
N1926 X-256.077 Y16.283 Z-27.236 A226.9612 
N1927 X-256.077 Y17.331 Z-27.140 A229.0660 
N1928 X-256.077 Y18.370 Z-26.971 A231.0897 
N1929 X-256.077 Y19.396 Z-26.727 A233.0226 
N1930 X-256.077 Y20.402 Z-26.410 A234.8592 
N1931 X-256.077 Y21.387 Z-26.021 A236.5980 
N1932 X-256.077 Y22.347 Z-25.565 A238.2414 
N1933 X-256.077 Y23.283 Z-25.047 A239.8002 
N1934 X-256.077 Y24.197 Z-24.476 A241.2941 
N1935 X-256.077 Y25.093 Z-23.859 A242.7496 
N1936 X-256.077 Y25.977 Z-23.205 A244.1954 
N1937 X-256.077 Y26.854 Z-22.521 A245.6552 
N1938 X-256.077 Y27.724 Z-21.814 A247.1466 
N1939 X-256.077 Y28.590 Z-21.088 A248.6809 
N1940 X-256.077 Y29.450 Z-20.347 A250.2639 
N1941 X-256.077 Y30.301 Z-19.595 A251.8950 
N1942 X-256.077 Y31.139 Z-18.834 A253.5661 
N1943 X-256.077 Y31.958 Z-18.066 A255.2640 
N1944 X-256.077 Y32.754 Z-17.294 A256.9778 
N1945 X-256.077 Y33.525 Z-16.521 A258.7006 
N1946 X-256.077 Y34.269 Z-15.751 A260.4300 
N1947 X-256.077 Y34.987 Z-14.985 A262.1664 
N1948 X-256.077 Y35.681 Z-14.228 A263.9119 
N1949 X-256.077 Y36.352 Z-13.480 A265.6709 
N1950 X-256.077 Y37.004 Z-12.743 A267.4499 
N1951 X-256.077 Y37.640 Z-12.017 A269.2548 
N1952 X-256.077 Y38.263 Z-11.303 A271.0899 
N1953 X-256.077 Y38.873 Z-10.600 A272.9579 
N1954 X-256.077 Y39.473 Z-9.906 A274.8600 
N1955 X-256.077 Y40.063 Z-9.221 A276.7966 
N1956 X-256.077 Y40.644 Z-8.543 A278.7669 
N1957 X-256.077 Y41.216 Z-7.869 A280.7694 
N1958 X-256.077 Y41.778 Z-7.199 A282.8017 
N1959 X-256.077 Y42.330 Z-6.530 A284.8611 
N1960 X-256.077 Y42.870 Z-5.860 A286.9447 
N1961 X-256.077 Y43.399 Z-5.189 A289.0500 
N1962 X-256.077 Y43.915 Z-4.514 A291.1741 
N1963 X-256.077 Y44.416 Z-3.834 A293.3140 
N1964 X-256.077 Y44.901 Z-3.148 A295.4673 
N1965 X-256.077 Y45.369 Z-2.454 A297.6319 
N1966 X-256.077 Y45.819 Z-1.752 A299.8061 
N1967 X-256.077 Y46.249 Z-1.040 A301.9883 
N1968 X-256.077 Y46.658 Z-0.319 A304.1776 
N1969 X-256.077 Y47.045 Z0.414 A306.3734 
N1970 X-256.077 Y47.408 Z1.158 A308.5752 
N1971 X-256.077 Y47.745 Z1.914 A310.7827 
N1972 X-256.077 Y48.056 Z2.682 A312.9959 
N1973 X-256.077 Y48.338 Z3.464 A315.2166 
N1974 X-256.077 Y48.590 Z4.261 A317.4486 
N1975 X-256.077 Y48.811 Z5.075 A319.6971 
N1976 X-256.077 Y48.998 Z5.908 A321.9695 
N1977 X-256.077 Y49.150 Z6.765 A324.2778 
N1978 X-256.077 Y49.262 Z7.651 A326.6357 
N1979 X-256.077 Y49.330 Z8.570 A329.0562 
N1980 X-256.077 Y49.345 Z9.530 A331.5560 
N1981 X-256.077 Y49.299 Z10.538 A334.1562 
N1982 X-256.077 Y49.175 Z11.599 A336.8707 
N1983 X-256.077 Y48.956 Z12.716 A339.7082 
N1984 X-256.077 Y48.620 Z13.894 A342.6910 
N1985 X-256.077 Y48.140 Z15.135 A345.8446 
N1986 X-256.077 Y47.483 Z16.420 A349.1337 
N1987 X-256.077 Y46.607 Z17.679 A352.3864 
N1988 X-256.077 Y45.485 Z18.825 A355.3843 
N1989 X-256.077 Y44.105 Z19.785 A357.9457 
N1990 X-256.077 Y42.464 Z20.509 A359.9463 
N1991 X-256.077 Y40.564 Z20.978 A1.3199 
N1992 X-256.077 Y38.405 Z21.206 A2.0824 
N1993 X-256.077 Y35.985 Z21.252 A2.3740 
N1994 X-256.077 Y33.303 Z21.198 A2.3965 
N1995 X-256.077 Y30.365 Z21.114 A2.3373 
N1996 X-256.077 Y27.191 Z21.037 A2.3005 
N1997 X-256.077 Y23.811 Z20.971 
N1998 X-256.077 Y20.264 Z20.901 
N1999 X-256.077 Y16.602 Z20.831 A2.3030 
N2000 X-256.077 Y12.884 Z20.759 A2.3082 
N2001 X-256.077 Y9.169 Z20.686 A2.3118 
N2002 X-256.077 Y5.517 Z20.615 A2.3174 
N2003 X-256.077 Y1.987 Z20.547 A2.3268 
N2004 X-256.077 Y-1.369 Z20.485 A2.3432 
N2005 X-256.077 Y-4.507 Z20.429 A2.3665 
N2006 X-256.077 Y-7.394 Z20.379 A2.3922 
N2007 X-256.077 Y-10.007 Z20.328 A2.4001 
N2008 X-256.077 Y-12.334 Z20.274 A2.3783 
N2009 X-256.077 Y-14.376 Z20.210 A2.3005 
N2010 X-256.077 Y-16.137 Z20.180 
N2011 X-256.077 Y-17.656 Z20.158 A2.3131 
N2012 X-256.077 Y-18.938 Z20.304 A2.8370 
N2013 X-256.077 Y-20.026 Z20.677 A4.0782 
N2014 X-256.077 Y-20.971 Z21.369 A6.3405 
N2015 X-256.077 Y-21.851 Z22.430 A9.8145 
N2016 X-256.077 Y-22.757 Z23.833 A14.4590 
N2017 X-256.077 Y-23.728 Z25.343 A19.6150 
N2018 X-256.077 Y-24.678 Z26.629 A24.2347 
N2019 X-256.077 Y-25.549 Z27.639 A28.0887 
N2020 X-256.077 Y-26.372 Z28.496 A31.5312 
N2021 X-256.077 Y-27.162 Z29.249 A34.7025 
N2022 X-256.077 Y-27.919 Z29.904 A37.6191 
N2023 X-256.077 Y-28.649 Z30.479 A40.3240 
N2024 X-256.077 Y-29.358 Z30.987 A42.8662 
N2025 X-256.077 Y-30.058 Z31.443 A45.2988 
N2026 X-256.077 Y-30.757 Z31.856 A47.6644 
N2027 X-256.077 Y-31.461 Z32.233 A49.9864 
N2028 X-256.077 Y-32.172 Z32.574 A52.2795 
N2029 X-256.077 Y-32.893 Z32.882 A54.5562 
N2030 X-256.077 Y-33.625 Z33.156 A56.8248 
N2031 X-256.077 Y-34.369 Z33.397 A59.0901 
N2032 X-256.077 Y-35.126 Z33.602 A61.3560 
N2033 X-256.077 Y-35.896 Z33.771 A63.6262 
N2034 X-256.077 Y-36.678 Z33.902 A65.9034 
N2035 X-256.077 Y-37.472 Z33.992 A68.1907 
N2036 X-256.077 Y-38.278 Z34.039 A70.4910 
N2037 X-256.077 Y-39.096 Z34.040 A72.8062 
N2038 X-256.077 Y-39.923 Z33.992 A75.1379 
N2039 X-256.077 Y-40.760 Z33.890 A77.4876 
N2040 X-256.077 Y-41.603 Z33.729 A79.8556 
N2041 X-256.077 Y-42.449 Z33.505 A82.2378 
N2042 X-256.077 Y-43.291 Z33.211 A84.6259 
N2043 X-256.077 Y-44.122 Z32.842 A87.0105 
N2044 X-256.077 Y-44.935 Z32.393 A89.3799 
N2045 X-256.077 Y-45.716 Z31.861 A91.7103 
N2046 X-256.077 Y-46.450 Z31.243 A93.9723 
N2047 X-256.077 Y-47.125 Z30.538 A96.1412 
N2048 X-256.077 Y-47.726 Z29.749 A98.1912 
N2049 X-256.077 Y-48.241 Z28.880 A100.0891 
N2050 X-256.077 Y-48.655 Z27.938 A101.8007 
N2051 X-256.077 Y-48.958 Z26.932 A103.2976 
N2052 X-256.077 Y-49.150 Z25.872 A104.5727 
N2053 X-256.077 Y-49.237 Z24.765 A105.6370 
N2054 X-256.077 Y-49.230 Z23.620 A106.5108 
N2055 X-256.077 Y-49.143 Z22.445 A107.2241 
N2056 X-256.077 Y-48.996 Z21.247 A107.8233 
N2057 X-256.077 Y-48.814 Z20.032 A108.3717 
N2058 X-256.077 Y-48.624 Z18.802 A108.9495 
N2059 X-256.077 Y-48.455 Z17.563 A109.6332 
N2060 X-256.077 Y-48.324 Z16.318 A110.4811 
N2061 X-256.077 Y-48.244 Z15.072 A111.5331 
N2062 X-256.077 Y-48.221 Z13.829 A112.8116 
N2063 X-256.077 Y-48.255 Z12.593 A114.3290 
N2064 X-256.077 Y-48.345 Z11.364 A116.0841 
N2065 X-256.077 Y-48.479 Z10.144 A118.0523 
N2066 X-256.077 Y-48.643 Z8.937 A120.1908 
N2067 X-256.077 Y-48.821 Z7.747 A122.4545 
N2068 X-256.077 Y-49.001 Z6.575 A124.8034 
N2069 X-256.077 Y-49.172 Z5.423 A127.2061 
N2070 X-256.077 Y-49.324 Z4.291 A129.6323 
N2071 X-256.077 Y-49.450 Z3.180 A132.0559 
N2072 X-256.077 Y-49.544 Z2.090 A134.4646 
N2073 X-256.077 Y-49.604 Z1.016 A136.8556 
N2074 X-256.077 Y-49.626 Z-0.045 A139.2293 
N2075 X-256.077 Y-49.607 Z-1.097 A141.5889 
N2076 X-256.077 Y-49.545 Z-2.144 A143.9420 
N2077 X-256.077 Y-49.435 Z-3.194 A146.3006 
N2078 X-256.077 Y-49.272 Z-4.252 A148.6771 
N2079 X-256.077 Y-49.049 Z-5.324 A151.0814 
N2080 X-256.077 Y-48.756 Z-6.412 A153.5250 
N2081 X-256.077 Y-48.382 Z-7.523 A156.0188 
N2082 X-256.077 Y-47.914 Z-8.656 A158.5659 
N2083 X-256.077 Y-47.334 Z-9.809 A161.1659 
N2084 X-256.077 Y-46.627 Z-10.979 A163.8204 
N2085 X-256.077 Y-45.774 Z-12.158 A166.5279 
N2086 X-256.077 Y-44.757 Z-13.322 A169.2366 
N2087 X-256.077 Y-43.557 Z-14.423 A171.8345 
N2088 X-256.077 Y-42.166 Z-15.414 A174.2024 
N2089 X-256.077 Y-40.587 Z-16.256 A176.2406 
N2090 X-256.077 Y-38.828 Z-16.922 A177.8736 
N2091 X-256.077 Y-36.906 Z-17.399 A179.0477 
N2092 X-256.077 Y-34.838 Z-17.694 A179.7585 
N2093 X-256.077 Y-32.644 Z-17.846 A180.0863 
N2094 X-256.077 Y-30.347 Z-17.910 A180.1633 
N2095 X-256.077 Y-27.970 Z-17.941 A180.1354 
N2096 X-256.077 Y-25.544 Z-17.973 A180.0958 
N2097 X-256.077 Y-23.098 Z-18.015 A180.0778 
N2098 X-256.077 Y-20.666 Z-18.062 A180.0670 
N2099 X-256.077 Y-18.279 Z-18.109 A180.0521 
N2100 X-256.077 Y-15.966 Z-18.163 
N2101 X-256.077 Y-13.743 Z-18.214 
N2102 X-256.077 Y-11.639 Z-18.342 A180.3063 
N2103 X-256.077 Y-9.671 Z-18.588 A180.9787 
N2104 X-256.077 Y-7.842 Z-18.972 A182.1633 
N2105 X-256.077 Y-6.144 Z-19.489 A183.8732 
N2106 X-256.077 Y-4.564 Z-20.112 A186.0543 
N2107 X-256.077 Y-3.084 Z-20.812 A188.6234 
N2108 X-256.077 Y-1.686 Z-21.551 A191.4649 
N2109 X-256.077 Y-0.357 Z-22.283 A194.4362 
N2110 X-256.077 Y0.907 Z-22.968 A197.3961 
N2111 X-256.077 Y2.113 Z-23.588 A200.2727 
N2112 X-256.077 Y3.270 Z-24.145 A203.0616 
N2113 X-256.077 Y4.389 Z-24.644 A205.7679 
N2114 X-256.077 Y5.479 Z-25.085 A208.3944 
N2115 X-256.077 Y6.549 Z-25.470 A210.9460 
N2116 X-256.077 Y7.606 Z-25.799 A213.4328 
N2117 X-256.077 Y8.657 Z-26.073 A215.8644 
N2118 X-256.077 Y9.707 Z-26.290 A218.2450 
N2119 X-256.077 Y10.758 Z-26.448 A220.5758 
N2120 X-256.077 Y11.812 Z-26.543 A222.8545 
N2121 X-256.077 Y12.867 Z-26.572 A225.0759 
N2122 X-256.077 Y13.921 Z-26.532 A227.2310 
N2123 X-256.077 Y14.968 Z-26.418 A229.3080 
N2124 X-256.077 Y16.004 Z-26.228 A231.2941 
N2125 X-256.077 Y17.023 Z-25.963 A233.1787 
N2126 X-256.077 Y18.020 Z-25.623 A234.9573 
N2127 X-256.077 Y18.992 Z-25.213 A236.6304 
N2128 X-256.077 Y19.937 Z-24.737 A238.2028 
N2129 X-256.077 Y20.856 Z-24.201 A239.6883 
N2130 X-256.077 Y21.753 Z-23.617 A241.1110 
N2131 X-256.077 Y22.634 Z-22.991 A242.5043 
N2132 X-256.077 Y23.508 Z-22.336 A243.9052 
N2133 X-256.077 Y24.379 Z-21.658 A245.3438 
N2134 X-256.077 Y25.252 Z-20.964 A246.8407 
N2135 X-256.077 Y26.126 Z-20.257 A248.4068 
N2136 X-256.077 Y27.001 Z-19.540 A250.0447 
N2137 X-256.077 Y27.871 Z-18.816 A251.7490 
N2138 X-256.077 Y28.731 Z-18.084 A253.5051 
N2139 X-256.077 Y29.573 Z-17.346 A255.2906 
N2140 X-256.077 Y30.388 Z-16.603 A257.0857 
N2141 X-256.077 Y31.173 Z-15.857 A258.8767 
N2142 X-256.077 Y31.927 Z-15.112 A260.6575 
N2143 X-256.077 Y32.648 Z-14.370 A262.4271 
N2144 X-256.077 Y33.340 Z-13.635 A264.1875 
N2145 X-256.077 Y34.005 Z-12.907 A265.9445 
N2146 X-256.077 Y34.646 Z-12.190 A267.7074 
N2147 X-256.077 Y35.269 Z-11.485 A269.4859 
N2148 X-256.077 Y35.878 Z-10.790 A271.2876 
N2149 X-256.077 Y36.474 Z-10.106 A273.1184 
N2150 X-256.077 Y37.060 Z-9.432 A274.9822 
N2151 X-256.077 Y37.639 Z-8.767 A276.8817 
N2152 X-256.077 Y38.210 Z-8.108 A278.8181 
N2153 X-256.077 Y38.774 Z-7.455 A280.7912 
N2154 X-256.077 Y39.332 Z-6.805 A282.7992 
N2155 X-256.077 Y39.882 Z-6.157 A284.8398 
N2156 X-256.077 Y40.424 Z-5.509 A286.9104 
N2157 X-256.077 Y40.957 Z-4.858 A289.0084 
N2158 X-256.077 Y41.480 Z-4.204 A291.1304 
N2159 X-256.077 Y41.990 Z-3.544 A293.2731 
N2160 X-256.077 Y42.487 Z-2.878 A295.4335 
N2161 X-256.077 Y42.969 Z-2.205 A297.6094 
N2162 X-256.077 Y43.435 Z-1.522 A299.7981 
N2163 X-256.077 Y43.883 Z-0.829 A301.9973 
N2164 X-256.077 Y44.310 Z-0.126 A304.2052 
N2165 X-256.077 Y44.717 Z0.588 A306.4205 
N2166 X-256.077 Y45.101 Z1.314 A308.6425 
N2167 X-256.077 Y45.461 Z2.052 A310.8705 
N2168 X-256.077 Y45.794 Z2.804 A313.1050 
N2169 X-256.077 Y46.101 Z3.570 A315.3486 
N2170 X-256.077 Y46.379 Z4.352 A317.6067 
N2171 X-256.077 Y46.628 Z5.153 A319.8868 
N2172 X-256.077 Y46.845 Z5.977 A322.1990 
N2173 X-256.077 Y47.028 Z6.828 A324.5575 
N2174 X-256.077 Y47.174 Z7.713 A326.9780 
N2175 X-256.077 Y47.277 Z8.637 A329.4739 
N2176 X-256.077 Y47.327 Z9.606 A332.0612 
N2177 X-256.077 Y47.314 Z10.628 A334.7626 
N2178 X-256.077 Y47.222 Z11.711 A337.5944 
N2179 X-256.077 Y47.031 Z12.855 A340.5646 
N2180 X-256.077 Y46.717 Z14.065 A343.6954 
N2181 X-256.077 Y46.251 Z15.343 A347.0119 
N2182 X-256.077 Y45.597 Z16.659 A350.4558 
N2183 X-256.077 Y44.713 Z17.919 A353.7843 
N2184 X-256.077 Y43.577 Z19.011 A356.7053 
N2185 X-256.077 Y42.186 Z19.859 A359.0229 
N2186 X-256.077 Y40.544 Z20.447 A0.6906 
N2187 X-256.077 Y38.650 Z20.792 A1.7504 
N2188 X-256.077 Y36.501 Z20.936 A2.2966 
N2189 X-256.077 Y34.093 Z20.941 A2.4791 
N2190 X-256.077 Y31.426 Z20.874 A2.4698 
N2191 X-256.077 Y28.509 Z20.788 A2.4118 
N2192 X-256.077 Y25.366 Z20.713 A2.3909 
N2193 X-256.077 Y22.026 Z20.644 
N2194 X-256.077 Y18.533 Z20.571 
N2195 X-256.077 Y14.941 Z20.498 A2.3966 
N2196 X-256.077 Y11.307 Z20.423 A2.4014 
N2197 X-256.077 Y7.691 Z20.348 A2.4049 
N2198 X-256.077 Y4.152 Z20.274 A2.4102 
N2199 X-256.077 Y0.746 Z20.205 A2.4200 
N2200 X-256.077 Y-2.477 Z20.141 A2.4370 
N2201 X-256.077 Y-5.477 Z20.084 A2.4609 
N2202 X-256.077 Y-8.224 Z20.033 A2.4857 
N2203 X-256.077 Y-10.697 Z19.981 A2.4920 
N2204 X-256.077 Y-12.889 Z19.925 A2.4626 
N2205 X-256.077 Y-14.803 Z19.864 A2.3909 
N2206 X-256.077 Y-16.448 Z19.834 
N2207 X-256.077 Y-17.863 Z19.837 A2.4794 
N2208 X-256.077 Y-19.054 Z20.042 A3.1890 
N2209 X-256.077 Y-20.072 Z20.523 A4.7712 
N2210 X-256.077 Y-20.975 Z21.356 A7.4880 
N2211 X-256.077 Y-21.844 Z22.545 A11.3891 
N2212 X-256.077 Y-22.758 Z23.992 A16.2226 
N2213 X-256.077 Y-23.714 Z25.428 A21.1965 
N2214 X-256.077 Y-24.620 Z26.596 A25.4693 
N2215 X-256.077 Y-25.457 Z27.544 A29.1324 
N2216 X-256.077 Y-26.262 Z28.375 A32.4949 
N2217 X-256.077 Y-27.034 Z29.103 A35.5875 
N2218 X-256.077 Y-27.775 Z29.739 A38.4364 
N2219 X-256.077 Y-28.490 Z30.298 A41.0889 
N2220 X-256.077 Y-29.190 Z30.798 A43.6004 
N2221 X-256.077 Y-29.884 Z31.250 A46.0214 
N2222 X-256.077 Y-30.580 Z31.662 A48.3836 
N2223 X-256.077 Y-31.281 Z32.038 A50.7061 
N2224 X-256.077 Y-31.990 Z32.381 A53.0044 
N2225 X-256.077 Y-32.710 Z32.690 A55.2897 
N2226 X-256.077 Y-33.442 Z32.967 A57.5685 
N2227 X-256.077 Y-34.186 Z33.211 A59.8453 
N2228 X-256.077 Y-34.942 Z33.420 A62.1239 
N2229 X-256.077 Y-35.711 Z33.593 A64.4071 
N2230 X-256.077 Y-36.492 Z33.728 A66.6967 
N2231 X-256.077 Y-37.284 Z33.824 A68.9942 
N2232 X-256.077 Y-38.087 Z33.877 A71.3007 
N2233 X-256.077 Y-38.898 Z33.885 A73.6170 
N2234 X-256.077 Y-39.717 Z33.846 A75.9431 
N2235 X-256.077 Y-40.542 Z33.754 A78.2784 
N2236 X-256.077 Y-41.369 Z33.607 A80.6214 
N2237 X-256.077 Y-42.195 Z33.401 A82.9681 
N2238 X-256.077 Y-43.015 Z33.130 A85.3128 
N2239 X-256.077 Y-43.822 Z32.791 A87.6488 
N2240 X-256.077 Y-44.611 Z32.379 A89.9649 
N2241 X-256.077 Y-45.369 Z31.891 A92.2435 
N2242 X-256.077 Y-46.088 Z31.325 A94.4679 
N2243 X-256.077 Y-46.757 Z30.680 A96.6230 
N2244 X-256.077 Y-47.365 Z29.956 A98.6876 
N2245 X-256.077 Y-47.900 Z29.155 A100.6368 
N2246 X-256.077 Y-48.352 Z28.282 A102.4491 
N2247 X-256.077 Y-48.714 Z27.343 A104.1090 
N2248 X-256.077 Y-48.981 Z26.344 A105.6062 
N2249 X-256.077 Y-49.152 Z25.293 A106.9336 
N2250 X-256.077 Y-49.229 Z24.200 A108.0869 
N2251 X-256.077 Y-49.218 Z23.072 A109.0775 
N2252 X-256.077 Y-49.132 Z21.916 A109.9349 
N2253 X-256.077 Y-48.990 Z20.739 A110.7012 
N2254 X-256.077 Y-48.811 Z19.545 A111.4264 
N2255 X-256.077 Y-48.615 Z18.339 A112.1607 
N2256 X-256.077 Y-48.421 Z17.127 A112.9559 
N2257 X-256.077 Y-48.249 Z15.910 A113.8674 
N2258 X-256.077 Y-48.113 Z14.691 A114.9464 
N2259 X-256.077 Y-48.026 Z13.472 A116.2293 
N2260 X-256.077 Y-47.990 Z12.253 A117.7321 
N2261 X-256.077 Y-48.001 Z11.038 A119.4478 
N2262 X-256.077 Y-48.052 Z9.828 A121.3600 
N2263 X-256.077 Y-48.132 Z8.626 A123.4455 
N2264 X-256.077 Y-48.232 Z7.432 A125.6716 
N2265 X-256.077 Y-48.335 Z6.251 A127.9979 
N2266 X-256.077 Y-48.430 Z5.084 A130.3841 
N2267 X-256.077 Y-48.506 Z3.936 A132.7992 
N2268 X-256.077 Y-48.557 Z2.804 A135.2254 
N2269 X-256.077 Y-48.575 Z1.688 A137.6490 
N2270 X-256.077 Y-48.557 Z0.587 A140.0610 
N2271 X-256.077 Y-48.498 Z-0.503 A142.4617 
N2272 X-256.077 Y-48.393 Z-1.587 A144.8577 
N2273 X-256.077 Y-48.238 Z-2.672 A147.2581 
N2274 X-256.077 Y-48.027 Z-3.761 A149.6719 
N2275 X-256.077 Y-47.752 Z-4.859 A152.1090 
N2276 X-256.077 Y-47.403 Z-5.972 A154.5811 
N2277 X-256.077 Y-46.969 Z-7.102 A157.0948 
N2278 X-256.077 Y-46.435 Z-8.247 A159.6497 
N2279 X-256.077 Y-45.785 Z-9.405 A162.2440 
N2280 X-256.077 Y-45.005 Z-10.569 A164.8743 
N2281 X-256.077 Y-44.077 Z-11.724 A167.5142 
N2282 X-256.077 Y-42.986 Z-12.839 A170.0936 
N2283 X-256.077 Y-41.722 Z-13.878 A172.5313 
N2284 X-256.077 Y-40.282 Z-14.807 A174.7448 
N2285 X-256.077 Y-38.673 Z-15.589 A176.6356 
N2286 X-256.077 Y-36.905 Z-16.191 A178.1042 
N2287 X-256.077 Y-34.998 Z-16.598 A179.0859 
N2288 X-256.077 Y-32.972 Z-16.835 A179.6199 
N2289 X-256.077 Y-30.850 Z-16.952 A179.8235 
N2290 X-256.077 Y-28.653 Z-17.009 A179.8500 
N2291 X-256.077 Y-26.408 Z-17.048 A179.8164 
N2292 X-256.077 Y-24.142 Z-17.091 A179.7826 
N2293 X-256.077 Y-21.885 Z-17.138 A179.7535 
N2294 X-256.077 Y-19.666 Z-17.193 A179.7438 
N2295 X-256.077 Y-17.509 Z-17.251 
N2296 X-256.077 Y-15.428 Z-17.314 A179.7654 
N2297 X-256.077 Y-13.459 Z-17.474 A180.1110 
N2298 X-256.077 Y-11.609 Z-17.752 A180.8763 
N2299 X-256.077 Y-9.882 Z-18.177 A182.1825 
N2300 X-256.077 Y-8.270 Z-18.733 A184.0131 
N2301 X-256.077 Y-6.760 Z-19.383 A186.2786 
N2302 X-256.077 Y-5.337 Z-20.089 A188.8643 
N2303 X-256.077 Y-3.988 Z-20.815 A191.6601 
N2304 X-256.077 Y-2.702 Z-21.529 A194.5630 
N2305 X-256.077 Y-1.472 Z-22.202 A197.4674 
N2306 X-256.077 Y-0.293 Z-22.817 A200.3078 
N2307 X-256.077 Y0.844 Z-23.373 A203.0723 
N2308 X-256.077 Y1.948 Z-23.872 A205.7612 
N2309 X-256.077 Y3.027 Z-24.314 A208.3760 
N2310 X-256.077 Y4.090 Z-24.701 A210.9206 
N2311 X-256.077 Y5.142 Z-25.032 A213.4040 
N2312 X-256.077 Y6.191 Z-25.307 A215.8343 
N2313 X-256.077 Y7.240 Z-25.525 A218.2152 
N2314 X-256.077 Y8.292 Z-25.684 A220.5460 
N2315 X-256.077 Y9.346 Z-25.778 A222.8231 
N2316 X-256.077 Y10.402 Z-25.804 A225.0398 
N2317 X-256.077 Y11.457 Z-25.760 A227.1866 
N2318 X-256.077 Y12.504 Z-25.642 A229.2510 
N2319 X-256.077 Y13.538 Z-25.447 A231.2194 
N2320 X-256.077 Y14.553 Z-25.175 A233.0804 
N2321 X-256.077 Y15.544 Z-24.829 A234.8290 
N2322 X-256.077 Y16.508 Z-24.413 A236.4659 
N2323 X-256.077 Y17.444 Z-23.931 A237.9962 
N2324 X-256.077 Y18.351 Z-23.393 A239.4337 
N2325 X-256.077 Y19.234 Z-22.806 A240.8046 
N2326 X-256.077 Y20.101 Z-22.183 A242.1455 
N2327 X-256.077 Y20.960 Z-21.534 A243.4987 
N2328 X-256.077 Y21.820 Z-20.868 A244.8998 
N2329 X-256.077 Y22.685 Z-20.191 A246.3751 
N2330 X-256.077 Y23.558 Z-19.508 A247.9404 
N2331 X-256.077 Y24.438 Z-18.820 A249.6016 
N2332 X-256.077 Y25.320 Z-18.129 A251.3535 
N2333 X-256.077 Y26.198 Z-17.433 A253.1784 
N2334 X-256.077 Y27.062 Z-16.732 A255.0474 
N2335 X-256.077 Y27.902 Z-16.026 A256.9322 
N2336 X-256.077 Y28.711 Z-15.316 A258.8111 
N2337 X-256.077 Y29.485 Z-14.604 A260.6699 
N2338 X-256.077 Y30.222 Z-13.892 A262.5014 
N2339 X-256.077 Y30.923 Z-13.184 A264.3033 
N2340 X-256.077 Y31.589 Z-12.482 A266.0803 
N2341 X-256.077 Y32.228 Z-11.788 A267.8429 
N2342 X-256.077 Y32.842 Z-11.104 A269.6034 
N2343 X-256.077 Y33.438 Z-10.430 A271.3730 
N2344 X-256.077 Y34.020 Z-9.766 A273.1618 
N2345 X-256.077 Y34.592 Z-9.113 A274.9781 
N2346 X-256.077 Y35.156 Z-8.468 A276.8289 
N2347 X-256.077 Y35.714 Z-7.830 A278.7188 
N2348 X-256.077 Y36.269 Z-7.197 A280.6496 
N2349 X-256.077 Y36.820 Z-6.568 A282.6212 
N2350 X-256.077 Y37.366 Z-5.940 A284.6325 
N2351 X-256.077 Y37.908 Z-5.312 A286.6816 
N2352 X-256.077 Y38.444 Z-4.682 A288.7655 
N2353 X-256.077 Y38.973 Z-4.047 A290.8806 
N2354 X-256.077 Y39.493 Z-3.407 A293.0231 
N2355 X-256.077 Y40.002 Z-2.760 A295.1896 
N2356 X-256.077 Y40.499 Z-2.104 A297.3771 
N2357 X-256.077 Y40.981 Z-1.439 A299.5816 
N2358 X-256.077 Y41.447 Z-0.763 A301.7986 
N2359 X-256.077 Y41.893 Z-0.077 A304.0234 
N2360 X-256.077 Y42.319 Z0.620 A306.2529 
N2361 X-256.077 Y42.722 Z1.328 A308.4864 
N2362 X-256.077 Y43.101 Z2.050 A310.7261 
N2363 X-256.077 Y43.457 Z2.785 A312.9770 
N2364 X-256.077 Y43.789 Z3.538 A315.2455 
