; PROGRAM NAME: A33333332
; ORDER       : A333333
; OPER. NAME  : Spiral Finish Transition:112
; OPER. DESCR.: Spiral transition - Semi finish transition root/promienie przejsc pwk
; OPER. TYPE  : finTransRoot
; GEO. OPTION : 7
; MACHINE     : HSTM_300_SIM840D_Py
;             : HSTM300/500 - HAMUEL: 5-axis milling machine-SIM840D Traori PP_Script
; CONTROL     : SINUMERIK 840D
; created:   2021-09-10 08:43:34.941119
;----------------------------------------
RAPORT("TA333333","Spiral Finish Transition:112")
N10 TRAFOOF
N11 D0
N12 G90 G94
N13 G0 G53 D0 Z550
N14 STOPRE
M9 ; chlodziwo wyl
; --- Spiral Finish Transition:112 - Spiral transition - Semi finish transition root/promienie przejsc pwk ---
N16 ;ToolChange : concat=None ,current_tdmid=None, PP.tdmId=940626
N17 TRAFOOF
N18 G0 G53 D0 X-200 Y150 Z550 B0
N19 T="7740626"
RAPORT("TA333333","ToolChangeStart 7740626")
N20 M6
RAPORT("TA333333","ToolChangeEnd")
N21 STOPRE
N22 MSG(" TLID=940626 D=8.391 R=5.0 Ang=10.0 Len=155.0 ")
N23 S6987 M03
N24 STOPRE
N25 TOL(0.001,1,1)
N26 G0 G53 A133.6524 B-34.1000
N27 TRAORI
N28 G54 D1
N29 D1 
N30 TRANS  X=R3 A=R25
STOPRE
E_ZDARZ=400004
;ACS_PREFINISH_UBG_B_CONST_BBK_ROOT=7740626
STOPRE
N31 ; DELTA A > 40.1
N32 TRAFOOF
N33 D1
N34 STOPRE
N35 G00 G54 Z231.000
N36 G01 A133.6524 F10000
N37 TRAORI
N38 G54 D1
N39 STOPRE
N40 TRANS  X=R3 A=R25
N41 G00 X-264.673 Y-69.049 Z-30.730 A133.6524 B-34.1000 
N42 M342 ; chlodziwo woda
N43 X-236.641 Y-39.092 Z-2.150 
N44 G01 X-236.641 Y-37.418 Z0.493 F1456 
N45 X-236.641 Y-36.643 Z3.524 
N46 X-236.641 Y-36.842 Z6.646 
N47 X-236.641 Y-37.997 Z9.554 
N48 X-236.641 Y-39.993 Z11.963 
N49 X-236.642 Y-40.099 Z12.052 A131.8475 
N50 X-236.642 Y-40.216 Z12.156 A129.4040 
N51 X-236.641 Y-40.322 Z12.258 A126.9329 
N52 X-236.639 Y-40.413 Z12.352 A124.6494 
N53 X-236.638 Y-40.493 Z12.443 A122.4674 
N54 X-236.636 Y-40.563 Z12.528 A120.4224 
N55 X-236.635 Y-40.621 Z12.604 A118.6537 
N56 X-236.633 Y-40.667 Z12.667 A117.1787 
N57 X-236.631 Y-40.707 Z12.726 A115.8273 
N58 X-236.630 Y-40.742 Z12.780 A114.5938 
N59 X-236.628 Y-40.773 Z12.831 A113.4669 
N60 X-236.627 Y-40.802 Z12.880 A112.3833 
N61 X-236.625 Y-40.829 Z12.927 A111.3394 
N62 X-236.624 Y-40.853 Z12.973 A110.3333 
N63 X-236.622 Y-40.877 Z13.019 A109.3423 
N64 X-236.621 Y-40.899 Z13.065 A108.3637 
N65 X-236.619 Y-40.921 Z13.110 A107.3962 
N66 X-236.618 Y-40.941 Z13.156 A106.4382 
N67 X-236.616 Y-40.961 Z13.201 A105.4876 
N68 X-236.615 Y-40.979 Z13.246 A104.5428 
N69 X-236.613 Y-40.997 Z13.292 A103.6030 
N70 X-236.611 Y-41.014 Z13.337 A102.6673 
N71 X-236.610 Y-41.030 Z13.382 A101.7348 
N72 X-236.608 Y-41.045 Z13.428 A100.8047 
N73 X-236.606 Y-41.060 Z13.474 A99.8763 
N74 X-236.605 Y-41.073 Z13.520 A98.9493 
N75 X-236.603 Y-41.086 Z13.565 A98.0234 
N76 X-236.601 Y-41.099 Z13.612 A97.0983 
N77 X-236.600 Y-41.110 Z13.658 A96.1736 
N78 X-236.598 Y-41.121 Z13.704 A95.2488 
N79 X-236.596 Y-41.131 Z13.751 A94.3241 
N80 X-236.594 Y-41.140 Z13.798 A93.3995 
N81 X-236.592 Y-41.148 Z13.845 A92.4746 
N82 X-236.591 Y-41.156 Z13.892 A91.5490 
N83 X-236.589 Y-41.163 Z13.939 A90.6230 
N84 X-236.587 Y-41.169 Z13.986 A89.6966 
N85 X-236.585 Y-41.175 Z14.033 A88.7698 
N86 X-236.583 Y-41.179 Z14.081 A87.8418 
N87 X-236.581 Y-41.183 Z14.129 A86.9132 
N88 X-236.579 Y-41.187 Z14.177 A85.9840 
N89 X-236.577 Y-41.189 Z14.224 A85.0542 
N90 X-236.575 Y-41.191 Z14.272 A84.1230 
N91 X-236.573 Y-41.191 Z14.320 A83.1911 
N92 X-236.571 Y-41.191 Z14.368 A82.2584 
N93 X-236.569 Y-41.191 Z14.416 A81.3247 
N94 X-236.567 Y-41.189 Z14.465 A80.3898 
N95 X-236.565 Y-41.187 Z14.513 A79.4540 
N96 X-236.562 Y-41.184 Z14.561 A78.5172 
N97 X-236.560 Y-41.180 Z14.609 A77.5787 
N98 X-236.558 Y-41.175 Z14.658 A76.6391 
N99 X-236.556 Y-41.170 Z14.706 A75.6984 
N100 X-236.553 Y-41.164 Z14.754 A74.7560 
N101 X-236.551 Y-41.157 Z14.802 A73.8122 
N102 X-236.549 Y-41.149 Z14.850 A72.8671 
N103 X-236.546 Y-41.140 Z14.898 A71.9204 
N104 X-236.544 Y-41.131 Z14.946 A70.9720 
N105 X-236.542 Y-41.120 Z14.994 A70.0222 
N106 X-236.539 Y-41.109 Z15.042 A69.0706 
N107 X-236.537 Y-41.097 Z15.090 A68.1173 
N108 X-236.534 Y-41.085 Z15.138 A67.1623 
N109 X-236.532 Y-41.071 Z15.185 A66.2056 
N110 X-236.529 Y-41.057 Z15.233 A65.2470 
N111 X-236.526 Y-41.042 Z15.280 A64.2868 
N112 X-236.524 Y-41.026 Z15.327 A63.3247 
N113 X-236.521 Y-41.009 Z15.373 A62.3609 
N114 X-236.519 Y-40.992 Z15.420 A61.3955 
N115 X-236.516 Y-40.973 Z15.466 A60.4283 
N116 X-236.513 Y-40.954 Z15.513 A59.4594 
N117 X-236.511 Y-40.934 Z15.558 A58.4889 
N118 X-236.508 Y-40.913 Z15.604 A57.5167 
N119 X-236.505 Y-40.892 Z15.649 A56.5431 
N120 X-236.503 Y-40.870 Z15.694 A55.5679 
N121 X-236.500 Y-40.846 Z15.739 A54.5913 
N122 X-236.497 Y-40.823 Z15.783 A53.6133 
N123 X-236.494 Y-40.798 Z15.827 A52.6340 
N124 X-236.491 Y-40.772 Z15.870 A51.6535 
N125 X-236.489 Y-40.746 Z15.913 A50.6718 
N126 X-236.486 Y-40.719 Z15.956 A49.6891 
N127 X-236.483 Y-40.692 Z15.998 A48.7053 
N128 X-236.480 Y-40.663 Z16.040 A47.7206 
N129 X-236.477 Y-40.634 Z16.081 A46.7351 
N130 X-236.475 Y-40.605 Z16.122 A45.7487 
N131 X-236.472 Y-40.574 Z16.162 A44.7617 
N132 X-236.469 Y-40.543 Z16.202 A43.7742 
N133 X-236.466 Y-40.511 Z16.241 A42.7861 
N134 X-236.463 Y-40.479 Z16.279 A41.7975 
N135 X-236.460 Y-40.445 Z16.317 A40.8086 
N136 X-236.458 Y-40.412 Z16.355 A39.8195 
N137 X-236.455 Y-40.377 Z16.392 A38.8301 
N138 X-236.452 Y-40.342 Z16.428 A37.8406 
N139 X-236.449 Y-40.307 Z16.463 A36.8511 
N140 X-236.446 Y-40.271 Z16.498 A35.8616 
N141 X-236.444 Y-40.234 Z16.532 A34.8723 
N142 X-236.441 Y-40.197 Z16.566 A33.8830 
N143 X-236.438 Y-40.159 Z16.599 A32.8940 
N144 X-236.435 Y-40.121 Z16.631 A31.9052 
N145 X-236.433 Y-40.082 Z16.662 A30.9166 
N146 X-236.430 Y-40.043 Z16.693 A29.9285 
N147 X-236.427 Y-40.003 Z16.723 A28.9405 
N148 X-236.424 Y-39.963 Z16.753 A27.9528 
N149 X-236.422 Y-39.922 Z16.781 A26.9655 
N150 X-236.419 Y-39.881 Z16.809 A25.9783 
N151 X-236.416 Y-39.840 Z16.836 A24.9913 
N152 X-236.414 Y-39.798 Z16.862 A24.0048 
N153 X-236.411 Y-39.756 Z16.888 A23.0183 
N154 X-236.409 Y-39.713 Z16.913 A22.0319 
N155 X-236.406 Y-39.670 Z16.937 A21.0459 
N156 X-236.404 Y-39.627 Z16.960 A20.0599 
N157 X-236.401 Y-39.583 Z16.983 A19.0739 
N158 X-236.398 Y-39.539 Z17.004 A18.0884 
N159 X-236.396 Y-39.495 Z17.025 A17.1028 
N160 X-236.394 Y-39.451 Z17.045 A16.1172 
N161 X-236.391 Y-39.406 Z17.065 A15.1318 
N162 X-236.389 Y-39.361 Z17.083 A14.1465 
N163 X-236.386 Y-39.315 Z17.101 A13.1610 
N164 X-236.384 Y-39.270 Z17.118 A12.1755 
N165 X-236.381 Y-39.224 Z17.134 A11.1901 
N166 X-236.379 Y-39.178 Z17.150 A10.2045 
N167 X-236.377 Y-39.132 Z17.164 A9.2187 
N168 X-236.375 Y-39.085 Z17.178 A8.2331 
N169 X-236.372 Y-39.039 Z17.191 A7.2472 
N170 X-236.370 Y-38.992 Z17.203 A6.2609 
N171 X-236.368 Y-38.945 Z17.215 A5.2741 
N172 X-236.365 Y-38.898 Z17.225 A4.2868 
N173 X-236.363 Y-38.850 Z17.235 A3.2987 
N174 X-236.361 Y-38.803 Z17.244 A2.3094 
N175 X-236.359 Y-38.755 Z17.252 A1.3188 
N176 X-236.357 Y-38.707 Z17.259 A0.3264 
N177 X-236.354 Y-38.659 Z17.266 A359.3316 
N178 X-236.352 Y-38.611 Z17.271 A358.3340 
N179 X-236.350 Y-38.562 Z17.276 A357.3325 
N180 X-236.348 Y-38.514 Z17.280 A356.3264 
N181 X-236.346 Y-38.464 Z17.284 A355.3147 
N182 X-236.344 Y-38.415 Z17.286 A354.2957 
N183 X-236.342 Y-38.365 Z17.288 A353.2678 
N184 X-236.340 Y-38.314 Z17.288 A352.2295 
N185 X-236.337 Y-38.263 Z17.288 A351.1782 
N186 X-236.335 Y-38.211 Z17.287 A350.1105 
N187 X-236.333 Y-38.159 Z17.285 A349.0245 
N188 X-236.331 Y-38.105 Z17.281 A347.9172 
N189 X-236.329 Y-38.050 Z17.277 A346.7838 
N190 X-236.327 Y-37.993 Z17.272 A345.6226 
N191 X-236.324 Y-37.935 Z17.265 A344.4315 
N192 X-236.322 Y-37.870 Z17.256 A343.1020 
N193 X-236.319 Y-37.802 Z17.245 A341.7051 
N194 X-236.316 Y-37.719 Z17.230 A340.0033 
N195 X-236.313 Y-37.633 Z17.211 A338.2608 
N196 X-236.310 Y-37.544 Z17.189 A336.4784 
N197 X-236.306 Y-37.450 Z17.163 A334.6648 
N198 X-236.301 Y-37.353 Z17.131 A332.8364 
N199 X-236.295 Y-37.252 Z17.094 A331.0277 
N200 X-236.289 Y-37.152 Z17.053 A329.4010 
N201 X-236.281 Y-37.054 Z17.009 A328.0454 
N202 X-236.272 Y-36.968 Z16.965 A327.2485 
N203 X-236.260 Y-36.880 Z16.917 A326.7469 
N204 X-236.246 Y-36.782 Z16.862 A326.5025 
N205 X-236.229 Y-36.670 Z16.799 A326.4625 
N206 X-236.207 Y-36.535 Z16.722 A326.5064 
N207 X-236.181 Y-36.371 Z16.629 A326.6197 
N208 X-236.149 Y-36.172 Z16.518 A326.7655 
N209 X-236.111 Y-35.936 Z16.386 A326.9442 
N210 X-236.066 Y-35.659 Z16.234 A327.1577 
N211 X-236.014 Y-35.339 Z16.059 A327.4084 
N212 X-235.954 Y-34.973 Z15.862 A327.6983 
N213 X-235.886 Y-34.563 Z15.644 A328.0291 
N214 X-235.810 Y-34.108 Z15.406 A328.4028 
N215 X-235.727 Y-33.612 Z15.150 A328.8220 
N216 X-235.635 Y-33.076 Z14.878 A329.2895 
N217 X-235.535 Y-32.506 Z14.595 A329.8083 
N218 X-235.428 Y-31.906 Z14.304 A330.3802 
N219 X-235.315 Y-31.282 Z14.009 A331.0061 
N220 X-235.195 Y-30.640 Z13.714 A331.6856 
N221 X-235.070 Y-29.984 Z13.422 A332.3919 
N222 X-234.941 Y-29.320 Z13.138 A333.1240 
N223 X-234.808 Y-28.653 Z12.862 A333.8808 
N224 X-234.672 Y-27.989 Z12.598 A334.6613 
N225 X-234.534 Y-27.331 Z12.347 A335.4639 
N226 X-234.394 Y-26.683 Z12.111 A336.2872 
N227 X-234.254 Y-26.047 Z11.890 A337.1296 
N228 X-234.113 Y-25.425 Z11.684 A337.9892 
N229 X-233.973 Y-24.819 Z11.494 A338.8644 
N230 X-233.832 Y-24.228 Z11.319 A339.7536 
N231 X-233.692 Y-23.654 Z11.158 A340.6553 
N232 X-233.553 Y-23.095 Z11.012 A341.5679 
N233 X-233.415 Y-22.551 Z10.878 A342.4902 
N234 X-233.277 Y-22.022 Z10.758 A343.4212 
N235 X-233.139 Y-21.506 Z10.649 A344.3599 
N236 X-233.002 Y-21.003 Z10.551 A345.3057 
N237 X-232.865 Y-20.510 Z10.464 A346.2579 
N238 X-232.728 Y-20.028 Z10.387 A347.2161 
N239 X-232.591 Y-19.555 Z10.320 A348.1801 
N240 X-232.453 Y-19.089 Z10.261 A349.1497 
N241 X-232.315 Y-18.630 Z10.211 A350.1249 
N242 X-232.177 Y-18.177 Z10.169 A351.1057 
N243 X-232.037 Y-17.728 Z10.135 A352.0923 
N244 X-231.895 Y-17.283 Z10.109 A353.0850 
N245 X-231.752 Y-16.839 Z10.091 A354.0840 
N246 X-231.606 Y-16.396 Z10.081 A355.0899 
N247 X-231.458 Y-15.952 Z10.078 A356.1029 
N248 X-231.307 Y-15.505 Z10.083 A357.1235 
N249 X-231.152 Y-15.054 Z10.096 A358.1522 
N250 X-230.993 Y-14.597 Z10.118 A359.1893 
N251 X-230.828 Y-14.131 Z10.148 A0.2350 
N252 X-230.657 Y-13.654 Z10.188 A1.2894 
N253 X-230.478 Y-13.162 Z10.239 A2.3521 
N254 X-230.291 Y-12.653 Z10.302 A3.4225 
N255 X-230.094 Y-12.123 Z10.378 A4.4995 
N256 X-229.885 Y-11.568 Z10.469 A5.5813 
N257 X-229.662 Y-10.986 Z10.576 A6.6657 
N258 X-229.426 Y-10.372 Z10.703 A7.7497 
N259 X-229.173 Y-9.725 Z10.851 A8.8300 
N260 X-228.903 Y-9.042 Z11.023 A9.9030 
N261 X-228.616 Y-8.323 Z11.219 A10.9646 
N262 X-228.311 Y-7.567 Z11.443 A11.9945 
N263 X-227.989 Y-6.778 Z11.694 A12.9824 
N264 X-227.651 Y-5.955 Z11.974 A13.8650 
N265 X-227.299 Y-5.103 Z12.280 A14.6194 
N266 X-226.937 Y-4.228 Z12.608 A15.2280 
N267 X-226.567 Y-3.336 Z12.953 A15.6840 
N268 X-226.195 Y-2.436 Z13.308 A15.9896 
N269 X-225.825 Y-1.537 Z13.666 A16.1512 
N270 X-225.461 Y-0.648 Z14.023 A16.1748 
N271 X-225.107 Y0.221 Z14.370 A16.0647 
N272 X-224.767 Y1.061 Z14.704 A15.8229 
N273 X-224.446 Y1.866 Z15.019 A15.4489 
N274 X-224.145 Y2.629 Z15.312 A14.9413 
N275 X-223.868 Y3.346 Z15.579 A14.3002 
N276 X-223.614 Y4.014 Z15.819 A13.5298 
N277 X-223.385 Y4.632 Z16.031 A12.6387 
N278 X-223.180 Y5.198 Z16.214 A11.6922 
N279 X-222.998 Y5.713 Z16.371 A10.6983 
N280 X-222.838 Y6.178 Z16.504 A9.6659 
N281 X-222.698 Y6.598 Z16.614 A8.6041 
N282 X-222.576 Y6.975 Z16.706 A7.5327 
N283 X-222.470 Y7.313 Z16.781 A6.4573 
N284 X-222.377 Y7.617 Z16.843 A5.3824 
N285 X-222.297 Y7.891 Z16.893 A4.3107 
N286 X-222.226 Y8.139 Z16.934 A3.2428 
N287 X-222.165 Y8.363 Z16.968 A2.1784 
N288 X-222.110 Y8.569 Z16.994 A1.1177 
N289 X-222.062 Y8.757 Z17.015 A0.0611 
N290 X-222.020 Y8.932 Z17.032 A359.0101 
N291 X-221.981 Y9.093 Z17.044 A357.9662 
N292 X-221.947 Y9.244 Z17.053 A356.9308 
N293 X-221.916 Y9.386 Z17.059 A355.9052 
N294 X-221.888 Y9.519 Z17.063 A354.8896 
N295 X-221.862 Y9.644 Z17.064 A353.8837 
N296 X-221.838 Y9.763 Z17.063 A352.8869 
N297 X-221.817 Y9.876 Z17.060 A351.8979 
N298 X-221.797 Y9.984 Z17.056 A350.9154 
N299 X-221.779 Y10.087 Z17.050 A349.9382 
N300 X-221.762 Y10.185 Z17.043 A348.9650 
N301 X-221.746 Y10.280 Z17.035 A347.9947 
N302 X-221.732 Y10.371 Z17.026 A347.0267 
N303 X-221.719 Y10.459 Z17.015 A346.0602 
N304 X-221.706 Y10.544 Z17.004 A345.0951 
N305 X-221.694 Y10.626 Z16.991 A344.1313 
N306 X-221.684 Y10.706 Z16.978 A343.1688 
N307 X-221.673 Y10.784 Z16.964 A342.2080 
N308 X-221.664 Y10.859 Z16.949 A341.2492 
N309 X-221.655 Y10.932 Z16.933 A340.2928 
N310 X-221.647 Y11.003 Z16.916 A339.3391 
N311 X-221.639 Y11.073 Z16.899 A338.3883 
N312 X-221.631 Y11.140 Z16.880 A337.4409 
N313 X-221.624 Y11.206 Z16.862 A336.4970 
N314 X-221.618 Y11.271 Z16.842 A335.5568 
N315 X-221.611 Y11.334 Z16.822 A334.6202 
N316 X-221.605 Y11.396 Z16.801 A333.6874 
N317 X-221.600 Y11.457 Z16.779 A332.7585 
N318 X-221.594 Y11.516 Z16.757 A331.8333 
N319 X-221.589 Y11.575 Z16.734 A330.9117 
N320 X-221.584 Y11.632 Z16.711 A329.9937 
N321 X-221.580 Y11.688 Z16.686 A329.0792 
N322 X-221.575 Y11.743 Z16.662 A328.1679 
N323 X-221.571 Y11.797 Z16.636 A327.2598 
N324 X-221.567 Y11.851 Z16.611 A326.3546 
N325 X-221.563 Y11.903 Z16.584 A325.4521 
N326 X-221.559 Y11.955 Z16.557 A324.5524 
N327 X-221.556 Y12.006 Z16.529 A323.6550 
N328 X-221.552 Y12.056 Z16.501 A322.7598 
N329 X-221.549 Y12.105 Z16.472 A321.8668 
N330 X-221.546 Y12.153 Z16.443 A320.9756 
N331 X-221.543 Y12.201 Z16.413 A320.0861 
N332 X-221.540 Y12.248 Z16.383 A319.1982 
N333 X-221.537 Y12.294 Z16.352 A318.3116 
N334 X-221.535 Y12.339 Z16.320 A317.4262 
N335 X-221.532 Y12.384 Z16.288 A316.5419 
N336 X-221.530 Y12.428 Z16.255 A315.6584 
N337 X-221.528 Y12.472 Z16.222 A314.7757 
N338 X-221.526 Y12.515 Z16.188 A313.8935 
N339 X-221.524 Y12.557 Z16.154 A313.0118 
N340 X-221.522 Y12.599 Z16.119 A312.1303 
N341 X-221.521 Y12.640 Z16.084 A311.2489 
N342 X-221.519 Y12.680 Z16.048 A310.3675 
N343 X-221.517 Y12.720 Z16.011 A309.4859 
N344 X-221.516 Y12.759 Z15.974 A308.6040 
N345 X-221.515 Y12.797 Z15.937 A307.7216 
N346 X-221.514 Y12.835 Z15.898 A306.8387 
N347 X-221.513 Y12.873 Z15.860 A305.9550 
N348 X-221.512 Y12.909 Z15.820 A305.0703 
N349 X-221.511 Y12.946 Z15.780 A304.1847 
N350 X-221.510 Y12.981 Z15.740 A303.2978 
N351 X-221.510 Y13.016 Z15.698 A302.4096 
N352 X-221.509 Y13.051 Z15.656 A301.5200 
N353 X-221.509 Y13.085 Z15.614 A300.6286 
N354 X-221.509 Y13.118 Z15.571 A299.7356 
N355 X-221.509 Y13.151 Z15.527 A298.8405 
N356 X-221.509 Y13.183 Z15.482 A297.9434 
N357 X-221.509 Y13.215 Z15.437 A297.0441 
N358 X-221.509 Y13.246 Z15.391 A296.1424 
N359 X-221.510 Y13.277 Z15.344 A295.2382 
N360 X-221.510 Y13.307 Z15.296 A294.3313 
N361 X-221.511 Y13.337 Z15.248 A293.4216 
N362 X-221.512 Y13.366 Z15.198 A292.5090 
N363 X-221.513 Y13.395 Z15.148 A291.5933 
N364 X-221.515 Y13.423 Z15.097 A290.6744 
N365 X-221.516 Y13.450 Z15.044 A289.7522 
N366 X-221.518 Y13.477 Z14.991 A288.8266 
N367 X-221.520 Y13.504 Z14.936 A287.8977 
N368 X-221.522 Y13.530 Z14.880 A286.9655 
N369 X-221.524 Y13.555 Z14.823 A286.0302 
N370 X-221.527 Y13.580 Z14.764 A285.0918 
N371 X-221.530 Y13.604 Z14.704 A284.1506 
N372 X-221.534 Y13.628 Z14.642 A283.2071 
N373 X-221.538 Y13.651 Z14.578 A282.2615 
N374 X-221.542 Y13.674 Z14.513 A281.3146 
N375 X-221.547 Y13.696 Z14.445 A280.3670 
N376 X-221.552 Y13.717 Z14.375 A279.4195 
N377 X-221.559 Y13.738 Z14.303 A278.4727 
N378 X-221.565 Y13.758 Z14.229 A277.5274 
N379 X-221.573 Y13.777 Z14.152 A276.5842 
N380 X-221.581 Y13.796 Z14.071 A275.6436 
N381 X-221.590 Y13.813 Z13.988 A274.7060 
N382 X-221.600 Y13.830 Z13.901 A273.7711 
N383 X-221.612 Y13.846 Z13.811 A272.8388 
N384 X-221.624 Y13.861 Z13.716 A271.9085 
N385 X-221.638 Y13.875 Z13.617 A270.9794 
N386 X-221.654 Y13.887 Z13.512 A270.0508 
N387 X-221.671 Y13.899 Z13.403 A269.1216 
N388 X-221.690 Y13.909 Z13.288 A268.1913 
N389 X-221.710 Y13.917 Z13.166 A267.2594 
N390 X-221.733 Y13.924 Z13.037 A266.3261 
N391 X-221.759 Y13.929 Z12.901 A265.3921 
N392 X-221.787 Y13.931 Z12.758 A264.4589 
N393 X-221.818 Y13.931 Z12.606 A263.5282 
N394 X-221.852 Y13.928 Z12.445 A262.6019 
N395 X-221.889 Y13.922 Z12.275 A261.6813 
N396 X-221.930 Y13.912 Z12.095 A260.7673 
N397 X-221.975 Y13.899 Z11.905 A259.8593 
N398 X-222.024 Y13.881 Z11.703 A258.9564 
N399 X-222.078 Y13.859 Z11.489 A258.0567 
N400 X-222.136 Y13.832 Z11.264 A257.1584 
N401 X-222.199 Y13.800 Z11.025 A256.2604 
N402 X-222.267 Y13.762 Z10.773 A255.3626 
N403 X-222.341 Y13.717 Z10.508 A254.4656 
N404 X-222.420 Y13.666 Z10.230 A253.5705 
N405 X-222.506 Y13.606 Z9.938 A252.6783 
N406 X-222.597 Y13.539 Z9.632 A251.7894 
N407 X-222.694 Y13.464 Z9.314 A250.9040 
N408 X-222.797 Y13.380 Z8.982 A250.0219 
N409 X-222.906 Y13.287 Z8.638 A249.1430 
N410 X-223.021 Y13.186 Z8.282 A248.2670 
N411 X-223.142 Y13.074 Z7.915 A247.3937 
N412 X-223.268 Y12.954 Z7.538 A246.5225 
N413 X-223.399 Y12.824 Z7.153 A245.6527 
N414 X-223.535 Y12.685 Z6.759 A244.7830 
N415 X-223.675 Y12.538 Z6.359 A243.9121 
N416 X-223.819 Y12.381 Z5.954 A243.0382 
N417 X-223.966 Y12.216 Z5.545 A242.1597 
N418 X-224.116 Y12.043 Z5.134 A241.2755 
N419 X-224.269 Y11.862 Z4.722 A240.3845 
N420 X-224.423 Y11.674 Z4.312 A239.4865 
N421 X-224.579 Y11.479 Z3.903 A238.5813 
N422 X-224.735 Y11.278 Z3.497 A237.6692 
N423 X-224.892 Y11.071 Z3.097 A236.7507 
N424 X-225.048 Y10.859 Z2.702 A235.8259 
N425 X-225.204 Y10.643 Z2.314 A234.8951 
N426 X-225.359 Y10.423 Z1.933 A233.9582 
N427 X-225.512 Y10.199 Z1.561 A233.0152 
N428 X-225.664 Y9.972 Z1.198 A232.0658 
N429 X-225.814 Y9.743 Z0.843 A231.1100 
N430 X-225.961 Y9.512 Z0.498 A230.1477 
N431 X-226.106 Y9.279 Z0.163 A229.1791 
N432 X-226.249 Y9.045 Z-0.162 A228.2045 
N433 X-226.390 Y8.809 Z-0.477 A227.2243 
N434 X-226.527 Y8.573 Z-0.782 A226.2388 
N435 X-226.662 Y8.337 Z-1.078 A225.2486 
N436 X-226.795 Y8.100 Z-1.363 A224.2543 
N437 X-226.924 Y7.863 Z-1.639 A223.2563 
N438 X-227.051 Y7.626 Z-1.905 A222.2551 
N439 X-227.176 Y7.389 Z-2.162 A221.2512 
N440 X-227.298 Y7.152 Z-2.410 A220.2449 
N441 X-227.417 Y6.915 Z-2.650 A219.2367 
N442 X-227.534 Y6.678 Z-2.881 A218.2268 
N443 X-227.649 Y6.442 Z-3.104 A217.2155 
N444 X-227.761 Y6.205 Z-3.319 A216.2031 
N445 X-227.872 Y5.969 Z-3.526 A215.1898 
N446 X-227.980 Y5.733 Z-3.726 A214.1759 
N447 X-228.086 Y5.498 Z-3.919 A213.1615 
N448 X-228.191 Y5.262 Z-4.105 A212.1468 
N449 X-228.293 Y5.026 Z-4.284 A211.1320 
N450 X-228.394 Y4.790 Z-4.457 A210.1172 
N451 X-228.493 Y4.555 Z-4.624 A209.1027 
N452 X-228.591 Y4.319 Z-4.784 A208.0886 
N453 X-228.687 Y4.083 Z-4.939 A207.0750 
N454 X-228.782 Y3.847 Z-5.088 A206.0619 
N455 X-228.875 Y3.610 Z-5.231 A205.0497 
N456 X-228.967 Y3.373 Z-5.369 A204.0382 
N457 X-229.058 Y3.136 Z-5.501 A203.0276 
N458 X-229.147 Y2.898 Z-5.629 A202.0181 
N459 X-229.236 Y2.660 Z-5.751 A201.0097 
N460 X-229.323 Y2.421 Z-5.869 A200.0024 
N461 X-229.409 Y2.181 Z-5.981 A198.9963 
N462 X-229.495 Y1.940 Z-6.089 A197.9916 
N463 X-229.579 Y1.699 Z-6.193 A196.9883 
N464 X-229.663 Y1.456 Z-6.291 A195.9865 
N465 X-229.746 Y1.212 Z-6.386 A194.9862 
N466 X-229.828 Y0.968 Z-6.475 A193.9875 
N467 X-229.910 Y0.721 Z-6.561 A192.9905 
N468 X-229.991 Y0.474 Z-6.642 A191.9953 
N469 X-230.071 Y0.225 Z-6.719 A191.0018 
N470 X-230.151 Y-0.026 Z-6.792 A190.0102 
N471 X-230.230 Y-0.278 Z-6.860 A189.0204 
N472 X-230.309 Y-0.532 Z-6.924 A188.0324 
N473 X-230.387 Y-0.789 Z-6.984 A187.0463 
N474 X-230.465 Y-1.047 Z-7.040 A186.0621 
N475 X-230.543 Y-1.307 Z-7.092 A185.0797 
N476 X-230.620 Y-1.570 Z-7.139 A184.0993 
N477 X-230.697 Y-1.836 Z-7.182 A183.1208 
N478 X-230.774 Y-2.104 Z-7.221 A182.1442 
N479 X-230.851 Y-2.375 Z-7.256 A181.1696 
N480 X-230.928 Y-2.649 Z-7.286 A180.1969 
N481 X-231.004 Y-2.926 Z-7.312 A179.2262 
N482 X-231.081 Y-3.206 Z-7.333 A178.2574 
N483 X-231.157 Y-3.491 Z-7.349 A177.2905 
N484 X-231.234 Y-3.779 Z-7.361 A176.3256 
N485 X-231.310 Y-4.071 Z-7.368 A175.3625 
N486 X-231.387 Y-4.367 Z-7.371 A174.4013 
N487 X-231.464 Y-4.669 Z-7.368 A173.4419 
N488 X-231.541 Y-4.975 Z-7.360 A172.4843 
N489 X-231.619 Y-5.286 Z-7.346 A171.5284 
N490 X-231.697 Y-5.603 Z-7.327 A170.5742 
N491 X-231.775 Y-5.925 Z-7.302 A169.6217 
N492 X-231.853 Y-6.254 Z-7.272 A168.6708 
N493 X-231.933 Y-6.590 Z-7.234 A167.7216 
N494 X-232.012 Y-6.933 Z-7.190 A166.7739 
N495 X-232.092 Y-7.284 Z-7.140 A165.8277 
N496 X-232.173 Y-7.642 Z-7.081 A164.8830 
N497 X-232.255 Y-8.010 Z-7.016 A163.9399 
N498 X-232.337 Y-8.386 Z-6.942 A162.9981 
N499 X-232.420 Y-8.773 Z-6.859 A162.0576 
N500 X-232.504 Y-9.171 Z-6.767 A161.1184 
N501 X-232.589 Y-9.580 Z-6.665 A160.1803 
N502 X-232.675 Y-10.001 Z-6.553 A159.2432 
N503 X-232.762 Y-10.436 Z-6.429 A158.3069 
N504 X-232.850 Y-10.886 Z-6.293 A157.3711 
N505 X-232.940 Y-11.352 Z-6.144 A156.4358 
N506 X-233.031 Y-11.835 Z-5.980 A155.5007 
N507 X-233.124 Y-12.338 Z-5.801 A154.5658 
N508 X-233.219 Y-12.861 Z-5.604 A153.6311 
N509 X-233.316 Y-13.409 Z-5.388 A152.6969 
N510 X-233.414 Y-13.982 Z-5.150 A151.7638 
N511 X-233.515 Y-14.584 Z-4.888 A150.8323 
N512 X-233.619 Y-15.218 Z-4.600 A149.9037 
N513 X-233.725 Y-15.886 Z-4.281 A148.9793 
N514 X-233.834 Y-16.594 Z-3.930 A148.0607 
N515 X-233.945 Y-17.343 Z-3.542 A147.1502 
N516 X-234.059 Y-18.136 Z-3.113 A146.2501 
N517 X-234.176 Y-18.976 Z-2.640 A145.3633 
N518 X-234.294 Y-19.864 Z-2.121 A144.4931 
N519 X-234.413 Y-20.800 Z-1.552 A143.6429 
N520 X-234.533 Y-21.783 Z-0.932 A142.8164 
N521 X-234.653 Y-22.811 Z-0.262 A142.0168 
N522 X-234.772 Y-23.878 Z0.456 A141.2468 
N523 X-234.889 Y-24.978 Z1.219 A140.5079 
N524 X-235.003 Y-26.101 Z2.019 A139.8318 
N525 X-235.114 Y-27.236 Z2.849 A139.2193 
N526 X-235.220 Y-28.373 Z3.697 A138.6711 
N527 X-235.320 Y-29.497 Z4.553 A138.1878 
N528 X-235.415 Y-30.596 Z5.404 A137.7694 
N529 X-235.503 Y-31.656 Z6.236 A137.4157 
N530 X-235.585 Y-32.665 Z7.037 A137.1262 
N531 X-235.660 Y-33.612 Z7.796 A136.8682 
N532 X-235.728 Y-34.488 Z8.504 A136.6403 
N533 X-235.789 Y-35.287 Z9.153 A136.4400 
N534 X-235.843 Y-36.003 Z9.737 A136.2641 
N535 X-235.890 Y-36.635 Z10.254 A136.1092 
N536 X-235.931 Y-37.183 Z10.705 A135.9717 
N537 X-235.965 Y-37.651 Z11.090 A135.8482 
N538 X-235.993 Y-38.044 Z11.414 A135.7355 
N539 X-236.016 Y-38.368 Z11.682 A135.6303 
N540 X-236.035 Y-38.631 Z11.900 A135.5292 
N541 X-236.049 Y-38.841 Z12.075 A135.4289 
N542 X-236.060 Y-39.006 Z12.212 A135.3257 
N543 X-236.068 Y-39.133 Z12.319 A135.2162 
N544 X-236.074 Y-39.232 Z12.402 A135.0734 
N545 X-236.078 Y-39.312 Z12.469 A134.7010 
N546 X-236.080 Y-39.394 Z12.535 A133.6524 
N547 X-236.081 Y-39.482 Z12.605 A131.8475 
N548 X-236.081 Y-39.576 Z12.682 A129.4040 
N549 X-236.080 Y-39.660 Z12.756 A126.9329 
N550 X-236.079 Y-39.731 Z12.823 A124.6494 
N551 X-236.077 Y-39.794 Z12.887 A122.4674 
N552 X-236.076 Y-39.849 Z12.947 A120.4224 
N553 X-236.074 Y-39.895 Z13.001 A118.6537 
N554 X-236.072 Y-39.930 Z13.045 A117.1787 
N555 X-236.071 Y-39.962 Z13.087 A115.8273 
N556 X-236.069 Y-39.989 Z13.125 A114.5938 
N557 X-236.068 Y-40.014 Z13.160 A113.4669 
N558 X-236.066 Y-40.036 Z13.195 A112.3833 
N559 X-236.065 Y-40.057 Z13.229 A111.3394 
N560 X-236.063 Y-40.077 Z13.261 A110.3333 
N561 X-236.062 Y-40.096 Z13.294 A109.3423 
N562 X-236.060 Y-40.113 Z13.326 A108.3637 
N563 X-236.059 Y-40.131 Z13.358 A107.3962 
N564 X-236.057 Y-40.147 Z13.390 A106.4382 
N565 X-236.056 Y-40.163 Z13.422 A105.4876 
N566 X-236.054 Y-40.178 Z13.454 A104.5428 
N567 X-236.052 Y-40.192 Z13.486 A103.6030 
N568 X-236.051 Y-40.206 Z13.519 A102.6673 
N569 X-236.049 Y-40.219 Z13.551 A101.7348 
N570 X-236.047 Y-40.232 Z13.583 A100.8047 
N571 X-236.046 Y-40.244 Z13.616 A99.8763 
N572 X-236.044 Y-40.255 Z13.648 A98.9493 
N573 X-236.042 Y-40.266 Z13.681 A98.0234 
N574 X-236.041 Y-40.277 Z13.714 A97.0983 
N575 X-236.039 Y-40.287 Z13.747 A96.1736 
N576 X-236.037 Y-40.296 Z13.780 A95.2488 
N577 X-236.035 Y-40.305 Z13.813 A94.3241 
N578 X-236.034 Y-40.313 Z13.847 A93.3995 
N579 X-236.032 Y-40.321 Z13.880 A92.4746 
N580 X-236.030 Y-40.328 Z13.914 A91.5490 
N581 X-236.028 Y-40.335 Z13.948 A90.6230 
N582 X-236.026 Y-40.341 Z13.982 A89.6966 
N583 X-236.024 Y-40.347 Z14.016 A88.7698 
N584 X-236.022 Y-40.352 Z14.050 A87.8418 
N585 X-236.020 Y-40.356 Z14.084 A86.9132 
N586 X-236.019 Y-40.360 Z14.119 A85.9840 
N587 X-236.017 Y-40.364 Z14.153 A85.0542 
N588 X-236.014 Y-40.367 Z14.188 A84.1230 
N589 X-236.012 Y-40.369 Z14.222 A83.1911 
N590 X-236.010 Y-40.371 Z14.257 A82.2584 
N591 X-236.008 Y-40.372 Z14.292 A81.3247 
N592 X-236.006 Y-40.373 Z14.326 A80.3898 
N593 X-236.004 Y-40.373 Z14.361 A79.4540 
N594 X-236.002 Y-40.372 Z14.396 A78.5172 
N595 X-236.000 Y-40.371 Z14.431 A77.5787 
N596 X-235.997 Y-40.370 Z14.466 A76.6391 
N597 X-235.995 Y-40.367 Z14.501 A75.6984 
N598 X-235.993 Y-40.365 Z14.536 A74.7560 
N599 X-235.990 Y-40.361 Z14.571 A73.8122 
N600 X-235.988 Y-40.357 Z14.606 A72.8671 
N601 X-235.986 Y-40.353 Z14.641 A71.9204 
N602 X-235.983 Y-40.348 Z14.677 A70.9720 
N603 X-235.981 Y-40.342 Z14.712 A70.0222 
N604 X-235.978 Y-40.336 Z14.746 A69.0706 
N605 X-235.976 Y-40.329 Z14.781 A68.1173 
N606 X-235.973 Y-40.322 Z14.816 A67.1623 
N607 X-235.971 Y-40.314 Z14.851 A66.2056 
N608 X-235.968 Y-40.305 Z14.886 A65.2470 
N609 X-235.966 Y-40.296 Z14.920 A64.2868 
N610 X-235.963 Y-40.286 Z14.955 A63.3247 
N611 X-235.961 Y-40.276 Z14.989 A62.3609 
N612 X-235.958 Y-40.265 Z15.024 A61.3955 
N613 X-235.955 Y-40.253 Z15.058 A60.4283 
N614 X-235.953 Y-40.241 Z15.092 A59.4594 
N615 X-235.950 Y-40.228 Z15.126 A58.4889 
N616 X-235.947 Y-40.215 Z15.159 A57.5167 
N617 X-235.945 Y-40.201 Z15.193 A56.5431 
N618 X-235.942 Y-40.187 Z15.226 A55.5679 
N619 X-235.939 Y-40.171 Z15.259 A54.5913 
N620 X-235.936 Y-40.156 Z15.292 A53.6133 
N621 X-235.934 Y-40.140 Z15.324 A52.6340 
N622 X-235.931 Y-40.123 Z15.357 A51.6535 
N623 X-235.928 Y-40.106 Z15.389 A50.6718 
N624 X-235.925 Y-40.088 Z15.420 A49.6891 
N625 X-235.922 Y-40.070 Z15.452 A48.7053 
N626 X-235.920 Y-40.051 Z15.483 A47.7206 
N627 X-235.917 Y-40.031 Z15.514 A46.7351 
N628 X-235.914 Y-40.011 Z15.544 A45.7487 
N629 X-235.911 Y-39.991 Z15.574 A44.7617 
N630 X-235.908 Y-39.970 Z15.604 A43.7742 
N631 X-235.905 Y-39.949 Z15.633 A42.7861 
N632 X-235.903 Y-39.927 Z15.662 A41.7975 
N633 X-235.900 Y-39.904 Z15.691 A40.8086 
N634 X-235.897 Y-39.881 Z15.719 A39.8195 
N635 X-235.894 Y-39.858 Z15.747 A38.8301 
N636 X-235.891 Y-39.834 Z15.774 A37.8406 
N637 X-235.889 Y-39.810 Z15.801 A36.8511 
N638 X-235.886 Y-39.786 Z15.827 A35.8616 
N639 X-235.883 Y-39.761 Z15.853 A34.8723 
N640 X-235.880 Y-39.735 Z15.879 A33.8830 
N641 X-235.877 Y-39.709 Z15.903 A32.8940 
N642 X-235.875 Y-39.683 Z15.928 A31.9052 
N643 X-235.872 Y-39.657 Z15.952 A30.9166 
N644 X-235.869 Y-39.630 Z15.976 A29.9285 
N645 X-235.867 Y-39.602 Z15.999 A28.9405 
N646 X-235.864 Y-39.575 Z16.021 A27.9528 
N647 X-235.861 Y-39.547 Z16.043 A26.9655 
N648 X-235.858 Y-39.519 Z16.065 A25.9783 
N649 X-235.856 Y-39.490 Z16.086 A24.9913 
N650 X-235.853 Y-39.461 Z16.106 A24.0048 
N651 X-235.851 Y-39.432 Z16.126 A23.0183 
N652 X-235.848 Y-39.403 Z16.145 A22.0319 
N653 X-235.845 Y-39.373 Z16.164 A21.0459 
N654 X-235.843 Y-39.343 Z16.182 A20.0599 
N655 X-235.840 Y-39.313 Z16.200 A19.0739 
N656 X-235.838 Y-39.282 Z16.217 A18.0884 
N657 X-235.835 Y-39.252 Z16.234 A17.1028 
N658 X-235.833 Y-39.221 Z16.250 A16.1172 
N659 X-235.830 Y-39.190 Z16.265 A15.1318 
N660 X-235.828 Y-39.158 Z16.280 A14.1465 
N661 X-235.826 Y-39.127 Z16.295 A13.1610 
N662 X-235.823 Y-39.095 Z16.309 A12.1755 
N663 X-235.821 Y-39.063 Z16.322 A11.1901 
N664 X-235.819 Y-39.031 Z16.335 A10.2045 
N665 X-235.816 Y-38.999 Z16.347 A9.2187 
N666 X-235.814 Y-38.967 Z16.359 A8.2331 
N667 X-235.812 Y-38.934 Z16.370 A7.2472 
N668 X-235.809 Y-38.902 Z16.380 A6.2609 
N669 X-235.807 Y-38.869 Z16.390 A5.2741 
N670 X-235.805 Y-38.836 Z16.399 A4.2868 
N671 X-235.803 Y-38.803 Z16.408 A3.2987 
N672 X-235.800 Y-38.770 Z16.416 A2.3094 
N673 X-235.798 Y-38.736 Z16.424 A1.3188 
N674 X-235.796 Y-38.703 Z16.431 A0.3264 
N675 X-235.794 Y-38.669 Z16.438 A359.3316 
N676 X-235.792 Y-38.635 Z16.444 A358.3340 
N677 X-235.790 Y-38.601 Z16.449 A357.3325 
N678 X-235.787 Y-38.567 Z16.454 A356.3264 
N679 X-235.785 Y-38.532 Z16.458 A355.3147 
N680 X-235.783 Y-38.497 Z16.462 A354.2957 
N681 X-235.781 Y-38.462 Z16.465 A353.2678 
N682 X-235.779 Y-38.426 Z16.468 A352.2295 
N683 X-235.777 Y-38.390 Z16.470 A351.1782 
N684 X-235.775 Y-38.354 Z16.471 A350.1105 
N685 X-235.772 Y-38.316 Z16.472 A349.0245 
N686 X-235.770 Y-38.278 Z16.472 A347.9172 
N687 X-235.768 Y-38.239 Z16.471 A346.7838 
N688 X-235.766 Y-38.199 Z16.469 A345.6226 
N689 X-235.764 Y-38.157 Z16.467 A344.4315 
N690 X-235.761 Y-38.111 Z16.464 A343.1020 
N691 X-235.759 Y-38.062 Z16.459 A341.7051 
N692 X-235.756 Y-38.002 Z16.452 A340.0033 
N693 X-235.753 Y-37.940 Z16.442 A338.2608 
N694 X-235.749 Y-37.874 Z16.430 A336.4784 
N695 X-235.745 Y-37.805 Z16.414 A334.6648 
N696 X-235.740 Y-37.731 Z16.394 A332.8364 
N697 X-235.735 Y-37.653 Z16.370 A331.0277 
N698 X-235.728 Y-37.573 Z16.340 A329.4010 
N699 X-235.720 Y-37.493 Z16.306 A328.0454 
N700 X-235.711 Y-37.416 Z16.269 A327.2485 
N701 X-235.700 Y-37.334 Z16.225 A326.7469 
N702 X-235.686 Y-37.239 Z16.172 A326.5025 
N703 X-235.668 Y-37.128 Z16.108 A326.4625 
N704 X-235.646 Y-36.992 Z16.031 A326.5064 
N705 X-235.620 Y-36.826 Z15.937 A326.6197 
N706 X-235.588 Y-36.626 Z15.825 A326.7655 
N707 X-235.550 Y-36.388 Z15.692 A326.9442 
N708 X-235.505 Y-36.108 Z15.538 A327.1577 
N709 X-235.453 Y-35.785 Z15.361 A327.4084 
N710 X-235.393 Y-35.416 Z15.162 A327.6983 
N711 X-235.326 Y-35.001 Z14.942 A328.0291 
N712 X-235.250 Y-34.542 Z14.701 A328.4028 
N713 X-235.166 Y-34.040 Z14.441 A328.8220 
N714 X-235.074 Y-33.499 Z14.166 A329.2895 
N715 X-234.975 Y-32.923 Z13.879 A329.8083 
N716 X-234.868 Y-32.316 Z13.584 A330.3802 
N717 X-234.754 Y-31.684 Z13.285 A331.0061 
N718 X-234.635 Y-31.033 Z12.985 A331.6856 
N719 X-234.510 Y-30.368 Z12.689 A332.3919 
N720 X-234.380 Y-29.694 Z12.399 A333.1240 
N721 X-234.247 Y-29.018 Z12.118 A333.8808 
N722 X-234.111 Y-28.343 Z11.850 A334.6613 
N723 X-233.973 Y-27.675 Z11.594 A335.4639 
N724 X-233.833 Y-27.016 Z11.353 A336.2872 
N725 X-233.693 Y-26.369 Z11.127 A337.1296 
N726 X-233.552 Y-25.736 Z10.916 A337.9892 
N727 X-233.412 Y-25.117 Z10.721 A338.8644 
N728 X-233.272 Y-24.515 Z10.542 A339.7536 
N729 X-233.132 Y-23.928 Z10.377 A340.6553 
N730 X-232.993 Y-23.357 Z10.226 A341.5679 
N731 X-232.854 Y-22.801 Z10.089 A342.4902 
N732 X-232.716 Y-22.258 Z9.964 A343.4212 
N733 X-232.578 Y-21.729 Z9.852 A344.3599 
N734 X-232.441 Y-21.213 Z9.750 A345.3057 
N735 X-232.304 Y-20.707 Z9.660 A346.2579 
N736 X-232.167 Y-20.211 Z9.580 A347.2161 
N737 X-232.030 Y-19.724 Z9.509 A348.1801 
N738 X-231.893 Y-19.245 Z9.448 A349.1497 
N739 X-231.755 Y-18.772 Z9.395 A350.1249 
N740 X-231.616 Y-18.305 Z9.351 A351.1057 
N741 X-231.476 Y-17.842 Z9.315 A352.0923 
N742 X-231.334 Y-17.382 Z9.287 A353.0850 
N743 X-231.191 Y-16.924 Z9.268 A354.0840 
N744 X-231.046 Y-16.467 Z9.256 A355.0899 
N745 X-230.898 Y-16.008 Z9.252 A356.1029 
N746 X-230.747 Y-15.547 Z9.256 A357.1235 
N747 X-230.592 Y-15.081 Z9.268 A358.1522 
N748 X-230.432 Y-14.609 Z9.290 A359.1893 
N749 X-230.267 Y-14.128 Z9.320 A0.2350 
N750 X-230.096 Y-13.635 Z9.360 A1.2894 
N751 X-229.918 Y-13.128 Z9.412 A2.3521 
N752 X-229.730 Y-12.604 Z9.475 A3.4225 
N753 X-229.533 Y-12.058 Z9.552 A4.4995 
N754 X-229.324 Y-11.488 Z9.644 A5.5813 
N755 X-229.102 Y-10.890 Z9.754 A6.6657 
N756 X-228.865 Y-10.260 Z9.883 A7.7497 
N757 X-228.612 Y-9.598 Z10.033 A8.8300 
N758 X-228.343 Y-8.899 Z10.207 A9.9030 
N759 X-228.055 Y-8.165 Z10.406 A10.9646 
N760 X-227.750 Y-7.395 Z10.633 A11.9945 
N761 X-227.428 Y-6.592 Z10.887 A12.9824 
N762 X-227.090 Y-5.757 Z11.170 A13.8650 
N763 X-226.739 Y-4.894 Z11.478 A14.6194 
N764 X-226.376 Y-4.011 Z11.809 A15.2280 
N765 X-226.007 Y-3.113 Z12.155 A15.6840 
N766 X-225.635 Y-2.208 Z12.512 A15.9896 
N767 X-225.264 Y-1.307 Z12.871 A16.1512 
N768 X-224.900 Y-0.418 Z13.227 A16.1748 
N769 X-224.546 Y0.450 Z13.575 A16.0647 
N770 X-224.207 Y1.287 Z13.907 A15.8229 
N771 X-223.885 Y2.086 Z14.221 A15.4489 
N772 X-223.585 Y2.842 Z14.512 A14.9413 
N773 X-223.307 Y3.550 Z14.777 A14.3002 
N774 X-223.053 Y4.208 Z15.014 A13.5298 
N775 X-222.824 Y4.814 Z15.223 A12.6387 
N776 X-222.619 Y5.366 Z15.404 A11.6922 
N777 X-222.437 Y5.866 Z15.558 A10.6983 
N778 X-222.277 Y6.317 Z15.687 A9.6659 
N779 X-222.137 Y6.722 Z15.796 A8.6041 
N780 X-222.015 Y7.083 Z15.885 A7.5327 
N781 X-221.909 Y7.406 Z15.959 A6.4573 
N782 X-221.817 Y7.695 Z16.019 A5.3824 
N783 X-221.736 Y7.953 Z16.068 A4.3107 
N784 X-221.666 Y8.185 Z16.108 A3.2428 
N785 X-221.604 Y8.395 Z16.140 A2.1784 
N786 X-221.550 Y8.585 Z16.166 A1.1177 
N787 X-221.502 Y8.758 Z16.187 A0.0611 
N788 X-221.459 Y8.917 Z16.204 A359.0101 
N789 X-221.421 Y9.064 Z16.217 A357.9662 
N790 X-221.386 Y9.200 Z16.226 A356.9308 
N791 X-221.355 Y9.326 Z16.233 A355.9052 
N792 X-221.327 Y9.445 Z16.238 A354.8896 
N793 X-221.301 Y9.556 Z16.240 A353.8837 
N794 X-221.278 Y9.660 Z16.241 A352.8869 
N795 X-221.256 Y9.759 Z16.241 A351.8979 
N796 X-221.237 Y9.853 Z16.238 A350.9154 
N797 X-221.218 Y9.942 Z16.235 A349.9382 
N798 X-221.201 Y10.027 Z16.231 A348.9650 
N799 X-221.186 Y10.108 Z16.225 A347.9947 
N800 X-221.171 Y10.185 Z16.219 A347.0267 
N801 X-221.158 Y10.260 Z16.212 A346.0602 
N802 X-221.145 Y10.331 Z16.204 A345.0951 
N803 X-221.134 Y10.400 Z16.195 A344.1313 
N804 X-221.123 Y10.466 Z16.185 A343.1688 
N805 X-221.113 Y10.531 Z16.175 A342.2080 
N806 X-221.103 Y10.593 Z16.165 A341.2492 
N807 X-221.094 Y10.653 Z16.153 A340.2928 
N808 X-221.086 Y10.711 Z16.141 A339.3391 
N809 X-221.078 Y10.768 Z16.129 A338.3883 
N810 X-221.071 Y10.823 Z16.116 A337.4409 
N811 X-221.064 Y10.876 Z16.102 A336.4970 
N812 X-221.057 Y10.928 Z16.088 A335.5568 
N813 X-221.051 Y10.979 Z16.074 A334.6202 
N814 X-221.045 Y11.029 Z16.058 A333.6874 
N815 X-221.039 Y11.078 Z16.043 A332.7585 
N816 X-221.034 Y11.126 Z16.027 A331.8333 
N817 X-221.029 Y11.172 Z16.010 A330.9117 
N818 X-221.024 Y11.218 Z15.993 A329.9937 
N819 X-221.019 Y11.263 Z15.976 A329.0792 
N820 X-221.014 Y11.307 Z15.958 A328.1679 
N821 X-221.010 Y11.350 Z15.940 A327.2598 
N822 X-221.006 Y11.392 Z15.921 A326.3546 
N823 X-221.002 Y11.434 Z15.902 A325.4521 
N824 X-220.998 Y11.475 Z15.882 A324.5524 
N825 X-220.995 Y11.515 Z15.862 A323.6550 
N826 X-220.992 Y11.554 Z15.842 A322.7598 
N827 X-220.988 Y11.593 Z15.821 A321.8668 
N828 X-220.985 Y11.632 Z15.800 A320.9756 
N829 X-220.982 Y11.669 Z15.778 A320.0861 
N830 X-220.979 Y11.707 Z15.756 A319.1982 
N831 X-220.977 Y11.743 Z15.733 A318.3116 
N832 X-220.974 Y11.779 Z15.710 A317.4262 
N833 X-220.972 Y11.815 Z15.687 A316.5419 
N834 X-220.970 Y11.850 Z15.663 A315.6584 
N835 X-220.967 Y11.884 Z15.639 A314.7757 
N836 X-220.965 Y11.918 Z15.614 A313.8935 
N837 X-220.963 Y11.951 Z15.589 A313.0118 
N838 X-220.962 Y11.984 Z15.564 A312.1303 
N839 X-220.960 Y12.017 Z15.538 A311.2489 
N840 X-220.958 Y12.049 Z15.512 A310.3675 
N841 X-220.957 Y12.081 Z15.485 A309.4859 
N842 X-220.955 Y12.112 Z15.458 A308.6040 
N843 X-220.954 Y12.142 Z15.430 A307.7216 
N844 X-220.953 Y12.172 Z15.402 A306.8387 
N845 X-220.952 Y12.202 Z15.373 A305.9550 
N846 X-220.951 Y12.232 Z15.344 A305.0703 
N847 X-220.950 Y12.261 Z15.315 A304.1847 
N848 X-220.950 Y12.289 Z15.285 A303.2978 
N849 X-220.949 Y12.317 Z15.254 A302.4096 
N850 X-220.949 Y12.345 Z15.224 A301.5200 
N851 X-220.948 Y12.372 Z15.192 A300.6286 
N852 X-220.948 Y12.399 Z15.160 A299.7356 
N853 X-220.948 Y12.426 Z15.127 A298.8405 
N854 X-220.948 Y12.452 Z15.094 A297.9434 
N855 X-220.948 Y12.478 Z15.060 A297.0441 
N856 X-220.949 Y12.503 Z15.026 A296.1424 
N857 X-220.949 Y12.528 Z14.991 A295.2382 
N858 X-220.950 Y12.553 Z14.955 A294.3313 
N859 X-220.951 Y12.577 Z14.919 A293.4216 
N860 X-220.951 Y12.601 Z14.881 A292.5090 
N861 X-220.953 Y12.625 Z14.843 A291.5933 
N862 X-220.954 Y12.648 Z14.804 A290.6744 
N863 X-220.955 Y12.671 Z14.764 A289.7522 
N864 X-220.957 Y12.694 Z14.723 A288.8266 
N865 X-220.959 Y12.716 Z14.681 A287.8977 
N866 X-220.961 Y12.738 Z14.638 A286.9655 
N867 X-220.964 Y12.759 Z14.594 A286.0302 
N868 X-220.967 Y12.781 Z14.548 A285.0918 
N869 X-220.970 Y12.802 Z14.501 A284.1506 
N870 X-220.973 Y12.822 Z14.453 A283.2071 
N871 X-220.977 Y12.842 Z14.402 A282.2615 
N872 X-220.982 Y12.862 Z14.350 A281.3146 
N873 X-220.986 Y12.881 Z14.296 A280.3670 
N874 X-220.992 Y12.900 Z14.240 A279.4195 
N875 X-220.998 Y12.919 Z14.181 A278.4727 
N876 X-221.005 Y12.937 Z14.120 A277.5274 
N877 X-221.012 Y12.955 Z14.057 A276.5842 
N878 X-221.020 Y12.972 Z13.990 A275.6436 
N879 X-221.030 Y12.988 Z13.920 A274.7060 
N880 X-221.040 Y13.004 Z13.847 A273.7711 
N881 X-221.051 Y13.019 Z13.770 A272.8388 
N882 X-221.064 Y13.033 Z13.688 A271.9085 
N883 X-221.078 Y13.047 Z13.602 A270.9794 
N884 X-221.093 Y13.059 Z13.512 A270.0508 
N885 X-221.110 Y13.071 Z13.416 A269.1216 
N886 X-221.129 Y13.081 Z13.314 A268.1913 
N887 X-221.150 Y13.090 Z13.205 A267.2594 
N888 X-221.173 Y13.098 Z13.090 A266.3261 
N889 X-221.198 Y13.103 Z12.968 A265.3921 
N890 X-221.226 Y13.107 Z12.838 A264.4589 
N891 X-221.257 Y13.108 Z12.699 A263.5282 
N892 X-221.291 Y13.107 Z12.552 A262.6019 
N893 X-221.329 Y13.102 Z12.395 A261.6813 
N894 X-221.370 Y13.095 Z12.228 A260.7673 
N895 X-221.415 Y13.084 Z12.050 A259.8593 
N896 X-221.464 Y13.068 Z11.861 A258.9564 
N897 X-221.517 Y13.049 Z11.661 A258.0567 
N898 X-221.575 Y13.025 Z11.448 A257.1584 
N899 X-221.638 Y12.996 Z11.222 A256.2604 
N900 X-221.707 Y12.961 Z10.983 A255.3626 
N901 X-221.780 Y12.920 Z10.730 A254.4656 
N902 X-221.860 Y12.871 Z10.464 A253.5705 
N903 X-221.945 Y12.816 Z10.184 A252.6783 
N904 X-222.036 Y12.753 Z9.891 A251.7894 
N905 X-222.133 Y12.682 Z9.585 A250.9040 
N906 X-222.236 Y12.602 Z9.265 A250.0219 
N907 X-222.345 Y12.514 Z8.933 A249.1430 
N908 X-222.460 Y12.416 Z8.589 A248.2670 
N909 X-222.581 Y12.310 Z8.233 A247.3937 
N910 X-222.707 Y12.194 Z7.868 A246.5225 
N911 X-222.838 Y12.070 Z7.494 A245.6527 
N912 X-222.974 Y11.936 Z7.112 A244.7830 
N913 X-223.114 Y11.794 Z6.723 A243.9121 
N914 X-223.258 Y11.643 Z6.329 A243.0382 
N915 X-223.406 Y11.484 Z5.932 A242.1597 
N916 X-223.556 Y11.317 Z5.532 A241.2755 
N917 X-223.708 Y11.143 Z5.132 A240.3845 
N918 X-223.863 Y10.961 Z4.732 A239.4865 
N919 X-224.018 Y10.773 Z4.334 A238.5813 
N920 X-224.175 Y10.579 Z3.940 A237.6692 
N921 X-224.331 Y10.379 Z3.551 A236.7507 
N922 X-224.488 Y10.174 Z3.167 A235.8259 
N923 X-224.643 Y9.966 Z2.790 A234.8951 
N924 X-224.798 Y9.753 Z2.421 A233.9582 
N925 X-224.952 Y9.537 Z2.059 A233.0152 
N926 X-225.103 Y9.319 Z1.707 A232.0658 
N927 X-225.253 Y9.098 Z1.363 A231.1100 
N928 X-225.401 Y8.876 Z1.029 A230.1477 
N929 X-225.546 Y8.652 Z0.704 A229.1791 
N930 X-225.689 Y8.427 Z0.390 A228.2045 
N931 X-225.829 Y8.202 Z0.085 A227.2243 
N932 X-225.967 Y7.975 Z-0.210 A226.2388 
N933 X-226.102 Y7.749 Z-0.495 A225.2486 
N934 X-226.234 Y7.522 Z-0.770 A224.2543 
N935 X-226.364 Y7.295 Z-1.036 A223.2563 
N936 X-226.491 Y7.069 Z-1.292 A222.2551 
N937 X-226.615 Y6.843 Z-1.540 A221.2512 
N938 X-226.737 Y6.617 Z-1.778 A220.2449 
N939 X-226.856 Y6.391 Z-2.009 A219.2367 
N940 X-226.973 Y6.166 Z-2.230 A218.2268 
N941 X-227.088 Y5.941 Z-2.444 A217.2155 
N942 X-227.201 Y5.716 Z-2.651 A216.2031 
N943 X-227.311 Y5.492 Z-2.850 A215.1898 
N944 X-227.419 Y5.268 Z-3.041 A214.1759 
N945 X-227.526 Y5.045 Z-3.226 A213.1615 
N946 X-227.630 Y4.821 Z-3.404 A212.1468 
N947 X-227.733 Y4.598 Z-3.576 A211.1320 
N948 X-227.833 Y4.375 Z-3.741 A210.1172 
N949 X-227.933 Y4.152 Z-3.900 A209.1027 
N950 X-228.030 Y3.929 Z-4.054 A208.0886 
N951 X-228.126 Y3.706 Z-4.201 A207.0750 
N952 X-228.221 Y3.483 Z-4.344 A206.0619 
N953 X-228.314 Y3.260 Z-4.481 A205.0497 
N954 X-228.406 Y3.036 Z-4.612 A204.0382 
N955 X-228.497 Y2.812 Z-4.739 A203.0276 
N956 X-228.587 Y2.588 Z-4.861 A202.0181 
N957 X-228.675 Y2.363 Z-4.978 A201.0097 
N958 X-228.762 Y2.137 Z-5.091 A200.0024 
N959 X-228.849 Y1.911 Z-5.198 A198.9963 
N960 X-228.934 Y1.684 Z-5.302 A197.9916 
N961 X-229.019 Y1.457 Z-5.401 A196.9883 
N962 X-229.102 Y1.228 Z-5.495 A195.9865 
N963 X-229.185 Y0.998 Z-5.586 A194.9862 
N964 X-229.268 Y0.767 Z-5.672 A193.9875 
N965 X-229.349 Y0.535 Z-5.754 A192.9905 
N966 X-229.430 Y0.302 Z-5.832 A191.9953 
N967 X-229.510 Y0.067 Z-5.906 A191.0018 
N968 X-229.590 Y-0.170 Z-5.976 A190.0102 
N969 X-229.669 Y-0.408 Z-6.042 A189.0204 
N970 X-229.748 Y-0.648 Z-6.104 A188.0324 
N971 X-229.826 Y-0.890 Z-6.162 A187.0463 
N972 X-229.904 Y-1.134 Z-6.217 A186.0621 
N973 X-229.982 Y-1.381 Z-6.267 A185.0797 
N974 X-230.059 Y-1.629 Z-6.313 A184.0993 
N975 X-230.137 Y-1.881 Z-6.355 A183.1208 
N976 X-230.213 Y-2.135 Z-6.394 A182.1442 
N977 X-230.290 Y-2.392 Z-6.428 A181.1696 
N978 X-230.367 Y-2.652 Z-6.458 A180.1969 
N979 X-230.444 Y-2.915 Z-6.484 A179.2262 
N980 X-230.520 Y-3.181 Z-6.505 A178.2574 
N981 X-230.597 Y-3.452 Z-6.522 A177.2905 
N982 X-230.673 Y-3.726 Z-6.535 A176.3256 
N983 X-230.750 Y-4.004 Z-6.543 A175.3625 
N984 X-230.827 Y-4.287 Z-6.547 A174.4013 
N985 X-230.904 Y-4.574 Z-6.545 A173.4419 
N986 X-230.981 Y-4.866 Z-6.539 A172.4843 
N987 X-231.058 Y-5.164 Z-6.527 A171.5284 
N988 X-231.136 Y-5.467 Z-6.510 A170.5742 
N989 X-231.214 Y-5.776 Z-6.488 A169.6217 
N990 X-231.293 Y-6.092 Z-6.460 A168.6708 
N991 X-231.372 Y-6.414 Z-6.425 A167.7216 
N992 X-231.451 Y-6.744 Z-6.384 A166.7739 
N993 X-231.532 Y-7.081 Z-6.337 A165.8277 
N994 X-231.612 Y-7.426 Z-6.282 A164.8830 
N995 X-231.694 Y-7.781 Z-6.220 A163.9399 
N996 X-231.776 Y-8.144 Z-6.150 A162.9981 
N997 X-231.859 Y-8.518 Z-6.071 A162.0576 
N998 X-231.943 Y-8.903 Z-5.983 A161.1184 
N999 X-232.028 Y-9.299 Z-5.886 A160.1803 
N1000 X-232.114 Y-9.708 Z-5.779 A159.2432 
N1001 X-232.201 Y-10.130 Z-5.660 A158.3069 
N1002 X-232.290 Y-10.567 Z-5.529 A157.3711 
N1003 X-232.380 Y-11.021 Z-5.385 A156.4358 
N1004 X-232.471 Y-11.492 Z-5.227 A155.5007 
N1005 X-232.564 Y-11.982 Z-5.053 A154.5658 
N1006 X-232.658 Y-12.494 Z-4.862 A153.6311 
N1007 X-232.755 Y-13.029 Z-4.652 A152.6969 
N1008 X-232.854 Y-13.590 Z-4.420 A151.7638 
N1009 X-232.955 Y-14.180 Z-4.165 A150.8323 
N1010 X-233.058 Y-14.802 Z-3.883 A149.9037 
N1011 X-233.164 Y-15.460 Z-3.572 A148.9793 
N1012 X-233.273 Y-16.156 Z-3.227 A148.0607 
N1013 X-233.385 Y-16.893 Z-2.846 A147.1502 
N1014 X-233.499 Y-17.676 Z-2.425 A146.2501 
N1015 X-233.615 Y-18.505 Z-1.959 A145.3633 
N1016 X-233.733 Y-19.383 Z-1.447 A144.4931 
N1017 X-233.853 Y-20.309 Z-0.885 A143.6429 
N1018 X-233.973 Y-21.283 Z-0.272 A142.8164 
N1019 X-234.093 Y-22.301 Z0.391 A142.0168 
N1020 X-234.212 Y-23.359 Z1.102 A141.2468 
N1021 X-234.329 Y-24.451 Z1.858 A140.5079 
N1022 X-234.443 Y-25.566 Z2.652 A139.8318 
N1023 X-234.553 Y-26.695 Z3.476 A139.2193 
N1024 X-234.659 Y-27.826 Z4.319 A138.6711 
N1025 X-234.760 Y-28.945 Z5.170 A138.1878 
N1026 X-234.854 Y-30.040 Z6.017 A137.7694 
N1027 X-234.943 Y-31.096 Z6.845 A137.4157 
N1028 X-235.025 Y-32.102 Z7.644 A137.1262 
N1029 X-235.100 Y-33.046 Z8.401 A136.8682 
N1030 X-235.168 Y-33.920 Z9.106 A136.6403 
N1031 X-235.229 Y-34.716 Z9.753 A136.4400 
N1032 X-235.283 Y-35.430 Z10.335 A136.2641 
N1033 X-235.330 Y-36.061 Z10.851 A136.1092 
N1034 X-235.370 Y-36.608 Z11.300 A135.9717 
N1035 X-235.404 Y-37.074 Z11.684 A135.8482 
N1036 X-235.433 Y-37.466 Z12.007 A135.7355 
N1037 X-235.456 Y-37.789 Z12.274 A135.6303 
N1038 X-235.474 Y-38.051 Z12.491 A135.5292 
N1039 X-235.489 Y-38.260 Z12.665 A135.4289 
N1040 X-235.500 Y-38.424 Z12.801 A135.3257 
N1041 X-235.508 Y-38.550 Z12.907 A135.2162 
N1042 X-235.514 Y-38.647 Z12.988 A135.0734 
N1043 X-235.518 Y-38.724 Z13.052 A134.7010 
N1044 X-235.520 Y-38.795 Z13.106 A133.6524 
N1045 X-235.522 Y-38.867 Z13.156 A131.8475 
N1046 X-235.523 Y-38.939 Z13.205 A129.4040 
N1047 X-235.523 Y-39.003 Z13.250 A126.9329 
N1048 X-235.523 Y-39.056 Z13.290 A124.6494 
N1049 X-235.522 Y-39.103 Z13.327 A122.4674 
N1050 X-235.522 Y-39.144 Z13.362 A120.4224 
N1051 X-235.521 Y-39.178 Z13.392 A118.6537 
N1052 X-235.521 Y-39.205 Z13.417 A117.1787 
N1053 X-235.520 Y-39.230 Z13.441 A115.8273 
N1054 X-235.520 Y-39.252 Z13.463 A114.5938 
N1055 X-235.520 Y-39.271 Z13.483 A113.4669 
N1056 X-235.519 Y-39.289 Z13.503 A112.3833 
N1057 X-235.519 Y-39.306 Z13.522 A111.3394 
N1058 X-235.518 Y-39.322 Z13.541 A110.3333 
N1059 X-235.518 Y-39.338 Z13.560 A109.3423 
N1060 X-235.518 Y-39.353 Z13.578 A108.3637 
N1061 X-235.517 Y-39.367 Z13.597 A107.3962 
N1062 X-235.517 Y-39.381 Z13.616 A106.4382 
N1063 X-235.516 Y-39.395 Z13.635 A105.4876 
N1064 X-235.516 Y-39.408 Z13.654 A104.5428 
N1065 X-235.515 Y-39.421 Z13.673 A103.6030 
N1066 X-235.515 Y-39.434 Z13.692 A102.6673 
N1067 X-235.514 Y-39.446 Z13.711 A101.7348 
N1068 X-235.514 Y-39.457 Z13.731 A100.8047 
N1069 X-235.513 Y-39.469 Z13.751 A99.8763 
N1070 X-235.513 Y-39.480 Z13.770 A98.9493 
N1071 X-235.512 Y-39.491 Z13.790 A98.0234 
N1072 X-235.512 Y-39.501 Z13.810 A97.0983 
N1073 X-235.511 Y-39.511 Z13.831 A96.1736 
N1074 X-235.510 Y-39.521 Z13.851 A95.2488 
N1075 X-235.510 Y-39.531 Z13.872 A94.3241 
N1076 X-235.509 Y-39.540 Z13.893 A93.3995 
N1077 X-235.508 Y-39.549 Z13.914 A92.4746 
N1078 X-235.508 Y-39.557 Z13.935 A91.5490 
N1079 X-235.507 Y-39.565 Z13.956 A90.6230 
N1080 X-235.506 Y-39.573 Z13.978 A89.6966 
N1081 X-235.505 Y-39.581 Z13.999 A88.7698 
N1082 X-235.505 Y-39.588 Z14.021 A87.8418 
N1083 X-235.504 Y-39.594 Z14.043 A86.9132 
N1084 X-235.503 Y-39.601 Z14.065 A85.9840 
N1085 X-235.502 Y-39.607 Z14.087 A85.0542 
N1086 X-235.501 Y-39.613 Z14.110 A84.1230 
N1087 X-235.500 Y-39.618 Z14.132 A83.1911 
N1088 X-235.499 Y-39.623 Z14.155 A82.2584 
N1089 X-235.498 Y-39.628 Z14.178 A81.3247 
N1090 X-235.497 Y-39.632 Z14.201 A80.3898 
N1091 X-235.496 Y-39.636 Z14.224 A79.4540 
N1092 X-235.495 Y-39.639 Z14.247 A78.5172 
N1093 X-235.494 Y-39.642 Z14.271 A77.5787 
N1094 X-235.493 Y-39.645 Z14.294 A76.6391 
N1095 X-235.492 Y-39.647 Z14.318 A75.6984 
N1096 X-235.491 Y-39.649 Z14.341 A74.7560 
N1097 X-235.489 Y-39.651 Z14.365 A73.8122 
N1098 X-235.488 Y-39.652 Z14.389 A72.8671 
N1099 X-235.487 Y-39.653 Z14.413 A71.9204 
N1100 X-235.486 Y-39.653 Z14.437 A70.9720 
N1101 X-235.484 Y-39.653 Z14.461 A70.0222 
N1102 X-235.483 Y-39.653 Z14.485 A69.0706 
N1103 X-235.482 Y-39.652 Z14.509 A68.1173 
N1104 X-235.480 Y-39.650 Z14.534 A67.1623 
N1105 X-235.479 Y-39.649 Z14.558 A66.2056 
N1106 X-235.478 Y-39.647 Z14.582 A65.2470 
N1107 X-235.476 Y-39.644 Z14.607 A64.2868 
N1108 X-235.475 Y-39.641 Z14.631 A63.3247 
N1109 X-235.473 Y-39.638 Z14.655 A62.3609 
N1110 X-235.472 Y-39.634 Z14.680 A61.3955 
N1111 X-235.470 Y-39.630 Z14.704 A60.4283 
N1112 X-235.469 Y-39.625 Z14.728 A59.4594 
N1113 X-235.467 Y-39.620 Z14.753 A58.4889 
N1114 X-235.465 Y-39.615 Z14.777 A57.5167 
N1115 X-235.464 Y-39.609 Z14.801 A56.5431 
N1116 X-235.462 Y-39.602 Z14.825 A55.5679 
N1117 X-235.461 Y-39.596 Z14.849 A54.5913 
N1118 X-235.459 Y-39.588 Z14.873 A53.6133 
N1119 X-235.457 Y-39.581 Z14.897 A52.6340 
N1120 X-235.456 Y-39.573 Z14.921 A51.6535 
N1121 X-235.454 Y-39.564 Z14.945 A50.6718 
N1122 X-235.452 Y-39.555 Z14.968 A49.6891 
N1123 X-235.451 Y-39.546 Z14.992 A48.7053 
N1124 X-235.449 Y-39.536 Z15.015 A47.7206 
N1125 X-235.447 Y-39.526 Z15.038 A46.7351 
N1126 X-235.446 Y-39.516 Z15.061 A45.7487 
N1127 X-235.444 Y-39.505 Z15.084 A44.7617 
N1128 X-235.442 Y-39.494 Z15.107 A43.7742 
N1129 X-235.441 Y-39.482 Z15.129 A42.7861 
N1130 X-235.439 Y-39.470 Z15.151 A41.7975 
N1131 X-235.437 Y-39.458 Z15.173 A40.8086 
N1132 X-235.435 Y-39.445 Z15.195 A39.8195 
N1133 X-235.434 Y-39.432 Z15.217 A38.8301 
N1134 X-235.432 Y-39.418 Z15.238 A37.8406 
N1135 X-235.430 Y-39.404 Z15.259 A36.8511 
N1136 X-235.429 Y-39.390 Z15.280 A35.8616 
N1137 X-235.427 Y-39.376 Z15.301 A34.8723 
N1138 X-235.425 Y-39.361 Z15.321 A33.8830 
N1139 X-235.424 Y-39.345 Z15.341 A32.8940 
N1140 X-235.422 Y-39.330 Z15.361 A31.9052 
N1141 X-235.421 Y-39.314 Z15.380 A30.9166 
N1142 X-235.419 Y-39.298 Z15.399 A29.9285 
N1143 X-235.417 Y-39.281 Z15.418 A28.9405 
N1144 X-235.416 Y-39.265 Z15.437 A27.9528 
N1145 X-235.414 Y-39.248 Z15.455 A26.9655 
N1146 X-235.413 Y-39.230 Z15.473 A25.9783 
N1147 X-235.411 Y-39.213 Z15.490 A24.9913 
N1148 X-235.410 Y-39.195 Z15.507 A24.0048 
N1149 X-235.408 Y-39.177 Z15.524 A23.0183 
N1150 X-235.407 Y-39.158 Z15.541 A22.0319 
N1151 X-235.405 Y-39.139 Z15.557 A21.0459 
N1152 X-235.404 Y-39.121 Z15.573 A20.0599 
N1153 X-235.402 Y-39.101 Z15.589 A19.0739 
N1154 X-235.401 Y-39.082 Z15.604 A18.0884 
N1155 X-235.400 Y-39.062 Z15.619 A17.1028 
N1156 X-235.398 Y-39.043 Z15.633 A16.1172 
N1157 X-235.397 Y-39.023 Z15.648 A15.1318 
N1158 X-235.396 Y-39.002 Z15.661 A14.1465 
N1159 X-235.394 Y-38.982 Z15.675 A13.1610 
N1160 X-235.393 Y-38.961 Z15.688 A12.1755 
N1161 X-235.392 Y-38.940 Z15.701 A11.1901 
N1162 X-235.391 Y-38.919 Z15.713 A10.2045 
N1163 X-235.389 Y-38.898 Z15.725 A9.2187 
N1164 X-235.388 Y-38.877 Z15.737 A8.2331 
N1165 X-235.387 Y-38.855 Z15.748 A7.2472 
N1166 X-235.386 Y-38.833 Z15.759 A6.2609 
N1167 X-235.385 Y-38.811 Z15.769 A5.2741 
N1168 X-235.384 Y-38.789 Z15.779 A4.2868 
N1169 X-235.383 Y-38.767 Z15.789 A3.2987 
N1170 X-235.382 Y-38.745 Z15.798 A2.3094 
N1171 X-235.381 Y-38.722 Z15.807 A1.3188 
N1172 X-235.379 Y-38.699 Z15.816 A0.3264 
N1173 X-235.378 Y-38.676 Z15.824 A359.3316 
N1174 X-235.377 Y-38.653 Z15.832 A358.3340 
N1175 X-235.376 Y-38.629 Z15.840 A357.3325 
N1176 X-235.375 Y-38.606 Z15.847 A356.3264 
N1177 X-235.374 Y-38.582 Z15.853 A355.3147 
N1178 X-235.373 Y-38.557 Z15.860 A354.2957 
N1179 X-235.372 Y-38.533 Z15.866 A353.2678 
N1180 X-235.371 Y-38.508 Z15.871 A352.2295 
N1181 X-235.370 Y-38.482 Z15.877 A351.1782 
N1182 X-235.369 Y-38.456 Z15.881 A350.1105 
N1183 X-235.368 Y-38.430 Z15.886 A349.0245 
N1184 X-235.367 Y-38.403 Z15.890 A347.9172 
N1185 X-235.366 Y-38.375 Z15.893 A346.7838 
N1186 X-235.365 Y-38.346 Z15.896 A345.6226 
N1187 X-235.364 Y-38.316 Z15.899 A344.4315 
N1188 X-235.363 Y-38.282 Z15.900 A343.1020 
N1189 X-235.361 Y-38.246 Z15.902 A341.7051 
N1190 X-235.359 Y-38.202 Z15.902 A340.0033 
N1191 X-235.357 Y-38.156 Z15.900 A338.2608 
N1192 X-235.355 Y-38.106 Z15.896 A336.4784 
N1193 X-235.352 Y-38.053 Z15.890 A334.6648 
N1194 X-235.348 Y-37.995 Z15.880 A332.8364 
N1195 X-235.344 Y-37.932 Z15.865 A331.0277 
N1196 X-235.339 Y-37.866 Z15.845 A329.4010 
N1197 X-235.332 Y-37.796 Z15.819 A328.0454 
N1198 X-235.324 Y-37.726 Z15.788 A327.2485 
N1199 X-235.314 Y-37.646 Z15.748 A326.7469 
N1200 X-235.301 Y-37.553 Z15.698 A326.5025 
N1201 X-235.284 Y-37.441 Z15.636 A326.4625 
N1202 X-235.264 Y-37.304 Z15.559 A326.5064 
N1203 X-235.238 Y-37.137 Z15.467 A326.6197 
N1204 X-235.207 Y-36.934 Z15.355 A326.7655 
N1205 X-235.171 Y-36.694 Z15.223 A326.9442 
N1206 X-235.127 Y-36.411 Z15.069 A327.1577 
N1207 X-235.076 Y-36.085 Z14.892 A327.4084 
N1208 X-235.017 Y-35.713 Z14.693 A327.6983 
N1209 X-234.951 Y-35.295 Z14.472 A328.0291 
N1210 X-234.876 Y-34.831 Z14.230 A328.4028 
N1211 X-234.793 Y-34.325 Z13.970 A328.8220 
N1212 X-234.703 Y-33.779 Z13.695 A329.2895 
N1213 X-234.604 Y-33.198 Z13.406 A329.8083 
N1214 X-234.499 Y-32.585 Z13.110 A330.3802 
N1215 X-234.386 Y-31.947 Z12.809 A331.0061 
N1216 X-234.268 Y-31.290 Z12.508 A331.6856 
N1217 X-234.144 Y-30.618 Z12.210 A332.3919 
N1218 X-234.015 Y-29.938 Z11.918 A333.1240 
N1219 X-233.883 Y-29.254 Z11.636 A333.8808 
N1220 X-233.749 Y-28.573 Z11.366 A334.6613 
N1221 X-233.612 Y-27.897 Z11.108 A335.4639 
N1222 X-233.473 Y-27.230 Z10.866 A336.2872 
N1223 X-233.334 Y-26.575 Z10.638 A337.1296 
N1224 X-233.194 Y-25.934 Z10.426 A337.9892 
N1225 X-233.055 Y-25.308 Z10.230 A338.8644 
N1226 X-232.916 Y-24.697 Z10.049 A339.7536 
N1227 X-232.777 Y-24.102 Z9.883 A340.6553 
N1228 X-232.639 Y-23.522 Z9.731 A341.5679 
N1229 X-232.502 Y-22.957 Z9.592 A342.4902 
N1230 X-232.365 Y-22.406 Z9.467 A343.4212 
N1231 X-232.228 Y-21.869 Z9.354 A344.3599 
N1232 X-232.092 Y-21.343 Z9.252 A345.3057 
N1233 X-231.956 Y-20.829 Z9.161 A346.2579 
N1234 X-231.821 Y-20.324 Z9.080 A347.2161 
N1235 X-231.685 Y-19.829 Z9.009 A348.1801 
N1236 X-231.548 Y-19.341 Z8.948 A349.1497 
N1237 X-231.411 Y-18.859 Z8.895 A350.1249 
N1238 X-231.274 Y-18.383 Z8.852 A351.1057 
N1239 X-231.135 Y-17.911 Z8.816 A352.0923 
N1240 X-230.994 Y-17.443 Z8.789 A353.0850 
N1241 X-230.852 Y-16.976 Z8.770 A354.0840 
N1242 X-230.708 Y-16.509 Z8.759 A355.0899 
N1243 X-230.561 Y-16.042 Z8.756 A356.1029 
N1244 X-230.411 Y-15.572 Z8.761 A357.1235 
N1245 X-230.257 Y-15.097 Z8.775 A358.1522 
N1246 X-230.099 Y-14.616 Z8.797 A359.1893 
N1247 X-229.935 Y-14.126 Z8.829 A0.2350 
N1248 X-229.765 Y-13.624 Z8.872 A1.2894 
N1249 X-229.588 Y-13.108 Z8.925 A2.3521 
N1250 X-229.402 Y-12.575 Z8.990 A3.4225 
N1251 X-229.205 Y-12.020 Z9.070 A4.4995 
N1252 X-228.997 Y-11.441 Z9.165 A5.5813 
N1253 X-228.776 Y-10.834 Z9.277 A6.6657 
N1254 X-228.541 Y-10.196 Z9.408 A7.7497 
N1255 X-228.289 Y-9.524 Z9.562 A8.8300 
N1256 X-228.021 Y-8.818 Z9.739 A9.9030 
N1257 X-227.735 Y-8.075 Z9.941 A10.9646 
N1258 X-227.431 Y-7.297 Z10.171 A11.9945 
N1259 X-227.110 Y-6.486 Z10.429 A12.9824 
N1260 X-226.773 Y-5.644 Z10.715 A13.8650 
N1261 X-226.422 Y-4.776 Z11.026 A14.6194 
N1262 X-226.061 Y-3.888 Z11.360 A15.2280 
N1263 X-225.693 Y-2.987 Z11.709 A15.6840 
N1264 X-225.322 Y-2.081 Z12.067 A15.9896 
N1265 X-224.952 Y-1.179 Z12.429 A16.1512 
N1266 X-224.589 Y-0.290 Z12.787 A16.1748 
N1267 X-224.236 Y0.576 Z13.135 A16.0647 
N1268 X-223.898 Y1.411 Z13.469 A15.8229 
N1269 X-223.578 Y2.207 Z13.784 A15.4489 
N1270 X-223.278 Y2.959 Z14.075 A14.9413 
N1271 X-223.002 Y3.662 Z14.340 A14.3002 
N1272 X-222.749 Y4.313 Z14.578 A13.5298 
N1273 X-222.521 Y4.911 Z14.787 A12.6387 
N1274 X-222.317 Y5.456 Z14.967 A11.6922 
N1275 X-222.137 Y5.949 Z15.121 A10.6983 
N1276 X-221.978 Y6.391 Z15.251 A9.6659 
N1277 X-221.839 Y6.788 Z15.360 A8.6041 
N1278 X-221.718 Y7.141 Z15.450 A7.5327 
N1279 X-221.613 Y7.456 Z15.524 A6.4573 
N1280 X-221.522 Y7.736 Z15.585 A5.3824 
N1281 X-221.442 Y7.986 Z15.635 A4.3107 
N1282 X-221.373 Y8.210 Z15.676 A3.2428 
N1283 X-221.313 Y8.411 Z15.710 A2.1784 
N1284 X-221.259 Y8.593 Z15.737 A1.1177 
N1285 X-221.212 Y8.759 Z15.760 A0.0611 
N1286 X-221.171 Y8.910 Z15.778 A359.0101 
N1287 X-221.134 Y9.049 Z15.793 A357.9662 
N1288 X-221.100 Y9.177 Z15.805 A356.9308 
N1289 X-221.070 Y9.296 Z15.814 A355.9052 
N1290 X-221.043 Y9.408 Z15.821 A354.8896 
N1291 X-221.019 Y9.511 Z15.826 A353.8837 
N1292 X-220.996 Y9.609 Z15.829 A352.8869 
N1293 X-220.976 Y9.701 Z15.831 A351.8979 
N1294 X-220.957 Y9.788 Z15.831 A350.9154 
N1295 X-220.940 Y9.870 Z15.831 A349.9382 
N1296 X-220.924 Y9.948 Z15.829 A348.9650 
N1297 X-220.910 Y10.023 Z15.827 A347.9947 
N1298 X-220.897 Y10.094 Z15.824 A347.0267 
N1299 X-220.884 Y10.162 Z15.820 A346.0602 
N1300 X-220.873 Y10.228 Z15.815 A345.0951 
N1301 X-220.862 Y10.290 Z15.809 A344.1313 
N1302 X-220.853 Y10.351 Z15.804 A343.1688 
N1303 X-220.844 Y10.409 Z15.797 A342.2080 
N1304 X-220.835 Y10.465 Z15.790 A341.2492 
N1305 X-220.828 Y10.520 Z15.782 A340.2928 
N1306 X-220.820 Y10.572 Z15.774 A339.3391 
N1307 X-220.814 Y10.624 Z15.766 A338.3883 
N1308 X-220.807 Y10.673 Z15.756 A337.4409 
N1309 X-220.801 Y10.722 Z15.747 A336.4970 
N1310 X-220.796 Y10.769 Z15.737 A335.5568 
N1311 X-220.791 Y10.815 Z15.727 A334.6202 
N1312 X-220.786 Y10.860 Z15.716 A333.6874 
N1313 X-220.781 Y10.904 Z15.704 A332.7585 
N1314 X-220.777 Y10.947 Z15.693 A331.8333 
N1315 X-220.773 Y10.989 Z15.681 A330.9117 
N1316 X-220.769 Y11.030 Z15.668 A329.9937 
N1317 X-220.766 Y11.070 Z15.655 A329.0792 
N1318 X-220.762 Y11.110 Z15.642 A328.1679 
N1319 X-220.759 Y11.149 Z15.628 A327.2598 
N1320 X-220.756 Y11.188 Z15.614 A326.3546 
N1321 X-220.753 Y11.225 Z15.599 A325.4521 
N1322 X-220.751 Y11.262 Z15.584 A324.5524 
N1323 X-220.748 Y11.299 Z15.569 A323.6550 
N1324 X-220.746 Y11.335 Z15.553 A322.7598 
N1325 X-220.744 Y11.371 Z15.537 A321.8668 
N1326 X-220.742 Y11.406 Z15.521 A320.9756 
N1327 X-220.740 Y11.440 Z15.504 A320.0861 
N1328 X-220.739 Y11.474 Z15.487 A319.1982 
N1329 X-220.737 Y11.508 Z15.469 A318.3116 
N1330 X-220.736 Y11.541 Z15.451 A317.4262 
N1331 X-220.734 Y11.573 Z15.432 A316.5419 
N1332 X-220.733 Y11.606 Z15.414 A315.6584 
N1333 X-220.732 Y11.637 Z15.394 A314.7757 
N1334 X-220.731 Y11.669 Z15.375 A313.8935 
N1335 X-220.730 Y11.700 Z15.355 A313.0118 
N1336 X-220.730 Y11.730 Z15.334 A312.1303 
N1337 X-220.729 Y11.761 Z15.313 A311.2489 
N1338 X-220.729 Y11.791 Z15.292 A310.3675 
N1339 X-220.728 Y11.820 Z15.270 A309.4859 
N1340 X-220.728 Y11.849 Z15.248 A308.6040 
N1341 X-220.728 Y11.878 Z15.226 A307.7216 
N1342 X-220.728 Y11.906 Z15.203 A306.8387 
N1343 X-220.728 Y11.934 Z15.179 A305.9550 
N1344 X-220.728 Y11.962 Z15.155 A305.0703 
N1345 X-220.729 Y11.990 Z15.131 A304.1847 
N1346 X-220.729 Y12.017 Z15.106 A303.2978 
N1347 X-220.730 Y12.043 Z15.081 A302.4096 
N1348 X-220.730 Y12.070 Z15.055 A301.5200 
N1349 X-220.731 Y12.096 Z15.029 A300.6286 
N1350 X-220.732 Y12.122 Z15.002 A299.7356 
N1351 X-220.733 Y12.148 Z14.974 A298.8405 
N1352 X-220.734 Y12.173 Z14.946 A297.9434 
N1353 X-220.736 Y12.198 Z14.918 A297.0441 
N1354 X-220.737 Y12.222 Z14.888 A296.1424 
N1355 X-220.739 Y12.247 Z14.858 A295.2382 
N1356 X-220.740 Y12.271 Z14.828 A294.3313 
N1357 X-220.742 Y12.295 Z14.796 A293.4216 
N1358 X-220.744 Y12.318 Z14.764 A292.5090 
N1359 X-220.747 Y12.342 Z14.731 A291.5933 
N1360 X-220.749 Y12.365 Z14.697 A290.6744 
N1361 X-220.752 Y12.388 Z14.663 A289.7522 
N1362 X-220.755 Y12.410 Z14.627 A288.8266 
N1363 X-220.758 Y12.433 Z14.590 A287.8977 
N1364 X-220.761 Y12.455 Z14.552 A286.9655 
N1365 X-220.765 Y12.477 Z14.513 A286.0302 
N1366 X-220.768 Y12.498 Z14.472 A285.0918 
N1367 X-220.773 Y12.519 Z14.430 A284.1506 
N1368 X-220.777 Y12.540 Z14.386 A283.2071 
N1369 X-220.782 Y12.561 Z14.341 A282.2615 
N1370 X-220.788 Y12.582 Z14.294 A281.3146 
N1371 X-220.794 Y12.602 Z14.245 A280.3670 
N1372 X-220.800 Y12.622 Z14.194 A279.4195 
N1373 X-220.808 Y12.641 Z14.140 A278.4727 
N1374 X-220.815 Y12.660 Z14.084 A277.5274 
N1375 X-220.824 Y12.679 Z14.025 A276.5842 
N1376 X-220.834 Y12.697 Z13.963 A275.6436 
N1377 X-220.844 Y12.715 Z13.898 A274.7060 
N1378 X-220.855 Y12.732 Z13.829 A273.7711 
N1379 X-220.868 Y12.748 Z13.756 A272.8388 
N1380 X-220.881 Y12.764 Z13.679 A271.9085 
N1381 X-220.896 Y12.779 Z13.598 A270.9794 
N1382 X-220.913 Y12.793 Z13.511 A270.0508 
N1383 X-220.931 Y12.806 Z13.420 A269.1216 
N1384 X-220.951 Y12.819 Z13.322 A268.1913 
N1385 X-220.973 Y12.829 Z13.218 A267.2594 
N1386 X-220.997 Y12.839 Z13.107 A266.3261 
N1387 X-221.024 Y12.846 Z12.989 A265.3921 
N1388 X-221.053 Y12.852 Z12.863 A264.4589 
N1389 X-221.085 Y12.855 Z12.728 A263.5282 
N1390 X-221.120 Y12.856 Z12.584 A262.6019 
N1391 X-221.159 Y12.854 Z12.431 A261.6813 
N1392 X-221.201 Y12.849 Z12.268 A260.7673 
N1393 X-221.247 Y12.840 Z12.094 A259.8593 
N1394 X-221.297 Y12.827 Z11.909 A258.9564 
N1395 X-221.352 Y12.810 Z11.711 A258.0567 
N1396 X-221.411 Y12.788 Z11.502 A257.1584 
N1397 X-221.475 Y12.762 Z11.279 A256.2604 
N1398 X-221.544 Y12.729 Z11.043 A255.3626 
N1399 X-221.619 Y12.690 Z10.794 A254.4656 
N1400 X-221.700 Y12.645 Z10.531 A253.5705 
N1401 X-221.786 Y12.592 Z10.254 A252.6783 
N1402 X-221.879 Y12.532 Z9.964 A251.7894 
N1403 X-221.977 Y12.463 Z9.660 A250.9040 
N1404 X-222.081 Y12.386 Z9.343 A250.0219 
N1405 X-222.191 Y12.301 Z9.014 A249.1430 
N1406 X-222.307 Y12.206 Z8.672 A248.2670 
N1407 X-222.429 Y12.103 Z8.320 A247.3937 
N1408 X-222.556 Y11.990 Z7.957 A246.5225 
N1409 X-222.688 Y11.868 Z7.585 A245.6527 
N1410 X-222.825 Y11.738 Z7.205 A244.7830 
N1411 X-222.967 Y11.598 Z6.819 A243.9121 
N1412 X-223.112 Y11.450 Z6.427 A243.0382 
N1413 X-223.260 Y11.294 Z6.032 A242.1597 
N1414 X-223.412 Y11.130 Z5.634 A241.2755 
N1415 X-223.565 Y10.959 Z5.236 A240.3845 
N1416 X-223.721 Y10.780 Z4.838 A239.4865 
N1417 X-223.878 Y10.595 Z4.443 A238.5813 
N1418 X-224.035 Y10.404 Z4.051 A237.6692 
N1419 X-224.193 Y10.208 Z3.663 A236.7507 
N1420 X-224.350 Y10.007 Z3.281 A235.8259 
N1421 X-224.507 Y9.801 Z2.906 A234.8951 
N1422 X-224.663 Y9.592 Z2.538 A233.9582 
N1423 X-224.818 Y9.379 Z2.178 A233.0152 
N1424 X-224.970 Y9.164 Z1.827 A232.0658 
N1425 X-225.121 Y8.947 Z1.485 A231.1100 
N1426 X-225.270 Y8.728 Z1.152 A230.1477 
N1427 X-225.416 Y8.507 Z0.829 A229.1791 
N1428 X-225.560 Y8.286 Z0.516 A228.2045 
N1429 X-225.702 Y8.064 Z0.213 A227.2243 
N1430 X-225.840 Y7.841 Z-0.081 A226.2388 
N1431 X-225.977 Y7.618 Z-0.365 A225.2486 
N1432 X-226.110 Y7.395 Z-0.639 A224.2543 
N1433 X-226.241 Y7.171 Z-0.904 A223.2563 
N1434 X-226.369 Y6.948 Z-1.159 A222.2551 
N1435 X-226.495 Y6.725 Z-1.406 A221.2512 
N1436 X-226.618 Y6.503 Z-1.644 A220.2449 
N1437 X-226.738 Y6.281 Z-1.873 A219.2367 
N1438 X-226.856 Y6.059 Z-2.095 A218.2268 
N1439 X-226.972 Y5.837 Z-2.308 A217.2155 
N1440 X-227.086 Y5.616 Z-2.514 A216.2031 
N1441 X-227.197 Y5.395 Z-2.712 A215.1898 
N1442 X-227.307 Y5.175 Z-2.904 A214.1759 
N1443 X-227.414 Y4.955 Z-3.088 A213.1615 
N1444 X-227.520 Y4.734 Z-3.266 A212.1468 
N1445 X-227.623 Y4.515 Z-3.437 A211.1320 
N1446 X-227.725 Y4.295 Z-3.603 A210.1172 
N1447 X-227.826 Y4.075 Z-3.762 A209.1027 
N1448 X-227.924 Y3.855 Z-3.916 A208.0886 
N1449 X-228.022 Y3.636 Z-4.064 A207.0750 
N1450 X-228.117 Y3.416 Z-4.206 A206.0619 
N1451 X-228.212 Y3.195 Z-4.344 A205.0497 
N1452 X-228.305 Y2.975 Z-4.476 A204.0382 
N1453 X-228.397 Y2.754 Z-4.603 A203.0276 
N1454 X-228.487 Y2.533 Z-4.725 A202.0181 
N1455 X-228.577 Y2.311 Z-4.843 A201.0097 
N1456 X-228.666 Y2.089 Z-4.956 A200.0024 
N1457 X-228.753 Y1.865 Z-5.065 A198.9963 
N1458 X-228.840 Y1.641 Z-5.169 A197.9916 
N1459 X-228.925 Y1.416 Z-5.269 A196.9883 
N1460 X-229.010 Y1.190 Z-5.364 A195.9865 
N1461 X-229.094 Y0.963 Z-5.456 A194.9862 
N1462 X-229.178 Y0.735 Z-5.543 A193.9875 
N1463 X-229.260 Y0.506 Z-5.626 A192.9905 
N1464 X-229.342 Y0.275 Z-5.705 A191.9953 
N1465 X-229.424 Y0.042 Z-5.780 A191.0018 
N1466 X-229.504 Y-0.192 Z-5.852 A190.0102 
N1467 X-229.585 Y-0.428 Z-5.919 A189.0204 
N1468 X-229.665 Y-0.665 Z-5.982 A188.0324 
N1469 X-229.744 Y-0.905 Z-6.042 A187.0463 
N1470 X-229.823 Y-1.147 Z-6.098 A186.0621 
N1471 X-229.902 Y-1.391 Z-6.149 A185.0797 
N1472 X-229.981 Y-1.638 Z-6.197 A184.0993 
N1473 X-230.059 Y-1.887 Z-6.241 A183.1208 
N1474 X-230.137 Y-2.139 Z-6.281 A182.1442 
N1475 X-230.215 Y-2.394 Z-6.316 A181.1696 
N1476 X-230.293 Y-2.652 Z-6.348 A180.1969 
N1477 X-230.370 Y-2.913 Z-6.375 A179.2262 
N1478 X-230.448 Y-3.178 Z-6.399 A178.2574 
N1479 X-230.526 Y-3.447 Z-6.418 A177.2905 
N1480 X-230.603 Y-3.719 Z-6.432 A176.3256 
N1481 X-230.681 Y-3.996 Z-6.442 A175.3625 
N1482 X-230.759 Y-4.277 Z-6.447 A174.4013 
N1483 X-230.837 Y-4.563 Z-6.448 A173.4419 
N1484 X-230.915 Y-4.854 Z-6.443 A172.4843 
N1485 X-230.994 Y-5.150 Z-6.434 A171.5284 
N1486 X-231.073 Y-5.452 Z-6.419 A170.5742 
N1487 X-231.152 Y-5.760 Z-6.398 A169.6217 
N1488 X-231.232 Y-6.074 Z-6.372 A168.6708 
N1489 X-231.312 Y-6.395 Z-6.339 A167.7216 
N1490 X-231.393 Y-6.724 Z-6.300 A166.7739 
N1491 X-231.474 Y-7.060 Z-6.255 A165.8277 
N1492 X-231.556 Y-7.405 Z-6.202 A164.8830 
N1493 X-231.639 Y-7.758 Z-6.142 A163.9399 
N1494 X-231.722 Y-8.121 Z-6.073 A162.9981 
N1495 X-231.806 Y-8.494 Z-5.997 A162.0576 
N1496 X-231.891 Y-8.878 Z-5.911 A161.1184 
N1497 X-231.978 Y-9.274 Z-5.816 A160.1803 
N1498 X-232.065 Y-9.682 Z-5.710 A159.2432 
N1499 X-232.153 Y-10.104 Z-5.593 A158.3069 
N1500 X-232.242 Y-10.541 Z-5.464 A157.3711 
N1501 X-232.333 Y-10.994 Z-5.323 A156.4358 
N1502 X-232.426 Y-11.464 Z-5.166 A155.5007 
N1503 X-232.520 Y-11.954 Z-4.995 A154.5658 
N1504 X-232.616 Y-12.465 Z-4.805 A153.6311 
N1505 X-232.713 Y-13.000 Z-4.597 A152.6969 
N1506 X-232.813 Y-13.562 Z-4.368 A151.7638 
N1507 X-232.915 Y-14.152 Z-4.114 A150.8323 
N1508 X-233.020 Y-14.774 Z-3.834 A149.9037 
N1509 X-233.127 Y-15.431 Z-3.525 A148.9793 
N1510 X-233.237 Y-16.127 Z-3.182 A148.0607 
N1511 X-233.350 Y-16.865 Z-2.803 A147.1502 
N1512 X-233.465 Y-17.648 Z-2.383 A146.2501 
N1513 X-233.582 Y-18.478 Z-1.919 A145.3633 
N1514 X-233.702 Y-19.356 Z-1.409 A144.4931 
N1515 X-233.822 Y-20.282 Z-0.849 A143.6429 
N1516 X-233.944 Y-21.257 Z-0.238 A142.8164 
N1517 X-234.065 Y-22.276 Z0.423 A142.0168 
N1518 X-234.185 Y-23.334 Z1.133 A141.2468 
N1519 X-234.303 Y-24.427 Z1.888 A140.5079 
N1520 X-234.418 Y-25.543 Z2.680 A139.8318 
N1521 X-234.529 Y-26.673 Z3.502 A139.2193 
N1522 X-234.636 Y-27.804 Z4.344 A138.6711 
N1523 X-234.738 Y-28.924 Z5.194 A138.1878 
N1524 X-234.834 Y-30.019 Z6.039 A137.7694 
N1525 X-234.924 Y-31.077 Z6.866 A137.4157 
N1526 X-235.007 Y-32.083 Z7.663 A137.1262 
N1527 X-235.083 Y-33.029 Z8.419 A136.8682 
N1528 X-235.152 Y-33.904 Z9.123 A136.6403 
N1529 X-235.214 Y-34.701 Z9.768 A136.4400 
N1530 X-235.269 Y-35.417 Z10.350 A136.2641 
N1531 X-235.317 Y-36.048 Z10.864 A136.1092 
N1532 X-235.359 Y-36.596 Z11.312 A135.9717 
N1533 X-235.394 Y-37.064 Z11.695 A135.8482 
N1534 X-235.424 Y-37.457 Z12.017 A135.7355 
N1535 X-235.448 Y-37.781 Z12.283 A135.6303 
N1536 X-235.467 Y-38.044 Z12.498 A135.5292 
N1537 X-235.483 Y-38.254 Z12.671 A135.4289 
N1538 X-235.495 Y-38.419 Z12.806 A135.3257 
N1539 X-235.504 Y-38.547 Z12.911 A135.2162 
N1540 X-235.511 Y-38.645 Z12.991 A135.0734 
N1541 X-235.516 Y-38.723 Z13.053 A134.7010 
N1542 X-235.520 Y-38.795 Z13.106 A133.6526 
N1543 X-235.522 Y-38.867 Z13.156 A131.8467 
N1544 X-235.523 Y-38.939 Z13.205 A129.3982 
N1545 X-235.523 Y-39.003 Z13.251 A126.9192 
N1546 X-235.523 Y-39.056 Z13.291 A124.6275 
N1547 X-235.522 Y-39.103 Z13.328 A122.4377 
N1548 X-235.522 Y-39.145 Z13.362 A120.3852 
N1549 X-235.521 Y-39.179 Z13.393 A118.6117 
N1550 X-235.521 Y-39.206 Z13.418 A117.1321 
N1551 X-235.520 Y-39.231 Z13.442 A115.7776 
N1552 X-235.520 Y-39.252 Z13.464 A114.5403 
N1553 X-235.520 Y-39.272 Z13.484 A113.4110 
N1554 X-235.519 Y-39.290 Z13.504 A112.3253 
N1555 X-235.519 Y-39.307 Z13.523 A111.2789 
N1556 X-235.518 Y-39.323 Z13.542 A110.2709 
N1557 X-235.518 Y-39.339 Z13.561 A109.2780 
N1558 X-235.518 Y-39.354 Z13.580 A108.2976 
N1559 X-235.517 Y-39.368 Z13.598 A107.3282 
N1560 X-235.517 Y-39.382 Z13.617 A106.3683 
N1561 X-235.516 Y-39.396 Z13.636 A105.4159 
N1562 X-235.516 Y-39.409 Z13.655 A104.4693 
N1563 X-235.515 Y-39.422 Z13.674 A103.5276 
N1564 X-235.515 Y-39.435 Z13.694 A102.5899 
N1565 X-235.514 Y-39.447 Z13.713 A101.6554 
N1566 X-235.514 Y-39.459 Z13.733 A100.7233 
N1567 X-235.513 Y-39.470 Z13.752 A99.7930 
N1568 X-235.513 Y-39.481 Z13.772 A98.8640 
N1569 X-235.512 Y-39.492 Z13.792 A97.9360 
N1570 X-235.512 Y-39.502 Z13.812 A97.0088 
N1571 X-235.511 Y-39.512 Z13.833 A96.0820 
N1572 X-235.510 Y-39.522 Z13.853 A95.1551 
N1573 X-235.510 Y-39.532 Z13.874 A94.2283 
N1574 X-235.509 Y-39.541 Z13.895 A93.3014 
N1575 X-235.508 Y-39.550 Z13.916 A92.3745 
N1576 X-235.508 Y-39.558 Z13.937 A91.4468 
N1577 X-235.507 Y-39.566 Z13.959 A90.5186 
N1578 X-235.506 Y-39.574 Z13.980 A89.5901 
N1579 X-235.505 Y-39.581 Z14.002 A88.6611 
N1580 X-235.504 Y-39.588 Z14.024 A87.7311 
N1581 X-235.504 Y-39.595 Z14.046 A86.8003 
N1582 X-235.503 Y-39.602 Z14.068 A85.8691 
N1583 X-235.502 Y-39.608 Z14.090 A84.9371 
N1584 X-235.501 Y-39.613 Z14.113 A84.0037 
N1585 X-235.500 Y-39.619 Z14.135 A83.0696 
N1586 X-235.499 Y-39.624 Z14.158 A82.1347 
N1587 X-235.498 Y-39.628 Z14.181 A81.1988 
N1588 X-235.497 Y-39.632 Z14.204 A80.2617 
N1589 X-235.496 Y-39.636 Z14.227 A79.3237 
N1590 X-235.495 Y-39.640 Z14.251 A78.3846 
N1591 X-235.494 Y-39.643 Z14.274 A77.4439 
N1592 X-235.493 Y-39.645 Z14.298 A76.5020 
N1593 X-235.492 Y-39.648 Z14.321 A75.5590 
N1594 X-235.490 Y-39.649 Z14.345 A74.6144 
N1595 X-235.489 Y-39.651 Z14.369 A73.6683 
N1596 X-235.488 Y-39.652 Z14.393 A72.7209 
N1597 X-235.487 Y-39.653 Z14.417 A71.7719 
N1598 X-235.486 Y-39.653 Z14.441 A70.8212 
N1599 X-235.484 Y-39.653 Z14.465 A69.8691 
N1600 X-235.483 Y-39.652 Z14.489 A68.9152 
N1601 X-235.482 Y-39.651 Z14.513 A67.9595 
N1602 X-235.480 Y-39.650 Z14.538 A67.0021 
N1603 X-235.479 Y-39.648 Z14.562 A66.0430 
N1604 X-235.477 Y-39.646 Z14.586 A65.0821 
N1605 X-235.476 Y-39.644 Z14.611 A64.1195 
N1606 X-235.474 Y-39.641 Z14.635 A63.1551 
N1607 X-235.473 Y-39.637 Z14.660 A62.1888 
N1608 X-235.471 Y-39.633 Z14.684 A61.2210 
N1609 X-235.470 Y-39.629 Z14.709 A60.2514 
N1610 X-235.468 Y-39.624 Z14.733 A59.2801 
N1611 X-235.467 Y-39.619 Z14.757 A58.3072 
N1612 X-235.465 Y-39.613 Z14.782 A57.3326 
N1613 X-235.464 Y-39.607 Z14.806 A56.3566 
N1614 X-235.462 Y-39.601 Z14.830 A55.3790 
N1615 X-235.460 Y-39.594 Z14.854 A54.4000 
N1616 X-235.459 Y-39.587 Z14.878 A53.4196 
N1617 X-235.457 Y-39.579 Z14.902 A52.4379 
N1618 X-235.455 Y-39.571 Z14.926 A51.4550 
N1619 X-235.454 Y-39.562 Z14.950 A50.4710 
N1620 X-235.452 Y-39.554 Z14.973 A49.4859 
N1621 X-235.450 Y-39.544 Z14.997 A48.4997 
N1622 X-235.449 Y-39.534 Z15.020 A47.5127 
N1623 X-235.447 Y-39.524 Z15.043 A46.5248 
N1624 X-235.445 Y-39.514 Z15.066 A45.5362 
N1625 X-235.444 Y-39.503 Z15.089 A44.5469 
N1626 X-235.442 Y-39.491 Z15.112 A43.5571 
N1627 X-235.440 Y-39.479 Z15.134 A42.5667 
N1628 X-235.438 Y-39.467 Z15.156 A41.5759 
N1629 X-235.437 Y-39.455 Z15.178 A40.5848 
N1630 X-235.435 Y-39.442 Z15.200 A39.5934 
N1631 X-235.433 Y-39.429 Z15.222 A38.6019 
N1632 X-235.432 Y-39.415 Z15.243 A37.6102 
N1633 X-235.430 Y-39.401 Z15.264 A36.6185 
N1634 X-235.428 Y-39.387 Z15.285 A35.6269 
N1635 X-235.427 Y-39.372 Z15.305 A34.6354 
N1636 X-235.425 Y-39.357 Z15.326 A33.6439 
N1637 X-235.423 Y-39.342 Z15.346 A32.6528 
N1638 X-235.422 Y-39.326 Z15.365 A31.6619 
N1639 X-235.420 Y-39.310 Z15.385 A30.6712 
N1640 X-235.419 Y-39.294 Z15.404 A29.6810 
N1641 X-235.417 Y-39.277 Z15.423 A28.6909 
N1642 X-235.415 Y-39.260 Z15.441 A27.7011 
N1643 X-235.414 Y-39.243 Z15.459 A26.7117 
N1644 X-235.412 Y-39.226 Z15.477 A25.7224 
N1645 X-235.411 Y-39.208 Z15.495 A24.7333 
N1646 X-235.409 Y-39.190 Z15.512 A23.7447 
N1647 X-235.408 Y-39.172 Z15.529 A22.7561 
N1648 X-235.406 Y-39.153 Z15.545 A21.7676 
N1649 X-235.405 Y-39.134 Z15.562 A20.7795 
N1650 X-235.403 Y-39.115 Z15.577 A19.7914 
N1651 X-235.402 Y-39.096 Z15.593 A18.8033 
N1652 X-235.401 Y-39.077 Z15.608 A17.8157 
N1653 X-235.399 Y-39.057 Z15.623 A16.8280 
N1654 X-235.398 Y-39.037 Z15.637 A15.8402 
N1655 X-235.397 Y-39.017 Z15.651 A14.8526 
N1656 X-235.395 Y-38.997 Z15.665 A13.8651 
N1657 X-235.394 Y-38.976 Z15.679 A12.8774 
N1658 X-235.393 Y-38.955 Z15.692 A11.8897 
N1659 X-235.392 Y-38.934 Z15.704 A10.9021 
N1660 X-235.390 Y-38.913 Z15.717 A9.9144 
N1661 X-235.389 Y-38.892 Z15.728 A8.9264 
N1662 X-235.388 Y-38.870 Z15.740 A7.9385 
N1663 X-235.387 Y-38.849 Z15.751 A6.9504 
N1664 X-235.386 Y-38.827 Z15.762 A5.9618 
N1665 X-235.385 Y-38.805 Z15.772 A4.9727 
N1666 X-235.383 Y-38.783 Z15.782 A3.9831 
N1667 X-235.382 Y-38.760 Z15.792 A2.9926 
N1668 X-235.381 Y-38.738 Z15.801 A2.0009 
N1669 X-235.380 Y-38.715 Z15.810 A1.0078 
N1670 X-235.379 Y-38.692 Z15.819 A0.0128 
N1671 X-235.378 Y-38.669 Z15.827 A359.0154 
N1672 X-235.377 Y-38.645 Z15.835 A358.0148 
N1673 X-235.376 Y-38.622 Z15.842 A357.0102 
N1674 X-235.375 Y-38.598 Z15.849 A356.0008 
N1675 X-235.374 Y-38.574 Z15.856 A354.9855 
N1676 X-235.373 Y-38.549 Z15.862 A353.9626 
N1677 X-235.372 Y-38.525 Z15.868 A352.9302 
N1678 X-235.371 Y-38.499 Z15.873 A351.8870 
N1679 X-235.370 Y-38.474 Z15.878 A350.8303 
N1680 X-235.369 Y-38.448 Z15.883 A349.7565 
N1681 X-235.368 Y-38.421 Z15.887 A348.6638 
N1682 X-235.367 Y-38.394 Z15.891 A347.5494 
N1683 X-235.366 Y-38.365 Z15.894 A346.4086 
N1684 X-235.365 Y-38.336 Z15.897 A345.2399 
N1685 X-235.364 Y-38.305 Z15.899 A344.0134 
N1686 X-235.362 Y-38.270 Z15.901 A342.6500 
N1687 X-235.361 Y-38.233 Z15.902 A341.2223 
N1688 X-235.359 Y-38.188 Z15.901 A339.5077 
N1689 X-235.356 Y-38.140 Z15.899 A337.7222 
N1690 X-235.354 Y-38.089 Z15.894 A335.9046 
N1691 X-235.351 Y-38.034 Z15.887 A334.0661 
N1692 X-235.347 Y-37.974 Z15.875 A332.2176 
N1693 X-235.342 Y-37.908 Z15.858 A330.4307 
N1694 X-235.336 Y-37.841 Z15.836 A328.8927 
N1695 X-235.329 Y-37.769 Z15.808 A327.6638 
N1696 X-235.320 Y-37.696 Z15.773 A327.0079 
N1697 X-235.309 Y-37.612 Z15.729 A326.6369 
N1698 X-235.295 Y-37.513 Z15.675 A326.5105 
N1699 X-235.277 Y-37.391 Z15.608 A326.4870 
N1700 X-235.254 Y-37.242 Z15.525 A326.5447 
N1701 X-235.227 Y-37.061 Z15.425 A326.6701 
N1702 X-235.194 Y-36.845 Z15.306 A326.8281 
N1703 X-235.154 Y-36.588 Z15.165 A327.0198 
N1704 X-235.108 Y-36.288 Z15.002 A327.2474 
N1705 X-235.054 Y-35.944 Z14.817 A327.5133 
N1706 X-234.992 Y-35.554 Z14.609 A327.8192 
N1707 X-234.922 Y-35.119 Z14.380 A328.1670 
N1708 X-234.844 Y-34.639 Z14.131 A328.5591 
N1709 X-234.758 Y-34.118 Z13.865 A328.9984 
N1710 X-234.664 Y-33.558 Z13.584 A329.4878 
N1711 X-234.563 Y-32.965 Z13.293 A330.0305 
N1712 X-234.455 Y-32.343 Z12.995 A330.6282 
N1713 X-234.339 Y-31.698 Z12.694 A331.2819 
N1714 X-234.218 Y-31.036 Z12.394 A331.9637 
N1715 X-234.092 Y-30.362 Z12.099 A332.6729 
N1716 X-233.962 Y-29.682 Z11.812 A333.4083 
N1717 X-233.828 Y-29.001 Z11.534 A334.1686 
N1718 X-233.691 Y-28.324 Z11.270 A334.9523 
N1719 X-233.552 Y-27.654 Z11.019 A335.7579 
N1720 X-233.412 Y-26.994 Z10.782 A336.5839 
N1721 X-233.271 Y-26.347 Z10.561 A337.4283 
N1722 X-233.129 Y-25.714 Z10.356 A338.2896 
N1723 X-232.987 Y-25.097 Z10.166 A339.1661 
N1724 X-232.845 Y-24.494 Z9.991 A340.0561 
N1725 X-232.703 Y-23.908 Z9.831 A340.9582 
N1726 X-232.562 Y-23.336 Z9.684 A341.8710 
N1727 X-232.421 Y-22.778 Z9.551 A342.7934 
N1728 X-232.280 Y-22.234 Z9.430 A343.7246 
N1729 X-232.139 Y-21.703 Z9.320 A344.6636 
N1730 X-231.999 Y-21.183 Z9.222 A345.6098 
N1731 X-231.858 Y-20.673 Z9.135 A346.5629 
N1732 X-231.717 Y-20.172 Z9.057 A347.5224 
N1733 X-231.576 Y-19.679 Z8.990 A348.4882 
N1734 X-231.434 Y-19.193 Z8.931 A349.4602 
N1735 X-231.291 Y-18.712 Z8.881 A350.4384 
N1736 X-231.147 Y-18.237 Z8.840 A351.4229 
N1737 X-231.001 Y-17.765 Z8.807 A352.4139 
N1738 X-230.855 Y-17.295 Z8.782 A353.4117 
N1739 X-230.706 Y-16.826 Z8.765 A354.4165 
N1740 X-230.554 Y-16.357 Z8.757 A355.4287 
N1741 X-230.400 Y-15.885 Z8.757 A356.4487 
N1742 X-230.243 Y-15.411 Z8.765 A357.4769 
N1743 X-230.081 Y-14.931 Z8.782 A358.5135 
N1744 X-229.915 Y-14.443 Z8.808 A359.5589 
N1745 X-229.743 Y-13.946 Z8.844 A0.6130 
N1746 X-229.565 Y-13.436 Z8.890 A1.6758 
N1747 X-229.378 Y-12.911 Z8.948 A2.7467 
N1748 X-229.183 Y-12.366 Z9.019 A3.8248 
N1749 X-228.976 Y-11.800 Z9.104 A4.9086 
N1750 X-228.758 Y-11.208 Z9.206 A5.9961 
N1751 X-228.526 Y-10.587 Z9.326 A7.0849 
N1752 X-228.279 Y-9.934 Z9.466 A8.1717 
N1753 X-228.016 Y-9.248 Z9.629 A9.2531 
N1754 X-227.736 Y-8.526 Z9.816 A10.3253 
N1755 X-227.438 Y-7.769 Z10.030 A11.3706 
N1756 X-227.123 Y-6.976 Z10.271 A12.3789 
N1757 X-226.790 Y-6.152 Z10.540 A13.3387 
N1758 X-226.443 Y-5.299 Z10.837 A14.1802 
N1759 X-226.083 Y-4.422 Z11.158 A14.8827 
N1760 X-225.713 Y-3.527 Z11.499 A15.4334 
N1761 X-225.337 Y-2.621 Z11.853 A15.8298 
N1762 X-224.960 Y-1.713 Z12.214 A16.0770 
N1763 X-224.586 Y-0.813 Z12.576 A16.1815 
N1764 X-224.219 Y0.071 Z12.932 A16.1488 
N1765 X-223.862 Y0.929 Z13.277 A15.9821 
N1766 X-223.519 Y1.753 Z13.605 A15.6823 
N1767 X-223.195 Y2.536 Z13.912 A15.2480 
N1768 X-222.891 Y3.273 Z14.194 A14.6781 
N1769 X-222.609 Y3.959 Z14.450 A13.9741 
N1770 X-222.351 Y4.593 Z14.677 A13.1428 
N1771 X-222.118 Y5.174 Z14.875 A12.1948 
N1772 X-221.908 Y5.702 Z15.045 A11.1938 
N1773 X-221.721 Y6.178 Z15.190 A10.1472 
N1774 X-221.555 Y6.606 Z15.311 A9.0630 
N1775 X-221.410 Y6.988 Z15.412 A7.9644 
N1776 X-221.282 Y7.328 Z15.495 A6.8569 
N1777 X-221.170 Y7.631 Z15.563 A5.7457 
N1778 X-221.072 Y7.902 Z15.619 A4.6346 
N1779 X-220.986 Y8.143 Z15.664 A3.5247 
N1780 X-220.910 Y8.360 Z15.702 A2.4163 
N1781 X-220.843 Y8.555 Z15.732 A1.3094 
N1782 X-220.784 Y8.732 Z15.757 A0.2046 
N1783 X-220.730 Y8.893 Z15.777 A359.1035 
N1784 X-220.682 Y9.041 Z15.792 A358.0080 
N1785 X-220.639 Y9.177 Z15.805 A356.9199 
N1786 X-220.600 Y9.302 Z15.814 A355.8408 
N1787 X-220.565 Y9.419 Z15.821 A354.7711 
N1788 X-220.532 Y9.528 Z15.826 A353.7108 
N1789 X-220.502 Y9.630 Z15.829 A352.6591 
N1790 X-220.475 Y9.727 Z15.831 A351.6150 
N1791 X-220.450 Y9.817 Z15.831 A350.5772 
N1792 X-220.426 Y9.903 Z15.830 A349.5446 
N1793 X-220.405 Y9.984 Z15.828 A348.5160 
N1794 X-220.384 Y10.062 Z15.825 A347.4908 
N1795 X-220.366 Y10.135 Z15.821 A346.4685 
N1796 X-220.348 Y10.206 Z15.816 A345.4488 
N1797 X-220.332 Y10.273 Z15.811 A344.4320 
N1798 X-220.316 Y10.337 Z15.805 A343.4185 
N1799 X-220.302 Y10.399 Z15.798 A342.4088 
N1800 X-220.288 Y10.459 Z15.790 A341.4038 
N1801 X-220.276 Y10.516 Z15.782 A340.4041 
N1802 X-220.264 Y10.571 Z15.774 A339.4107 
N1803 X-220.253 Y10.625 Z15.765 A338.4241 
N1804 X-220.242 Y10.676 Z15.756 A337.4449 
N1805 X-220.233 Y10.726 Z15.746 A336.4738 
N1806 X-220.223 Y10.774 Z15.735 A335.5111 
N1807 X-220.215 Y10.821 Z15.725 A334.5572 
N1808 X-220.207 Y10.866 Z15.714 A333.6122 
N1809 X-220.199 Y10.911 Z15.702 A332.6765 
N1810 X-220.192 Y10.953 Z15.690 A331.7500 
N1811 X-220.185 Y10.995 Z15.678 A330.8327 
N1812 X-220.178 Y11.036 Z15.666 A329.9246 
N1813 X-220.172 Y11.076 Z15.653 A329.0256 
N1814 X-220.167 Y11.114 Z15.640 A328.1354 
N1815 X-220.161 Y11.152 Z15.627 A327.2540 
N1816 X-220.156 Y11.189 Z15.613 A326.3810 
N1817 X-220.151 Y11.225 Z15.599 A325.5161 
N1818 X-220.147 Y11.260 Z15.585 A324.6592 
N1819 X-220.143 Y11.295 Z15.570 A323.8098 
N1820 X-220.139 Y11.329 Z15.556 A322.9678 
N1821 X-220.135 Y11.362 Z15.541 A322.1327 
N1822 X-220.131 Y11.395 Z15.526 A321.3043 
N1823 X-220.128 Y11.426 Z15.510 A320.4822 
N1824 X-220.125 Y11.458 Z15.495 A319.6659 
N1825 X-220.122 Y11.489 Z15.479 A318.8553 
N1826 X-220.120 Y11.519 Z15.463 A318.0498 
N1827 X-220.117 Y11.549 Z15.446 A317.2492 
N1828 X-220.115 Y11.578 Z15.430 A316.4530 
N1829 X-220.113 Y11.607 Z15.413 A315.6607 
N1830 X-220.111 Y11.635 Z15.396 A314.8722 
N1831 X-220.109 Y11.663 Z15.378 A314.0868 
N1832 X-220.108 Y11.690 Z15.361 A313.3043 
N1833 X-220.107 Y11.717 Z15.343 A312.5242 
N1834 X-220.106 Y11.744 Z15.325 A311.7461 
N1835 X-220.105 Y11.771 Z15.306 A310.9697 
N1836 X-220.104 Y11.797 Z15.287 A310.1945 
N1837 X-220.103 Y11.822 Z15.268 A309.4202 
N1838 X-220.103 Y11.848 Z15.249 A308.6464 
N1839 X-220.102 Y11.873 Z15.229 A307.8726 
N1840 X-220.102 Y11.898 Z15.209 A307.0986 
N1841 X-220.102 Y11.923 Z15.189 A306.3240 
N1842 X-220.102 Y11.947 Z15.168 A305.5483 
N1843 X-220.102 Y11.971 Z15.147 A304.7712 
N1844 X-220.103 Y11.995 Z15.126 A303.9923 
N1845 X-220.104 Y12.019 Z15.104 A303.2111 
N1846 X-220.104 Y12.043 Z15.082 A302.4274 
N1847 X-220.105 Y12.066 Z15.059 A301.6405 
N1848 X-220.106 Y12.089 Z15.036 A300.8502 
N1849 X-220.108 Y12.112 Z15.012 A300.0559 
N1850 X-220.109 Y12.135 Z14.988 A299.2571 
N1851 X-220.111 Y12.158 Z14.963 A298.4533 
N1852 X-220.112 Y12.180 Z14.938 A297.6441 
N1853 X-220.114 Y12.203 Z14.912 A296.8290 
N1854 X-220.117 Y12.225 Z14.886 A296.0074 
N1855 X-220.119 Y12.247 Z14.858 A295.1788 
N1856 X-220.122 Y12.269 Z14.830 A294.3427 
N1857 X-220.125 Y12.292 Z14.801 A293.4987 
N1858 X-220.128 Y12.314 Z14.772 A292.6463 
N1859 X-220.131 Y12.336 Z14.741 A291.7851 
N1860 X-220.135 Y12.357 Z14.709 A290.9147 
N1861 X-220.139 Y12.379 Z14.676 A290.0349 
N1862 X-220.144 Y12.401 Z14.642 A289.1454 
N1863 X-220.148 Y12.423 Z14.607 A288.2460 
N1864 X-220.153 Y12.444 Z14.571 A287.3369 
N1865 X-220.159 Y12.466 Z14.533 A286.4181 
N1866 X-220.165 Y12.488 Z14.493 A285.4900 
N1867 X-220.171 Y12.509 Z14.452 A284.5528 
N1868 X-220.178 Y12.530 Z14.409 A283.6072 
N1869 X-220.186 Y12.552 Z14.364 A282.6540 
N1870 X-220.194 Y12.572 Z14.316 A281.6940 
N1871 X-220.203 Y12.593 Z14.267 A280.7284 
N1872 X-220.212 Y12.614 Z14.215 A279.7583 
N1873 X-220.223 Y12.634 Z14.161 A278.7851 
N1874 X-220.234 Y12.654 Z14.103 A277.8099 
N1875 X-220.246 Y12.673 Z14.043 A276.8342 
N1876 X-220.259 Y12.692 Z13.979 A275.8588 
N1877 X-220.274 Y12.711 Z13.912 A274.8847 
N1878 X-220.289 Y12.729 Z13.840 A273.9121 
N1879 X-220.306 Y12.746 Z13.765 A272.9413 
N1880 X-220.324 Y12.763 Z13.685 A271.9722 
N1881 X-220.344 Y12.779 Z13.600 A271.0042 
N1882 X-220.365 Y12.793 Z13.510 A270.0367 
N1883 X-220.389 Y12.807 Z13.413 A269.0691 
N1884 X-220.414 Y12.820 Z13.311 A268.1008 
N1885 X-220.442 Y12.831 Z13.201 A267.1317 
N1886 X-220.473 Y12.840 Z13.084 A266.1621 
N1887 X-220.506 Y12.848 Z12.960 A265.1931 
N1888 X-220.543 Y12.853 Z12.826 A264.2265 
N1889 X-220.582 Y12.856 Z12.684 A263.2641 
N1890 X-220.626 Y12.856 Z12.532 A262.3080 
N1891 X-220.673 Y12.852 Z12.370 A261.3594 
N1892 X-220.723 Y12.845 Z12.198 A260.4187 
N1893 X-220.779 Y12.834 Z12.013 A259.4851 
N1894 X-220.838 Y12.819 Z11.817 A258.5571 
N1895 X-220.903 Y12.800 Z11.608 A257.6328 
N1896 X-220.973 Y12.775 Z11.386 A256.7106 
N1897 X-221.048 Y12.744 Z11.151 A255.7896 
N1898 X-221.129 Y12.708 Z10.902 A254.8702 
N1899 X-221.216 Y12.664 Z10.639 A253.9534 
N1900 X-221.308 Y12.613 Z10.362 A253.0402 
N1901 X-221.407 Y12.554 Z10.071 A252.1313 
N1902 X-221.512 Y12.488 Z9.766 A251.2268 
N1903 X-221.623 Y12.412 Z9.448 A250.3266 
N1904 X-221.740 Y12.328 Z9.117 A249.4306 
N1905 X-221.864 Y12.235 Z8.773 A248.5384 
N1906 X-221.992 Y12.132 Z8.418 A247.6498 
N1907 X-222.126 Y12.020 Z8.053 A246.7643 
N1908 X-222.265 Y11.899 Z7.678 A245.8811 
N1909 X-222.409 Y11.769 Z7.295 A244.9990 
N1910 X-222.557 Y11.630 Z6.905 A244.1165 
N1911 X-222.708 Y11.482 Z6.509 A243.2319 
N1912 X-222.863 Y11.325 Z6.110 A242.3437 
N1913 X-223.020 Y11.161 Z5.708 A241.4502 
N1914 X-223.179 Y10.989 Z5.306 A240.5506 
N1915 X-223.340 Y10.810 Z4.904 A239.6442 
N1916 X-223.501 Y10.624 Z4.504 A238.7310 
N1917 X-223.663 Y10.433 Z4.107 A237.8113 
N1918 X-223.825 Y10.235 Z3.716 A236.8853 
N1919 X-223.985 Y10.033 Z3.330 A235.9533 
N1920 X-224.145 Y9.826 Z2.951 A235.0156 
N1921 X-224.303 Y9.615 Z2.579 A234.0722 
N1922 X-224.460 Y9.402 Z2.216 A233.1228 
N1923 X-224.614 Y9.185 Z1.861 A232.1675 
N1924 X-224.766 Y8.967 Z1.516 A231.2059 
N1925 X-224.917 Y8.747 Z1.181 A230.2382 
N1926 X-225.065 Y8.525 Z0.855 A229.2645 
N1927 X-225.211 Y8.303 Z0.540 A228.2849 
N1928 X-225.354 Y8.080 Z0.234 A227.2998 
N1929 X-225.494 Y7.856 Z-0.061 A226.3097 
N1930 X-225.632 Y7.632 Z-0.347 A225.3150 
N1931 X-225.768 Y7.408 Z-0.623 A224.3162 
N1932 X-225.901 Y7.184 Z-0.889 A223.3138 
N1933 X-226.031 Y6.960 Z-1.146 A222.3083 
N1934 X-226.159 Y6.736 Z-1.394 A221.2999 
N1935 X-226.284 Y6.513 Z-1.633 A220.2892 
N1936 X-226.407 Y6.290 Z-1.864 A219.2765 
N1937 X-226.527 Y6.067 Z-2.087 A218.2621 
N1938 X-226.646 Y5.844 Z-2.301 A217.2462 
N1939 X-226.762 Y5.622 Z-2.508 A216.2290 
N1940 X-226.876 Y5.400 Z-2.708 A215.2109 
N1941 X-226.988 Y5.179 Z-2.900 A214.1920 
N1942 X-227.098 Y4.957 Z-3.086 A213.1724 
N1943 X-227.206 Y4.736 Z-3.265 A212.1525 
N1944 X-227.313 Y4.515 Z-3.437 A211.1324 
N1945 X-227.417 Y4.294 Z-3.603 A210.1122 
N1946 X-227.521 Y4.073 Z-3.763 A209.0922 
N1947 X-227.622 Y3.852 Z-3.918 A208.0724 
N1948 X-227.722 Y3.631 Z-4.067 A207.0530 
N1949 X-227.821 Y3.410 Z-4.210 A206.0342 
N1950 X-227.918 Y3.188 Z-4.348 A205.0161 
N1951 X-228.015 Y2.967 Z-4.481 A203.9988 
N1952 X-228.109 Y2.744 Z-4.609 A202.9823 
N1953 X-228.203 Y2.522 Z-4.731 A201.9669 
N1954 X-228.296 Y2.298 Z-4.850 A200.9526 
N1955 X-228.387 Y2.074 Z-4.963 A199.9395 
N1956 X-228.478 Y1.850 Z-5.072 A198.9277 
N1957 X-228.567 Y1.624 Z-5.177 A197.9173 
N1958 X-228.656 Y1.398 Z-5.277 A196.9083 
N1959 X-228.744 Y1.171 Z-5.372 A195.9010 
N1960 X-228.831 Y0.942 Z-5.464 A194.8954 
N1961 X-228.917 Y0.713 Z-5.551 A193.8915 
N1962 X-229.003 Y0.482 Z-5.635 A192.8894 
N1963 X-229.088 Y0.249 Z-5.714 A191.8893 
N1964 X-229.172 Y0.016 Z-5.789 A190.8912 
N1965 X-229.256 Y-0.220 Z-5.860 A189.8950 
N1966 X-229.339 Y-0.457 Z-5.927 A188.9009 
N1967 X-229.422 Y-0.696 Z-5.990 A187.9089 
N1968 X-229.504 Y-0.937 Z-6.050 A186.9190 
N1969 X-229.586 Y-1.180 Z-6.105 A185.9312 
N1970 X-229.668 Y-1.426 Z-6.156 A184.9455 
N1971 X-229.749 Y-1.674 Z-6.204 A183.9620 
N1972 X-229.830 Y-1.924 Z-6.247 A182.9807 
N1973 X-229.910 Y-2.177 Z-6.286 A182.0016 
N1974 X-229.991 Y-2.433 Z-6.321 A181.0248 
N1975 X-230.071 Y-2.693 Z-6.353 A180.0501 
N1976 X-230.151 Y-2.955 Z-6.379 A179.0777 
N1977 X-230.231 Y-3.221 Z-6.402 A178.1075 
N1978 X-230.312 Y-3.490 Z-6.420 A177.1394 
N1979 X-230.392 Y-3.764 Z-6.434 A176.1736 
N1980 X-230.472 Y-4.042 Z-6.443 A175.2099 
N1981 X-230.552 Y-4.324 Z-6.448 A174.2484 
N1982 X-230.632 Y-4.610 Z-6.447 A173.2889 
N1983 X-230.713 Y-4.902 Z-6.442 A172.3314 
N1984 X-230.793 Y-5.199 Z-6.431 A171.3759 
N1985 X-230.874 Y-5.502 Z-6.416 A170.4224 
N1986 X-230.955 Y-5.811 Z-6.394 A169.4708 
N1987 X-231.037 Y-6.126 Z-6.367 A168.5210 
N1988 X-231.119 Y-6.448 Z-6.333 A167.5730 
N1989 X-231.202 Y-6.777 Z-6.293 A166.6269 
N1990 X-231.285 Y-7.114 Z-6.247 A165.6825 
N1991 X-231.368 Y-7.459 Z-6.193 A164.7397 
N1992 X-231.452 Y-7.813 Z-6.132 A163.7987 
N1993 X-231.537 Y-8.177 Z-6.062 A162.8592 
N1994 X-231.623 Y-8.550 Z-5.985 A161.9213 
N1995 X-231.709 Y-8.935 Z-5.898 A160.9847 
N1996 X-231.797 Y-9.331 Z-5.801 A160.0494 
N1997 X-231.885 Y-9.740 Z-5.694 A159.1152 
N1998 X-231.974 Y-10.163 Z-5.576 A158.1819 
N1999 X-232.065 Y-10.600 Z-5.446 A157.2493 
N2000 X-232.157 Y-11.053 Z-5.303 A156.3173 
N2001 X-232.250 Y-11.525 Z-5.146 A155.3856 
N2002 X-232.344 Y-12.015 Z-4.973 A154.4542 
N2003 X-232.441 Y-12.527 Z-4.782 A153.5232 
N2004 X-232.539 Y-13.062 Z-4.572 A152.5928 
N2005 X-232.639 Y-13.624 Z-4.342 A151.6636 
N2006 X-232.741 Y-14.214 Z-4.087 A150.7362 
N2007 X-232.845 Y-14.836 Z-3.806 A149.8117 
N2008 X-232.952 Y-15.493 Z-3.495 A148.8915 
N2009 X-233.061 Y-16.189 Z-3.151 A147.9774 
N2010 X-233.173 Y-16.926 Z-2.771 A147.0714 
N2011 X-233.286 Y-17.708 Z-2.350 A146.1759 
N2012 X-233.402 Y-18.536 Z-1.886 A145.2937 
N2013 X-233.519 Y-19.413 Z-1.375 A144.4282 
N2014 X-233.637 Y-20.337 Z-0.815 A143.5828 
N2015 X-233.754 Y-21.309 Z-0.204 A142.7610 
N2016 X-233.871 Y-22.325 Z0.456 A141.9662 
N2017 X-233.986 Y-23.381 Z1.165 A141.2009 
N2018 X-234.099 Y-24.470 Z1.918 A140.4667 
N2019 X-234.208 Y-25.582 Z2.708 A139.7949 
N2020 X-234.313 Y-26.708 Z3.528 A139.1865 
N2021 X-234.413 Y-27.836 Z4.368 A138.6420 
N2022 X-234.507 Y-28.952 Z5.215 A138.1619 
N2023 X-234.595 Y-30.043 Z6.057 A137.7465 
N2024 X-234.676 Y-31.097 Z6.882 A137.3955 
N2025 X-234.751 Y-32.100 Z7.677 A137.1082 
N2026 X-234.818 Y-33.043 Z8.430 A136.8523 
N2027 X-234.880 Y-33.915 Z9.132 A136.6264 
N2028 X-234.934 Y-34.710 Z9.775 A136.4279 
N2029 X-234.982 Y-35.423 Z10.355 A136.2538 
N2030 X-235.024 Y-36.053 Z10.868 A136.1005 
N2031 X-235.059 Y-36.599 Z11.315 A135.9645 
N2032 X-235.089 Y-37.066 Z11.697 A135.8424 
N2033 X-235.115 Y-37.458 Z12.018 A135.7310 
N2034 X-235.135 Y-37.782 Z12.283 A135.6270 
N2035 X-235.152 Y-38.044 Z12.499 A135.5271 
N2036 X-235.165 Y-38.254 Z12.671 A135.4279 
N2037 X-235.175 Y-38.419 Z12.806 A135.3256 
N2038 X-235.183 Y-38.547 Z12.911 A135.2170 
N2039 X-235.189 Y-38.644 Z12.991 A135.0748 
N2040 X-235.193 Y-38.723 Z13.053 A134.7016 
N2041 X-235.196 Y-38.795 Z13.106 A133.6536 
N2042 X-235.197 Y-38.854 Z13.147 A132.2307 
N2043 X-235.198 Y-38.907 Z13.184 A130.5612 
N2044 X-235.197 Y-38.951 Z13.215 A129.0488 
N2045 X-235.196 Y-38.985 Z13.239 A127.7518 
N2046 X-235.194 Y-39.015 Z13.261 A126.5054 
N2047 X-235.193 Y-39.041 Z13.280 A125.3824 
N2048 X-235.192 Y-39.062 Z13.295 A124.3979 
N2049 X-235.191 Y-39.081 Z13.310 A123.5323 
N2050 X-235.190 Y-39.096 Z13.322 A122.7912 
N2051 X-235.189 Y-39.110 Z13.333 A122.1029 
N2052 X-235.188 Y-39.123 Z13.343 A121.4586 
N2053 X-235.187 Y-39.135 Z13.353 A120.8537 
N2054 X-235.186 Y-39.146 Z13.363 A120.2686 
N2055 X-235.186 Y-39.157 Z13.372 A119.6997 
N2056 X-235.185 Y-39.167 Z13.382 A119.1437 
N2057 X-235.184 Y-39.178 Z13.391 A118.5975 
N2058 X-235.183 Y-39.188 Z13.400 A118.0593 
N2059 X-235.182 Y-39.198 Z13.409 A117.5272 
N2060 X-235.181 Y-39.207 Z13.418 A116.9998 
N2061 X-235.180 Y-39.217 Z13.427 A116.4751 
N2062 X-235.179 Y-39.226 Z13.436 A115.9513 
N2063 X-235.178 Y-39.236 Z13.446 A115.4269 
N2064 X-235.177 Y-39.245 Z13.455 A114.9006 
N2065 X-235.176 Y-39.254 Z13.464 A114.3711 
N2066 X-235.175 Y-39.263 Z13.474 A113.8374 
N2067 X-235.174 Y-39.272 Z13.484 A113.2983 
N2068 X-235.173 Y-39.282 Z13.494 A112.7527 
N2069 X-235.172 Y-39.291 Z13.504 A112.1992 
N2070 X-235.171 Y-39.300 Z13.514 A111.6364 
N2071 X-235.169 Y-39.309 Z13.525 A111.0624 
N2072 X-235.168 Y-39.319 Z13.536 A110.4765 
N2073 X-235.166 Y-39.328 Z13.547 A109.8781 
N2074 X-235.165 Y-39.338 Z13.559 A109.2655 
N2075 X-235.163 Y-39.348 Z13.571 A108.6370 
N2076 X-235.162 Y-39.357 Z13.583 A107.9898 
N2077 X-235.160 Y-39.367 Z13.596 A107.3232 
N2078 X-235.158 Y-39.378 Z13.610 A106.6366 
N2079 X-235.156 Y-39.388 Z13.624 A105.9281 
N2080 X-235.154 Y-39.398 Z13.638 A105.1951 
N2081 X-235.152 Y-39.409 Z13.653 A104.4356 
N2082 X-235.149 Y-39.420 Z13.669 A103.6495 
N2083 X-235.147 Y-39.430 Z13.686 A102.8354 
N2084 X-235.144 Y-39.442 Z13.703 A101.9908 
N2085 X-235.141 Y-39.453 Z13.722 A101.1151 
N2086 X-235.138 Y-39.464 Z13.741 A100.2083 
N2087 X-235.135 Y-39.476 Z13.761 A99.2688 
N2088 X-235.131 Y-39.487 Z13.782 A98.2966 
N2089 X-235.127 Y-39.499 Z13.803 A97.2924 
N2090 X-235.123 Y-39.510 Z13.827 A96.2221 
N2091 X-235.118 Y-39.522 Z13.851 A95.1203 
N2092 X-235.113 Y-39.534 Z13.878 A93.9543 
N2093 X-235.108 Y-39.546 Z13.905 A92.7567 
N2094 X-235.103 Y-39.557 Z13.933 A91.4950 
N2095 X-235.097 Y-39.569 Z13.963 A90.2014 
N2096 X-235.091 Y-39.579 Z13.994 A88.8749 
N2097 X-235.084 Y-39.590 Z14.026 A87.5166 
N2098 X-235.077 Y-39.600 Z14.059 A86.1268 
N2099 X-235.070 Y-39.609 Z14.093 A84.7067 
N2100 X-235.063 Y-39.618 Z14.128 A83.2577 
N2101 X-235.055 Y-39.625 Z14.164 A81.7813 
N2102 X-235.046 Y-39.632 Z14.201 A80.2787 
N2103 X-235.037 Y-39.638 Z14.239 A78.7518 
N2104 X-235.028 Y-39.644 Z14.278 A77.2023 
N2105 X-235.019 Y-39.648 Z14.317 A75.6317 
N2106 X-235.009 Y-39.651 Z14.358 A74.0415 
N2107 X-234.999 Y-39.653 Z14.398 A72.4330 
N2108 X-234.989 Y-39.653 Z14.440 A70.8073 
N2109 X-234.979 Y-39.653 Z14.481 A69.1656 
N2110 X-234.968 Y-39.651 Z14.523 A67.5090 
N2111 X-234.957 Y-39.648 Z14.566 A65.8383 
N2112 X-234.945 Y-39.644 Z14.609 A64.1546 
N2113 X-234.934 Y-39.639 Z14.652 A62.4588 
N2114 X-234.922 Y-39.632 Z14.695 A60.7516 
N2115 X-234.910 Y-39.623 Z14.738 A59.0339 
N2116 X-234.898 Y-39.614 Z14.781 A57.3065 
N2117 X-234.886 Y-39.603 Z14.825 A55.5702 
N2118 X-234.873 Y-39.590 Z14.868 A53.8255 
N2119 X-234.861 Y-39.577 Z14.910 A52.0734 
N2120 X-234.848 Y-39.561 Z14.953 A50.3145 
N2121 X-234.835 Y-39.545 Z14.995 A48.5496 
N2122 X-234.822 Y-39.527 Z15.037 A46.7796 
N2123 X-234.810 Y-39.508 Z15.078 A45.0051 
N2124 X-234.797 Y-39.488 Z15.119 A43.2270 
N2125 X-234.784 Y-39.466 Z15.159 A41.4461 
N2126 X-234.771 Y-39.443 Z15.199 A39.6635 
N2127 X-234.758 Y-39.419 Z15.237 A37.8800 
N2128 X-234.745 Y-39.393 Z15.275 A36.0967 
N2129 X-234.732 Y-39.367 Z15.312 A34.3149 
N2130 X-234.719 Y-39.339 Z15.348 A32.5356 
N2131 X-234.707 Y-39.311 Z15.383 A30.7603 
N2132 X-234.694 Y-39.282 Z15.417 A28.9904 
N2133 X-234.682 Y-39.251 Z15.450 A27.2275 
N2134 X-234.670 Y-39.220 Z15.482 A25.4732 
N2135 X-234.658 Y-39.189 Z15.513 A23.7295 
N2136 X-234.646 Y-39.156 Z15.542 A21.9982 
N2137 X-234.634 Y-39.123 Z15.570 A20.2816 
N2138 X-234.623 Y-39.090 Z15.597 A18.5817 
N2139 X-234.613 Y-39.057 Z15.623 A16.9008 
N2140 X-234.602 Y-39.023 Z15.647 A15.2409 
N2141 X-234.592 Y-38.989 Z15.670 A13.6039 
N2142 X-234.582 Y-38.955 Z15.691 A11.9916 
N2143 X-234.573 Y-38.921 Z15.711 A10.4051 
N2144 X-234.564 Y-38.888 Z15.730 A8.8451 
N2145 X-234.556 Y-38.854 Z15.748 A7.3118 
N2146 X-234.548 Y-38.822 Z15.764 A5.8312 
N2147 X-234.540 Y-38.790 Z15.779 A4.4036 
N2148 X-234.533 Y-38.759 Z15.792 A3.0288 
N2149 X-234.526 Y-38.728 Z15.804 A1.7064 
N2150 X-234.520 Y-38.699 Z15.815 A0.4373 
N2151 X-234.514 Y-38.671 Z15.825 A359.2210 
N2152 X-234.508 Y-38.644 Z15.834 A358.0570 
N2153 X-234.503 Y-38.617 Z15.842 A356.9463 
N2154 X-234.498 Y-38.592 Z15.850 A355.8875 
N2155 X-234.494 Y-38.568 Z15.856 A354.8822 
N2156 X-234.490 Y-38.545 Z15.862 A353.9301 
N2157 X-234.486 Y-38.523 Z15.867 A353.0055 
N2158 X-234.482 Y-38.501 Z15.872 A352.1088 
N2159 X-234.478 Y-38.480 Z15.876 A351.2392 
N2160 X-234.475 Y-38.459 Z15.880 A350.3968 
N2161 X-234.472 Y-38.439 Z15.883 A349.5802 
N2162 X-234.469 Y-38.420 Z15.886 A348.7883 
N2163 X-234.466 Y-38.401 Z15.889 A348.0207 
N2164 X-234.463 Y-38.382 Z15.891 A347.2756 
N2165 X-234.460 Y-38.364 Z15.893 A346.5514 
N2166 X-234.458 Y-38.347 Z15.895 A345.8472 
N2167 X-234.455 Y-38.329 Z15.896 A345.1617 
N2168 X-234.453 Y-38.312 Z15.898 A344.4930 
N2169 X-234.451 Y-38.296 Z15.898 A343.8398 
N2170 X-234.449 Y-38.280 Z15.899 A343.2010 
N2171 X-234.447 Y-38.264 Z15.900 A342.5747 
N2172 X-234.444 Y-38.248 Z15.900 A341.9592 
N2173 X-234.442 Y-38.232 Z15.900 A341.3530 
N2174 X-234.440 Y-38.217 Z15.900 A340.7542 
N2175 X-234.439 Y-38.201 Z15.900 A340.1607 
N2176 X-234.437 Y-38.186 Z15.900 A339.5704 
N2177 X-234.435 Y-38.170 Z15.900 A338.9807 
N2178 X-234.433 Y-38.155 Z15.899 A338.3891 
N2179 X-234.431 Y-38.139 Z15.898 A337.7927 
N2180 X-234.430 Y-38.124 Z15.897 A337.1880 
N2181 X-234.428 Y-38.107 Z15.896 A336.5709 
N2182 X-234.426 Y-38.090 Z15.894 A335.9386 
N2183 X-234.424 Y-38.073 Z15.893 A335.2873 
N2184 X-234.422 Y-38.054 Z15.890 A334.6120 
N2185 X-234.420 Y-38.035 Z15.888 A333.9107 
N2186 X-234.417 Y-38.013 Z15.885 A333.1808 
N2187 X-234.414 Y-37.990 Z15.880 A332.4217 
N2188 X-234.411 Y-37.965 Z15.875 A331.6354 
N2189 X-234.407 Y-37.936 Z15.868 A330.8285 
N2190 X-234.403 Y-37.903 Z15.859 A330.0104 
N2191 X-234.398 Y-37.865 Z15.846 A329.1935 
N2192 X-234.392 Y-37.821 Z15.830 A328.4059 
N2193 X-234.385 Y-37.771 Z15.808 A327.7198 
N2194 X-234.377 Y-37.711 Z15.780 A327.1605 
N2195 X-234.368 Y-37.643 Z15.745 A326.8593 
N2196 X-234.356 Y-37.559 Z15.700 A326.6862 
N2197 X-234.341 Y-37.456 Z15.643 A326.6271 
N2198 X-234.322 Y-37.330 Z15.573 A326.6652 
N2199 X-234.298 Y-37.173 Z15.486 A326.7459 
N2200 X-234.269 Y-36.984 Z15.381 A326.8657 
N2201 X-234.235 Y-36.756 Z15.256 A327.0230 
N2202 X-234.193 Y-36.487 Z15.109 A327.2187 
N2203 X-234.144 Y-36.174 Z14.940 A327.4541 
N2204 X-234.088 Y-35.816 Z14.747 A327.7308 
N2205 X-234.024 Y-35.410 Z14.532 A328.0501 
N2206 X-233.951 Y-34.957 Z14.295 A328.4136 
N2207 X-233.870 Y-34.460 Z14.038 A328.8234 
N2208 X-233.780 Y-33.920 Z13.764 A329.2818 
N2209 X-233.683 Y-33.341 Z13.476 A329.7915 
N2210 X-233.578 Y-32.729 Z13.178 A330.3543 
N2211 X-233.466 Y-32.088 Z12.874 A330.9709 
N2212 X-233.347 Y-31.424 Z12.568 A331.6408 
N2213 X-233.222 Y-30.743 Z12.264 A332.3630 
N2214 X-233.092 Y-30.051 Z11.966 A333.1112 
N2215 X-232.958 Y-29.354 Z11.676 A333.8845 
N2216 X-232.821 Y-28.656 Z11.397 A334.6821 
N2217 X-232.681 Y-27.962 Z11.132 A335.5030 
N2218 X-232.540 Y-27.276 Z10.881 A336.3458 
N2219 X-232.397 Y-26.601 Z10.646 A337.2091 
N2220 X-232.254 Y-25.939 Z10.427 A338.0911 
N2221 X-232.111 Y-25.292 Z10.224 A338.9904 
N2222 X-231.968 Y-24.660 Z10.038 A339.9051 
N2223 X-231.826 Y-24.045 Z9.867 A340.8339 
N2224 X-231.684 Y-23.445 Z9.711 A341.7751 
N2225 X-231.543 Y-22.861 Z9.569 A342.7275 
N2226 X-231.402 Y-22.292 Z9.442 A343.6898 
N2227 X-231.262 Y-21.736 Z9.327 A344.6612 
N2228 X-231.123 Y-21.193 Z9.224 A345.6407 
N2229 X-230.983 Y-20.661 Z9.133 A346.6276 
N2230 X-230.844 Y-20.139 Z9.053 A347.6214 
N2231 X-230.705 Y-19.627 Z8.983 A348.6219 
N2232 X-230.565 Y-19.123 Z8.923 A349.6285 
N2233 X-230.425 Y-18.625 Z8.873 A350.6414 
N2234 X-230.283 Y-18.132 Z8.832 A351.6603 
N2235 X-230.141 Y-17.643 Z8.799 A352.6853 
N2236 X-229.996 Y-17.157 Z8.776 A353.7165 
N2237 X-229.850 Y-16.672 Z8.762 A354.7541 
N2238 X-229.701 Y-16.187 Z8.756 A355.7983 
N2239 X-229.550 Y-15.700 Z8.759 A356.8492 
N2240 X-229.394 Y-15.208 Z8.771 A357.9069 
N2241 X-229.234 Y-14.711 Z8.792 A358.9716 
N2242 X-229.069 Y-14.206 Z8.824 A0.0431 
N2243 X-228.898 Y-13.689 Z8.866 A1.1211 
N2244 X-228.720 Y-13.159 Z8.920 A2.2050 
N2245 X-228.533 Y-12.612 Z8.986 A3.2940 
N2246 X-228.336 Y-12.046 Z9.066 A4.3867 
N2247 X-228.129 Y-11.456 Z9.162 A5.4813 
N2248 X-227.909 Y-10.841 Z9.276 A6.5755 
N2249 X-227.674 Y-10.196 Z9.409 A7.6667 
N2250 X-227.425 Y-9.521 Z9.563 A8.7517 
N2251 X-227.160 Y-8.812 Z9.740 A9.8275 
N2252 X-226.878 Y-8.071 Z9.943 A10.8778 
N2253 X-226.579 Y-7.297 Z10.172 A11.8946 
N2254 X-226.264 Y-6.493 Z10.427 A12.8684 
N2255 X-225.933 Y-5.661 Z10.710 A13.7378 
N2256 X-225.589 Y-4.805 Z11.017 A14.4825 
N2257 X-225.233 Y-3.930 Z11.345 A15.0870 
N2258 X-224.869 Y-3.043 Z11.688 A15.5450 
N2259 X-224.502 Y-2.151 Z12.040 A15.8583 
N2260 X-224.134 Y-1.262 Z12.396 A16.0321 
N2261 X-223.769 Y-0.386 Z12.748 A16.0722 
N2262 X-223.408 Y0.468 Z13.092 A15.9827 
N2263 X-223.055 Y1.292 Z13.422 A15.7658 
N2264 X-222.714 Y2.081 Z13.734 A15.4221 
N2265 X-222.387 Y2.827 Z14.025 A14.9506 
N2266 X-222.079 Y3.526 Z14.290 A14.3519 
N2267 X-221.790 Y4.177 Z14.529 A13.6294 
N2268 X-221.521 Y4.778 Z14.741 A12.7909 
N2269 X-221.274 Y5.329 Z14.926 A11.8470 
N2270 X-221.049 Y5.830 Z15.086 A10.8551 
N2271 X-220.845 Y6.283 Z15.221 A9.8211 
N2272 X-220.661 Y6.692 Z15.335 A8.7515 
N2273 X-220.496 Y7.058 Z15.431 A7.6536 
N2274 X-220.348 Y7.388 Z15.510 A6.5455 
N2275 X-220.216 Y7.683 Z15.575 A5.4309 
N2276 X-220.098 Y7.948 Z15.629 A4.3121 
N2277 X-219.992 Y8.187 Z15.673 A3.1896 
N2278 X-219.897 Y8.403 Z15.709 A2.0634 
N2279 X-219.810 Y8.598 Z15.739 A0.9334 
N2280 X-219.731 Y8.776 Z15.763 A359.8004 
N2281 X-219.659 Y8.939 Z15.783 A358.6662 
N2282 X-219.593 Y9.089 Z15.798 A357.5327 
N2283 X-219.533 Y9.228 Z15.809 A356.4016 
N2284 X-219.477 Y9.357 Z15.818 A355.2744 
N2285 X-219.426 Y9.477 Z15.825 A354.1516 
N2286 X-219.378 Y9.589 Z15.829 A353.0332 
N2287 X-219.333 Y9.695 Z15.831 A351.9189 
N2288 X-219.292 Y9.794 Z15.831 A350.8079 
N2289 X-219.253 Y9.888 Z15.831 A349.6997 
N2290 X-219.216 Y9.977 Z15.828 A348.5935 
N2291 X-219.181 Y10.061 Z15.825 A347.4893 
N2292 X-219.148 Y10.141 Z15.821 A346.3871 
N2293 X-219.117 Y10.218 Z15.815 A345.2873 
N2294 X-219.088 Y10.290 Z15.809 A344.1908 
N2295 X-219.060 Y10.360 Z15.802 A343.0987 
N2296 X-219.034 Y10.426 Z15.794 A342.0125 
N2297 X-219.010 Y10.490 Z15.786 A340.9338 
N2298 X-218.986 Y10.551 Z15.777 A339.8641 
N2299 X-218.964 Y10.610 Z15.767 A338.8053 
N2300 X-218.944 Y10.666 Z15.757 A337.7587 
N2301 X-218.924 Y10.720 Z15.746 A336.7260 
N2302 X-218.906 Y10.771 Z15.735 A335.7085 
N2303 X-218.889 Y10.821 Z15.724 A334.7073 
N2304 X-218.873 Y10.869 Z15.712 A333.7235 
N2305 X-218.858 Y10.914 Z15.700 A332.7579 
N2306 X-218.844 Y10.958 Z15.688 A331.8111 
N2307 X-218.831 Y11.001 Z15.675 A330.8838 
N2308 X-218.819 Y11.041 Z15.663 A329.9761 
N2309 X-218.808 Y11.080 Z15.650 A329.0883 
N2310 X-218.797 Y11.118 Z15.637 A328.2203 
N2311 X-218.788 Y11.154 Z15.625 A327.3721 
N2312 X-218.779 Y11.189 Z15.612 A326.5433 
N2313 X-218.770 Y11.223 Z15.599 A325.7337 
N2314 X-218.762 Y11.255 Z15.586 A324.9426 
N2315 X-218.755 Y11.286 Z15.573 A324.1696 
N2316 X-218.748 Y11.317 Z15.560 A323.4141 
N2317 X-218.742 Y11.346 Z15.547 A322.6755 
N2318 X-218.736 Y11.374 Z15.534 A321.9529 
N2319 X-218.730 Y11.402 Z15.521 A321.2458 
N2320 X-218.725 Y11.428 Z15.509 A320.5533 
N2321 X-218.720 Y11.454 Z15.496 A319.8747 
N2322 X-218.716 Y11.479 Z15.483 A319.2092 
N2323 X-218.712 Y11.503 Z15.470 A318.5561 
N2324 X-218.708 Y11.527 Z15.457 A317.9144 
N2325 X-218.704 Y11.550 Z15.445 A317.2836 
N2326 X-218.701 Y11.573 Z15.432 A316.6627 
N2327 X-218.698 Y11.595 Z15.419 A316.0510 
N2328 X-218.695 Y11.616 Z15.406 A315.4477 
N2329 X-218.693 Y11.637 Z15.394 A314.8521 
N2330 X-218.690 Y11.658 Z15.381 A314.2635 
N2331 X-218.688 Y11.678 Z15.368 A313.6809 
N2332 X-218.686 Y11.698 Z15.355 A313.1039 
N2333 X-218.685 Y11.718 Z15.342 A312.5316 
N2334 X-218.683 Y11.738 Z15.329 A311.9634 
N2335 X-218.682 Y11.757 Z15.316 A311.3986 
N2336 X-218.681 Y11.776 Z15.302 A310.8367 
N2337 X-218.680 Y11.794 Z15.289 A310.2771 
N2338 X-218.679 Y11.813 Z15.275 A309.7192 
N2339 X-218.678 Y11.831 Z15.262 A309.1625 
N2340 X-218.678 Y11.849 Z15.248 A308.6064 
N2341 X-218.677 Y11.867 Z15.234 A308.0506 
N2342 X-218.677 Y11.885 Z15.220 A307.4945 
N2343 X-218.677 Y11.903 Z15.205 A306.9377 
N2344 X-218.677 Y11.921 Z15.191 A306.3798 
N2345 X-218.678 Y11.938 Z15.176 A305.8202 
N2346 X-218.678 Y11.956 Z15.161 A305.2587 
N2347 X-218.679 Y11.973 Z15.146 A304.6947 
N2348 X-218.680 Y11.991 Z15.130 A304.1277 
N2349 X-218.681 Y12.008 Z15.115 A303.5573 
N2350 X-218.682 Y12.025 Z15.099 A302.9830 
N2351 X-218.683 Y12.042 Z15.082 A302.4041 
N2352 X-218.684 Y12.060 Z15.066 A301.8200 
N2353 X-218.686 Y12.077 Z15.049 A301.2301 
N2354 X-218.688 Y12.094 Z15.031 A300.6337 
N2355 X-218.690 Y12.111 Z15.014 A300.0299 
N2356 X-218.692 Y12.129 Z14.995 A299.4179 
N2357 X-218.695 Y12.146 Z14.977 A298.7968 
N2358 X-218.698 Y12.164 Z14.958 A298.1657 
N2359 X-218.701 Y12.181 Z14.938 A297.5236 
N2360 X-218.704 Y12.199 Z14.917 A296.8693 
N2361 X-218.707 Y12.217 Z14.896 A296.2018 
N2362 X-218.711 Y12.235 Z14.874 A295.5201 
N2363 X-218.716 Y12.254 Z14.852 A294.8229 
