; PROGRAM NAME: A33333333
; ORDER       : A333333
; OPER. NAME  : Spiral Finish Transition:144
; OPER. DESCR.: Spiral Finish transition root/promienie przejsc wk
; OPER. TYPE  : finTransRoot
; GEO. OPTION : 7
; MACHINE     : HSTM_300_SIM840D_Py
;             : HSTM300/500 - HAMUEL: 5-axis milling machine-SIM840D Traori PP_Script
; CONTROL     : SINUMERIK 840D
; created:   2021-09-10 08:50:36.190525
;----------------------------------------
RAPORT("TA333333","Spiral Finish Transition:144")
N10 TRAFOOF
N11 D0
N12 G90 G94
N13 G0 G53 D0 Z550
N14 STOPRE
M9 ; chlodziwo wyl
; --- Spiral Finish Transition:144 - Spiral Finish transition root/promienie przejsc wk ---
N16 ;ToolChange : concat=None ,current_tdmid=None, PP.tdmId=940683
N17 TRAFOOF
N18 G0 G53 D0 X-200 Y150 Z550 B0
N19 T="7740683"
RAPORT("TA333333","ToolChangeStart 7740683")
N20 M6
RAPORT("TA333333","ToolChangeEnd")
N21 STOPRE
N22 MSG(" TLID=940683 D=5.035 R=3.0 Ang=10.0 Len=150.0 ")
N23 S8619 M03
N24 STOPRE
N25 TOL(0.001,1,1)
N26 G0 G53 A133.6628 B-34.1000
N27 TRAORI
N28 G54 D1
N29 D1 
N30 TRANS  X=R9 A=R25
STOPRE
E_ZDARZ=300013
;ACS_FINISH_UBG_B_CONST_BBK_ROOT=7740683
STOPRE
N31 ; DELTA A > 40.1
N32 TRAFOOF
N33 D1
N34 STOPRE
N35 G00 G54 Z236.000
N36 G01 A133.6628 F10000
N37 TRAORI
N38 G54 D1
N39 STOPRE
N40 TRANS  X=R9 A=R25
N41 G00 X-263.147 Y-67.564 Z-29.039 A133.6628 B-34.1000 
N42 M342 ; chlodziwo woda
N43 X-235.115 Y-37.612 Z-0.454 
N44 G01 X-235.137 Y-35.938 Z2.189 F861 
N45 X-235.201 Y-35.162 Z5.219 
N46 X-235.300 Y-35.360 Z8.340 
N47 X-235.424 Y-36.512 Z11.246 
N48 X-235.563 Y-38.507 Z13.653 
N49 X-235.564 Y-38.558 Z13.690 A132.0098 
N50 X-235.565 Y-38.609 Z13.727 A129.4829 
N51 X-235.566 Y-38.662 Z13.764 A126.1300 
N52 X-235.565 Y-38.709 Z13.801 A122.7164 
N53 X-235.565 Y-38.750 Z13.837 A119.3054 
N54 X-235.564 Y-38.788 Z13.872 A115.9200 
N55 X-235.562 Y-38.821 Z13.906 A112.6972 
N56 X-235.561 Y-38.849 Z13.939 A109.6753 
N57 X-235.560 Y-38.874 Z13.970 A106.8641 
N58 X-235.559 Y-38.895 Z13.999 A104.2532 
N59 X-235.557 Y-38.914 Z14.028 A101.8323 
N60 X-235.556 Y-38.930 Z14.055 A99.5794 
N61 X-235.555 Y-38.944 Z14.081 A97.4064 
N62 X-235.554 Y-38.957 Z14.107 A95.3057 
N63 X-235.552 Y-38.969 Z14.133 A93.2685 
N64 X-235.551 Y-38.980 Z14.159 A91.2877 
N65 X-235.550 Y-38.989 Z14.185 A89.3326 
N66 X-235.548 Y-38.998 Z14.211 A87.4000 
N67 X-235.546 Y-39.005 Z14.237 A85.4874 
N68 X-235.545 Y-39.012 Z14.264 A83.5916 
N69 X-235.543 Y-39.017 Z14.290 A81.7102 
N70 X-235.541 Y-39.022 Z14.317 A79.8408 
N71 X-235.539 Y-39.026 Z14.344 A77.9812 
N72 X-235.537 Y-39.029 Z14.370 A76.1293 
N73 X-235.534 Y-39.031 Z14.397 A74.2830 
N74 X-235.532 Y-39.032 Z14.425 A72.4408 
N75 X-235.530 Y-39.032 Z14.452 A70.6009 
N76 X-235.527 Y-39.031 Z14.479 A68.7620 
N77 X-235.525 Y-39.030 Z14.506 A66.9228 
N78 X-235.522 Y-39.027 Z14.533 A65.0820 
N79 X-235.519 Y-39.023 Z14.561 A63.2391 
N80 X-235.516 Y-39.019 Z14.588 A61.3932 
N81 X-235.513 Y-39.014 Z14.615 A59.5436 
N82 X-235.510 Y-39.007 Z14.642 A57.6902 
N83 X-235.507 Y-39.000 Z14.669 A55.8325 
N84 X-235.504 Y-38.992 Z14.695 A53.9704 
N85 X-235.501 Y-38.983 Z14.722 A52.1038 
N86 X-235.498 Y-38.974 Z14.748 A50.2329 
N87 X-235.495 Y-38.963 Z14.774 A48.3575 
N88 X-235.492 Y-38.952 Z14.799 A46.4778 
N89 X-235.488 Y-38.939 Z14.824 A44.5939 
N90 X-235.485 Y-38.926 Z14.849 A42.7057 
N91 X-235.482 Y-38.912 Z14.873 A40.8134 
N92 X-235.479 Y-38.898 Z14.897 A38.9167 
N93 X-235.475 Y-38.882 Z14.920 A37.0154 
N94 X-235.472 Y-38.866 Z14.943 A35.1092 
N95 X-235.469 Y-38.850 Z14.965 A33.1975 
N96 X-235.466 Y-38.832 Z14.986 A31.2792 
N97 X-235.463 Y-38.814 Z15.007 A29.3537 
N98 X-235.460 Y-38.795 Z15.028 A27.4192 
N99 X-235.457 Y-38.776 Z15.047 A25.4741 
N100 X-235.454 Y-38.756 Z15.066 A23.5168 
N101 X-235.451 Y-38.735 Z15.085 A21.5447 
N102 X-235.448 Y-38.714 Z15.103 A19.5553 
N103 X-235.445 Y-38.692 Z15.120 A17.5461 
N104 X-235.443 Y-38.669 Z15.136 A15.5136 
N105 X-235.440 Y-38.646 Z15.152 A13.4548 
N106 X-235.437 Y-38.622 Z15.167 A11.3662 
N107 X-235.435 Y-38.597 Z15.182 A9.2444 
N108 X-235.432 Y-38.571 Z15.196 A7.0857 
N109 X-235.429 Y-38.544 Z15.209 A4.8493 
N110 X-235.426 Y-38.516 Z15.222 A2.5268 
N111 X-235.424 Y-38.486 Z15.234 A0.1114 
N112 X-235.421 Y-38.453 Z15.245 A357.5075 
N113 X-235.418 Y-38.416 Z15.256 A354.6940 
N114 X-235.415 Y-38.376 Z15.266 A351.6541 
N115 X-235.412 Y-38.332 Z15.274 A348.3818 
N116 X-235.408 Y-38.284 Z15.280 A345.0526 
N117 X-235.404 Y-38.233 Z15.282 A341.6849 
N118 X-235.399 Y-38.178 Z15.280 A338.3050 
N119 X-235.394 Y-38.120 Z15.273 A335.0213 
N120 X-235.388 Y-38.060 Z15.260 A332.1159 
N121 X-235.382 Y-37.999 Z15.242 A329.6819 
N122 X-235.375 Y-37.938 Z15.218 A328.0768 
N123 X-235.367 Y-37.876 Z15.189 A327.2080 
N124 X-235.357 Y-37.807 Z15.153 A326.6969 
N125 X-235.346 Y-37.728 Z15.110 A326.4838 
N126 X-235.332 Y-37.636 Z15.059 A326.3956 
N127 X-235.316 Y-37.528 Z15.000 A326.4028 
N128 X-235.298 Y-37.404 Z14.931 A326.4473 
N129 X-235.276 Y-37.261 Z14.852 A326.5211 
N130 X-235.252 Y-37.099 Z14.763 A326.6195 
N131 X-235.224 Y-36.917 Z14.663 A326.7409 
N132 X-235.193 Y-36.715 Z14.553 A326.8858 
N133 X-235.159 Y-36.494 Z14.433 A327.0432 
N134 X-235.122 Y-36.253 Z14.304 A327.2137 
N135 X-235.082 Y-35.995 Z14.166 A327.3977 
N136 X-235.039 Y-35.720 Z14.021 A327.5947 
N137 X-234.993 Y-35.431 Z13.869 A327.8048 
N138 X-234.945 Y-35.128 Z13.711 A328.0278 
N139 X-234.894 Y-34.813 Z13.549 A328.2636 
N140 X-234.842 Y-34.489 Z13.384 A328.5122 
N141 X-234.787 Y-34.157 Z13.216 A328.7737 
N142 X-234.731 Y-33.818 Z13.047 A329.0483 
N143 X-234.674 Y-33.475 Z12.878 A329.3360 
N144 X-234.615 Y-33.127 Z12.709 A329.6365 
N145 X-234.555 Y-32.777 Z12.540 A329.9497 
N146 X-234.494 Y-32.425 Z12.374 A330.2749 
N147 X-234.432 Y-32.072 Z12.210 A330.6114 
N148 X-234.370 Y-31.719 Z12.047 A330.9585 
N149 X-234.306 Y-31.365 Z11.888 A331.3152 
N150 X-234.242 Y-31.012 Z11.731 A331.6808 
N151 X-234.178 Y-30.659 Z11.578 A332.0548 
N152 X-234.112 Y-30.307 Z11.427 A332.4365 
N153 X-234.046 Y-29.956 Z11.279 A332.8257 
N154 X-233.979 Y-29.605 Z11.135 A333.2223 
N155 X-233.912 Y-29.256 Z10.994 A333.6261 
N156 X-233.844 Y-28.907 Z10.856 A334.0371 
N157 X-233.776 Y-28.560 Z10.721 A334.4554 
N158 X-233.706 Y-28.213 Z10.589 A334.8811 
N159 X-233.637 Y-27.868 Z10.461 A335.3143 
N160 X-233.566 Y-27.523 Z10.336 A335.7551 
N161 X-233.495 Y-27.180 Z10.214 A336.2035 
N162 X-233.424 Y-26.837 Z10.096 A336.6597 
N163 X-233.352 Y-26.496 Z9.981 A337.1236 
N164 X-233.279 Y-26.156 Z9.870 A337.5954 
N165 X-233.205 Y-25.817 Z9.762 A338.0750 
N166 X-233.131 Y-25.480 Z9.657 A338.5625 
N167 X-233.056 Y-25.143 Z9.556 A339.0579 
N168 X-232.981 Y-24.808 Z9.458 A339.5610 
N169 X-232.905 Y-24.474 Z9.364 A340.0720 
N170 X-232.828 Y-24.141 Z9.274 A340.5906 
N171 X-232.751 Y-23.810 Z9.187 A341.1168 
N172 X-232.673 Y-23.479 Z9.103 A341.6506 
N173 X-232.595 Y-23.150 Z9.023 A342.1918 
N174 X-232.516 Y-22.822 Z8.946 A342.7403 
N175 X-232.436 Y-22.495 Z8.873 A343.2959 
N176 X-232.356 Y-22.169 Z8.804 A343.8585 
N177 X-232.274 Y-21.844 Z8.738 A344.4280 
N178 X-232.193 Y-21.521 Z8.676 A345.0041 
N179 X-232.110 Y-21.198 Z8.617 A345.5868 
N180 X-232.027 Y-20.877 Z8.562 A346.1756 
N181 X-231.943 Y-20.557 Z8.510 A346.7706 
N182 X-231.858 Y-20.237 Z8.462 A347.3713 
N183 X-231.773 Y-19.919 Z8.417 A347.9776 
N184 X-231.687 Y-19.601 Z8.376 A348.5891 
N185 X-231.600 Y-19.284 Z8.339 A349.2057 
N186 X-231.513 Y-18.968 Z8.305 A349.8270 
N187 X-231.425 Y-18.653 Z8.274 A350.4527 
N188 X-231.336 Y-18.339 Z8.247 A351.0825 
N189 X-231.246 Y-18.025 Z8.224 A351.7160 
N190 X-231.155 Y-17.712 Z8.204 A352.3529 
N191 X-231.064 Y-17.399 Z8.188 A352.9928 
N192 X-230.971 Y-17.087 Z8.175 A353.6353 
N193 X-230.878 Y-16.775 Z8.166 A354.2801 
N194 X-230.784 Y-16.463 Z8.160 A354.9266 
N195 X-230.689 Y-16.152 Z8.158 A355.5745 
N196 X-230.594 Y-15.841 Z8.159 A356.2234 
N197 X-230.497 Y-15.530 Z8.164 A356.8726 
N198 X-230.399 Y-15.219 Z8.172 A357.5219 
N199 X-230.300 Y-14.909 Z8.184 A358.1707 
N200 X-230.201 Y-14.598 Z8.200 A358.8186 
N201 X-230.100 Y-14.286 Z8.219 A359.4649 
N202 X-229.998 Y-13.975 Z8.241 A0.1092 
N203 X-229.895 Y-13.663 Z8.268 A0.7509 
N204 X-229.791 Y-13.351 Z8.297 A1.3895 
N205 X-229.686 Y-13.038 Z8.331 A2.0244 
N206 X-229.580 Y-12.725 Z8.368 A2.6550 
N207 X-229.472 Y-12.410 Z8.409 A3.2807 
N208 X-229.363 Y-12.095 Z8.453 A3.9010 
N209 X-229.253 Y-11.780 Z8.501 A4.5152 
N210 X-229.142 Y-11.463 Z8.553 A5.1228 
N211 X-229.029 Y-11.145 Z8.609 A5.7231 
N212 X-228.916 Y-10.826 Z8.668 A6.3157 
N213 X-228.800 Y-10.506 Z8.731 A6.9000 
N214 X-228.684 Y-10.184 Z8.797 A7.4756 
N215 X-228.566 Y-9.861 Z8.868 A8.0419 
N216 X-228.446 Y-9.536 Z8.942 A8.5986 
N217 X-228.325 Y-9.210 Z9.020 A9.1454 
N218 X-228.203 Y-8.882 Z9.101 A9.6819 
N219 X-228.079 Y-8.552 Z9.187 A10.2077 
N220 X-227.953 Y-8.220 Z9.276 A10.7224 
N221 X-227.826 Y-7.885 Z9.370 A11.2253 
N222 X-227.696 Y-7.549 Z9.467 A11.7159 
N223 X-227.565 Y-7.209 Z9.568 A12.1929 
N224 X-227.433 Y-6.867 Z9.673 A12.6552 
N225 X-227.298 Y-6.522 Z9.783 A13.1013 
N226 X-227.161 Y-6.174 Z9.897 A13.5294 
N227 X-227.022 Y-5.822 Z10.015 A13.9375 
N228 X-226.881 Y-5.467 Z10.137 A14.3235 
N229 X-226.738 Y-5.108 Z10.264 A14.6853 
N230 X-226.592 Y-4.745 Z10.395 A15.0213 
N231 X-226.445 Y-4.378 Z10.529 A15.3296 
N232 X-226.295 Y-4.007 Z10.668 A15.6093 
N233 X-226.143 Y-3.632 Z10.811 A15.8594 
N234 X-225.989 Y-3.253 Z10.956 A16.0797 
N235 X-225.833 Y-2.870 Z11.105 A16.2703 
N236 X-225.676 Y-2.484 Z11.257 A16.4314 
N237 X-225.517 Y-2.095 Z11.411 A16.5636 
N238 X-225.357 Y-1.703 Z11.567 A16.6672 
N239 X-225.196 Y-1.309 Z11.725 A16.7429 
N240 X-225.035 Y-0.914 Z11.883 A16.7908 
N241 X-224.873 Y-0.519 Z12.043 A16.8112 
N242 X-224.712 Y-0.123 Z12.202 A16.8039 
N243 X-224.551 Y0.271 Z12.361 A16.7687 
N244 X-224.391 Y0.664 Z12.519 A16.7054 
N245 X-224.232 Y1.054 Z12.675 A16.6131 
N246 X-224.075 Y1.440 Z12.830 A16.4907 
N247 X-223.920 Y1.823 Z12.982 A16.3374 
N248 X-223.767 Y2.201 Z13.132 A16.1523 
N249 X-223.617 Y2.573 Z13.278 A15.9330 
N250 X-223.470 Y2.940 Z13.420 A15.6782 
N251 X-223.326 Y3.300 Z13.558 A15.3864 
N252 X-223.186 Y3.653 Z13.692 A15.0565 
N253 X-223.049 Y3.998 Z13.820 A14.6868 
N254 X-222.916 Y4.336 Z13.944 A14.2764 
N255 X-222.787 Y4.666 Z14.062 A13.8245 
N256 X-222.663 Y4.988 Z14.174 A13.3320 
N257 X-222.543 Y5.301 Z14.281 A12.7987 
N258 X-222.427 Y5.605 Z14.381 A12.2241 
N259 X-222.315 Y5.901 Z14.475 A11.6094 
N260 X-222.209 Y6.188 Z14.563 A10.9552 
N261 X-222.106 Y6.465 Z14.645 A10.2605 
N262 X-222.009 Y6.733 Z14.721 A9.5256 
N263 X-221.915 Y6.992 Z14.791 A8.7510 
N264 X-221.827 Y7.241 Z14.854 A7.9363 
N265 X-221.743 Y7.481 Z14.912 A7.0826 
N266 X-221.664 Y7.711 Z14.964 A6.1914 
N267 X-221.589 Y7.931 Z15.011 A5.2628 
N268 X-221.519 Y8.142 Z15.052 A4.2960 
N269 X-221.453 Y8.343 Z15.088 A3.2895 
N270 X-221.392 Y8.535 Z15.120 A2.2397 
N271 X-221.334 Y8.717 Z15.147 A1.1441 
N272 X-221.281 Y8.890 Z15.169 A0.0009 
N273 X-221.232 Y9.055 Z15.187 A358.8107 
N274 X-221.186 Y9.210 Z15.202 A357.5750 
N275 X-221.144 Y9.358 Z15.213 A356.2972 
N276 X-221.106 Y9.497 Z15.220 A354.9801 
N277 X-221.071 Y9.628 Z15.224 A353.6253 
N278 X-221.039 Y9.752 Z15.225 A352.2340 
N279 X-221.010 Y9.869 Z15.224 A350.8054 
N280 X-220.983 Y9.979 Z15.221 A349.3384 
N281 X-220.959 Y10.083 Z15.215 A347.8325 
N282 X-220.937 Y10.181 Z15.208 A346.2879 
N283 X-220.918 Y10.274 Z15.199 A344.7049 
N284 X-220.900 Y10.362 Z15.188 A343.0859 
N285 X-220.884 Y10.446 Z15.176 A341.4344 
N286 X-220.870 Y10.525 Z15.162 A339.7547 
N287 X-220.857 Y10.601 Z15.147 A338.0518 
N288 X-220.845 Y10.673 Z15.131 A336.3303 
N289 X-220.835 Y10.742 Z15.114 A334.5949 
N290 X-220.826 Y10.807 Z15.095 A332.8498 
N291 X-220.817 Y10.870 Z15.075 A331.0986 
N292 X-220.810 Y10.931 Z15.055 A329.3444 
N293 X-220.804 Y10.989 Z15.033 A327.5894 
N294 X-220.798 Y11.045 Z15.010 A325.8353 
N295 X-220.793 Y11.099 Z14.986 A324.0832 
N296 X-220.788 Y11.151 Z14.962 A322.3335 
N297 X-220.784 Y11.202 Z14.936 A320.5862 
N298 X-220.781 Y11.251 Z14.909 A318.8410 
N299 X-220.778 Y11.298 Z14.882 A317.0972 
N300 X-220.776 Y11.345 Z14.853 A315.3539 
N301 X-220.774 Y11.390 Z14.823 A313.6103 
N302 X-220.772 Y11.434 Z14.792 A311.8652 
N303 X-220.771 Y11.477 Z14.760 A310.1177 
N304 X-220.771 Y11.519 Z14.726 A308.3666 
N305 X-220.770 Y11.560 Z14.691 A306.6110 
N306 X-220.771 Y11.600 Z14.655 A304.8502 
N307 X-220.772 Y11.639 Z14.617 A303.0836 
N308 X-220.773 Y11.677 Z14.578 A301.3110 
N309 X-220.774 Y11.715 Z14.537 A299.5327 
N310 X-220.777 Y11.752 Z14.494 A297.7494 
N311 X-220.779 Y11.788 Z14.449 A295.9623 
N312 X-220.783 Y11.823 Z14.401 A294.1733 
N313 X-220.787 Y11.857 Z14.351 A292.3850 
N314 X-220.792 Y11.891 Z14.298 A290.6006 
N315 X-220.797 Y11.924 Z14.243 A288.8242 
N316 X-220.804 Y11.956 Z14.184 A287.0605 
N317 X-220.812 Y11.986 Z14.122 A285.3148 
N318 X-220.820 Y12.016 Z14.055 A283.5929 
N319 X-220.830 Y12.044 Z13.985 A281.9008 
N320 X-220.842 Y12.072 Z13.910 A280.2442 
N321 X-220.855 Y12.097 Z13.830 A278.6282 
N322 X-220.869 Y12.122 Z13.745 A277.0567 
N323 X-220.886 Y12.144 Z13.654 A275.5319 
N324 X-220.905 Y12.165 Z13.558 A274.0549 
N325 X-220.925 Y12.184 Z13.455 A272.6247 
N326 X-220.949 Y12.201 Z13.345 A271.2388 
N327 X-220.974 Y12.216 Z13.227 A269.8941 
N328 X-221.003 Y12.228 Z13.102 A268.5889 
N329 X-221.034 Y12.238 Z12.969 A267.3208 
N330 X-221.068 Y12.245 Z12.828 A266.0893 
N331 X-221.106 Y12.248 Z12.679 A264.8957 
N332 X-221.147 Y12.248 Z12.521 A263.7409 
N333 X-221.191 Y12.245 Z12.354 A262.6264 
N334 X-221.239 Y12.237 Z12.179 A261.5517 
N335 X-221.290 Y12.226 Z11.995 A260.5151 
N336 X-221.345 Y12.210 Z11.803 A259.5132 
N337 X-221.404 Y12.190 Z11.602 A258.5416 
N338 X-221.466 Y12.166 Z11.393 A257.5972 
N339 X-221.531 Y12.137 Z11.176 A256.6763 
N340 X-221.600 Y12.103 Z10.952 A255.7779 
N341 X-221.673 Y12.065 Z10.720 A254.9016 
N342 X-221.749 Y12.021 Z10.481 A254.0471 
N343 X-221.828 Y11.972 Z10.236 A253.2138 
N344 X-221.910 Y11.918 Z9.985 A252.4018 
N345 X-221.995 Y11.859 Z9.729 A251.6097 
N346 X-222.084 Y11.795 Z9.467 A250.8357 
N347 X-222.174 Y11.726 Z9.201 A250.0792 
N348 X-222.268 Y11.652 Z8.931 A249.3393 
N349 X-222.364 Y11.574 Z8.657 A248.6141 
N350 X-222.462 Y11.490 Z8.380 A247.9026 
N351 X-222.563 Y11.402 Z8.100 A247.2041 
N352 X-222.665 Y11.310 Z7.818 A246.5174 
N353 X-222.769 Y11.213 Z7.534 A245.8403 
N354 X-222.875 Y11.112 Z7.248 A245.1713 
N355 X-222.982 Y11.008 Z6.962 A244.5087 
N356 X-223.091 Y10.899 Z6.675 A243.8506 
N357 X-223.200 Y10.786 Z6.387 A243.1953 
N358 X-223.311 Y10.670 Z6.100 A242.5412 
N359 X-223.423 Y10.550 Z5.813 A241.8865 
N360 X-223.535 Y10.427 Z5.527 A241.2301 
N361 X-223.649 Y10.301 Z5.242 A240.5711 
N362 X-223.762 Y10.171 Z4.958 A239.9093 
N363 X-223.877 Y10.038 Z4.676 A239.2440 
N364 X-223.991 Y9.902 Z4.396 A238.5748 
N365 X-224.106 Y9.763 Z4.118 A237.9013 
N366 X-224.221 Y9.621 Z3.842 A237.2235 
N367 X-224.336 Y9.476 Z3.569 A236.5413 
N368 X-224.452 Y9.328 Z3.298 A235.8541 
N369 X-224.567 Y9.178 Z3.031 A235.1615 
N370 X-224.682 Y9.026 Z2.766 A234.4627 
N371 X-224.797 Y8.871 Z2.504 A233.7573 
N372 X-224.912 Y8.713 Z2.246 A233.0444 
N373 X-225.026 Y8.554 Z1.991 A232.3234 
N374 X-225.140 Y8.392 Z1.739 A231.5937 
N375 X-225.254 Y8.228 Z1.491 A230.8547 
N376 X-225.368 Y8.062 Z1.246 A230.1060 
N377 X-225.480 Y7.894 Z1.006 A229.3473 
N378 X-225.593 Y7.724 Z0.769 A228.5782 
N379 X-225.704 Y7.552 Z0.536 A227.7987 
N380 X-225.816 Y7.378 Z0.307 A227.0087 
N381 X-225.926 Y7.202 Z0.082 A226.2080 
N382 X-226.036 Y7.025 Z-0.138 A225.3969 
N383 X-226.145 Y6.845 Z-0.355 A224.5752 
N384 X-226.254 Y6.665 Z-0.567 A223.7432 
N385 X-226.362 Y6.482 Z-0.775 A222.9009 
N386 X-226.469 Y6.298 Z-0.979 A222.0484 
N387 X-226.575 Y6.112 Z-1.179 A221.1859 
N388 X-226.681 Y5.925 Z-1.374 A220.3135 
N389 X-226.786 Y5.736 Z-1.565 A219.4314 
N390 X-226.890 Y5.545 Z-1.752 A218.5398 
N391 X-226.993 Y5.353 Z-1.934 A217.6388 
N392 X-227.096 Y5.160 Z-2.113 A216.7286 
N393 X-227.198 Y4.965 Z-2.286 A215.8095 
N394 X-227.298 Y4.769 Z-2.456 A214.8817 
N395 X-227.399 Y4.572 Z-2.621 A213.9454 
N396 X-227.498 Y4.373 Z-2.782 A213.0010 
N397 X-227.596 Y4.172 Z-2.939 A212.0488 
N398 X-227.694 Y3.971 Z-3.091 A211.0891 
N399 X-227.791 Y3.768 Z-3.240 A210.1224 
N400 X-227.887 Y3.563 Z-3.383 A209.1489 
N401 X-227.983 Y3.358 Z-3.523 A208.1692 
N402 X-228.077 Y3.151 Z-3.659 A207.1836 
N403 X-228.171 Y2.943 Z-3.790 A206.1925 
N404 X-228.264 Y2.733 Z-3.917 A205.1964 
N405 X-228.356 Y2.522 Z-4.040 A204.1956 
N406 X-228.448 Y2.310 Z-4.159 A203.1908 
N407 X-228.539 Y2.096 Z-4.274 A202.1823 
N408 X-228.629 Y1.881 Z-4.384 A201.1706 
N409 X-228.718 Y1.665 Z-4.491 A200.1562 
N410 X-228.806 Y1.447 Z-4.593 A199.1395 
N411 X-228.894 Y1.228 Z-4.691 A198.1211 
N412 X-228.982 Y1.008 Z-4.786 A197.1016 
N413 X-229.068 Y0.786 Z-4.876 A196.0813 
N414 X-229.154 Y0.563 Z-4.962 A195.0610 
N415 X-229.239 Y0.338 Z-5.044 A194.0410 
N416 X-229.324 Y0.112 Z-5.123 A193.0220 
N417 X-229.408 Y-0.115 Z-5.197 A192.0044 
N418 X-229.491 Y-0.345 Z-5.267 A190.9887 
N419 X-229.574 Y-0.575 Z-5.333 A189.9754 
N420 X-229.656 Y-0.807 Z-5.395 A188.9651 
N421 X-229.737 Y-1.041 Z-5.453 A187.9581 
N422 X-229.818 Y-1.277 Z-5.507 A186.9549 
N423 X-229.899 Y-1.514 Z-5.558 A185.9560 
N424 X-229.979 Y-1.752 Z-5.604 A184.9619 
N425 X-230.058 Y-1.993 Z-5.646 A183.9730 
N426 X-230.137 Y-2.235 Z-5.684 A182.9897 
N427 X-230.215 Y-2.479 Z-5.718 A182.0126 
N428 X-230.293 Y-2.725 Z-5.748 A181.0420 
N429 X-230.370 Y-2.972 Z-5.774 A180.0784 
N430 X-230.446 Y-3.221 Z-5.796 A179.1222 
N431 X-230.523 Y-3.472 Z-5.814 A178.1737 
N432 X-230.598 Y-3.725 Z-5.828 A177.2335 
N433 X-230.673 Y-3.980 Z-5.838 A176.3018 
N434 X-230.748 Y-4.237 Z-5.843 A175.3790 
N435 X-230.822 Y-4.496 Z-5.844 A174.4655 
N436 X-230.896 Y-4.757 Z-5.842 A173.5615 
N437 X-230.969 Y-5.020 Z-5.834 A172.6674 
N438 X-231.042 Y-5.284 Z-5.823 A171.7835 
N439 X-231.114 Y-5.551 Z-5.808 A170.9100 
N440 X-231.186 Y-5.820 Z-5.788 A170.0472 
N441 X-231.257 Y-6.091 Z-5.764 A169.1954 
N442 X-231.328 Y-6.364 Z-5.735 A168.3548 
N443 X-231.398 Y-6.639 Z-5.703 A167.5257 
N444 X-231.468 Y-6.917 Z-5.666 A166.7083 
N445 X-231.538 Y-7.196 Z-5.624 A165.9028 
N446 X-231.606 Y-7.477 Z-5.578 A165.1094 
N447 X-231.675 Y-7.761 Z-5.528 A164.3283 
N448 X-231.743 Y-8.047 Z-5.473 A163.5596 
N449 X-231.810 Y-8.334 Z-5.414 A162.8035 
N450 X-231.877 Y-8.624 Z-5.351 A162.0601 
N451 X-231.943 Y-8.916 Z-5.282 A161.3295 
N452 X-232.009 Y-9.210 Z-5.210 A160.6116 
N453 X-232.074 Y-9.506 Z-5.133 A159.9066 
N454 X-232.138 Y-9.804 Z-5.052 A159.2143 
N455 X-232.202 Y-10.105 Z-4.966 A158.5347 
N456 X-232.266 Y-10.407 Z-4.875 A157.8678 
N457 X-232.329 Y-10.711 Z-4.780 A157.2134 
N458 X-232.391 Y-11.016 Z-4.681 A156.5715 
N459 X-232.453 Y-11.324 Z-4.577 A155.9417 
N460 X-232.514 Y-11.634 Z-4.469 A155.3242 
N461 X-232.575 Y-11.945 Z-4.357 A154.7186 
N462 X-232.635 Y-12.258 Z-4.240 A154.1250 
N463 X-232.694 Y-12.573 Z-4.119 A153.5432 
N464 X-232.753 Y-12.889 Z-3.993 A152.9731 
N465 X-232.811 Y-13.207 Z-3.863 A152.4146 
N466 X-232.868 Y-13.527 Z-3.729 A151.8678 
N467 X-232.925 Y-13.848 Z-3.590 A151.3324 
N468 X-232.981 Y-14.171 Z-3.448 A150.8085 
N469 X-233.036 Y-14.495 Z-3.301 A150.2959 
N470 X-233.091 Y-14.820 Z-3.150 A149.7946 
N471 X-233.145 Y-15.147 Z-2.994 A149.3045 
N472 X-233.199 Y-15.476 Z-2.835 A148.8254 
N473 X-233.251 Y-15.805 Z-2.672 A148.3571 
N474 X-233.303 Y-16.136 Z-2.504 A147.8996 
N475 X-233.355 Y-16.468 Z-2.333 A147.4527 
N476 X-233.406 Y-16.802 Z-2.158 A147.0163 
N477 X-233.456 Y-17.136 Z-1.978 A146.5901 
N478 X-233.505 Y-17.472 Z-1.795 A146.1740 
N479 X-233.554 Y-17.809 Z-1.609 A145.7679 
N480 X-233.602 Y-18.147 Z-1.418 A145.3716 
N481 X-233.650 Y-18.486 Z-1.224 A144.9850 
N482 X-233.697 Y-18.826 Z-1.026 A144.6080 
N483 X-233.743 Y-19.167 Z-0.825 A144.2405 
N484 X-233.788 Y-19.509 Z-0.620 A143.8823 
N485 X-233.833 Y-19.852 Z-0.411 A143.5336 
N486 X-233.878 Y-20.196 Z-0.199 A143.1941 
N487 X-233.921 Y-20.541 Z0.016 A142.8640 
N488 X-233.964 Y-20.887 Z0.235 A142.5430 
N489 X-234.007 Y-21.234 Z0.457 A142.2313 
N490 X-234.049 Y-21.582 Z0.682 A141.9287 
N491 X-234.090 Y-21.930 Z0.911 A141.6351 
N492 X-234.131 Y-22.280 Z1.143 A141.3505 
N493 X-234.171 Y-22.630 Z1.377 A141.0747 
N494 X-234.211 Y-22.982 Z1.615 A140.8075 
N495 X-234.250 Y-23.334 Z1.856 A140.5488 
N496 X-234.289 Y-23.687 Z2.099 A140.2983 
N497 X-234.327 Y-24.040 Z2.346 A140.0558 
N498 X-234.365 Y-24.395 Z2.595 A139.8211 
N499 X-234.402 Y-24.750 Z2.846 A139.5941 
N500 X-234.439 Y-25.106 Z3.101 A139.3745 
N501 X-234.475 Y-25.463 Z3.358 A139.1621 
N502 X-234.511 Y-25.821 Z3.617 A138.9570 
N503 X-234.546 Y-26.179 Z3.879 A138.7588 
N504 X-234.581 Y-26.538 Z4.144 A138.5675 
N505 X-234.616 Y-26.898 Z4.411 A138.3830 
N506 X-234.650 Y-27.258 Z4.680 A138.2051 
N507 X-234.684 Y-27.619 Z4.951 A138.0339 
N508 X-234.717 Y-27.981 Z5.224 A137.8691 
N509 X-234.750 Y-28.343 Z5.500 A137.7108 
N510 X-234.783 Y-28.706 Z5.778 A137.5589 
N511 X-234.815 Y-29.070 Z6.058 A137.4133 
N512 X-234.847 Y-29.435 Z6.339 A137.2740 
N513 X-234.879 Y-29.800 Z6.623 A137.1409 
N514 X-234.910 Y-30.165 Z6.909 A137.0142 
N515 X-234.941 Y-30.532 Z7.196 A136.8936 
N516 X-234.972 Y-30.899 Z7.485 A136.7792 
N517 X-235.003 Y-31.266 Z7.775 A136.6710 
N518 X-235.033 Y-31.633 Z8.067 A136.5687 
N519 X-235.063 Y-32.000 Z8.359 A136.4724 
N520 X-235.093 Y-32.367 Z8.653 A136.3819 
N521 X-235.122 Y-32.733 Z8.946 A136.2971 
N522 X-235.151 Y-33.098 Z9.240 A136.2180 
N523 X-235.180 Y-33.461 Z9.532 A136.1442 
N524 X-235.208 Y-33.821 Z9.823 A136.0756 
N525 X-235.236 Y-34.177 Z10.112 A136.0121 
N526 X-235.263 Y-34.527 Z10.396 A135.9532 
N527 X-235.290 Y-34.871 Z10.676 A135.8987 
N528 X-235.316 Y-35.207 Z10.950 A135.8482 
N529 X-235.341 Y-35.533 Z11.216 A135.8012 
N530 X-235.365 Y-35.847 Z11.472 A135.7572 
N531 X-235.388 Y-36.148 Z11.718 A135.7158 
N532 X-235.409 Y-36.434 Z11.952 A135.6765 
N533 X-235.430 Y-36.702 Z12.173 A135.6387 
N534 X-235.449 Y-36.953 Z12.378 A135.6019 
N535 X-235.466 Y-37.184 Z12.568 A135.5654 
N536 X-235.482 Y-37.396 Z12.742 A135.5285 
N537 X-235.496 Y-37.586 Z12.899 A135.4900 
N538 X-235.509 Y-37.757 Z13.039 A135.4487 
N539 X-235.520 Y-37.907 Z13.163 A135.4031 
N540 X-235.530 Y-38.038 Z13.270 A135.3510 
N541 X-235.538 Y-38.151 Z13.363 A135.2902 
N542 X-235.545 Y-38.247 Z13.442 A135.2182 
N543 X-235.551 Y-38.328 Z13.509 A135.1332 
N544 X-235.556 Y-38.396 Z13.564 A134.9988 
N545 X-235.560 Y-38.454 Z13.611 A134.6123 
N546 X-235.563 Y-38.507 Z13.653 A133.6628 
N547 X-235.564 Y-38.558 Z13.690 A132.0098 
N548 X-235.565 Y-38.609 Z13.727 A129.4829 
N549 X-235.566 Y-38.662 Z13.764 A126.1300 
N550 X-235.565 Y-38.709 Z13.801 A122.7164 
N551 X-235.565 Y-38.750 Z13.837 A119.3054 
N552 X-235.564 Y-38.788 Z13.872 A115.9200 
N553 X-235.562 Y-38.821 Z13.906 A112.6972 
N554 X-235.561 Y-38.849 Z13.939 A109.6753 
N555 X-235.560 Y-38.874 Z13.970 A106.8641 
N556 X-235.559 Y-38.895 Z13.999 A104.2532 
N557 X-235.557 Y-38.914 Z14.028 A101.8323 
N558 X-235.556 Y-38.930 Z14.055 A99.5794 
N559 X-235.555 Y-38.944 Z14.081 A97.4064 
N560 X-235.554 Y-38.957 Z14.107 A95.3057 
N561 X-235.552 Y-38.969 Z14.133 A93.2685 
N562 X-235.551 Y-38.980 Z14.159 A91.2877 
N563 X-235.550 Y-38.989 Z14.185 A89.3326 
N564 X-235.548 Y-38.998 Z14.211 A87.4000 
N565 X-235.546 Y-39.005 Z14.237 A85.4874 
N566 X-235.545 Y-39.012 Z14.264 A83.5916 
N567 X-235.543 Y-39.017 Z14.290 A81.7102 
N568 X-235.541 Y-39.022 Z14.317 A79.8408 
N569 X-235.539 Y-39.026 Z14.344 A77.9812 
N570 X-235.537 Y-39.029 Z14.370 A76.1293 
N571 X-235.534 Y-39.031 Z14.397 A74.2830 
N572 X-235.532 Y-39.032 Z14.425 A72.4408 
N573 X-235.530 Y-39.032 Z14.452 A70.6009 
N574 X-235.527 Y-39.031 Z14.479 A68.7620 
N575 X-235.525 Y-39.030 Z14.506 A66.9228 
N576 X-235.522 Y-39.027 Z14.533 A65.0820 
N577 X-235.519 Y-39.023 Z14.561 A63.2391 
N578 X-235.516 Y-39.019 Z14.588 A61.3932 
N579 X-235.513 Y-39.014 Z14.615 A59.5436 
N580 X-235.510 Y-39.007 Z14.642 A57.6902 
N581 X-235.507 Y-39.000 Z14.669 A55.8325 
N582 X-235.504 Y-38.992 Z14.695 A53.9704 
N583 X-235.501 Y-38.983 Z14.722 A52.1038 
N584 X-235.498 Y-38.974 Z14.748 A50.2329 
N585 X-235.495 Y-38.963 Z14.774 A48.3575 
N586 X-235.492 Y-38.952 Z14.799 A46.4778 
N587 X-235.488 Y-38.939 Z14.824 A44.5939 
N588 X-235.485 Y-38.926 Z14.849 A42.7057 
N589 X-235.482 Y-38.912 Z14.873 A40.8134 
N590 X-235.479 Y-38.898 Z14.897 A38.9167 
N591 X-235.475 Y-38.882 Z14.920 A37.0154 
N592 X-235.472 Y-38.866 Z14.943 A35.1092 
N593 X-235.469 Y-38.850 Z14.965 A33.1975 
N594 X-235.466 Y-38.832 Z14.986 A31.2792 
N595 X-235.463 Y-38.814 Z15.007 A29.3537 
N596 X-235.460 Y-38.795 Z15.028 A27.4192 
N597 X-235.457 Y-38.776 Z15.047 A25.4741 
N598 X-235.454 Y-38.756 Z15.066 A23.5168 
N599 X-235.451 Y-38.735 Z15.085 A21.5447 
N600 X-235.448 Y-38.714 Z15.103 A19.5553 
N601 X-235.445 Y-38.692 Z15.120 A17.5461 
N602 X-235.443 Y-38.669 Z15.136 A15.5136 
N603 X-235.440 Y-38.646 Z15.152 A13.4548 
N604 X-235.437 Y-38.622 Z15.167 A11.3662 
N605 X-235.435 Y-38.597 Z15.182 A9.2444 
N606 X-235.432 Y-38.571 Z15.196 A7.0857 
N607 X-235.429 Y-38.544 Z15.209 A4.8493 
N608 X-235.426 Y-38.516 Z15.222 A2.5268 
N609 X-235.424 Y-38.486 Z15.234 A0.1114 
N610 X-235.421 Y-38.453 Z15.245 A357.5075 
N611 X-235.418 Y-38.416 Z15.256 A354.6940 
N612 X-235.415 Y-38.376 Z15.266 A351.6541 
N613 X-235.412 Y-38.332 Z15.274 A348.3818 
N614 X-235.408 Y-38.284 Z15.280 A345.0526 
N615 X-235.404 Y-38.233 Z15.282 A341.6849 
N616 X-235.399 Y-38.178 Z15.280 A338.3050 
N617 X-235.394 Y-38.120 Z15.273 A335.0213 
N618 X-235.388 Y-38.060 Z15.260 A332.1159 
N619 X-235.382 Y-37.999 Z15.242 A329.6819 
N620 X-235.375 Y-37.938 Z15.218 A328.0768 
N621 X-235.367 Y-37.876 Z15.189 A327.2080 
N622 X-235.357 Y-37.807 Z15.153 A326.6969 
N623 X-235.346 Y-37.728 Z15.110 A326.4838 
N624 X-235.332 Y-37.636 Z15.059 A326.3956 
N625 X-235.316 Y-37.528 Z15.000 A326.4028 
N626 X-235.298 Y-37.404 Z14.931 A326.4473 
N627 X-235.276 Y-37.261 Z14.852 A326.5211 
N628 X-235.252 Y-37.099 Z14.763 A326.6195 
N629 X-235.224 Y-36.917 Z14.663 A326.7409 
N630 X-235.193 Y-36.715 Z14.553 A326.8858 
N631 X-235.159 Y-36.494 Z14.433 A327.0432 
N632 X-235.122 Y-36.253 Z14.304 A327.2137 
N633 X-235.082 Y-35.995 Z14.166 A327.3977 
N634 X-235.039 Y-35.720 Z14.021 A327.5947 
N635 X-234.993 Y-35.431 Z13.869 A327.8048 
N636 X-234.945 Y-35.128 Z13.711 A328.0278 
N637 X-234.894 Y-34.813 Z13.549 A328.2636 
N638 X-234.842 Y-34.489 Z13.384 A328.5122 
N639 X-234.787 Y-34.157 Z13.216 A328.7737 
N640 X-234.731 Y-33.818 Z13.047 A329.0483 
N641 X-234.674 Y-33.475 Z12.878 A329.3360 
N642 X-234.615 Y-33.127 Z12.709 A329.6365 
N643 X-234.555 Y-32.777 Z12.540 A329.9497 
N644 X-234.494 Y-32.425 Z12.374 A330.2749 
N645 X-234.432 Y-32.072 Z12.210 A330.6114 
N646 X-234.370 Y-31.719 Z12.047 A330.9585 
N647 X-234.306 Y-31.365 Z11.888 A331.3152 
N648 X-234.242 Y-31.012 Z11.731 A331.6808 
N649 X-234.178 Y-30.659 Z11.578 A332.0548 
N650 X-234.112 Y-30.307 Z11.427 A332.4365 
N651 X-234.046 Y-29.956 Z11.279 A332.8257 
N652 X-233.979 Y-29.605 Z11.135 A333.2223 
N653 X-233.912 Y-29.256 Z10.994 A333.6261 
N654 X-233.844 Y-28.907 Z10.856 A334.0371 
N655 X-233.776 Y-28.560 Z10.721 A334.4554 
N656 X-233.706 Y-28.213 Z10.589 A334.8811 
N657 X-233.637 Y-27.868 Z10.461 A335.3143 
N658 X-233.566 Y-27.523 Z10.336 A335.7551 
N659 X-233.495 Y-27.180 Z10.214 A336.2035 
N660 X-233.424 Y-26.837 Z10.096 A336.6597 
N661 X-233.352 Y-26.496 Z9.981 A337.1236 
N662 X-233.279 Y-26.156 Z9.870 A337.5954 
N663 X-233.205 Y-25.817 Z9.762 A338.0750 
N664 X-233.131 Y-25.480 Z9.657 A338.5625 
N665 X-233.056 Y-25.143 Z9.556 A339.0579 
N666 X-232.981 Y-24.808 Z9.458 A339.5610 
N667 X-232.905 Y-24.474 Z9.364 A340.0720 
N668 X-232.828 Y-24.141 Z9.274 A340.5906 
N669 X-232.751 Y-23.810 Z9.187 A341.1168 
N670 X-232.673 Y-23.479 Z9.103 A341.6506 
N671 X-232.595 Y-23.150 Z9.023 A342.1918 
N672 X-232.516 Y-22.822 Z8.946 A342.7403 
N673 X-232.436 Y-22.495 Z8.873 A343.2959 
N674 X-232.356 Y-22.169 Z8.804 A343.8585 
N675 X-232.274 Y-21.844 Z8.738 A344.4280 
N676 X-232.193 Y-21.521 Z8.676 A345.0041 
N677 X-232.110 Y-21.198 Z8.617 A345.5868 
N678 X-232.027 Y-20.877 Z8.562 A346.1756 
N679 X-231.943 Y-20.557 Z8.510 A346.7706 
N680 X-231.858 Y-20.237 Z8.462 A347.3713 
N681 X-231.773 Y-19.919 Z8.417 A347.9776 
N682 X-231.687 Y-19.601 Z8.376 A348.5891 
N683 X-231.600 Y-19.284 Z8.339 A349.2057 
N684 X-231.513 Y-18.968 Z8.305 A349.8270 
N685 X-231.425 Y-18.653 Z8.274 A350.4527 
N686 X-231.336 Y-18.339 Z8.247 A351.0825 
N687 X-231.246 Y-18.025 Z8.224 A351.7160 
N688 X-231.155 Y-17.712 Z8.204 A352.3529 
N689 X-231.064 Y-17.399 Z8.188 A352.9928 
N690 X-230.971 Y-17.087 Z8.175 A353.6353 
N691 X-230.878 Y-16.775 Z8.166 A354.2801 
N692 X-230.784 Y-16.463 Z8.160 A354.9266 
N693 X-230.689 Y-16.152 Z8.158 A355.5745 
N694 X-230.594 Y-15.841 Z8.159 A356.2234 
N695 X-230.497 Y-15.530 Z8.164 A356.8726 
N696 X-230.399 Y-15.219 Z8.172 A357.5219 
N697 X-230.300 Y-14.909 Z8.184 A358.1707 
N698 X-230.201 Y-14.598 Z8.200 A358.8186 
N699 X-230.100 Y-14.286 Z8.219 A359.4649 
N700 X-229.998 Y-13.975 Z8.241 A0.1092 
N701 X-229.895 Y-13.663 Z8.268 A0.7509 
N702 X-229.791 Y-13.351 Z8.297 A1.3895 
N703 X-229.686 Y-13.038 Z8.331 A2.0244 
N704 X-229.580 Y-12.725 Z8.368 A2.6550 
N705 X-229.472 Y-12.410 Z8.409 A3.2807 
N706 X-229.363 Y-12.095 Z8.453 A3.9010 
N707 X-229.253 Y-11.780 Z8.501 A4.5152 
N708 X-229.142 Y-11.463 Z8.553 A5.1228 
N709 X-229.029 Y-11.145 Z8.609 A5.7231 
N710 X-228.916 Y-10.826 Z8.668 A6.3157 
N711 X-228.800 Y-10.506 Z8.731 A6.9000 
N712 X-228.684 Y-10.184 Z8.797 A7.4756 
N713 X-228.566 Y-9.861 Z8.868 A8.0419 
N714 X-228.446 Y-9.536 Z8.942 A8.5986 
N715 X-228.325 Y-9.210 Z9.020 A9.1454 
N716 X-228.203 Y-8.882 Z9.101 A9.6819 
N717 X-228.079 Y-8.552 Z9.187 A10.2077 
N718 X-227.953 Y-8.220 Z9.276 A10.7224 
N719 X-227.826 Y-7.885 Z9.370 A11.2253 
N720 X-227.696 Y-7.549 Z9.467 A11.7159 
N721 X-227.565 Y-7.209 Z9.568 A12.1929 
N722 X-227.433 Y-6.867 Z9.673 A12.6552 
N723 X-227.298 Y-6.522 Z9.783 A13.1013 
N724 X-227.161 Y-6.174 Z9.897 A13.5294 
N725 X-227.022 Y-5.822 Z10.015 A13.9375 
N726 X-226.881 Y-5.467 Z10.137 A14.3235 
N727 X-226.738 Y-5.108 Z10.264 A14.6853 
N728 X-226.592 Y-4.745 Z10.395 A15.0213 
N729 X-226.445 Y-4.378 Z10.529 A15.3296 
N730 X-226.295 Y-4.007 Z10.668 A15.6093 
N731 X-226.143 Y-3.632 Z10.811 A15.8594 
N732 X-225.989 Y-3.253 Z10.956 A16.0797 
N733 X-225.833 Y-2.870 Z11.105 A16.2703 
N734 X-225.676 Y-2.484 Z11.257 A16.4314 
N735 X-225.517 Y-2.095 Z11.411 A16.5636 
N736 X-225.357 Y-1.703 Z11.567 A16.6672 
N737 X-225.196 Y-1.309 Z11.725 A16.7429 
N738 X-225.035 Y-0.914 Z11.883 A16.7908 
N739 X-224.873 Y-0.519 Z12.043 A16.8112 
N740 X-224.712 Y-0.123 Z12.202 A16.8039 
N741 X-224.551 Y0.271 Z12.361 A16.7687 
N742 X-224.391 Y0.664 Z12.519 A16.7054 
N743 X-224.232 Y1.054 Z12.675 A16.6131 
N744 X-224.075 Y1.440 Z12.830 A16.4907 
N745 X-223.920 Y1.823 Z12.982 A16.3374 
N746 X-223.767 Y2.201 Z13.132 A16.1523 
N747 X-223.617 Y2.573 Z13.278 A15.9330 
N748 X-223.470 Y2.940 Z13.420 A15.6782 
N749 X-223.326 Y3.300 Z13.558 A15.3864 
N750 X-223.186 Y3.653 Z13.692 A15.0565 
N751 X-223.049 Y3.998 Z13.820 A14.6868 
N752 X-222.916 Y4.336 Z13.944 A14.2764 
N753 X-222.787 Y4.666 Z14.062 A13.8245 
N754 X-222.663 Y4.988 Z14.174 A13.3320 
N755 X-222.543 Y5.301 Z14.281 A12.7987 
N756 X-222.427 Y5.605 Z14.381 A12.2241 
N757 X-222.315 Y5.901 Z14.475 A11.6094 
N758 X-222.209 Y6.188 Z14.563 A10.9552 
N759 X-222.106 Y6.465 Z14.645 A10.2605 
N760 X-222.009 Y6.733 Z14.721 A9.5256 
N761 X-221.915 Y6.992 Z14.791 A8.7510 
N762 X-221.827 Y7.241 Z14.854 A7.9363 
N763 X-221.743 Y7.481 Z14.912 A7.0826 
N764 X-221.664 Y7.711 Z14.964 A6.1914 
N765 X-221.589 Y7.931 Z15.011 A5.2628 
N766 X-221.519 Y8.142 Z15.052 A4.2960 
N767 X-221.453 Y8.343 Z15.088 A3.2895 
N768 X-221.392 Y8.535 Z15.120 A2.2397 
N769 X-221.334 Y8.717 Z15.147 A1.1441 
N770 X-221.281 Y8.890 Z15.169 A0.0009 
N771 X-221.232 Y9.055 Z15.187 A358.8107 
N772 X-221.186 Y9.210 Z15.202 A357.5750 
N773 X-221.144 Y9.358 Z15.213 A356.2972 
N774 X-221.106 Y9.497 Z15.220 A354.9801 
N775 X-221.071 Y9.628 Z15.224 A353.6253 
N776 X-221.039 Y9.752 Z15.225 A352.2340 
N777 X-221.010 Y9.869 Z15.224 A350.8054 
N778 X-220.983 Y9.979 Z15.221 A349.3384 
N779 X-220.959 Y10.083 Z15.215 A347.8325 
N780 X-220.937 Y10.181 Z15.208 A346.2879 
N781 X-220.918 Y10.274 Z15.199 A344.7049 
N782 X-220.900 Y10.362 Z15.188 A343.0859 
N783 X-220.884 Y10.446 Z15.176 A341.4344 
N784 X-220.870 Y10.525 Z15.162 A339.7547 
N785 X-220.857 Y10.601 Z15.147 A338.0518 
N786 X-220.845 Y10.673 Z15.131 A336.3303 
N787 X-220.835 Y10.742 Z15.114 A334.5949 
N788 X-220.826 Y10.807 Z15.095 A332.8498 
N789 X-220.817 Y10.870 Z15.075 A331.0986 
N790 X-220.810 Y10.931 Z15.055 A329.3444 
N791 X-220.804 Y10.989 Z15.033 A327.5894 
N792 X-220.798 Y11.045 Z15.010 A325.8353 
N793 X-220.793 Y11.099 Z14.986 A324.0832 
N794 X-220.788 Y11.151 Z14.962 A322.3335 
N795 X-220.784 Y11.202 Z14.936 A320.5862 
N796 X-220.781 Y11.251 Z14.909 A318.8410 
N797 X-220.778 Y11.298 Z14.882 A317.0972 
N798 X-220.776 Y11.345 Z14.853 A315.3539 
N799 X-220.774 Y11.390 Z14.823 A313.6103 
N800 X-220.772 Y11.434 Z14.792 A311.8652 
N801 X-220.771 Y11.477 Z14.760 A310.1177 
N802 X-220.771 Y11.519 Z14.726 A308.3666 
N803 X-220.770 Y11.560 Z14.691 A306.6110 
N804 X-220.771 Y11.600 Z14.655 A304.8502 
N805 X-220.772 Y11.639 Z14.617 A303.0836 
N806 X-220.773 Y11.677 Z14.578 A301.3110 
N807 X-220.774 Y11.715 Z14.537 A299.5327 
N808 X-220.777 Y11.752 Z14.494 A297.7494 
N809 X-220.779 Y11.788 Z14.449 A295.9623 
N810 X-220.783 Y11.823 Z14.401 A294.1733 
N811 X-220.787 Y11.857 Z14.351 A292.3850 
N812 X-220.792 Y11.891 Z14.298 A290.6006 
N813 X-220.797 Y11.924 Z14.243 A288.8242 
N814 X-220.804 Y11.956 Z14.184 A287.0605 
N815 X-220.812 Y11.986 Z14.122 A285.3148 
N816 X-220.820 Y12.016 Z14.055 A283.5929 
N817 X-220.830 Y12.044 Z13.985 A281.9008 
N818 X-220.842 Y12.072 Z13.910 A280.2442 
N819 X-220.855 Y12.097 Z13.830 A278.6282 
N820 X-220.869 Y12.122 Z13.745 A277.0567 
N821 X-220.886 Y12.144 Z13.654 A275.5319 
N822 X-220.905 Y12.165 Z13.558 A274.0549 
N823 X-220.925 Y12.184 Z13.455 A272.6247 
N824 X-220.949 Y12.201 Z13.345 A271.2388 
N825 X-220.974 Y12.216 Z13.227 A269.8941 
N826 X-221.003 Y12.228 Z13.102 A268.5889 
N827 X-221.034 Y12.238 Z12.969 A267.3208 
N828 X-221.068 Y12.245 Z12.828 A266.0893 
N829 X-221.106 Y12.248 Z12.679 A264.8957 
N830 X-221.147 Y12.248 Z12.521 A263.7409 
N831 X-221.191 Y12.245 Z12.354 A262.6264 
N832 X-221.239 Y12.237 Z12.179 A261.5517 
N833 X-221.290 Y12.226 Z11.995 A260.5151 
N834 X-221.345 Y12.210 Z11.803 A259.5132 
N835 X-221.404 Y12.190 Z11.602 A258.5416 
N836 X-221.466 Y12.166 Z11.393 A257.5972 
N837 X-221.531 Y12.137 Z11.176 A256.6763 
N838 X-221.600 Y12.103 Z10.952 A255.7779 
N839 X-221.673 Y12.065 Z10.720 A254.9016 
N840 X-221.749 Y12.021 Z10.481 A254.0471 
N841 X-221.828 Y11.972 Z10.236 A253.2138 
N842 X-221.910 Y11.918 Z9.985 A252.4018 
N843 X-221.995 Y11.859 Z9.729 A251.6097 
N844 X-222.084 Y11.795 Z9.467 A250.8357 
N845 X-222.174 Y11.726 Z9.201 A250.0792 
N846 X-222.268 Y11.652 Z8.931 A249.3393 
N847 X-222.364 Y11.574 Z8.657 A248.6141 
N848 X-222.462 Y11.490 Z8.380 A247.9026 
N849 X-222.563 Y11.402 Z8.100 A247.2041 
N850 X-222.665 Y11.310 Z7.818 A246.5174 
N851 X-222.769 Y11.213 Z7.534 A245.8403 
N852 X-222.875 Y11.112 Z7.248 A245.1713 
N853 X-222.982 Y11.008 Z6.962 A244.5087 
N854 X-223.091 Y10.899 Z6.675 A243.8506 
N855 X-223.200 Y10.786 Z6.387 A243.1953 
N856 X-223.311 Y10.670 Z6.100 A242.5412 
N857 X-223.423 Y10.550 Z5.813 A241.8865 
N858 X-223.535 Y10.427 Z5.527 A241.2301 
N859 X-223.649 Y10.301 Z5.242 A240.5711 
N860 X-223.762 Y10.171 Z4.958 A239.9093 
N861 X-223.877 Y10.038 Z4.676 A239.2440 
N862 X-223.991 Y9.902 Z4.396 A238.5748 
N863 X-224.106 Y9.763 Z4.118 A237.9013 
N864 X-224.221 Y9.621 Z3.842 A237.2235 
N865 X-224.336 Y9.476 Z3.569 A236.5413 
N866 X-224.452 Y9.328 Z3.298 A235.8541 
N867 X-224.567 Y9.178 Z3.031 A235.1615 
N868 X-224.682 Y9.026 Z2.766 A234.4627 
N869 X-224.797 Y8.871 Z2.504 A233.7573 
N870 X-224.912 Y8.713 Z2.246 A233.0444 
N871 X-225.026 Y8.554 Z1.991 A232.3234 
N872 X-225.140 Y8.392 Z1.739 A231.5937 
N873 X-225.254 Y8.228 Z1.491 A230.8547 
N874 X-225.368 Y8.062 Z1.246 A230.1060 
N875 X-225.480 Y7.894 Z1.006 A229.3473 
N876 X-225.593 Y7.724 Z0.769 A228.5782 
N877 X-225.704 Y7.552 Z0.536 A227.7987 
N878 X-225.816 Y7.378 Z0.307 A227.0087 
N879 X-225.926 Y7.202 Z0.082 A226.2080 
N880 X-226.036 Y7.025 Z-0.138 A225.3969 
N881 X-226.145 Y6.845 Z-0.355 A224.5752 
N882 X-226.254 Y6.665 Z-0.567 A223.7432 
N883 X-226.362 Y6.482 Z-0.775 A222.9009 
N884 X-226.469 Y6.298 Z-0.979 A222.0484 
N885 X-226.575 Y6.112 Z-1.179 A221.1859 
N886 X-226.681 Y5.925 Z-1.374 A220.3135 
N887 X-226.786 Y5.736 Z-1.565 A219.4314 
N888 X-226.890 Y5.545 Z-1.752 A218.5398 
N889 X-226.993 Y5.353 Z-1.934 A217.6388 
N890 X-227.096 Y5.160 Z-2.113 A216.7286 
N891 X-227.198 Y4.965 Z-2.286 A215.8095 
N892 X-227.298 Y4.769 Z-2.456 A214.8817 
N893 X-227.399 Y4.572 Z-2.621 A213.9454 
N894 X-227.498 Y4.373 Z-2.782 A213.0010 
N895 X-227.596 Y4.172 Z-2.939 A212.0488 
N896 X-227.694 Y3.971 Z-3.091 A211.0891 
N897 X-227.791 Y3.768 Z-3.240 A210.1224 
N898 X-227.887 Y3.563 Z-3.383 A209.1489 
N899 X-227.983 Y3.358 Z-3.523 A208.1692 
N900 X-228.077 Y3.151 Z-3.659 A207.1836 
N901 X-228.171 Y2.943 Z-3.790 A206.1925 
N902 X-228.264 Y2.733 Z-3.917 A205.1964 
N903 X-228.356 Y2.522 Z-4.040 A204.1956 
N904 X-228.448 Y2.310 Z-4.159 A203.1908 
N905 X-228.539 Y2.096 Z-4.274 A202.1823 
N906 X-228.629 Y1.881 Z-4.384 A201.1706 
N907 X-228.718 Y1.665 Z-4.491 A200.1562 
N908 X-228.806 Y1.447 Z-4.593 A199.1395 
N909 X-228.894 Y1.228 Z-4.691 A198.1211 
N910 X-228.982 Y1.008 Z-4.786 A197.1016 
N911 X-229.068 Y0.786 Z-4.876 A196.0813 
N912 X-229.154 Y0.563 Z-4.962 A195.0610 
N913 X-229.239 Y0.338 Z-5.044 A194.0410 
N914 X-229.324 Y0.112 Z-5.123 A193.0220 
N915 X-229.408 Y-0.115 Z-5.197 A192.0044 
N916 X-229.491 Y-0.345 Z-5.267 A190.9887 
N917 X-229.574 Y-0.575 Z-5.333 A189.9754 
N918 X-229.656 Y-0.807 Z-5.395 A188.9651 
N919 X-229.737 Y-1.041 Z-5.453 A187.9581 
N920 X-229.818 Y-1.277 Z-5.507 A186.9549 
N921 X-229.899 Y-1.514 Z-5.558 A185.9560 
N922 X-229.979 Y-1.752 Z-5.604 A184.9619 
N923 X-230.058 Y-1.993 Z-5.646 A183.9730 
N924 X-230.137 Y-2.235 Z-5.684 A182.9897 
N925 X-230.215 Y-2.479 Z-5.718 A182.0126 
N926 X-230.293 Y-2.725 Z-5.748 A181.0420 
N927 X-230.370 Y-2.972 Z-5.774 A180.0784 
N928 X-230.446 Y-3.221 Z-5.796 A179.1222 
N929 X-230.523 Y-3.472 Z-5.814 A178.1737 
N930 X-230.598 Y-3.725 Z-5.828 A177.2335 
N931 X-230.673 Y-3.980 Z-5.838 A176.3018 
N932 X-230.748 Y-4.237 Z-5.843 A175.3790 
N933 X-230.822 Y-4.496 Z-5.844 A174.4655 
N934 X-230.896 Y-4.757 Z-5.842 A173.5615 
N935 X-230.969 Y-5.020 Z-5.834 A172.6674 
N936 X-231.042 Y-5.284 Z-5.823 A171.7835 
N937 X-231.114 Y-5.551 Z-5.808 A170.9100 
N938 X-231.186 Y-5.820 Z-5.788 A170.0472 
N939 X-231.257 Y-6.091 Z-5.764 A169.1954 
N940 X-231.328 Y-6.364 Z-5.735 A168.3548 
N941 X-231.398 Y-6.639 Z-5.703 A167.5257 
N942 X-231.468 Y-6.917 Z-5.666 A166.7083 
N943 X-231.538 Y-7.196 Z-5.624 A165.9028 
N944 X-231.606 Y-7.477 Z-5.578 A165.1094 
N945 X-231.675 Y-7.761 Z-5.528 A164.3283 
N946 X-231.743 Y-8.047 Z-5.473 A163.5596 
N947 X-231.810 Y-8.334 Z-5.414 A162.8035 
N948 X-231.877 Y-8.624 Z-5.351 A162.0601 
N949 X-231.943 Y-8.916 Z-5.282 A161.3295 
N950 X-232.009 Y-9.210 Z-5.210 A160.6116 
N951 X-232.074 Y-9.506 Z-5.133 A159.9066 
N952 X-232.138 Y-9.804 Z-5.052 A159.2143 
N953 X-232.202 Y-10.105 Z-4.966 A158.5347 
N954 X-232.266 Y-10.407 Z-4.875 A157.8678 
N955 X-232.329 Y-10.711 Z-4.780 A157.2134 
N956 X-232.391 Y-11.016 Z-4.681 A156.5715 
N957 X-232.453 Y-11.324 Z-4.577 A155.9417 
N958 X-232.514 Y-11.634 Z-4.469 A155.3242 
N959 X-232.575 Y-11.945 Z-4.357 A154.7186 
N960 X-232.635 Y-12.258 Z-4.240 A154.1250 
N961 X-232.694 Y-12.573 Z-4.119 A153.5432 
N962 X-232.753 Y-12.889 Z-3.993 A152.9731 
N963 X-232.811 Y-13.207 Z-3.863 A152.4146 
N964 X-232.868 Y-13.527 Z-3.729 A151.8678 
N965 X-232.925 Y-13.848 Z-3.590 A151.3324 
N966 X-232.981 Y-14.171 Z-3.448 A150.8085 
N967 X-233.036 Y-14.495 Z-3.301 A150.2959 
N968 X-233.091 Y-14.820 Z-3.150 A149.7946 
N969 X-233.145 Y-15.147 Z-2.994 A149.3045 
N970 X-233.199 Y-15.476 Z-2.835 A148.8254 
N971 X-233.251 Y-15.805 Z-2.672 A148.3571 
N972 X-233.303 Y-16.136 Z-2.504 A147.8996 
N973 X-233.355 Y-16.468 Z-2.333 A147.4527 
N974 X-233.406 Y-16.802 Z-2.158 A147.0163 
N975 X-233.456 Y-17.136 Z-1.978 A146.5901 
N976 X-233.505 Y-17.472 Z-1.795 A146.1740 
N977 X-233.554 Y-17.809 Z-1.609 A145.7679 
N978 X-233.602 Y-18.147 Z-1.418 A145.3716 
N979 X-233.650 Y-18.486 Z-1.224 A144.9850 
N980 X-233.697 Y-18.826 Z-1.026 A144.6080 
N981 X-233.743 Y-19.167 Z-0.825 A144.2405 
N982 X-233.788 Y-19.509 Z-0.620 A143.8823 
N983 X-233.833 Y-19.852 Z-0.411 A143.5336 
N984 X-233.878 Y-20.196 Z-0.199 A143.1941 
N985 X-233.921 Y-20.541 Z0.016 A142.8640 
N986 X-233.964 Y-20.887 Z0.235 A142.5430 
N987 X-234.007 Y-21.234 Z0.457 A142.2313 
N988 X-234.049 Y-21.582 Z0.682 A141.9287 
N989 X-234.090 Y-21.930 Z0.911 A141.6351 
N990 X-234.131 Y-22.280 Z1.143 A141.3505 
N991 X-234.171 Y-22.630 Z1.377 A141.0747 
N992 X-234.211 Y-22.982 Z1.615 A140.8075 
N993 X-234.250 Y-23.334 Z1.856 A140.5488 
N994 X-234.289 Y-23.687 Z2.099 A140.2983 
N995 X-234.327 Y-24.040 Z2.346 A140.0558 
N996 X-234.365 Y-24.395 Z2.595 A139.8211 
N997 X-234.402 Y-24.750 Z2.846 A139.5941 
N998 X-234.439 Y-25.106 Z3.101 A139.3745 
N999 X-234.475 Y-25.463 Z3.358 A139.1621 
N1000 X-234.511 Y-25.821 Z3.617 A138.9570 
N1001 X-234.546 Y-26.179 Z3.879 A138.7588 
N1002 X-234.581 Y-26.538 Z4.144 A138.5675 
N1003 X-234.616 Y-26.898 Z4.411 A138.3830 
N1004 X-234.650 Y-27.258 Z4.680 A138.2051 
N1005 X-234.684 Y-27.619 Z4.951 A138.0339 
N1006 X-234.717 Y-27.981 Z5.224 A137.8691 
N1007 X-234.750 Y-28.343 Z5.500 A137.7108 
N1008 X-234.783 Y-28.706 Z5.778 A137.5589 
N1009 X-234.815 Y-29.070 Z6.058 A137.4133 
N1010 X-234.847 Y-29.435 Z6.339 A137.2740 
N1011 X-234.879 Y-29.800 Z6.623 A137.1409 
N1012 X-234.910 Y-30.165 Z6.909 A137.0142 
N1013 X-234.941 Y-30.532 Z7.196 A136.8936 
N1014 X-234.972 Y-30.899 Z7.485 A136.7792 
N1015 X-235.003 Y-31.266 Z7.775 A136.6710 
N1016 X-235.033 Y-31.633 Z8.067 A136.5687 
N1017 X-235.063 Y-32.000 Z8.359 A136.4724 
N1018 X-235.093 Y-32.367 Z8.653 A136.3819 
N1019 X-235.122 Y-32.733 Z8.946 A136.2971 
N1020 X-235.151 Y-33.098 Z9.240 A136.2180 
N1021 X-235.180 Y-33.461 Z9.532 A136.1442 
N1022 X-235.208 Y-33.821 Z9.823 A136.0756 
N1023 X-235.236 Y-34.177 Z10.112 A136.0121 
N1024 X-235.263 Y-34.527 Z10.396 A135.9532 
N1025 X-235.290 Y-34.871 Z10.676 A135.8987 
N1026 X-235.316 Y-35.207 Z10.950 A135.8482 
N1027 X-235.341 Y-35.533 Z11.216 A135.8012 
N1028 X-235.365 Y-35.847 Z11.472 A135.7572 
N1029 X-235.388 Y-36.148 Z11.718 A135.7158 
N1030 X-235.409 Y-36.434 Z11.952 A135.6765 
N1031 X-235.430 Y-36.702 Z12.173 A135.6387 
N1032 X-235.449 Y-36.953 Z12.378 A135.6019 
N1033 X-235.466 Y-37.184 Z12.568 A135.5654 
N1034 X-235.482 Y-37.396 Z12.742 A135.5285 
N1035 X-235.496 Y-37.586 Z12.899 A135.4900 
N1036 X-235.509 Y-37.757 Z13.039 A135.4487 
N1037 X-235.520 Y-37.907 Z13.163 A135.4031 
N1038 X-235.530 Y-38.038 Z13.270 A135.3510 
N1039 X-235.538 Y-38.151 Z13.363 A135.2902 
N1040 X-235.545 Y-38.247 Z13.442 A135.2182 
N1041 X-235.551 Y-38.328 Z13.509 A135.1332 
N1042 X-235.556 Y-38.396 Z13.564 A134.9988 
N1043 X-235.560 Y-38.454 Z13.611 A134.6123 
N1044 X-235.563 Y-38.507 Z13.653 A133.6628 
N1045 X-235.564 Y-38.557 Z13.690 A132.0237 
N1046 X-235.565 Y-38.609 Z13.726 A129.4587 
N1047 X-235.566 Y-38.661 Z13.764 A126.1847 
N1048 X-235.565 Y-38.707 Z13.800 A122.8433 
N1049 X-235.565 Y-38.748 Z13.835 A119.5037 
N1050 X-235.564 Y-38.785 Z13.870 A116.1904 
N1051 X-235.563 Y-38.818 Z13.904 A112.9631 
N1052 X-235.561 Y-38.847 Z13.936 A109.9374 
N1053 X-235.560 Y-38.872 Z13.967 A107.1221 
N1054 X-235.559 Y-38.893 Z13.997 A104.5091 
N1055 X-235.558 Y-38.912 Z14.024 A102.0887 
N1056 X-235.556 Y-38.928 Z14.052 A99.8338 
N1057 X-235.555 Y-38.943 Z14.078 A97.6589 
N1058 X-235.554 Y-38.956 Z14.104 A95.5555 
N1059 X-235.553 Y-38.968 Z14.130 A93.5157 
N1060 X-235.551 Y-38.978 Z14.156 A91.5320 
N1061 X-235.550 Y-38.988 Z14.182 A89.5741 
N1062 X-235.548 Y-38.997 Z14.208 A87.6389 
N1063 X-235.547 Y-39.004 Z14.234 A85.7237 
N1064 X-235.545 Y-39.011 Z14.261 A83.8255 
N1065 X-235.543 Y-39.017 Z14.287 A81.9419 
N1066 X-235.541 Y-39.022 Z14.314 A80.0702 
N1067 X-235.539 Y-39.026 Z14.340 A78.2086 
N1068 X-235.537 Y-39.029 Z14.367 A76.3548 
N1069 X-235.535 Y-39.031 Z14.394 A74.5069 
N1070 X-235.532 Y-39.032 Z14.421 A72.6632 
N1071 X-235.530 Y-39.032 Z14.448 A70.8219 
N1072 X-235.527 Y-39.031 Z14.476 A68.9817 
N1073 X-235.525 Y-39.030 Z14.503 A67.1414 
N1074 X-235.522 Y-39.027 Z14.530 A65.2997 
N1075 X-235.519 Y-39.024 Z14.557 A63.4559 
N1076 X-235.517 Y-39.020 Z14.585 A61.6092 
N1077 X-235.514 Y-39.014 Z14.612 A59.7590 
N1078 X-235.511 Y-39.008 Z14.639 A57.9049 
N1079 X-235.508 Y-39.001 Z14.666 A56.0467 
N1080 X-235.505 Y-38.993 Z14.692 A54.1840 
N1081 X-235.501 Y-38.985 Z14.719 A52.3169 
N1082 X-235.498 Y-38.975 Z14.745 A50.4453 
N1083 X-235.495 Y-38.964 Z14.771 A48.5693 
N1084 X-235.492 Y-38.953 Z14.796 A46.6890 
N1085 X-235.489 Y-38.941 Z14.822 A44.8044 
N1086 X-235.485 Y-38.928 Z14.846 A42.9156 
N1087 X-235.482 Y-38.914 Z14.870 A41.0226 
N1088 X-235.479 Y-38.899 Z14.894 A39.1253 
N1089 X-235.476 Y-38.884 Z14.918 A37.2234 
N1090 X-235.473 Y-38.868 Z14.940 A35.3166 
N1091 X-235.469 Y-38.851 Z14.962 A33.4043 
N1092 X-235.466 Y-38.834 Z14.984 A31.4856 
N1093 X-235.463 Y-38.816 Z15.005 A29.5596 
N1094 X-235.460 Y-38.797 Z15.025 A27.6248 
N1095 X-235.457 Y-38.778 Z15.045 A25.6797 
N1096 X-235.454 Y-38.758 Z15.064 A23.7225 
N1097 X-235.451 Y-38.737 Z15.083 A21.7506 
N1098 X-235.448 Y-38.716 Z15.101 A19.7619 
N1099 X-235.446 Y-38.694 Z15.118 A17.7536 
N1100 X-235.443 Y-38.672 Z15.135 A15.7226 
N1101 X-235.440 Y-38.649 Z15.151 A13.6657 
N1102 X-235.437 Y-38.625 Z15.166 A11.5794 
N1103 X-235.435 Y-38.600 Z15.180 A9.4606 
N1104 X-235.432 Y-38.574 Z15.194 A7.3056 
N1105 X-235.429 Y-38.547 Z15.208 A5.0742 
N1106 X-235.427 Y-38.519 Z15.221 A2.7573 
N1107 X-235.424 Y-38.489 Z15.233 A0.3499 
N1108 X-235.421 Y-38.456 Z15.244 A357.7543 
N1109 X-235.418 Y-38.420 Z15.255 A354.9475 
N1110 X-235.416 Y-38.380 Z15.265 A351.9174 
N1111 X-235.412 Y-38.336 Z15.274 A348.6527 
N1112 X-235.409 Y-38.288 Z15.279 A345.3292 
N1113 X-235.404 Y-38.237 Z15.282 A341.9651 
N1114 X-235.400 Y-38.183 Z15.280 A338.5793 
N1115 X-235.394 Y-38.125 Z15.274 A335.2769 
N1116 X-235.389 Y-38.065 Z15.262 A332.3318 
N1117 X-235.383 Y-38.004 Z15.244 A329.8478 
N1118 X-235.376 Y-37.943 Z15.220 A328.1918 
N1119 X-235.368 Y-37.882 Z15.191 A327.2839 
N1120 X-235.358 Y-37.813 Z15.156 A326.7436 
N1121 X-235.347 Y-37.735 Z15.114 A326.5126 
N1122 X-235.334 Y-37.644 Z15.064 A326.4121 
N1123 X-235.318 Y-37.538 Z15.005 A326.4118 
N1124 X-235.300 Y-37.415 Z14.937 A326.4508 
N1125 X-235.278 Y-37.274 Z14.859 A326.5205 
N1126 X-235.254 Y-37.114 Z14.771 A326.6157 
N1127 X-235.227 Y-36.933 Z14.672 A326.7345 
N1128 X-235.196 Y-36.733 Z14.563 A326.8772 
N1129 X-235.162 Y-36.514 Z14.444 A327.0326 
N1130 X-235.126 Y-36.275 Z14.316 A327.2012 
N1131 X-235.086 Y-36.019 Z14.179 A327.3833 
N1132 X-235.043 Y-35.746 Z14.034 A327.5786 
N1133 X-234.997 Y-35.458 Z13.883 A327.7870 
N1134 X-234.949 Y-35.156 Z13.726 A328.0084 
N1135 X-234.899 Y-34.843 Z13.564 A328.2426 
N1136 X-234.846 Y-34.520 Z13.399 A328.4896 
N1137 X-234.792 Y-34.189 Z13.232 A328.7495 
N1138 X-234.736 Y-33.851 Z13.063 A329.0225 
N1139 X-234.678 Y-33.508 Z12.894 A329.3085 
N1140 X-234.620 Y-33.161 Z12.725 A329.6074 
N1141 X-234.560 Y-32.812 Z12.557 A329.9189 
N1142 X-234.499 Y-32.460 Z12.391 A330.2425 
N1143 X-234.437 Y-32.108 Z12.226 A330.5775 
N1144 X-234.375 Y-31.755 Z12.064 A330.9230 
N1145 X-234.311 Y-31.402 Z11.904 A331.2782 
N1146 X-234.247 Y-31.049 Z11.748 A331.6424 
N1147 X-234.182 Y-30.697 Z11.594 A332.0149 
N1148 X-234.116 Y-30.346 Z11.443 A332.3951 
N1149 X-234.050 Y-29.995 Z11.296 A332.7829 
N1150 X-233.983 Y-29.645 Z11.151 A333.1779 
N1151 X-233.916 Y-29.296 Z11.010 A333.5801 
N1152 X-233.847 Y-28.948 Z10.872 A333.9896 
N1153 X-233.778 Y-28.601 Z10.737 A334.4062 
N1154 X-233.709 Y-28.255 Z10.605 A334.8302 
N1155 X-233.639 Y-27.910 Z10.477 A335.2616 
N1156 X-233.568 Y-27.566 Z10.352 A335.7005 
N1157 X-233.496 Y-27.224 Z10.230 A336.1469 
N1158 X-233.424 Y-26.882 Z10.112 A336.6011 
N1159 X-233.351 Y-26.542 Z9.997 A337.0629 
N1160 X-233.277 Y-26.203 Z9.885 A337.5326 
N1161 X-233.203 Y-25.865 Z9.777 A338.0100 
N1162 X-233.128 Y-25.528 Z9.672 A338.4952 
N1163 X-233.052 Y-25.193 Z9.571 A338.9883 
N1164 X-232.975 Y-24.858 Z9.473 A339.4891 
N1165 X-232.898 Y-24.525 Z9.378 A339.9976 
N1166 X-232.820 Y-24.193 Z9.288 A340.5138 
N1167 X-232.742 Y-23.862 Z9.200 A341.0375 
N1168 X-232.662 Y-23.533 Z9.116 A341.5688 
N1169 X-232.582 Y-23.204 Z9.036 A342.1075 
N1170 X-232.501 Y-22.877 Z8.959 A342.6534 
N1171 X-232.420 Y-22.551 Z8.886 A343.2065 
N1172 X-232.337 Y-22.226 Z8.816 A343.7667 
N1173 X-232.254 Y-21.902 Z8.750 A344.3336 
N1174 X-232.170 Y-21.580 Z8.687 A344.9073 
N1175 X-232.086 Y-21.258 Z8.628 A345.4875 
N1176 X-232.000 Y-20.937 Z8.572 A346.0740 
N1177 X-231.914 Y-20.618 Z8.520 A346.6665 
N1178 X-231.827 Y-20.299 Z8.471 A347.2649 
N1179 X-231.740 Y-19.981 Z8.426 A347.8690 
N1180 X-231.651 Y-19.664 Z8.384 A348.4784 
N1181 X-231.562 Y-19.348 Z8.346 A349.0928 
N1182 X-231.472 Y-19.032 Z8.311 A349.7121 
N1183 X-231.381 Y-18.718 Z8.280 A350.3359 
N1184 X-231.289 Y-18.404 Z8.253 A350.9639 
N1185 X-231.197 Y-18.090 Z8.228 A351.5957 
N1186 X-231.104 Y-17.777 Z8.208 A352.2310 
N1187 X-231.009 Y-17.465 Z8.191 A352.8694 
N1188 X-230.914 Y-17.153 Z8.177 A353.5105 
N1189 X-230.819 Y-16.842 Z8.167 A354.1540 
N1190 X-230.722 Y-16.530 Z8.161 A354.7994 
N1191 X-230.624 Y-16.220 Z8.158 A355.4463 
N1192 X-230.526 Y-15.909 Z8.158 A356.0943 
N1193 X-230.426 Y-15.598 Z8.162 A356.7428 
N1194 X-230.326 Y-15.288 Z8.170 A357.3915 
N1195 X-230.225 Y-14.977 Z8.181 A358.0398 
N1196 X-230.122 Y-14.666 Z8.196 A358.6873 
N1197 X-230.019 Y-14.355 Z8.214 A359.3334 
N1198 X-229.915 Y-14.044 Z8.236 A359.9777 
N1199 X-229.810 Y-13.732 Z8.261 A0.6195 
N1200 X-229.703 Y-13.420 Z8.290 A1.2583 
N1201 X-229.596 Y-13.108 Z8.323 A1.8935 
N1202 X-229.487 Y-12.795 Z8.359 A2.5246 
N1203 X-229.377 Y-12.481 Z8.399 A3.1509 
N1204 X-229.267 Y-12.166 Z8.443 A3.7720 
N1205 X-229.154 Y-11.851 Z8.490 A4.3871 
N1206 X-229.041 Y-11.534 Z8.541 A4.9957 
N1207 X-228.927 Y-11.217 Z8.596 A5.5972 
N1208 X-228.811 Y-10.898 Z8.654 A6.1911 
N1209 X-228.694 Y-10.578 Z8.716 A6.7768 
N1210 X-228.575 Y-10.257 Z8.782 A7.3539 
N1211 X-228.455 Y-9.934 Z8.851 A7.9218 
N1212 X-228.334 Y-9.610 Z8.925 A8.4802 
N1213 X-228.211 Y-9.285 Z9.002 A9.0288 
N1214 X-228.087 Y-8.957 Z9.082 A9.5671 
N1215 X-227.962 Y-8.628 Z9.167 A10.0948 
N1216 X-227.834 Y-8.297 Z9.255 A10.6115 
N1217 X-227.705 Y-7.963 Z9.348 A11.1166 
N1218 X-227.575 Y-7.627 Z9.444 A11.6095 
N1219 X-227.443 Y-7.289 Z9.544 A12.0891 
N1220 X-227.308 Y-6.948 Z9.648 A12.5544 
N1221 X-227.172 Y-6.604 Z9.757 A13.0038 
N1222 X-227.034 Y-6.257 Z9.869 A13.4357 
N1223 X-226.894 Y-5.906 Z9.986 A13.8481 
N1224 X-226.752 Y-5.553 Z10.107 A14.2390 
N1225 X-226.607 Y-5.195 Z10.233 A14.6063 
N1226 X-226.460 Y-4.834 Z10.362 A14.9481 
N1227 X-226.312 Y-4.468 Z10.496 A15.2628 
N1228 X-226.161 Y-4.099 Z10.633 A15.5491 
N1229 X-226.008 Y-3.726 Z10.775 A15.8062 
N1230 X-225.852 Y-3.348 Z10.919 A16.0337 
N1231 X-225.695 Y-2.967 Z11.067 A16.2314 
N1232 X-225.537 Y-2.583 Z11.218 A16.3997 
N1233 X-225.377 Y-2.196 Z11.371 A16.5390 
N1234 X-225.215 Y-1.806 Z11.526 A16.6497 
N1235 X-225.053 Y-1.413 Z11.683 A16.7326 
N1236 X-224.890 Y-1.020 Z11.841 A16.7880 
N1237 X-224.727 Y-0.625 Z12.000 A16.8161 
N1238 X-224.563 Y-0.231 Z12.159 A16.8169 
N1239 X-224.400 Y0.163 Z12.317 A16.7901 
N1240 X-224.237 Y0.555 Z12.475 A16.7354 
N1241 X-224.076 Y0.945 Z12.632 A16.6523 
N1242 X-223.915 Y1.332 Z12.787 A16.5394 
N1243 X-223.756 Y1.715 Z12.939 A16.3961 
N1244 X-223.600 Y2.093 Z13.089 A16.2213 
N1245 X-223.445 Y2.466 Z13.236 A16.0132 
N1246 X-223.293 Y2.834 Z13.379 A15.7700 
N1247 X-223.144 Y3.195 Z13.518 A15.4903 
N1248 X-222.999 Y3.550 Z13.653 A15.1728 
N1249 X-222.856 Y3.897 Z13.783 A14.8160 
N1250 X-222.717 Y4.237 Z13.908 A14.4187 
N1251 X-222.582 Y4.569 Z14.028 A13.9800 
N1252 X-222.451 Y4.894 Z14.142 A13.5002 
N1253 X-222.324 Y5.209 Z14.250 A12.9795 
N1254 X-222.202 Y5.517 Z14.352 A12.4174 
N1255 X-222.083 Y5.815 Z14.448 A11.8142 
N1256 X-221.969 Y6.105 Z14.538 A11.1712 
N1257 X-221.859 Y6.386 Z14.622 A10.4877 
N1258 X-221.754 Y6.657 Z14.700 A9.7630 
N1259 X-221.654 Y6.920 Z14.772 A8.9982 
N1260 X-221.558 Y7.173 Z14.837 A8.1926 
N1261 X-221.466 Y7.416 Z14.897 A7.3467 
N1262 X-221.379 Y7.650 Z14.951 A6.4620 
N1263 X-221.297 Y7.874 Z14.999 A5.5391 
N1264 X-221.220 Y8.089 Z15.042 A4.5771 
N1265 X-221.146 Y8.294 Z15.079 A3.5752 
N1266 X-221.078 Y8.490 Z15.112 A2.5299 
N1267 X-221.013 Y8.676 Z15.141 A1.4386 
N1268 X-220.953 Y8.853 Z15.164 A0.2989 
N1269 X-220.897 Y9.021 Z15.184 A359.1106 
N1270 X-220.845 Y9.180 Z15.199 A357.8749 
N1271 X-220.796 Y9.330 Z15.211 A356.5947 
N1272 X-220.752 Y9.473 Z15.218 A355.2734 
N1273 X-220.710 Y9.607 Z15.223 A353.9129 
N1274 X-220.673 Y9.734 Z15.225 A352.5149 
N1275 X-220.638 Y9.854 Z15.224 A351.0793 
N1276 X-220.606 Y9.966 Z15.221 A349.6052 
N1277 X-220.577 Y10.073 Z15.215 A348.0923 
N1278 X-220.551 Y10.173 Z15.208 A346.5410 
N1279 X-220.526 Y10.268 Z15.199 A344.9513 
N1280 X-220.504 Y10.357 Z15.188 A343.3258 
N1281 X-220.484 Y10.442 Z15.176 A341.6686 
N1282 X-220.466 Y10.522 Z15.162 A339.9846 
N1283 X-220.449 Y10.598 Z15.147 A338.2791 
N1284 X-220.434 Y10.670 Z15.131 A336.5571 
N1285 X-220.421 Y10.739 Z15.114 A334.8238 
N1286 X-220.409 Y10.805 Z15.095 A333.0841 
N1287 X-220.398 Y10.867 Z15.076 A331.3421 
N1288 X-220.388 Y10.927 Z15.055 A329.6013 
N1289 X-220.379 Y10.984 Z15.034 A327.8643 
N1290 X-220.371 Y11.040 Z15.012 A326.1329 
N1291 X-220.364 Y11.093 Z14.989 A324.4084 
N1292 X-220.358 Y11.144 Z14.965 A322.6913 
N1293 X-220.353 Y11.193 Z14.940 A320.9814 
N1294 X-220.348 Y11.241 Z14.914 A319.2783 
N1295 X-220.344 Y11.287 Z14.888 A317.5811 
N1296 X-220.340 Y11.332 Z14.860 A315.8887 
N1297 X-220.337 Y11.376 Z14.832 A314.1997 
N1298 X-220.335 Y11.418 Z14.803 A312.5128 
N1299 X-220.333 Y11.460 Z14.772 A310.8265 
N1300 X-220.332 Y11.501 Z14.741 A309.1392 
N1301 X-220.332 Y11.540 Z14.708 A307.4492 
N1302 X-220.331 Y11.579 Z14.674 A305.7550 
N1303 X-220.332 Y11.617 Z14.639 A304.0553 
N1304 X-220.333 Y11.655 Z14.602 A302.3491 
N1305 X-220.334 Y11.691 Z14.563 A300.6356 
N1306 X-220.337 Y11.727 Z14.523 A298.9146 
N1307 X-220.340 Y11.763 Z14.480 A297.1862 
N1308 X-220.343 Y11.797 Z14.436 A295.4513 
N1309 X-220.348 Y11.831 Z14.389 A293.7110 
N1310 X-220.353 Y11.865 Z14.340 A291.9675 
N1311 X-220.359 Y11.898 Z14.287 A290.2239 
N1312 X-220.366 Y11.930 Z14.232 A288.4838 
N1313 X-220.374 Y11.961 Z14.173 A286.7518 
N1314 X-220.384 Y11.991 Z14.111 A285.0332 
N1315 X-220.395 Y12.021 Z14.044 A283.3340 
N1316 X-220.407 Y12.049 Z13.974 A281.6605 
N1317 X-220.421 Y12.076 Z13.898 A280.0189 
N1318 X-220.436 Y12.101 Z13.818 A278.4145 
N1319 X-220.454 Y12.125 Z13.732 A276.8514 
N1320 X-220.473 Y12.147 Z13.640 A275.3321 
N1321 X-220.495 Y12.168 Z13.542 A273.8587 
N1322 X-220.519 Y12.187 Z13.437 A272.4306 
N1323 X-220.545 Y12.203 Z13.325 A271.0456 
N1324 X-220.574 Y12.218 Z13.206 A269.7012 
N1325 X-220.606 Y12.230 Z13.078 A268.3956 
N1326 X-220.641 Y12.239 Z12.943 A267.1270 
N1327 X-220.679 Y12.246 Z12.799 A265.8952 
N1328 X-220.721 Y12.249 Z12.647 A264.7015 
N1329 X-220.766 Y12.248 Z12.486 A263.5470 
N1330 X-220.815 Y12.243 Z12.317 A262.4332 
N1331 X-220.867 Y12.235 Z12.138 A261.3595 
N1332 X-220.923 Y12.222 Z11.952 A260.3239 
N1333 X-220.982 Y12.206 Z11.756 A259.3228 
N1334 X-221.045 Y12.185 Z11.553 A258.3521 
N1335 X-221.111 Y12.159 Z11.341 A257.4083 
N1336 X-221.181 Y12.129 Z11.121 A256.4880 
N1337 X-221.255 Y12.094 Z10.894 A255.5905 
N1338 X-221.332 Y12.054 Z10.660 A254.7153 
N1339 X-221.412 Y12.009 Z10.419 A253.8620 
N1340 X-221.496 Y11.958 Z10.172 A253.0304 
N1341 X-221.582 Y11.903 Z9.919 A252.2203 
N1342 X-221.672 Y11.842 Z9.660 A251.4297 
N1343 X-221.764 Y11.777 Z9.397 A250.6573 
N1344 X-221.859 Y11.707 Z9.129 A249.9024 
N1345 X-221.957 Y11.631 Z8.857 A249.1639 
N1346 X-222.056 Y11.551 Z8.582 A248.4399 
N1347 X-222.158 Y11.467 Z8.304 A247.7295 
N1348 X-222.262 Y11.377 Z8.023 A247.0320 
N1349 X-222.368 Y11.284 Z7.740 A246.3459 
N1350 X-222.475 Y11.186 Z7.455 A245.6690 
N1351 X-222.583 Y11.083 Z7.169 A244.9999 
N1352 X-222.693 Y10.977 Z6.881 A244.3368 
N1353 X-222.804 Y10.867 Z6.594 A243.6778 
N1354 X-222.917 Y10.754 Z6.306 A243.0212 
N1355 X-223.029 Y10.636 Z6.018 A242.3653 
N1356 X-223.143 Y10.516 Z5.731 A241.7085 
N1357 X-223.257 Y10.391 Z5.445 A241.0496 
N1358 X-223.372 Y10.264 Z5.160 A240.3882 
N1359 X-223.487 Y10.133 Z4.877 A239.7237 
N1360 X-223.603 Y9.999 Z4.595 A239.0557 
N1361 X-223.718 Y9.862 Z4.315 A238.3837 
N1362 X-223.834 Y9.722 Z4.037 A237.7074 
N1363 X-223.950 Y9.579 Z3.762 A237.0268 
N1364 X-224.065 Y9.433 Z3.489 A236.3414 
N1365 X-224.181 Y9.285 Z3.220 A235.6510 
N1366 X-224.296 Y9.134 Z2.952 A234.9549 
N1367 X-224.411 Y8.980 Z2.688 A234.2526 
N1368 X-224.525 Y8.824 Z2.427 A233.5436 
N1369 X-224.639 Y8.666 Z2.170 A232.8274 
N1370 X-224.753 Y8.506 Z1.915 A232.1031 
N1371 X-224.867 Y8.343 Z1.664 A231.3703 
N1372 X-224.980 Y8.178 Z1.417 A230.6281 
N1373 X-225.093 Y8.012 Z1.174 A229.8762 
N1374 X-225.205 Y7.843 Z0.934 A229.1143 
N1375 X-225.316 Y7.672 Z0.699 A228.3420 
N1376 X-225.428 Y7.500 Z0.467 A227.5594 
N1377 X-225.538 Y7.325 Z0.239 A226.7662 
N1378 X-225.648 Y7.149 Z0.016 A225.9624 
N1379 X-225.758 Y6.971 Z-0.204 A225.1482 
N1380 X-225.866 Y6.791 Z-0.419 A224.3236 
N1381 X-225.974 Y6.610 Z-0.630 A223.4887 
N1382 X-226.082 Y6.427 Z-0.837 A222.6436 
N1383 X-226.189 Y6.242 Z-1.040 A221.7883 
N1384 X-226.295 Y6.056 Z-1.238 A220.9232 
N1385 X-226.400 Y5.868 Z-1.432 A220.0482 
N1386 X-226.504 Y5.679 Z-1.622 A219.1635 
N1387 X-226.608 Y5.488 Z-1.807 A218.2694 
N1388 X-226.711 Y5.296 Z-1.988 A217.3659 
N1389 X-226.814 Y5.102 Z-2.165 A216.4533 
N1390 X-226.915 Y4.907 Z-2.338 A215.5319 
N1391 X-227.016 Y4.710 Z-2.506 A214.6018 
N1392 X-227.116 Y4.512 Z-2.670 A213.6634 
N1393 X-227.215 Y4.313 Z-2.830 A212.7169 
N1394 X-227.314 Y4.112 Z-2.985 A211.7627 
N1395 X-227.411 Y3.910 Z-3.136 A210.8011 
N1396 X-227.508 Y3.707 Z-3.283 A209.8326 
N1397 X-227.604 Y3.502 Z-3.426 A208.8575 
N1398 X-227.700 Y3.296 Z-3.564 A207.8762 
N1399 X-227.794 Y3.089 Z-3.698 A206.8891 
N1400 X-227.888 Y2.880 Z-3.829 A205.8966 
N1401 X-227.981 Y2.670 Z-3.954 A204.8993 
N1402 X-228.074 Y2.459 Z-4.076 A203.8975 
N1403 X-228.166 Y2.246 Z-4.194 A202.8917 
N1404 X-228.256 Y2.032 Z-4.307 A201.8824 
N1405 X-228.347 Y1.817 Z-4.417 A200.8700 
N1406 X-228.436 Y1.600 Z-4.522 A199.8550 
N1407 X-228.525 Y1.382 Z-4.623 A198.8379 
N1408 X-228.613 Y1.162 Z-4.720 A197.8193 
N1409 X-228.701 Y0.942 Z-4.813 A196.7997 
N1410 X-228.788 Y0.719 Z-4.902 A195.7795 
N1411 X-228.874 Y0.496 Z-4.987 A194.7594 
N1412 X-228.959 Y0.271 Z-5.068 A193.7399 
N1413 X-229.044 Y0.044 Z-5.145 A192.7214 
N1414 X-229.128 Y-0.184 Z-5.218 A191.7045 
N1415 X-229.212 Y-0.413 Z-5.287 A190.6897 
N1416 X-229.295 Y-0.644 Z-5.352 A189.6775 
N1417 X-229.377 Y-0.877 Z-5.413 A188.6684 
N1418 X-229.459 Y-1.111 Z-5.470 A187.6627 
N1419 X-229.540 Y-1.347 Z-5.523 A186.6611 
N1420 X-229.621 Y-1.585 Z-5.572 A185.6639 
N1421 X-229.701 Y-1.824 Z-5.617 A184.6716 
N1422 X-229.780 Y-2.065 Z-5.658 A183.6847 
N1423 X-229.859 Y-2.307 Z-5.695 A182.7036 
N1424 X-229.938 Y-2.551 Z-5.728 A181.7288 
N1425 X-230.016 Y-2.797 Z-5.756 A180.7607 
N1426 X-230.093 Y-3.045 Z-5.781 A179.7996 
N1427 X-230.170 Y-3.295 Z-5.802 A178.8461 
N1428 X-230.246 Y-3.546 Z-5.819 A177.9005 
N1429 X-230.322 Y-3.800 Z-5.831 A176.9633 
N1430 X-230.397 Y-4.055 Z-5.840 A176.0347 
N1431 X-230.472 Y-4.312 Z-5.844 A175.1152 
N1432 X-230.546 Y-4.571 Z-5.844 A174.2050 
N1433 X-230.620 Y-4.832 Z-5.840 A173.3045 
N1434 X-230.693 Y-5.096 Z-5.832 A172.4139 
N1435 X-230.765 Y-5.361 Z-5.819 A171.5336 
N1436 X-230.838 Y-5.628 Z-5.802 A170.6638 
N1437 X-230.909 Y-5.897 Z-5.781 A169.8047 
N1438 X-230.980 Y-6.168 Z-5.756 A168.9568 
N1439 X-231.051 Y-6.442 Z-5.727 A168.1201 
N1440 X-231.121 Y-6.717 Z-5.693 A167.2949 
N1441 X-231.191 Y-6.995 Z-5.654 A166.4816 
N1442 X-231.260 Y-7.274 Z-5.612 A165.6801 
N1443 X-231.328 Y-7.556 Z-5.565 A164.8909 
N1444 X-231.396 Y-7.840 Z-5.513 A164.1139 
N1445 X-231.464 Y-8.126 Z-5.457 A163.3494 
N1446 X-231.531 Y-8.414 Z-5.397 A162.5975 
N1447 X-231.597 Y-8.704 Z-5.332 A161.8583 
N1448 X-231.663 Y-8.996 Z-5.263 A161.1318 
N1449 X-231.728 Y-9.291 Z-5.189 A160.4181 
N1450 X-231.792 Y-9.587 Z-5.111 A159.7172 
N1451 X-231.856 Y-9.885 Z-5.029 A159.0291 
N1452 X-231.920 Y-10.185 Z-4.942 A158.3536 
N1453 X-231.983 Y-10.488 Z-4.850 A157.6907 
N1454 X-232.045 Y-10.792 Z-4.754 A157.0402 
N1455 X-232.107 Y-11.098 Z-4.654 A156.4022 
N1456 X-232.168 Y-11.406 Z-4.549 A155.7763 
N1457 X-232.228 Y-11.715 Z-4.440 A155.1625 
N1458 X-232.288 Y-12.027 Z-4.327 A154.5607 
N1459 X-232.347 Y-12.340 Z-4.209 A153.9708 
N1460 X-232.405 Y-12.655 Z-4.086 A153.3926 
N1461 X-232.463 Y-12.971 Z-3.960 A152.8261 
N1462 X-232.520 Y-13.289 Z-3.829 A152.2712 
N1463 X-232.576 Y-13.609 Z-3.694 A151.7278 
N1464 X-232.632 Y-13.930 Z-3.554 A151.1960 
N1465 X-232.687 Y-14.253 Z-3.411 A150.6755 
N1466 X-232.741 Y-14.577 Z-3.263 A150.1663 
N1467 X-232.795 Y-14.903 Z-3.111 A149.6683 
N1468 X-232.847 Y-15.230 Z-2.955 A149.1815 
N1469 X-232.900 Y-15.558 Z-2.794 A148.7056 
N1470 X-232.951 Y-15.888 Z-2.630 A148.2405 
N1471 X-233.002 Y-16.219 Z-2.462 A147.7862 
N1472 X-233.052 Y-16.551 Z-2.290 A147.3423 
N1473 X-233.101 Y-16.884 Z-2.114 A146.9089 
N1474 X-233.150 Y-17.219 Z-1.934 A146.4856 
N1475 X-233.198 Y-17.554 Z-1.750 A146.0724 
N1476 X-233.245 Y-17.891 Z-1.563 A145.6691 
N1477 X-233.292 Y-18.229 Z-1.371 A145.2756 
N1478 X-233.338 Y-18.568 Z-1.177 A144.8917 
N1479 X-233.383 Y-18.908 Z-0.978 A144.5174 
N1480 X-233.428 Y-19.249 Z-0.776 A144.1526 
N1481 X-233.472 Y-19.591 Z-0.570 A143.7971 
N1482 X-233.515 Y-19.934 Z-0.361 A143.4509 
N1483 X-233.557 Y-20.277 Z-0.149 A143.1141 
N1484 X-233.599 Y-20.622 Z0.067 A142.7865 
N1485 X-233.641 Y-20.968 Z0.287 A142.4681 
N1486 X-233.681 Y-21.315 Z0.509 A142.1589 
N1487 X-233.721 Y-21.662 Z0.735 A141.8588 
N1488 X-233.761 Y-22.010 Z0.964 A141.5677 
N1489 X-233.799 Y-22.360 Z1.196 A141.2855 
N1490 X-233.838 Y-22.710 Z1.431 A141.0121 
N1491 X-233.875 Y-23.061 Z1.669 A140.7473 
N1492 X-233.912 Y-23.412 Z1.910 A140.4908 
N1493 X-233.949 Y-23.765 Z2.154 A140.2426 
N1494 X-233.985 Y-24.118 Z2.400 A140.0023 
N1495 X-234.020 Y-24.472 Z2.649 A139.7698 
N1496 X-234.055 Y-24.827 Z2.901 A139.5449 
N1497 X-234.089 Y-25.182 Z3.155 A139.3274 
N1498 X-234.123 Y-25.538 Z3.412 A139.1172 
N1499 X-234.157 Y-25.895 Z3.671 A138.9141 
N1500 X-234.189 Y-26.252 Z3.933 A138.7179 
N1501 X-234.222 Y-26.610 Z4.197 A138.5286 
N1502 X-234.254 Y-26.968 Z4.463 A138.3460 
N1503 X-234.285 Y-27.327 Z4.731 A138.1700 
N1504 X-234.316 Y-27.686 Z5.002 A138.0004 
N1505 X-234.346 Y-28.047 Z5.274 A137.8374 
N1506 X-234.375 Y-28.407 Z5.549 A137.6808 
N1507 X-234.404 Y-28.769 Z5.826 A137.5305 
N1508 X-234.432 Y-29.131 Z6.105 A137.3866 
N1509 X-234.460 Y-29.494 Z6.385 A137.2489 
N1510 X-234.487 Y-29.857 Z6.668 A137.1174 
N1511 X-234.514 Y-30.221 Z6.952 A136.9922 
N1512 X-234.540 Y-30.585 Z7.238 A136.8731 
N1513 X-234.566 Y-30.950 Z7.525 A136.7601 
N1514 X-234.591 Y-31.315 Z7.814 A136.6532 
N1515 X-234.616 Y-31.680 Z8.104 A136.5522 
N1516 X-234.640 Y-32.046 Z8.396 A136.4571 
N1517 X-234.664 Y-32.411 Z8.687 A136.3677 
N1518 X-234.688 Y-32.775 Z8.979 A136.2840 
N1519 X-234.710 Y-33.137 Z9.271 A136.2057 
N1520 X-234.733 Y-33.498 Z9.562 A136.1328 
N1521 X-234.755 Y-33.855 Z9.851 A136.0651 
N1522 X-234.776 Y-34.209 Z10.138 A136.0023 
N1523 X-234.797 Y-34.557 Z10.421 A135.9441 
N1524 X-234.817 Y-34.899 Z10.699 A135.8902 
N1525 X-234.836 Y-35.233 Z10.970 A135.8402 
N1526 X-234.855 Y-35.556 Z11.235 A135.7936 
N1527 X-234.872 Y-35.868 Z11.490 A135.7500 
N1528 X-234.889 Y-36.167 Z11.734 A135.7089 
N1529 X-234.904 Y-36.450 Z11.966 A135.6698 
N1530 X-234.919 Y-36.717 Z12.185 A135.6322 
N1531 X-234.932 Y-36.965 Z12.389 A135.5955 
N1532 X-234.944 Y-37.195 Z12.577 A135.5591 
N1533 X-234.955 Y-37.404 Z12.749 A135.5221 
N1534 X-234.965 Y-37.594 Z12.905 A135.4836 
N1535 X-234.974 Y-37.763 Z13.044 A135.4423 
N1536 X-234.982 Y-37.912 Z13.166 A135.3964 
N1537 X-234.988 Y-38.041 Z13.273 A135.3441 
N1538 X-234.994 Y-38.153 Z13.365 A135.2829 
N1539 X-234.999 Y-38.249 Z13.444 A135.2106 
N1540 X-235.003 Y-38.329 Z13.510 A135.1251 
N1541 X-235.006 Y-38.396 Z13.565 A134.9903 
N1542 X-235.008 Y-38.454 Z13.612 A134.6039 
N1543 X-235.009 Y-38.507 Z13.652 A133.6565 
N1544 X-235.010 Y-38.558 Z13.690 A131.9822 
N1545 X-235.010 Y-38.611 Z13.728 A129.3902 
N1546 X-235.009 Y-38.665 Z13.767 A125.9066 
N1547 X-235.008 Y-38.713 Z13.805 A122.3557 
N1548 X-235.007 Y-38.756 Z13.841 A118.7996 
N1549 X-235.007 Y-38.794 Z13.878 A115.2689 
N1550 X-235.006 Y-38.828 Z13.914 A111.8535 
N1551 X-235.005 Y-38.857 Z13.947 A108.7246 
N1552 X-235.005 Y-38.881 Z13.978 A105.8927 
N1553 X-235.005 Y-38.901 Z14.007 A103.3603 
N1554 X-235.004 Y-38.919 Z14.034 A100.9927 
N1555 X-235.004 Y-38.934 Z14.060 A98.7809 
N1556 X-235.003 Y-38.948 Z14.085 A96.7093 
N1557 X-235.003 Y-38.960 Z14.110 A94.7693 
N1558 X-235.002 Y-38.970 Z14.133 A92.9486 
N1559 X-235.001 Y-38.980 Z14.156 A91.1882 
N1560 X-235.000 Y-38.988 Z14.179 A89.4846 
N1561 X-234.999 Y-38.996 Z14.202 A87.8342 
N1562 X-234.998 Y-39.002 Z14.224 A86.2336 
N1563 X-234.997 Y-39.008 Z14.247 A84.6574 
N1564 X-234.995 Y-39.013 Z14.270 A83.1033 
N1565 X-234.994 Y-39.018 Z14.293 A81.5681 
N1566 X-234.992 Y-39.021 Z14.316 A80.0491 
N1567 X-234.990 Y-39.024 Z14.339 A78.5419 
N1568 X-234.988 Y-39.027 Z14.363 A77.0437 
N1569 X-234.986 Y-39.028 Z14.387 A75.5496 
N1570 X-234.984 Y-39.029 Z14.411 A74.0569 
N1571 X-234.981 Y-39.029 Z14.436 A72.5604 
N1572 X-234.978 Y-39.028 Z14.461 A71.0580 
N1573 X-234.975 Y-39.026 Z14.486 A69.5434 
N1574 X-234.971 Y-39.024 Z14.513 A68.0160 
N1575 X-234.967 Y-39.020 Z14.539 A66.4654 
N1576 X-234.962 Y-39.016 Z14.566 A64.8844 
N1577 X-234.958 Y-39.010 Z14.592 A63.2688 
N1578 X-234.952 Y-39.004 Z14.619 A61.6146 
N1579 X-234.947 Y-38.997 Z14.646 A59.9191 
N1580 X-234.941 Y-38.989 Z14.673 A58.1796 
N1581 X-234.934 Y-38.980 Z14.701 A56.3937 
N1582 X-234.927 Y-38.970 Z14.728 A54.5600 
N1583 X-234.920 Y-38.959 Z14.755 A52.6773 
N1584 X-234.913 Y-38.948 Z14.782 A50.7448 
N1585 X-234.905 Y-38.935 Z14.809 A48.7670 
N1586 X-234.897 Y-38.921 Z14.836 A46.7484 
N1587 X-234.889 Y-38.906 Z14.862 A44.6910 
N1588 X-234.880 Y-38.889 Z14.889 A42.5968 
N1589 X-234.872 Y-38.872 Z14.915 A40.4685 
N1590 X-234.863 Y-38.853 Z14.941 A38.3088 
N1591 X-234.854 Y-38.833 Z14.966 A36.1207 
N1592 X-234.845 Y-38.813 Z14.990 A33.9071 
N1593 X-234.837 Y-38.791 Z15.014 A31.6719 
N1594 X-234.828 Y-38.768 Z15.037 A29.4190 
N1595 X-234.820 Y-38.745 Z15.059 A27.1511 
N1596 X-234.811 Y-38.721 Z15.080 A24.8705 
N1597 X-234.803 Y-38.696 Z15.101 A22.5795 
N1598 X-234.795 Y-38.670 Z15.120 A20.2801 
N1599 X-234.787 Y-38.644 Z15.138 A17.9740 
N1600 X-234.780 Y-38.617 Z15.155 A15.6623 
N1601 X-234.772 Y-38.590 Z15.170 A13.3432 
N1602 X-234.765 Y-38.563 Z15.185 A11.0124 
N1603 X-234.758 Y-38.536 Z15.198 A8.6689 
N1604 X-234.752 Y-38.509 Z15.210 A6.3109 
N1605 X-234.745 Y-38.482 Z15.222 A3.9356 
N1606 X-234.739 Y-38.454 Z15.232 A1.5385 
N1607 X-234.733 Y-38.427 Z15.241 A359.1129 
N1608 X-234.728 Y-38.398 Z15.250 A356.6516 
N1609 X-234.722 Y-38.370 Z15.257 A354.1469 
N1610 X-234.716 Y-38.341 Z15.264 A351.5893 
N1611 X-234.711 Y-38.310 Z15.270 A348.9812 
N1612 X-234.705 Y-38.278 Z15.274 A346.3231 
N1613 X-234.699 Y-38.243 Z15.277 A343.6185 
N1614 X-234.692 Y-38.207 Z15.278 A340.8804 
N1615 X-234.686 Y-38.166 Z15.277 A338.1144 
N1616 X-234.679 Y-38.122 Z15.272 A335.3717 
N1617 X-234.672 Y-38.073 Z15.264 A332.7433 
N1618 X-234.665 Y-38.021 Z15.250 A330.4167 
N1619 X-234.658 Y-37.967 Z15.231 A328.6852 
N1620 X-234.651 Y-37.911 Z15.206 A327.5334 
N1621 X-234.642 Y-37.851 Z15.176 A326.9129 
N1622 X-234.632 Y-37.783 Z15.140 A326.5543 
N1623 X-234.621 Y-37.703 Z15.097 A326.4182 
N1624 X-234.607 Y-37.610 Z15.045 A326.3766 
N1625 X-234.591 Y-37.501 Z14.984 A326.4092 
N1626 X-234.572 Y-37.375 Z14.914 A326.4722 
N1627 X-234.550 Y-37.230 Z14.835 A326.5604 
N1628 X-234.525 Y-37.065 Z14.744 A326.6714 
N1629 X-234.496 Y-36.881 Z14.643 A326.8052 
N1630 X-234.465 Y-36.677 Z14.532 A326.9514 
N1631 X-234.430 Y-36.453 Z14.411 A327.1104 
N1632 X-234.392 Y-36.210 Z14.281 A327.2827 
N1633 X-234.352 Y-35.949 Z14.142 A327.4686 
N1634 X-234.308 Y-35.672 Z13.995 A327.6676 
N1635 X-234.261 Y-35.380 Z13.842 A327.8797 
N1636 X-234.212 Y-35.075 Z13.683 A328.1050 
N1637 X-234.161 Y-34.758 Z13.520 A328.3431 
N1638 X-234.107 Y-34.431 Z13.354 A328.5942 
N1639 X-234.052 Y-34.097 Z13.186 A328.8583 
N1640 X-233.995 Y-33.756 Z13.016 A329.1356 
N1641 X-233.937 Y-33.411 Z12.846 A329.4259 
N1642 X-233.877 Y-33.062 Z12.677 A329.7292 
N1643 X-233.817 Y-32.710 Z12.508 A330.0449 
N1644 X-233.755 Y-32.356 Z12.341 A330.3727 
N1645 X-233.692 Y-32.001 Z12.177 A330.7118 
N1646 X-233.629 Y-31.646 Z12.014 A331.0614 
N1647 X-233.565 Y-31.291 Z11.855 A331.4207 
N1648 X-233.500 Y-30.936 Z11.698 A331.7891 
N1649 X-233.434 Y-30.581 Z11.544 A332.1659 
N1650 X-233.368 Y-30.227 Z11.393 A332.5508 
N1651 X-233.301 Y-29.874 Z11.245 A332.9433 
N1652 X-233.233 Y-29.522 Z11.101 A333.3434 
N1653 X-233.165 Y-29.170 Z10.959 A333.7511 
N1654 X-233.096 Y-28.820 Z10.821 A334.1662 
N1655 X-233.026 Y-28.470 Z10.687 A334.5889 
N1656 X-232.956 Y-28.122 Z10.555 A335.0193 
N1657 X-232.886 Y-27.774 Z10.427 A335.4573 
N1658 X-232.814 Y-27.428 Z10.302 A335.9031 
N1659 X-232.742 Y-27.083 Z10.180 A336.3567 
N1660 X-232.670 Y-26.738 Z10.062 A336.8182 
N1661 X-232.596 Y-26.395 Z9.948 A337.2877 
N1662 X-232.522 Y-26.053 Z9.837 A337.7652 
N1663 X-232.448 Y-25.712 Z9.729 A338.2507 
N1664 X-232.373 Y-25.372 Z9.625 A338.7442 
N1665 X-232.297 Y-25.034 Z9.524 A339.2457 
N1666 X-232.221 Y-24.696 Z9.427 A339.7551 
N1667 X-232.144 Y-24.360 Z9.333 A340.2724 
N1668 X-232.066 Y-24.025 Z9.243 A340.7975 
N1669 X-231.988 Y-23.691 Z9.156 A341.3303 
N1670 X-231.909 Y-23.359 Z9.073 A341.8707 
N1671 X-231.829 Y-23.027 Z8.994 A342.4187 
N1672 X-231.749 Y-22.697 Z8.918 A342.9740 
N1673 X-231.668 Y-22.368 Z8.846 A343.5365 
N1674 X-231.586 Y-22.039 Z8.777 A344.1061 
N1675 X-231.504 Y-21.712 Z8.712 A344.6826 
N1676 X-231.421 Y-21.386 Z8.651 A345.2658 
N1677 X-231.337 Y-21.062 Z8.593 A345.8556 
N1678 X-231.253 Y-20.738 Z8.539 A346.4515 
N1679 X-231.168 Y-20.415 Z8.488 A347.0536 
N1680 X-231.082 Y-20.093 Z8.441 A347.6614 
N1681 X-230.996 Y-19.772 Z8.398 A348.2747 
N1682 X-230.909 Y-19.452 Z8.358 A348.8933 
N1683 X-230.821 Y-19.133 Z8.322 A349.5168 
N1684 X-230.732 Y-18.814 Z8.289 A350.1450 
N1685 X-230.643 Y-18.496 Z8.260 A350.7775 
N1686 X-230.552 Y-18.179 Z8.235 A351.4139 
N1687 X-230.461 Y-17.863 Z8.213 A352.0539 
N1688 X-230.370 Y-17.547 Z8.195 A352.6972 
N1689 X-230.277 Y-17.231 Z8.180 A353.3432 
N1690 X-230.183 Y-16.916 Z8.169 A353.9917 
N1691 X-230.089 Y-16.602 Z8.162 A354.6422 
N1692 X-229.994 Y-16.288 Z8.158 A355.2942 
N1693 X-229.897 Y-15.974 Z8.158 A355.9473 
N1694 X-229.800 Y-15.660 Z8.161 A356.6010 
N1695 X-229.702 Y-15.346 Z8.168 A357.2548 
N1696 X-229.603 Y-15.032 Z8.179 A357.9083 
N1697 X-229.503 Y-14.718 Z8.193 A358.5610 
N1698 X-229.402 Y-14.404 Z8.211 A359.2122 
N1699 X-229.299 Y-14.090 Z8.233 A359.8616 
N1700 X-229.196 Y-13.776 Z8.258 A0.5084 
N1701 X-229.092 Y-13.461 Z8.287 A1.1522 
N1702 X-228.986 Y-13.145 Z8.319 A1.7924 
N1703 X-228.879 Y-12.829 Z8.355 A2.4283 
N1704 X-228.772 Y-12.513 Z8.395 A3.0594 
N1705 X-228.662 Y-12.195 Z8.439 A3.6852 
N1706 X-228.552 Y-11.877 Z8.486 A4.3048 
N1707 X-228.440 Y-11.558 Z8.537 A4.9179 
N1708 X-228.327 Y-11.238 Z8.592 A5.5237 
N1709 X-228.213 Y-10.917 Z8.651 A6.1217 
N1710 X-228.097 Y-10.594 Z8.713 A6.7114 
N1711 X-227.980 Y-10.270 Z8.779 A7.2923 
N1712 X-227.862 Y-9.945 Z8.849 A7.8638 
N1713 X-227.742 Y-9.619 Z8.923 A8.4255 
N1714 X-227.620 Y-9.291 Z9.000 A8.9770 
N1715 X-227.497 Y-8.961 Z9.082 A9.5179 
N1716 X-227.372 Y-8.629 Z9.167 A10.0479 
N1717 X-227.246 Y-8.295 Z9.256 A10.5663 
N1718 X-227.118 Y-7.959 Z9.349 A11.0727 
N1719 X-226.988 Y-7.621 Z9.446 A11.5663 
N1720 X-226.857 Y-7.281 Z9.547 A12.0461 
N1721 X-226.724 Y-6.937 Z9.652 A12.5109 
N1722 X-226.588 Y-6.591 Z9.761 A12.9594 
N1723 X-226.451 Y-6.242 Z9.874 A13.3899 
N1724 X-226.311 Y-5.890 Z9.992 A13.8005 
N1725 X-226.170 Y-5.535 Z10.114 A14.1892 
N1726 X-226.026 Y-5.176 Z10.240 A14.5542 
N1727 X-225.880 Y-4.813 Z10.370 A14.8936 
N1728 X-225.732 Y-4.447 Z10.504 A15.2060 
N1729 X-225.582 Y-4.078 Z10.642 A15.4901 
N1730 X-225.430 Y-3.704 Z10.783 A15.7452 
N1731 X-225.276 Y-3.328 Z10.928 A15.9710 
N1732 X-225.121 Y-2.948 Z11.075 A16.1674 
N1733 X-224.963 Y-2.565 Z11.225 A16.3344 
N1734 X-224.805 Y-2.180 Z11.377 A16.4725 
N1735 X-224.645 Y-1.792 Z11.532 A16.5821 
N1736 X-224.485 Y-1.403 Z11.687 A16.6646 
N1737 X-224.323 Y-1.013 Z11.844 A16.7205 
N1738 X-224.161 Y-0.622 Z12.001 A16.7501 
N1739 X-223.999 Y-0.231 Z12.159 A16.7529 
N1740 X-223.836 Y0.158 Z12.315 A16.7282 
N1741 X-223.673 Y0.546 Z12.472 A16.6758 
N1742 X-223.511 Y0.931 Z12.626 A16.5952 
N1743 X-223.349 Y1.313 Z12.780 A16.4851 
N1744 X-223.188 Y1.692 Z12.931 A16.3447 
N1745 X-223.028 Y2.067 Z13.079 A16.1734 
N1746 X-222.870 Y2.437 Z13.224 A15.9692 
N1747 X-222.714 Y2.801 Z13.367 A15.7302 
N1748 X-222.560 Y3.160 Z13.505 A15.4552 
N1749 X-222.408 Y3.513 Z13.639 A15.1430 
N1750 X-222.259 Y3.859 Z13.769 A14.7918 
N1751 X-222.113 Y4.198 Z13.894 A14.4004 
N1752 X-221.969 Y4.530 Z14.014 A13.9677 
N1753 X-221.829 Y4.854 Z14.128 A13.4936 
N1754 X-221.693 Y5.171 Z14.237 A12.9781 
N1755 X-221.560 Y5.480 Z14.340 A12.4207 
N1756 X-221.431 Y5.780 Z14.437 A11.8210 
N1757 X-221.305 Y6.072 Z14.528 A11.1805 
N1758 X-221.184 Y6.356 Z14.613 A10.4981 
N1759 X-221.067 Y6.630 Z14.692 A9.7731 
N1760 X-220.955 Y6.896 Z14.765 A9.0064 
N1761 X-220.846 Y7.153 Z14.832 A8.1970 
N1762 X-220.742 Y7.400 Z14.893 A7.3449 
N1763 X-220.643 Y7.638 Z14.948 A6.4509 
N1764 X-220.548 Y7.866 Z14.997 A5.5154 
N1765 X-220.458 Y8.085 Z15.041 A4.5379 
N1766 X-220.372 Y8.294 Z15.080 A3.5179 
N1767 X-220.291 Y8.494 Z15.113 A2.4525 
N1768 X-220.215 Y8.685 Z15.142 A1.3392 
N1769 X-220.142 Y8.866 Z15.166 A0.1753 
N1770 X-220.074 Y9.038 Z15.186 A358.9604 
N1771 X-220.010 Y9.201 Z15.201 A357.6945 
N1772 X-219.950 Y9.356 Z15.212 A356.3806 
N1773 X-219.894 Y9.502 Z15.220 A355.0222 
N1774 X-219.843 Y9.639 Z15.224 A353.6217 
N1775 X-219.794 Y9.769 Z15.225 A352.1813 
N1776 X-219.750 Y9.891 Z15.223 A350.7015 
N1777 X-219.709 Y10.006 Z15.219 A349.1829 
N1778 X-219.671 Y10.115 Z15.212 A347.6260 
N1779 X-219.635 Y10.217 Z15.203 A346.0314 
N1780 X-219.603 Y10.313 Z15.193 A344.3991 
N1781 X-219.573 Y10.403 Z15.181 A342.7336 
N1782 X-219.545 Y10.488 Z15.167 A341.0410 
N1783 X-219.520 Y10.568 Z15.152 A339.3277 
N1784 X-219.497 Y10.643 Z15.136 A337.5984 
N1785 X-219.476 Y10.714 Z15.119 A335.8593 
N1786 X-219.457 Y10.781 Z15.100 A334.1169 
N1787 X-219.440 Y10.845 Z15.081 A332.3770 
N1788 X-219.425 Y10.905 Z15.061 A330.6446 
N1789 X-219.411 Y10.962 Z15.041 A328.9235 
N1790 X-219.399 Y11.017 Z15.020 A327.2168 
N1791 X-219.388 Y11.069 Z14.998 A325.5265 
N1792 X-219.378 Y11.118 Z14.976 A323.8536 
N1793 X-219.370 Y11.166 Z14.953 A322.1984 
N1794 X-219.362 Y11.212 Z14.929 A320.5606 
N1795 X-219.356 Y11.256 Z14.905 A318.9391 
N1796 X-219.350 Y11.298 Z14.880 A317.3325 
N1797 X-219.346 Y11.340 Z14.855 A315.7391 
N1798 X-219.342 Y11.380 Z14.829 A314.1569 
N1799 X-219.339 Y11.419 Z14.802 A312.5836 
N1800 X-219.336 Y11.456 Z14.775 A311.0169 
N1801 X-219.335 Y11.494 Z14.746 A309.4542 
N1802 X-219.334 Y11.530 Z14.717 A307.8924 
N1803 X-219.334 Y11.566 Z14.686 A306.3288 
N1804 X-219.334 Y11.601 Z14.654 A304.7607 
N1805 X-219.336 Y11.635 Z14.621 A303.1855 
N1806 X-219.338 Y11.670 Z14.587 A301.6010 
N1807 X-219.341 Y11.703 Z14.550 A300.0053 
N1808 X-219.344 Y11.737 Z14.512 A298.3972 
N1809 X-219.349 Y11.770 Z14.471 A296.7760 
N1810 X-219.355 Y11.803 Z14.429 A295.1407 
N1811 X-219.362 Y11.836 Z14.383 A293.4914 
N1812 X-219.370 Y11.868 Z14.335 A291.8292 
N1813 X-219.380 Y11.900 Z14.284 A290.1562 
N1814 X-219.391 Y11.931 Z14.230 A288.4755 
N1815 X-219.403 Y11.962 Z14.171 A286.7909 
N1816 X-219.418 Y11.992 Z14.109 A285.1073 
N1817 X-219.434 Y12.021 Z14.043 A283.4307 
N1818 X-219.452 Y12.049 Z13.971 A281.7694 
N1819 X-219.472 Y12.076 Z13.895 A280.1303 
N1820 X-219.495 Y12.102 Z13.812 A278.5194 
N1821 X-219.520 Y12.126 Z13.724 A276.9413 
N1822 X-219.547 Y12.149 Z13.630 A275.3999 
N1823 X-219.577 Y12.170 Z13.528 A273.9010 
N1824 X-219.609 Y12.189 Z13.420 A272.4455 
N1825 X-219.645 Y12.205 Z13.303 A271.0326 
N1826 X-219.683 Y12.220 Z13.179 A269.6607 
N1827 X-219.726 Y12.232 Z13.046 A268.3283 
N1828 X-219.771 Y12.241 Z12.904 A267.0341 
N1829 X-219.821 Y12.246 Z12.754 A265.7783 
N1830 X-219.874 Y12.248 Z12.595 A264.5617 
N1831 X-219.931 Y12.246 Z12.427 A263.3856 
N1832 X-219.992 Y12.240 Z12.250 A262.2517 
N1833 X-220.057 Y12.230 Z12.064 A261.1589 
N1834 X-220.125 Y12.215 Z11.870 A260.1056 
N1835 X-220.198 Y12.196 Z11.667 A259.0875 
N1836 X-220.274 Y12.173 Z11.455 A258.1012 
N1837 X-220.354 Y12.144 Z11.235 A257.1424 
N1838 X-220.437 Y12.111 Z11.008 A256.2087 
N1839 X-220.525 Y12.073 Z10.773 A255.2992 
N1840 X-220.615 Y12.030 Z10.531 A254.4135 
N1841 X-220.709 Y11.981 Z10.283 A253.5508 
N1842 X-220.806 Y11.927 Z10.029 A252.7112 
N1843 X-220.906 Y11.868 Z9.769 A251.8936 
N1844 X-221.009 Y11.804 Z9.504 A251.0956 
N1845 X-221.114 Y11.734 Z9.235 A250.3164 
N1846 X-221.221 Y11.660 Z8.961 A249.5553 
N1847 X-221.331 Y11.581 Z8.684 A248.8100 
N1848 X-221.443 Y11.497 Z8.403 A248.0792 
N1849 X-221.556 Y11.408 Z8.120 A247.3622 
N1850 X-221.671 Y11.315 Z7.835 A246.6577 
N1851 X-221.787 Y11.218 Z7.547 A245.9637 
N1852 X-221.904 Y11.116 Z7.259 A245.2785 
N1853 X-222.023 Y11.010 Z6.969 A244.6003 
N1854 X-222.142 Y10.900 Z6.679 A243.9273 
N1855 X-222.262 Y10.786 Z6.388 A243.2576 
N1856 X-222.382 Y10.669 Z6.098 A242.5895 
N1857 X-222.503 Y10.548 Z5.808 A241.9214 
N1858 X-222.624 Y10.424 Z5.519 A241.2518 
N1859 X-222.745 Y10.296 Z5.231 A240.5801 
N1860 X-222.867 Y10.164 Z4.944 A239.9058 
N1861 X-222.988 Y10.030 Z4.660 A239.2283 
N1862 X-223.109 Y9.892 Z4.377 A238.5471 
N1863 X-223.230 Y9.752 Z4.096 A237.8616 
N1864 X-223.350 Y9.608 Z3.818 A237.1717 
N1865 X-223.470 Y9.461 Z3.542 A236.4771 
N1866 X-223.590 Y9.312 Z3.269 A235.7772 
N1867 X-223.709 Y9.160 Z2.999 A235.0714 
N1868 X-223.827 Y9.006 Z2.731 A234.3596 
N1869 X-223.945 Y8.849 Z2.467 A233.6416 
N1870 X-224.062 Y8.689 Z2.206 A232.9167 
N1871 X-224.178 Y8.527 Z1.949 A232.1844 
N1872 X-224.295 Y8.363 Z1.695 A231.4439 
N1873 X-224.410 Y8.197 Z1.445 A230.6944 
N1874 X-224.526 Y8.029 Z1.198 A229.9351 
N1875 X-224.641 Y7.858 Z0.956 A229.1656 
N1876 X-224.755 Y7.686 Z0.717 A228.3858 
N1877 X-224.869 Y7.512 Z0.483 A227.5955 
N1878 X-224.983 Y7.336 Z0.252 A226.7946 
N1879 X-225.095 Y7.158 Z0.026 A225.9829 
N1880 X-225.208 Y6.978 Z-0.196 A225.1606 
N1881 X-225.319 Y6.796 Z-0.414 A224.3277 
N1882 X-225.430 Y6.613 Z-0.627 A223.4843 
N1883 X-225.541 Y6.428 Z-0.836 A222.6305 
N1884 X-225.650 Y6.241 Z-1.041 A221.7662 
N1885 X-225.760 Y6.053 Z-1.241 A220.8918 
N1886 X-225.868 Y5.863 Z-1.438 A220.0073 
N1887 X-225.975 Y5.671 Z-1.629 A219.1129 
N1888 X-226.082 Y5.478 Z-1.817 A218.2088 
N1889 X-226.189 Y5.283 Z-2.000 A217.2951 
N1890 X-226.294 Y5.087 Z-2.178 A216.3719 
N1891 X-226.399 Y4.889 Z-2.353 A215.4397 
N1892 X-226.503 Y4.690 Z-2.523 A214.4986 
N1893 X-226.606 Y4.490 Z-2.688 A213.5489 
N1894 X-226.709 Y4.288 Z-2.849 A212.5910 
N1895 X-226.810 Y4.084 Z-3.006 A211.6251 
N1896 X-226.911 Y3.880 Z-3.159 A210.6517 
N1897 X-227.012 Y3.673 Z-3.307 A209.6710 
N1898 X-227.111 Y3.466 Z-3.450 A208.6837 
N1899 X-227.210 Y3.257 Z-3.590 A207.6900 
N1900 X-227.308 Y3.046 Z-3.725 A206.6904 
N1901 X-227.405 Y2.835 Z-3.856 A205.6853 
N1902 X-227.502 Y2.622 Z-3.983 A204.6752 
N1903 X-227.597 Y2.407 Z-4.105 A203.6606 
N1904 X-227.692 Y2.191 Z-4.223 A202.6420 
N1905 X-227.787 Y1.974 Z-4.337 A201.6198 
N1906 X-227.880 Y1.755 Z-4.447 A200.5946 
N1907 X-227.973 Y1.535 Z-4.552 A199.5668 
N1908 X-228.065 Y1.314 Z-4.653 A198.5370 
N1909 X-228.157 Y1.091 Z-4.751 A197.5058 
N1910 X-228.247 Y0.867 Z-4.844 A196.4737 
N1911 X-228.337 Y0.641 Z-4.932 A195.4412 
N1912 X-228.427 Y0.414 Z-5.017 A194.4089 
N1913 X-228.515 Y0.185 Z-5.098 A193.3774 
N1914 X-228.603 Y-0.045 Z-5.174 A192.3472 
N1915 X-228.691 Y-0.276 Z-5.246 A191.3188 
N1916 X-228.777 Y-0.510 Z-5.315 A190.2928 
N1917 X-228.863 Y-0.744 Z-5.379 A189.2697 
N1918 X-228.949 Y-0.981 Z-5.439 A188.2499 
N1919 X-229.033 Y-1.219 Z-5.494 A187.2340 
N1920 X-229.117 Y-1.458 Z-5.546 A186.2225 
N1921 X-229.201 Y-1.700 Z-5.594 A185.2158 
N1922 X-229.284 Y-1.943 Z-5.637 A184.2144 
N1923 X-229.366 Y-2.187 Z-5.677 A183.2188 
N1924 X-229.448 Y-2.434 Z-5.712 A182.2295 
N1925 X-229.529 Y-2.682 Z-5.743 A181.2469 
N1926 X-229.609 Y-2.932 Z-5.770 A180.2715 
N1927 X-229.689 Y-3.184 Z-5.793 A179.3036 
N1928 X-229.768 Y-3.438 Z-5.812 A178.3437 
N1929 X-229.847 Y-3.693 Z-5.826 A177.3923 
N1930 X-229.925 Y-3.951 Z-5.836 A176.4497 
N1931 X-230.003 Y-4.210 Z-5.842 A175.5163 
N1932 X-230.079 Y-4.472 Z-5.844 A174.5924 
N1933 X-230.156 Y-4.735 Z-5.842 A173.6784 
N1934 X-230.232 Y-5.000 Z-5.835 A172.7745 
N1935 X-230.307 Y-5.268 Z-5.824 A171.8810 
N1936 X-230.382 Y-5.537 Z-5.808 A170.9984 
N1937 X-230.456 Y-5.808 Z-5.789 A170.1267 
N1938 X-230.529 Y-6.082 Z-5.765 A169.2663 
N1939 X-230.602 Y-6.357 Z-5.736 A168.4175 
N1940 X-230.674 Y-6.635 Z-5.703 A167.5804 
N1941 X-230.746 Y-6.915 Z-5.666 A166.7554 
N1942 X-230.817 Y-7.197 Z-5.624 A165.9426 
N1943 X-230.888 Y-7.481 Z-5.578 A165.1422 
N1944 X-230.958 Y-7.767 Z-5.527 A164.3544 
N1945 X-231.027 Y-8.055 Z-5.472 A163.5793 
N1946 X-231.096 Y-8.345 Z-5.412 A162.8171 
N1947 X-231.164 Y-8.637 Z-5.347 A162.0678 
N1948 X-231.232 Y-8.932 Z-5.279 A161.3316 
N1949 X-231.299 Y-9.228 Z-5.205 A160.6084 
N1950 X-231.365 Y-9.527 Z-5.127 A159.8983 
N1951 X-231.430 Y-9.827 Z-5.045 A159.2012 
N1952 X-231.495 Y-10.130 Z-4.958 A158.5170 
N1953 X-231.560 Y-10.434 Z-4.867 A157.8458 
N1954 X-231.623 Y-10.740 Z-4.771 A157.1873 
N1955 X-231.686 Y-11.049 Z-4.670 A156.5415 
N1956 X-231.749 Y-11.359 Z-4.565 A155.9082 
N1957 X-231.810 Y-11.670 Z-4.456 A155.2873 
N1958 X-231.871 Y-11.984 Z-4.342 A154.6786 
N1959 X-231.931 Y-12.299 Z-4.224 A154.0821 
N1960 X-231.991 Y-12.616 Z-4.101 A153.4976 
N1961 X-232.049 Y-12.935 Z-3.974 A152.9250 
N1962 X-232.107 Y-13.255 Z-3.843 A152.3644 
N1963 X-232.165 Y-13.577 Z-3.707 A151.8155 
N1964 X-232.221 Y-13.901 Z-3.567 A151.2783 
N1965 X-232.277 Y-14.225 Z-3.423 A150.7528 
N1966 X-232.332 Y-14.552 Z-3.274 A150.2388 
N1967 X-232.386 Y-14.879 Z-3.122 A149.7362 
N1968 X-232.440 Y-15.208 Z-2.965 A149.2449 
N1969 X-232.493 Y-15.539 Z-2.804 A148.7648 
N1970 X-232.545 Y-15.870 Z-2.639 A148.2957 
N1971 X-232.596 Y-16.203 Z-2.470 A147.8375 
N1972 X-232.646 Y-16.537 Z-2.297 A147.3900 
N1973 X-232.696 Y-16.872 Z-2.120 A146.9531 
N1974 X-232.745 Y-17.209 Z-1.939 A146.5266 
N1975 X-232.793 Y-17.546 Z-1.754 A146.1103 
N1976 X-232.841 Y-17.885 Z-1.566 A145.7042 
N1977 X-232.888 Y-18.225 Z-1.374 A145.3080 
N1978 X-232.934 Y-18.565 Z-1.178 A144.9216 
N1979 X-232.979 Y-18.907 Z-0.978 A144.5449 
N1980 X-233.024 Y-19.250 Z-0.775 A144.1779 
N1981 X-233.067 Y-19.593 Z-0.569 A143.8204 
N1982 X-233.111 Y-19.938 Z-0.358 A143.4723 
N1983 X-233.153 Y-20.283 Z-0.145 A143.1337 
N1984 X-233.195 Y-20.630 Z0.072 A142.8045 
N1985 X-233.236 Y-20.977 Z0.293 A142.4846 
N1986 X-233.276 Y-21.325 Z0.516 A142.1740 
N1987 X-233.316 Y-21.674 Z0.743 A141.8726 
N1988 X-233.355 Y-22.024 Z0.973 A141.5804 
N1989 X-233.393 Y-22.375 Z1.206 A141.2971 
N1990 X-233.431 Y-22.726 Z1.442 A141.0227 
N1991 X-233.468 Y-23.078 Z1.681 A140.7569 
N1992 X-233.505 Y-23.431 Z1.923 A140.4997 
N1993 X-233.540 Y-23.785 Z2.167 A140.2507 
N1994 X-233.576 Y-24.139 Z2.414 A140.0098 
N1995 X-233.610 Y-24.493 Z2.664 A139.7768 
N1996 X-233.645 Y-24.849 Z2.917 A139.5515 
N1997 X-233.678 Y-25.205 Z3.172 A139.3337 
N1998 X-233.711 Y-25.561 Z3.429 A139.1233 
N1999 X-233.743 Y-25.918 Z3.688 A138.9200 
N2000 X-233.775 Y-26.275 Z3.950 A138.7239 
N2001 X-233.807 Y-26.633 Z4.214 A138.5346 
N2002 X-233.838 Y-26.991 Z4.480 A138.3521 
N2003 X-233.868 Y-27.349 Z4.748 A138.1761 
N2004 X-233.897 Y-27.708 Z5.018 A138.0066 
N2005 X-233.925 Y-28.068 Z5.291 A137.8437 
N2006 X-233.952 Y-28.428 Z5.565 A137.6873 
N2007 X-233.978 Y-28.788 Z5.841 A137.5373 
N2008 X-234.004 Y-29.150 Z6.119 A137.3937 
N2009 X-234.028 Y-29.511 Z6.399 A137.2563 
N2010 X-234.053 Y-29.873 Z6.681 A137.1252 
N2011 X-234.076 Y-30.236 Z6.964 A137.0002 
N2012 X-234.099 Y-30.599 Z7.249 A136.8814 
N2013 X-234.121 Y-30.963 Z7.536 A136.7686 
N2014 X-234.142 Y-31.327 Z7.824 A136.6618 
N2015 X-234.163 Y-31.691 Z8.113 A136.5609 
N2016 X-234.184 Y-32.055 Z8.403 A136.4659 
N2017 X-234.203 Y-32.419 Z8.694 A136.3764 
N2018 X-234.222 Y-32.781 Z8.985 A136.2926 
N2019 X-234.241 Y-33.143 Z9.276 A136.2141 
N2020 X-234.259 Y-33.502 Z9.566 A136.1409 
N2021 X-234.276 Y-33.859 Z9.854 A136.0727 
N2022 X-234.292 Y-34.211 Z10.139 A136.0093 
N2023 X-234.308 Y-34.558 Z10.421 A135.9504 
N2024 X-234.323 Y-34.899 Z10.698 A135.8957 
N2025 X-234.338 Y-35.231 Z10.969 A135.8448 
N2026 X-234.351 Y-35.554 Z11.233 A135.7971 
N2027 X-234.364 Y-35.865 Z11.487 A135.7524 
N2028 X-234.376 Y-36.163 Z11.731 A135.7100 
N2029 X-234.387 Y-36.446 Z11.962 A135.6695 
N2030 X-234.397 Y-36.712 Z12.181 A135.6304 
N2031 X-234.406 Y-36.961 Z12.385 A135.5921 
N2032 X-234.415 Y-37.190 Z12.573 A135.5540 
N2033 X-234.422 Y-37.399 Z12.745 A135.5152 
N2034 X-234.429 Y-37.589 Z12.901 A135.4748 
N2035 X-234.435 Y-37.758 Z13.040 A135.4316 
N2036 X-234.440 Y-37.908 Z13.163 A135.3840 
N2037 X-234.444 Y-38.038 Z13.270 A135.3303 
N2038 X-234.448 Y-38.151 Z13.363 A135.2682 
N2039 X-234.451 Y-38.246 Z13.442 A135.1958 
N2040 X-234.453 Y-38.327 Z13.508 A135.1114 
N2041 X-234.455 Y-38.395 Z13.564 A134.9810 
N2042 X-234.456 Y-38.453 Z13.611 A134.6072 
N2043 X-234.456 Y-38.507 Z13.652 A133.6558 
N2044 X-234.456 Y-38.558 Z13.690 A132.0059 
N2045 X-234.454 Y-38.610 Z13.727 A129.4420 
N2046 X-234.453 Y-38.664 Z13.766 A125.9836 
N2047 X-234.452 Y-38.712 Z13.804 A122.4644 
N2048 X-234.451 Y-38.754 Z13.840 A118.9423 
N2049 X-234.451 Y-38.792 Z13.876 A115.4459 
N2050 X-234.451 Y-38.826 Z13.911 A112.0675 
N2051 X-234.451 Y-38.854 Z13.944 A108.9757 
N2052 X-234.452 Y-38.878 Z13.975 A106.1725 
N2053 X-234.452 Y-38.899 Z14.003 A103.6503 
N2054 X-234.453 Y-38.915 Z14.028 A101.4310 
N2055 X-234.453 Y-38.930 Z14.053 A99.3532 
N2056 X-234.453 Y-38.943 Z14.076 A97.4184 
N2057 X-234.453 Y-38.954 Z14.098 A95.6121 
N2058 X-234.453 Y-38.964 Z14.118 A93.9348 
N2059 X-234.453 Y-38.973 Z14.138 A92.3737 
N2060 X-234.453 Y-38.981 Z14.158 A90.8757 
N2061 X-234.453 Y-38.988 Z14.177 A89.4380 
N2062 X-234.452 Y-38.995 Z14.196 A88.0585 
N2063 X-234.451 Y-39.000 Z14.215 A86.7356 
N2064 X-234.451 Y-39.005 Z14.233 A85.4645 
N2065 X-234.450 Y-39.010 Z14.252 A84.2208 
N2066 X-234.449 Y-39.014 Z14.270 A83.0017 
N2067 X-234.448 Y-39.017 Z14.289 A81.8043 
N2068 X-234.446 Y-39.020 Z14.308 A80.6252 
N2069 X-234.445 Y-39.022 Z14.328 A79.4604 
N2070 X-234.443 Y-39.024 Z14.347 A78.3048 
N2071 X-234.441 Y-39.026 Z14.367 A77.1561 
N2072 X-234.439 Y-39.027 Z14.387 A76.0082 
N2073 X-234.437 Y-39.027 Z14.408 A74.8549 
N2074 X-234.434 Y-39.026 Z14.429 A73.6985 
N2075 X-234.431 Y-39.025 Z14.451 A72.5262 
N2076 X-234.428 Y-39.024 Z14.474 A71.3429 
N2077 X-234.424 Y-39.021 Z14.498 A70.1378 
N2078 X-234.420 Y-39.018 Z14.522 A68.9151 
N2079 X-234.415 Y-39.014 Z14.547 A67.6625 
N2080 X-234.410 Y-39.008 Z14.572 A66.3460 
N2081 X-234.403 Y-39.003 Z14.598 A64.9524 
N2082 X-234.397 Y-38.996 Z14.625 A63.4800 
N2083 X-234.389 Y-38.988 Z14.652 A61.9256 
N2084 X-234.380 Y-38.980 Z14.679 A60.2841 
N2085 X-234.371 Y-38.970 Z14.707 A58.5520 
N2086 X-234.360 Y-38.959 Z14.735 A56.7266 
N2087 X-234.349 Y-38.947 Z14.763 A54.8051 
N2088 X-234.337 Y-38.934 Z14.792 A52.7848 
N2089 X-234.324 Y-38.920 Z14.821 A50.6658 
N2090 X-234.310 Y-38.904 Z14.850 A48.4602 
N2091 X-234.296 Y-38.886 Z14.879 A46.1726 
N2092 X-234.281 Y-38.867 Z14.908 A43.8061 
N2093 X-234.265 Y-38.846 Z14.937 A41.3663 
N2094 X-234.250 Y-38.823 Z14.966 A38.8575 
N2095 X-234.234 Y-38.799 Z14.994 A36.3153 
N2096 X-234.218 Y-38.773 Z15.021 A33.7437 
N2097 X-234.202 Y-38.747 Z15.046 A31.1507 
N2098 X-234.186 Y-38.719 Z15.071 A28.5433 
N2099 X-234.170 Y-38.690 Z15.094 A25.9278 
N2100 X-234.155 Y-38.660 Z15.116 A23.3111 
N2101 X-234.140 Y-38.630 Z15.136 A20.7000 
N2102 X-234.126 Y-38.599 Z15.155 A18.1017 
N2103 X-234.112 Y-38.568 Z15.172 A15.5209 
N2104 X-234.099 Y-38.538 Z15.187 A12.9541 
N2105 X-234.087 Y-38.508 Z15.200 A10.4056 
N2106 X-234.075 Y-38.479 Z15.212 A7.8789 
N2107 X-234.064 Y-38.451 Z15.222 A5.3768 
N2108 X-234.054 Y-38.423 Z15.231 A2.9006 
N2109 X-234.044 Y-38.397 Z15.239 A0.4499 
N2110 X-234.036 Y-38.371 Z15.246 A358.0222 
N2111 X-234.027 Y-38.346 Z15.253 A355.6128 
N2112 X-234.020 Y-38.321 Z15.258 A353.2172 
N2113 X-234.012 Y-38.297 Z15.263 A350.8385 
N2114 X-234.005 Y-38.272 Z15.266 A348.4699 
N2115 X-233.999 Y-38.247 Z15.270 A346.1015 
N2116 X-233.992 Y-38.221 Z15.272 A343.7276 
N2117 X-233.985 Y-38.193 Z15.273 A341.3459 
N2118 X-233.978 Y-38.164 Z15.273 A338.9605 
N2119 X-233.970 Y-38.133 Z15.272 A336.5843 
N2120 X-233.963 Y-38.097 Z15.267 A334.2814 
N2121 X-233.956 Y-38.057 Z15.259 A332.1195 
N2122 X-233.949 Y-38.013 Z15.247 A330.2850 
N2123 X-233.942 Y-37.966 Z15.229 A328.8309 
N2124 X-233.935 Y-37.914 Z15.207 A327.7646 
N2125 X-233.927 Y-37.856 Z15.179 A327.0510 
N2126 X-233.918 Y-37.791 Z15.144 A326.6392 
N2127 X-233.907 Y-37.716 Z15.103 A326.4734 
N2128 X-233.895 Y-37.627 Z15.054 A326.4118 
N2129 X-233.880 Y-37.523 Z14.996 A326.4333 
N2130 X-233.862 Y-37.402 Z14.929 A326.4890 
N2131 X-233.842 Y-37.262 Z14.852 A326.5735 
N2132 X-233.819 Y-37.103 Z14.765 A326.6843 
N2133 X-233.792 Y-36.924 Z14.667 A326.8082 
N2134 X-233.763 Y-36.725 Z14.558 A326.9457 
N2135 X-233.730 Y-36.506 Z14.440 A327.0972 
N2136 X-233.694 Y-36.268 Z14.312 A327.2630 
N2137 X-233.655 Y-36.011 Z14.174 A327.4431 
N2138 X-233.614 Y-35.737 Z14.029 A327.6372 
N2139 X-233.569 Y-35.448 Z13.877 A327.8451 
N2140 X-233.522 Y-35.144 Z13.719 A328.0667 
N2141 X-233.473 Y-34.829 Z13.557 A328.3017 
N2142 X-233.421 Y-34.503 Z13.391 A328.5500 
N2143 X-233.368 Y-34.169 Z13.222 A328.8117 
N2144 X-233.313 Y-33.828 Z13.052 A329.0869 
N2145 X-233.256 Y-33.482 Z12.881 A329.3755 
N2146 X-233.198 Y-33.131 Z12.710 A329.6774 
N2147 X-233.139 Y-32.777 Z12.540 A329.9922 
N2148 X-233.079 Y-32.422 Z12.372 A330.3194 
N2149 X-233.018 Y-32.065 Z12.206 A330.6583 
N2150 X-232.956 Y-31.707 Z12.042 A331.0081 
N2151 X-232.893 Y-31.349 Z11.881 A331.3680 
N2152 X-232.829 Y-30.992 Z11.722 A331.7374 
N2153 X-232.765 Y-30.634 Z11.567 A332.1156 
N2154 X-232.700 Y-30.277 Z11.414 A332.5021 
N2155 X-232.634 Y-29.921 Z11.265 A332.8966 
N2156 X-232.567 Y-29.566 Z11.119 A333.2990 
N2157 X-232.500 Y-29.211 Z10.976 A333.7091 
N2158 X-232.432 Y-28.857 Z10.836 A334.1270 
N2159 X-232.364 Y-28.505 Z10.700 A334.5527 
N2160 X-232.295 Y-28.153 Z10.567 A334.9862 
N2161 X-232.225 Y-27.802 Z10.437 A335.4276 
N2162 X-232.154 Y-27.452 Z10.311 A335.8770 
N2163 X-232.083 Y-27.103 Z10.188 A336.3345 
N2164 X-232.011 Y-26.756 Z10.068 A336.8002 
N2165 X-231.939 Y-26.409 Z9.952 A337.2740 
N2166 X-231.866 Y-26.063 Z9.840 A337.7561 
N2167 X-231.792 Y-25.719 Z9.731 A338.2464 
N2168 X-231.717 Y-25.376 Z9.625 A338.7449 
N2169 X-231.642 Y-25.033 Z9.524 A339.2517 
N2170 X-231.567 Y-24.692 Z9.425 A339.7666 
N2171 X-231.490 Y-24.352 Z9.331 A340.2897 
N2172 X-231.413 Y-24.014 Z9.240 A340.8208 
N2173 X-231.335 Y-23.676 Z9.152 A341.3599 
N2174 X-231.257 Y-23.339 Z9.069 A341.9068 
N2175 X-231.178 Y-23.004 Z8.988 A342.4614 
N2176 X-231.098 Y-22.670 Z8.912 A343.0237 
N2177 X-231.017 Y-22.337 Z8.839 A343.5934 
N2178 X-230.936 Y-22.005 Z8.770 A344.1704 
N2179 X-230.854 Y-21.674 Z8.705 A344.7545 
N2180 X-230.771 Y-21.344 Z8.643 A345.3455 
N2181 X-230.688 Y-21.015 Z8.585 A345.9431 
N2182 X-230.604 Y-20.688 Z8.531 A346.5473 
N2183 X-230.519 Y-20.361 Z8.480 A347.1576 
N2184 X-230.434 Y-20.035 Z8.433 A347.7738 
N2185 X-230.348 Y-19.710 Z8.390 A348.3957 
N2186 X-230.261 Y-19.386 Z8.350 A349.0230 
N2187 X-230.173 Y-19.062 Z8.314 A349.6553 
N2188 X-230.084 Y-18.740 Z8.282 A350.2923 
N2189 X-229.995 Y-18.418 Z8.254 A350.9337 
N2190 X-229.905 Y-18.097 Z8.229 A351.5791 
N2191 X-229.814 Y-17.776 Z8.208 A352.2280 
N2192 X-229.722 Y-17.456 Z8.190 A352.8802 
N2193 X-229.629 Y-17.137 Z8.177 A353.5352 
N2194 X-229.535 Y-16.818 Z8.167 A354.1924 
N2195 X-229.441 Y-16.499 Z8.160 A354.8516 
N2196 X-229.345 Y-16.180 Z8.158 A355.5122 
N2197 X-229.249 Y-15.862 Z8.159 A356.1737 
N2198 X-229.152 Y-15.544 Z8.163 A356.8357 
N2199 X-229.053 Y-15.226 Z8.172 A357.4976 
N2200 X-228.954 Y-14.908 Z8.184 A358.1589 
N2201 X-228.854 Y-14.590 Z8.200 A358.8191 
N2202 X-228.752 Y-14.272 Z8.220 A359.4776 
N2203 X-228.650 Y-13.953 Z8.243 A0.1338 
N2204 X-228.546 Y-13.634 Z8.270 A0.7871 
N2205 X-228.441 Y-13.315 Z8.301 A1.4370 
N2206 X-228.335 Y-12.996 Z8.336 A2.0828 
N2207 X-228.228 Y-12.675 Z8.374 A2.7240 
N2208 X-228.120 Y-12.354 Z8.417 A3.3598 
N2209 X-228.010 Y-12.032 Z8.463 A3.9897 
N2210 X-227.899 Y-11.710 Z8.513 A4.6130 
N2211 X-227.787 Y-11.386 Z8.566 A5.2291 
N2212 X-227.673 Y-11.062 Z8.624 A5.8374 
N2213 X-227.558 Y-10.736 Z8.685 A6.4373 
N2214 X-227.441 Y-10.409 Z8.751 A7.0283 
N2215 X-227.323 Y-10.081 Z8.820 A7.6098 
N2216 X-227.204 Y-9.751 Z8.893 A8.1814 
N2217 X-227.083 Y-9.420 Z8.969 A8.7425 
N2218 X-226.961 Y-9.087 Z9.050 A9.2929 
N2219 X-226.837 Y-8.753 Z9.135 A9.8321 
N2220 X-226.711 Y-8.417 Z9.223 A10.3595 
N2221 X-226.584 Y-8.078 Z9.316 A10.8746 
N2222 X-226.455 Y-7.738 Z9.412 A11.3768 
N2223 X-226.324 Y-7.395 Z9.512 A11.8651 
N2224 X-226.191 Y-7.050 Z9.617 A12.3384 
N2225 X-226.057 Y-6.702 Z9.726 A12.7954 
N2226 X-225.920 Y-6.352 Z9.839 A13.2345 
N2227 X-225.782 Y-5.998 Z9.956 A13.6539 
N2228 X-225.641 Y-5.642 Z10.077 A14.0517 
N2229 X-225.498 Y-5.282 Z10.202 A14.4259 
N2230 X-225.353 Y-4.920 Z10.332 A14.7747 
N2231 X-225.207 Y-4.554 Z10.465 A15.0967 
N2232 X-225.058 Y-4.185 Z10.602 A15.3905 
N2233 X-224.907 Y-3.812 Z10.742 A15.6554 
N2234 X-224.755 Y-3.437 Z10.885 A15.8909 
N2235 X-224.601 Y-3.060 Z11.032 A16.0971 
N2236 X-224.445 Y-2.680 Z11.180 A16.2738 
N2237 X-224.288 Y-2.297 Z11.331 A16.4214 
N2238 X-224.130 Y-1.913 Z11.483 A16.5405 
N2239 X-223.972 Y-1.528 Z11.637 A16.6324 
N2240 X-223.813 Y-1.142 Z11.792 A16.6987 
N2241 X-223.653 Y-0.756 Z11.947 A16.7398 
N2242 X-223.492 Y-0.371 Z12.102 A16.7554 
N2243 X-223.331 Y0.013 Z12.257 A16.7443 
N2244 X-223.169 Y0.395 Z12.411 A16.7063 
N2245 X-223.007 Y0.775 Z12.564 A16.6410 
N2246 X-222.844 Y1.152 Z12.715 A16.5475 
N2247 X-222.682 Y1.526 Z12.864 A16.4249 
N2248 X-222.521 Y1.896 Z13.011 A16.2725 
N2249 X-222.360 Y2.262 Z13.156 A16.0891 
N2250 X-222.200 Y2.623 Z13.297 A15.8724 
N2251 X-222.042 Y2.979 Z13.435 A15.6213 
N2252 X-221.885 Y3.329 Z13.569 A15.3344 
N2253 X-221.729 Y3.674 Z13.700 A15.0101 
N2254 X-221.576 Y4.012 Z13.826 A14.6469 
N2255 X-221.425 Y4.345 Z13.947 A14.2435 
N2256 X-221.276 Y4.670 Z14.063 A13.7991 
N2257 X-221.130 Y4.989 Z14.175 A13.3139 
N2258 X-220.986 Y5.300 Z14.280 A12.7872 
N2259 X-220.846 Y5.604 Z14.380 A12.2184 
N2260 X-220.709 Y5.900 Z14.475 A11.6082 
N2261 X-220.575 Y6.188 Z14.563 A10.9572 
N2262 X-220.445 Y6.468 Z14.646 A10.2639 
N2263 X-220.319 Y6.740 Z14.723 A9.5290 
N2264 X-220.197 Y7.003 Z14.793 A8.7529 
N2265 X-220.078 Y7.257 Z14.858 A7.9345 
N2266 X-219.964 Y7.503 Z14.917 A7.0749 
N2267 X-219.854 Y7.739 Z14.970 A6.1751 
N2268 X-219.749 Y7.966 Z15.017 A5.2360 
N2269 X-219.649 Y8.183 Z15.059 A4.2590 
N2270 X-219.553 Y8.391 Z15.096 A3.2443 
N2271 X-219.462 Y8.590 Z15.127 A2.1915 
N2272 X-219.375 Y8.780 Z15.154 A1.0601 
N2273 X-219.292 Y8.961 Z15.176 A359.8488 
N2274 X-219.213 Y9.132 Z15.194 A358.5579 
N2275 X-219.139 Y9.295 Z15.207 A357.1870 
N2276 X-219.070 Y9.449 Z15.216 A355.7762 
N2277 X-219.004 Y9.595 Z15.222 A354.3270 
N2278 X-218.943 Y9.732 Z15.224 A352.8408 
N2279 X-218.886 Y9.861 Z15.223 A351.3184 
N2280 X-218.833 Y9.983 Z15.219 A349.7602 
N2281 X-218.784 Y10.097 Z15.212 A348.1666 
N2282 X-218.738 Y10.205 Z15.203 A346.5378 
N2283 X-218.695 Y10.305 Z15.193 A344.8711 
N2284 X-218.655 Y10.400 Z15.180 A343.1712 
N2285 X-218.618 Y10.488 Z15.166 A341.4451 
N2286 X-218.584 Y10.571 Z15.150 A339.7005 
N2287 X-218.553 Y10.648 Z15.133 A337.9415 
N2288 X-218.525 Y10.720 Z15.115 A336.1747 
N2289 X-218.500 Y10.788 Z15.097 A334.4084 
N2290 X-218.477 Y10.852 Z15.077 A332.6500 
N2291 X-218.457 Y10.912 Z15.057 A330.9060 
N2292 X-218.438 Y10.968 Z15.037 A329.1813 
N2293 X-218.422 Y11.022 Z15.016 A327.4801 
N2294 X-218.408 Y11.072 Z14.995 A325.8047 
N2295 X-218.395 Y11.120 Z14.973 A324.1569 
N2296 X-218.384 Y11.166 Z14.951 A322.5371 
N2297 X-218.375 Y11.209 Z14.929 A320.9450 
N2298 X-218.366 Y11.251 Z14.907 A319.3797 
N2299 X-218.359 Y11.291 Z14.884 A317.8392 
N2300 X-218.353 Y11.329 Z14.861 A316.3214 
N2301 X-218.348 Y11.366 Z14.837 A314.8237 
N2302 X-218.344 Y11.402 Z14.813 A313.3433 
N2303 X-218.341 Y11.437 Z14.788 A311.8773 
N2304 X-218.338 Y11.472 Z14.763 A310.4223 
N2305 X-218.337 Y11.505 Z14.737 A308.9744 
N2306 X-218.336 Y11.538 Z14.710 A307.5294 
N2307 X-218.336 Y11.571 Z14.682 A306.0835 
N2308 X-218.337 Y11.603 Z14.652 A304.6327 
N2309 X-218.339 Y11.635 Z14.622 A303.1735 
N2310 X-218.342 Y11.667 Z14.590 A301.7025 
N2311 X-218.345 Y11.698 Z14.556 A300.2166 
N2312 X-218.350 Y11.730 Z14.520 A298.7137 
N2313 X-218.356 Y11.761 Z14.483 A297.1918 
N2314 X-218.363 Y11.793 Z14.442 A295.6493 
N2315 X-218.372 Y11.824 Z14.399 A294.0838 
N2316 X-218.382 Y11.856 Z14.353 A292.4954 
N2317 X-218.394 Y11.887 Z14.304 A290.8848 
N2318 X-218.408 Y11.918 Z14.252 A289.2538 
N2319 X-218.424 Y11.949 Z14.195 A287.6056 
N2320 X-218.442 Y11.979 Z14.135 A285.9441 
N2321 X-218.463 Y12.009 Z14.070 A284.2741 
N2322 X-218.486 Y12.037 Z14.000 A282.6049 
N2323 X-218.511 Y12.065 Z13.924 A280.9462 
N2324 X-218.540 Y12.092 Z13.843 A279.3054 
N2325 X-218.571 Y12.117 Z13.755 A277.6885 
N2326 X-218.606 Y12.141 Z13.661 A276.0998 
N2327 X-218.643 Y12.163 Z13.560 A274.5485 
N2328 X-218.684 Y12.183 Z13.450 A273.0407 
N2329 X-218.727 Y12.201 Z13.332 A271.5769 
N2330 X-218.775 Y12.216 Z13.206 A270.1566 
N2331 X-218.826 Y12.229 Z13.071 A268.7778 
N2332 X-218.882 Y12.239 Z12.927 A267.4393 
N2333 X-218.942 Y12.245 Z12.774 A266.1407 
N2334 X-219.006 Y12.247 Z12.612 A264.8825 
N2335 X-219.074 Y12.246 Z12.441 A263.6657 
N2336 X-219.146 Y12.240 Z12.260 A262.4934 
N2337 X-219.222 Y12.229 Z12.070 A261.3649 
N2338 X-219.302 Y12.215 Z11.872 A260.2794 
N2339 X-219.386 Y12.195 Z11.664 A259.2325 
N2340 X-219.475 Y12.171 Z11.448 A258.2202 
N2341 X-219.567 Y12.142 Z11.223 A257.2379 
N2342 X-219.663 Y12.108 Z10.991 A256.2825 
N2343 X-219.763 Y12.069 Z10.752 A255.3528 
N2344 X-219.866 Y12.024 Z10.506 A254.4483 
N2345 X-219.973 Y11.974 Z10.253 A253.5685 
N2346 X-220.082 Y11.919 Z9.995 A252.7133 
N2347 X-220.194 Y11.858 Z9.731 A251.8813 
N2348 X-220.309 Y11.793 Z9.462 A251.0699 
N2349 X-220.426 Y11.722 Z9.188 A250.2784 
N2350 X-220.545 Y11.646 Z8.911 A249.5058 
N2351 X-220.666 Y11.565 Z8.630 A248.7494 
N2352 X-220.788 Y11.479 Z8.346 A248.0083 
N2353 X-220.912 Y11.388 Z8.059 A247.2813 
N2354 X-221.037 Y11.293 Z7.770 A246.5670 
N2355 X-221.163 Y11.194 Z7.480 A245.8635 
N2356 X-221.290 Y11.090 Z7.188 A245.1690 
N2357 X-221.417 Y10.982 Z6.896 A244.4814 
N2358 X-221.545 Y10.870 Z6.603 A243.7988 
N2359 X-221.673 Y10.755 Z6.310 A243.1195 
N2360 X-221.802 Y10.635 Z6.017 A242.4415 
N2361 X-221.930 Y10.512 Z5.724 A241.7631 
N2362 X-222.058 Y10.386 Z5.433 A241.0830 
N2363 X-222.186 Y10.256 Z5.143 A240.4007 
N2364 X-222.314 Y10.122 Z4.854 A239.7157 
N2365 X-222.441 Y9.985 Z4.567 A239.0273 
N2366 X-222.567 Y9.845 Z4.282 A238.3348 
N2367 X-222.693 Y9.702 Z3.999 A237.6378 
N2368 X-222.819 Y9.556 Z3.719 A236.9360 
N2369 X-222.943 Y9.407 Z3.441 A236.2290 
N2370 X-223.067 Y9.255 Z3.166 A235.5160 
N2371 X-223.189 Y9.100 Z2.894 A234.7966 
N2372 X-223.311 Y8.943 Z2.625 A234.0712 
N2373 X-223.431 Y8.783 Z2.358 A233.3396 
N2374 X-223.551 Y8.620 Z2.096 A232.6011 
