; PROGRAM NAME: B00000051
; ORDER       : B000000
; OPER. NAME  : Slot Finishing:151
; OPER. DESCR.: Finishing slot/fazy wk
; OPER. TYPE  : slotMillFinish
; GEO. OPTION : 1
; MACHINE     : HSTM_500_SIM840D_Py
;             : HSTM500 - HAMUEL: 5-axis milling machine - SIM840D Traori PP_Script
; CONTROL     : SINUMERIK 840D
; created:   2021-11-15 10:00:50.208940
;-------DODATKOWE DANE-------------------
; PROGRAMISTA : Mariusz Malec
; PARTID      : 139T001534P1001_-
;  ap         : 5.0
;  ae         : 0.5
;  lean_angle : 0.0
;  rad_Offset : 2.0
;  fin_Offset : 1.6
;----------------------------------------
;RAPORT("TB000000","Slot Finishing:151")
N10 TRAFOOF
N11 D0
N12 G90 G94
N13 G0 G53 D0 Z550 B0
N14 STOPRE
M9 ; chlodziwo wyl
; --- Slot Finishing:151 - Finishing slot/fazy wk ---
N16 ;ToolChange : concat=None ,current_tdmid=None, PP.tdmId=940790
N17 TRAFOOF
N18 G0 G53 D0 X-200 Y150 Z550 B0
N19 T="7740790"
;RAPORT("TB000000","ToolChangeStart 7740790")
N20 M6
;RAPORT("TB000000","ToolChangeEnd")
N21 STOPRE
N22 MSG(" TLID=940790 D=8.0 R=0.0 Ang=18.0 Len=135.0 ")
N23 ; (Preloading tool)
N24 T="7758024"
N25 S7161 M03
N26 STOPRE
N27 CYCLE832(0.01,1,1)
N28 G0 G53 A49.0461 B-27.0000
N29 TRAORI
N30 G54 D1
N31 D1 
N32 TRANS  X=R18 B=R39
STOPRE
E_ZDARZ=300006
;ACS_FINISH_ROOT_BETE=7740790
STOPRE
N33 ; DELTA A > 40.1
N34 TRAFOOF
N35 D1
N36 STOPRE
N37 G00 G54 Z251.000
N38 G01 A49.0461 F10000
N39 TRAORI
N40 G54 D1
N41 STOPRE
N42 TRANS  X=R18 B=R39
N43 G00 X-207.891 Y-39.868 Z51.769 A49.0461 B-27.0000 
N44 M342 ; chlodziwo woda
N45 X-185.192 Y-6.222 Z22.568 
N46 G01 X-185.124 Y-12.783 Z15.021 F859 
N47 X-185.122 Y-13.001 Z14.770 
N48 X-185.120 Y-13.220 Z14.518 
N49 X-185.117 Y-13.439 Z14.267 
N50 X-185.115 Y-13.715 Z13.949 
N51 X-185.113 Y-13.902 Z13.734 A49.0565 B-26.9999 
N52 X-185.111 Y-14.089 Z13.519 A49.0668 B-26.9998 
N53 X-185.109 Y-14.276 Z13.304 A49.0772 B-26.9998 
N54 X-185.107 Y-14.463 Z13.088 A49.0876 B-26.9997 
N55 X-185.105 Y-14.650 Z12.873 A49.0980 B-26.9997 
N56 X-185.103 Y-14.837 Z12.658 A49.1084 B-26.9996 
N57 X-185.101 Y-15.024 Z12.443 A49.1188 B-26.9995 
N58 X-185.099 Y-15.211 Z12.227 A49.1292 B-26.9995 
N59 X-185.097 Y-15.399 Z12.012 A49.1395 B-26.9994 
N60 X-185.095 Y-15.586 Z11.797 A49.1499 B-26.9993 
N61 X-185.093 Y-15.773 Z11.582 A49.1603 B-26.9993 
N62 X-185.092 Y-15.960 Z11.366 A49.1707 B-26.9992 
N63 X-185.090 Y-16.147 Z11.151 A49.1811 B-26.9991 
N64 X-185.088 Y-16.334 Z10.936 A49.1915 B-26.9991 
N65 X-185.086 Y-16.521 Z10.721 A49.2019 B-26.9990 
N66 X-185.084 Y-16.708 Z10.505 A49.2122 B-26.9989 
N67 X-185.082 Y-16.895 Z10.290 A49.2226 B-26.9988 
N68 X-185.080 Y-17.082 Z10.075 A49.2330 B-26.9988 
N69 X-185.078 Y-17.270 Z9.860 A49.2434 B-26.9987 
N70 X-185.076 Y-17.457 Z9.645 A49.2538 B-26.9986 
N71 X-185.074 Y-17.644 Z9.429 A49.2642 B-26.9986 
N72 X-185.072 Y-17.831 Z9.214 A49.2745 B-26.9985 
N73 X-185.070 Y-18.018 Z8.999 A49.2849 B-26.9984 
N74 X-185.068 Y-18.205 Z8.784 A49.2953 B-26.9983 
N75 X-185.067 Y-18.392 Z8.568 A49.3057 B-26.9982 
N76 X-185.065 Y-18.579 Z8.353 A49.3161 B-26.9982 
N77 X-185.063 Y-18.766 Z8.138 A49.3265 B-26.9981 
N78 X-185.061 Y-18.954 Z7.923 A49.3369 B-26.9980 
N79 X-185.059 Y-19.141 Z7.707 A49.3472 B-26.9979 
N80 X-185.055 Y-19.328 Z7.492 A49.3577 B-26.9978 
N81 X-185.050 Y-19.515 Z7.277 A49.3681 B-26.9976 
N82 X-185.045 Y-19.702 Z7.062 A49.3786 B-26.9974 
N83 X-185.040 Y-19.889 Z6.847 A49.3890 B-26.9973 
N84 X-185.036 Y-20.076 Z6.631 A49.3995 B-26.9971 
N85 X-185.031 Y-20.263 Z6.416 A49.4099 B-26.9969 
N86 X-185.026 Y-20.450 Z6.201 A49.4204 B-26.9968 
N87 X-185.022 Y-20.637 Z5.986 A49.4308 B-26.9966 
N88 X-185.017 Y-20.824 Z5.770 A49.4412 B-26.9964 
N89 X-185.012 Y-21.011 Z5.555 A49.4517 B-26.9963 
N90 X-185.007 Y-21.199 Z5.340 A49.4621 B-26.9961 
N91 X-185.003 Y-21.386 Z5.125 A49.4726 B-26.9959 
N92 X-184.998 Y-21.573 Z4.910 A49.4830 B-26.9958 
N93 X-184.993 Y-21.760 Z4.694 A49.4935 B-26.9956 
N94 X-184.988 Y-21.947 Z4.479 A49.5039 B-26.9954 
N95 X-184.984 Y-22.134 Z4.264 A49.5144 B-26.9952 
N96 X-184.979 Y-22.321 Z4.049 A49.5248 B-26.9951 
N97 X-184.974 Y-22.508 Z3.834 A49.5353 B-26.9949 
N98 X-184.969 Y-22.695 Z3.618 A49.5457 B-26.9947 
N99 X-184.965 Y-22.882 Z3.403 A49.5562 B-26.9945 
N100 X-184.960 Y-23.069 Z3.188 A49.5666 B-26.9943 
N101 X-184.955 Y-23.256 Z2.973 A49.5770 B-26.9942 
N102 X-184.951 Y-23.443 Z2.758 A49.5875 B-26.9940 
N103 X-184.946 Y-23.631 Z2.542 A49.5979 B-26.9938 
N104 X-184.941 Y-23.818 Z2.327 A49.6084 B-26.9936 
N105 X-184.936 Y-24.005 Z2.112 A49.6188 B-26.9934 
N106 X-184.929 Y-24.192 Z1.897 A49.6293 B-26.9932 
N107 X-184.922 Y-24.379 Z1.682 A49.6397 B-26.9929 
N108 X-184.915 Y-24.566 Z1.466 A49.6502 B-26.9927 
N109 X-184.908 Y-24.753 Z1.251 A49.6606 B-26.9924 
N110 X-184.901 Y-24.940 Z1.036 A49.6711 B-26.9922 
N111 X-184.893 Y-25.127 Z0.821 A49.6815 B-26.9919 
N112 X-184.886 Y-25.314 Z0.606 A49.6919 B-26.9916 
N113 X-184.879 Y-25.501 Z0.391 A49.7024 B-26.9914 
N114 X-184.872 Y-25.688 Z0.175 A49.7128 B-26.9911 
N115 X-184.864 Y-25.875 Z-0.040 A49.7233 B-26.9909 
N116 X-184.857 Y-26.062 Z-0.255 A49.7337 B-26.9906 
N117 X-184.850 Y-26.249 Z-0.470 A49.7442 B-26.9903 
N118 X-184.843 Y-26.436 Z-0.685 A49.7546 B-26.9901 
N119 X-184.836 Y-26.623 Z-0.901 A49.7650 B-26.9898 
N120 X-184.828 Y-26.810 Z-1.116 A49.7755 B-26.9895 
N121 X-184.821 Y-26.997 Z-1.331 A49.7859 B-26.9893 
N122 X-184.814 Y-27.185 Z-1.546 A49.7964 B-26.9890 
N123 X-184.807 Y-27.372 Z-1.761 A49.8068 B-26.9887 
N124 X-184.799 Y-27.559 Z-1.976 A49.8173 B-26.9884 
N125 X-184.792 Y-27.746 Z-2.192 A49.8277 B-26.9882 
N126 X-184.785 Y-27.933 Z-2.407 A49.8381 B-26.9879 
N127 X-184.778 Y-28.120 Z-2.622 A49.8486 B-26.9876 
N128 X-184.770 Y-28.307 Z-2.837 A49.8590 B-26.9874 
N129 X-184.761 Y-28.494 Z-3.052 A49.8694 B-26.9870 
N130 X-184.751 Y-28.681 Z-3.267 A49.8797 B-26.9867 
N131 X-184.742 Y-28.868 Z-3.482 A49.8901 B-26.9863 
N132 X-184.733 Y-29.055 Z-3.698 A49.9004 B-26.9860 
N133 X-184.723 Y-29.242 Z-3.913 A49.9108 B-26.9857 
N134 X-184.714 Y-29.429 Z-4.128 A49.9211 B-26.9853 
N135 X-184.704 Y-29.616 Z-4.343 A49.9315 B-26.9850 
N136 X-184.695 Y-29.803 Z-4.558 A49.9418 B-26.9847 
N137 X-184.686 Y-29.990 Z-4.773 A49.9522 B-26.9843 
N138 X-184.676 Y-30.177 Z-4.988 A49.9625 B-26.9840 
N139 X-184.667 Y-30.364 Z-5.203 A49.9729 B-26.9836 
N140 X-184.657 Y-30.551 Z-5.419 A49.9832 B-26.9833 
N141 X-184.648 Y-30.738 Z-5.634 A49.9936 B-26.9830 
N142 X-184.639 Y-30.925 Z-5.849 A50.0039 B-26.9826 
N143 X-184.629 Y-31.112 Z-6.064 A50.0143 B-26.9823 
N144 X-184.620 Y-31.299 Z-6.279 A50.0246 B-26.9819 
N145 X-184.610 Y-31.486 Z-6.494 A50.0350 B-26.9816 
N146 X-184.601 Y-31.673 Z-6.709 A50.0453 B-26.9812 
N147 X-184.592 Y-31.860 Z-6.924 A50.0556 B-26.9809 
N148 X-184.582 Y-32.047 Z-7.140 A50.0660 B-26.9805 
N149 X-184.568 Y-32.323 Z-7.457 
N150 X-184.239 Y-38.880 Z-15.000 
N151 G00 X-195.581 Y-55.963 Z-0.699 
N152 X-197.178 Y-23.046 Z37.168 A49.0461 B-27.0000 
N153 X-185.828 Y-6.223 Z22.568 
N154 G01 X-185.761 Y-12.783 Z15.021 F859 
N155 X-185.758 Y-13.002 Z14.769 
N156 X-185.756 Y-13.221 Z14.517 
N157 X-185.754 Y-13.439 Z14.266 
N158 X-185.751 Y-13.715 Z13.948 
N159 X-185.749 Y-13.903 Z13.733 A49.0565 B-26.9999 
N160 X-185.747 Y-14.090 Z13.518 A49.0668 B-26.9998 
N161 X-185.745 Y-14.277 Z13.302 A49.0772 B-26.9998 
N162 X-185.743 Y-14.464 Z13.087 A49.0876 B-26.9997 
N163 X-185.741 Y-14.652 Z12.871 A49.0980 B-26.9997 
N164 X-185.739 Y-14.839 Z12.656 A49.1084 B-26.9996 
N165 X-185.738 Y-15.026 Z12.441 A49.1188 B-26.9995 
N166 X-185.736 Y-15.213 Z12.225 A49.1292 B-26.9995 
N167 X-185.734 Y-15.401 Z12.010 A49.1395 B-26.9994 
N168 X-185.732 Y-15.588 Z11.794 A49.1499 B-26.9993 
N169 X-185.730 Y-15.775 Z11.579 A49.1603 B-26.9993 
N170 X-185.728 Y-15.962 Z11.364 A49.1707 B-26.9992 
N171 X-185.726 Y-16.150 Z11.148 A49.1811 B-26.9991 
N172 X-185.724 Y-16.337 Z10.933 A49.1915 B-26.9991 
N173 X-185.722 Y-16.524 Z10.717 A49.2019 B-26.9990 
N174 X-185.720 Y-16.711 Z10.502 A49.2122 B-26.9989 
N175 X-185.718 Y-16.899 Z10.287 A49.2226 B-26.9988 
N176 X-185.716 Y-17.086 Z10.071 A49.2330 B-26.9988 
N177 X-185.714 Y-17.273 Z9.856 A49.2434 B-26.9987 
N178 X-185.713 Y-17.460 Z9.640 A49.2538 B-26.9986 
N179 X-185.711 Y-17.648 Z9.425 A49.2642 B-26.9986 
N180 X-185.709 Y-17.835 Z9.210 A49.2745 B-26.9985 
N181 X-185.707 Y-18.022 Z8.994 A49.2849 B-26.9984 
N182 X-185.705 Y-18.209 Z8.779 A49.2953 B-26.9983 
N183 X-185.703 Y-18.397 Z8.563 A49.3057 B-26.9982 
N184 X-185.701 Y-18.584 Z8.348 A49.3161 B-26.9982 
N185 X-185.699 Y-18.771 Z8.132 A49.3265 B-26.9981 
N186 X-185.697 Y-18.958 Z7.917 A49.3369 B-26.9980 
N187 X-185.695 Y-19.146 Z7.702 A49.3472 B-26.9979 
N188 X-185.691 Y-19.333 Z7.486 A49.3577 B-26.9978 
N189 X-185.686 Y-19.520 Z7.271 A49.3681 B-26.9976 
N190 X-185.682 Y-19.707 Z7.056 A49.3786 B-26.9974 
N191 X-185.677 Y-19.895 Z6.840 A49.3890 B-26.9973 
N192 X-185.672 Y-20.082 Z6.625 A49.3995 B-26.9971 
N193 X-185.667 Y-20.269 Z6.409 A49.4099 B-26.9969 
N194 X-185.663 Y-20.456 Z6.194 A49.4204 B-26.9968 
N195 X-185.658 Y-20.643 Z5.979 A49.4308 B-26.9966 
N196 X-185.653 Y-20.831 Z5.763 A49.4412 B-26.9964 
N197 X-185.648 Y-21.018 Z5.548 A49.4517 B-26.9963 
N198 X-185.644 Y-21.205 Z5.332 A49.4621 B-26.9961 
N199 X-185.639 Y-21.392 Z5.117 A49.4726 B-26.9959 
N200 X-185.634 Y-21.580 Z4.902 A49.4830 B-26.9958 
N201 X-185.629 Y-21.767 Z4.686 A49.4935 B-26.9956 
N202 X-185.625 Y-21.954 Z4.471 A49.5039 B-26.9954 
N203 X-185.620 Y-22.141 Z4.256 A49.5144 B-26.9952 
N204 X-185.615 Y-22.328 Z4.040 A49.5248 B-26.9951 
N205 X-185.610 Y-22.516 Z3.825 A49.5353 B-26.9949 
N206 X-185.606 Y-22.703 Z3.609 A49.5457 B-26.9947 
N207 X-185.601 Y-22.890 Z3.394 A49.5562 B-26.9945 
N208 X-185.596 Y-23.077 Z3.179 A49.5666 B-26.9943 
N209 X-185.592 Y-23.265 Z2.963 A49.5770 B-26.9942 
N210 X-185.587 Y-23.452 Z2.748 A49.5875 B-26.9940 
N211 X-185.582 Y-23.639 Z2.532 A49.5979 B-26.9938 
N212 X-185.577 Y-23.826 Z2.317 A49.6084 B-26.9936 
N213 X-185.573 Y-24.014 Z2.102 A49.6188 B-26.9934 
N214 X-185.566 Y-24.201 Z1.886 A49.6293 B-26.9932 
N215 X-185.558 Y-24.388 Z1.671 A49.6397 B-26.9929 
N216 X-185.551 Y-24.575 Z1.456 A49.6502 B-26.9927 
N217 X-185.544 Y-24.762 Z1.240 A49.6606 B-26.9924 
N218 X-185.537 Y-24.950 Z1.025 A49.6711 B-26.9922 
N219 X-185.530 Y-25.137 Z0.810 A49.6815 B-26.9919 
N220 X-185.522 Y-25.324 Z0.594 A49.6919 B-26.9916 
N221 X-185.515 Y-25.511 Z0.379 A49.7024 B-26.9914 
N222 X-185.508 Y-25.698 Z0.164 A49.7128 B-26.9911 
N223 X-185.501 Y-25.886 Z-0.052 A49.7233 B-26.9909 
N224 X-185.493 Y-26.073 Z-0.267 A49.7337 B-26.9906 
N225 X-185.486 Y-26.260 Z-0.482 A49.7442 B-26.9903 
N226 X-185.479 Y-26.447 Z-0.698 A49.7546 B-26.9901 
N227 X-185.472 Y-26.634 Z-0.913 A49.7650 B-26.9898 
N228 X-185.465 Y-26.821 Z-1.128 A49.7755 B-26.9895 
N229 X-185.457 Y-27.009 Z-1.344 A49.7859 B-26.9893 
N230 X-185.450 Y-27.196 Z-1.559 A49.7964 B-26.9890 
N231 X-185.443 Y-27.383 Z-1.774 A49.8068 B-26.9887 
N232 X-185.436 Y-27.570 Z-1.990 A49.8173 B-26.9884 
N233 X-185.428 Y-27.757 Z-2.205 A49.8277 B-26.9882 
N234 X-185.421 Y-27.945 Z-2.420 A49.8381 B-26.9879 
N235 X-185.414 Y-28.132 Z-2.636 A49.8486 B-26.9876 
N236 X-185.406 Y-28.319 Z-2.851 A49.8590 B-26.9874 
N237 X-185.397 Y-28.506 Z-3.066 A49.8694 B-26.9870 
N238 X-185.388 Y-28.693 Z-3.282 A49.8797 B-26.9867 
N239 X-185.378 Y-28.881 Z-3.497 A49.8901 B-26.9863 
N240 X-185.369 Y-29.068 Z-3.712 A49.9004 B-26.9860 
N241 X-185.359 Y-29.255 Z-3.928 A49.9108 B-26.9857 
N242 X-185.350 Y-29.442 Z-4.143 A49.9211 B-26.9853 
N243 X-185.341 Y-29.629 Z-4.358 A49.9315 B-26.9850 
N244 X-185.331 Y-29.816 Z-4.574 A49.9418 B-26.9847 
N245 X-185.322 Y-30.003 Z-4.789 A49.9522 B-26.9843 
N246 X-185.312 Y-30.191 Z-5.004 A49.9625 B-26.9840 
N247 X-185.303 Y-30.378 Z-5.219 A49.9729 B-26.9836 
N248 X-185.293 Y-30.565 Z-5.435 A49.9832 B-26.9833 
N249 X-185.284 Y-30.752 Z-5.650 A49.9936 B-26.9830 
N250 X-185.275 Y-30.939 Z-5.865 A50.0039 B-26.9826 
N251 X-185.265 Y-31.126 Z-6.081 A50.0143 B-26.9823 
N252 X-185.256 Y-31.313 Z-6.296 A50.0246 B-26.9819 
N253 X-185.246 Y-31.501 Z-6.511 A50.0350 B-26.9816 
N254 X-185.237 Y-31.688 Z-6.726 A50.0453 B-26.9812 
N255 X-185.228 Y-31.875 Z-6.942 A50.0556 B-26.9809 
N256 X-185.218 Y-32.062 Z-7.157 A50.0660 B-26.9805 
N257 X-185.204 Y-32.338 Z-7.474 
N258 X-184.875 Y-38.895 Z-15.017 
N259 G00 X-207.559 Y-73.061 Z13.585 
;RAPORT("TB000000","Slot Finishing:151 End")
;trailer : concat=None
; points cnt = 210
N261 MSG (" --- GROUPED OF SUBPROGRAM --- ")
N262 FGROUP()
N263 TRAFOOF
; PROGRAM NAME: B00000051
; ORDER       : B000000
; OPER. NAME  : Slot Finishing:152
; OPER. DESCR.: finishing root chamfer BETE SFSE
; OPER. TYPE  : slotMillFinish
; GEO. OPTION : 1
; MACHINE     : HSTM_500_SIM840D_Py
;             : HSTM500 - HAMUEL: 5-axis milling machine - SIM840D Traori PP_Script
; CONTROL     : SINUMERIK 840D
; created:   2021-11-15 10:00:55.029931
;-------DODATKOWE DANE-------------------
; PROGRAMISTA : Mariusz Malec
; PARTID      : 139T001534P1001_-
;  ap         : 5.0
;  ae         : 1.0
;  lean_angle : 0.0
;  rad_Offset : 2.0
;  fin_Offset : 1.6
;----------------------------------------
;RAPORT("TB000000","Slot Finishing:152")
N10 TRAFOOF
N11 D0
N12 G90 G94
N13 G0 G53 D0 Z550 B0
N14 STOPRE
M9 ; chlodziwo wyl
; --- Slot Finishing:152 - finishing root chamfer BETE SFSE ---
N16 ;ToolChange : concat=None ,current_tdmid=None, PP.tdmId=940790
N17 TRAFOOF
N18 G0 G53 D0 Z550 B0
N19 STOPRE
N20 MSG(" TLID=940790 D=8.0 R=0.0 Ang=18.0 Len=135.0 ")
N21 S7161 M03
N22 STOPRE
N23 CYCLE832(0.01,1,1)
N24 G0 G53 A49.0461 B-27.0000
N25 TRAORI
N26 G54 D1
N27 D1 
N28 TRANS  X=R18 B=R39
STOPRE
E_ZDARZ=300006
;ACS_FINISH_ROOT_BETE=7740790
STOPRE
N29 ; DELTA A > 40.1
N30 TRAFOOF
N31 D1
N32 STOPRE
N33 G00 G54 Z251.000
N34 G01 A49.0461 F10000
N35 TRAORI
N36 G54 D1
N37 STOPRE
N38 TRANS  X=R18 B=R39
N39 G00 X-208.669 Y-39.869 Z51.768 A49.0461 B-27.0000 
N40 M342 ; chlodziwo woda
N41 X-185.969 Y-6.223 Z22.567 
N42 G01 X-185.902 Y-12.784 Z15.020 F859 
N43 X-185.900 Y-13.002 Z14.769 
N44 X-185.898 Y-13.221 Z14.517 
N45 X-185.895 Y-13.440 Z14.266 
N46 X-185.892 Y-13.715 Z13.948 
N47 X-185.891 Y-13.903 Z13.733 A49.0565 B-26.9999 
N48 X-185.889 Y-14.090 Z13.517 A49.0668 B-26.9998 
N49 X-185.887 Y-14.277 Z13.302 A49.0772 B-26.9998 
N50 X-185.885 Y-14.465 Z13.087 A49.0876 B-26.9997 
N51 X-185.883 Y-14.652 Z12.871 A49.0980 B-26.9997 
N52 X-185.881 Y-14.839 Z12.656 A49.1084 B-26.9996 
N53 X-185.879 Y-15.026 Z12.440 A49.1188 B-26.9995 
N54 X-185.877 Y-15.214 Z12.225 A49.1292 B-26.9995 
N55 X-185.875 Y-15.401 Z12.009 A49.1395 B-26.9994 
N56 X-185.873 Y-15.588 Z11.794 A49.1499 B-26.9993 
N57 X-185.871 Y-15.776 Z11.578 A49.1603 B-26.9993 
N58 X-185.869 Y-15.963 Z11.363 A49.1707 B-26.9992 
N59 X-185.867 Y-16.150 Z11.148 A49.1811 B-26.9991 
N60 X-185.866 Y-16.337 Z10.932 A49.1915 B-26.9991 
N61 X-185.864 Y-16.525 Z10.717 A49.2019 B-26.9990 
N62 X-185.862 Y-16.712 Z10.501 A49.2122 B-26.9989 
N63 X-185.860 Y-16.899 Z10.286 A49.2226 B-26.9988 
N64 X-185.858 Y-17.087 Z10.070 A49.2330 B-26.9988 
N65 X-185.856 Y-17.274 Z9.855 A49.2434 B-26.9987 
N66 X-185.854 Y-17.461 Z9.639 A49.2538 B-26.9986 
N67 X-185.852 Y-17.648 Z9.424 A49.2642 B-26.9986 
N68 X-185.850 Y-17.836 Z9.209 A49.2745 B-26.9985 
N69 X-185.848 Y-18.023 Z8.993 A49.2849 B-26.9984 
N70 X-185.846 Y-18.210 Z8.778 A49.2953 B-26.9983 
N71 X-185.844 Y-18.398 Z8.562 A49.3057 B-26.9982 
N72 X-185.842 Y-18.585 Z8.347 A49.3161 B-26.9982 
N73 X-185.840 Y-18.772 Z8.131 A49.3265 B-26.9981 
N74 X-185.839 Y-18.959 Z7.916 A49.3369 B-26.9980 
N75 X-185.837 Y-19.147 Z7.700 A49.3472 B-26.9979 
N76 X-185.832 Y-19.334 Z7.485 A49.3577 B-26.9978 
N77 X-185.828 Y-19.521 Z7.270 A49.3681 B-26.9976 
N78 X-185.823 Y-19.708 Z7.054 A49.3786 B-26.9974 
N79 X-185.818 Y-19.896 Z6.839 A49.3890 B-26.9973 
N80 X-185.813 Y-20.083 Z6.623 A49.3995 B-26.9971 
N81 X-185.809 Y-20.270 Z6.408 A49.4099 B-26.9969 
N82 X-185.804 Y-20.458 Z6.192 A49.4204 B-26.9968 
N83 X-185.799 Y-20.645 Z5.977 A49.4308 B-26.9966 
N84 X-185.795 Y-20.832 Z5.762 A49.4412 B-26.9964 
N85 X-185.790 Y-21.019 Z5.546 A49.4517 B-26.9963 
N86 X-185.785 Y-21.207 Z5.331 A49.4621 B-26.9961 
N87 X-185.780 Y-21.394 Z5.115 A49.4726 B-26.9959 
N88 X-185.776 Y-21.581 Z4.900 A49.4830 B-26.9958 
N89 X-185.771 Y-21.768 Z4.685 A49.4935 B-26.9956 
N90 X-185.766 Y-21.956 Z4.469 A49.5039 B-26.9954 
N91 X-185.761 Y-22.143 Z4.254 A49.5144 B-26.9952 
N92 X-185.757 Y-22.330 Z4.038 A49.5248 B-26.9951 
N93 X-185.752 Y-22.517 Z3.823 A49.5353 B-26.9949 
N94 X-185.747 Y-22.705 Z3.607 A49.5457 B-26.9947 
N95 X-185.742 Y-22.892 Z3.392 A49.5562 B-26.9945 
N96 X-185.738 Y-23.079 Z3.177 A49.5666 B-26.9943 
N97 X-185.733 Y-23.266 Z2.961 A49.5770 B-26.9942 
N98 X-185.728 Y-23.454 Z2.746 A49.5875 B-26.9940 
N99 X-185.723 Y-23.641 Z2.530 A49.5979 B-26.9938 
N100 X-185.719 Y-23.828 Z2.315 A49.6084 B-26.9936 
N101 X-185.714 Y-24.016 Z2.099 A49.6188 B-26.9934 
N102 X-185.707 Y-24.203 Z1.884 A49.6293 B-26.9932 
N103 X-185.700 Y-24.390 Z1.669 A49.6397 B-26.9929 
N104 X-185.693 Y-24.577 Z1.453 A49.6502 B-26.9927 
N105 X-185.685 Y-24.764 Z1.238 A49.6606 B-26.9924 
N106 X-185.678 Y-24.952 Z1.023 A49.6711 B-26.9922 
N107 X-185.671 Y-25.139 Z0.807 A49.6815 B-26.9919 
N108 X-185.664 Y-25.326 Z0.592 A49.6919 B-26.9916 
N109 X-185.656 Y-25.513 Z0.376 A49.7024 B-26.9914 
N110 X-185.649 Y-25.701 Z0.161 A49.7128 B-26.9911 
N111 X-185.642 Y-25.888 Z-0.054 A49.7233 B-26.9909 
N112 X-185.635 Y-26.075 Z-0.270 A49.7337 B-26.9906 
N113 X-185.628 Y-26.262 Z-0.485 A49.7442 B-26.9903 
N114 X-185.620 Y-26.449 Z-0.701 A49.7546 B-26.9901 
N115 X-185.613 Y-26.637 Z-0.916 A49.7650 B-26.9898 
N116 X-185.606 Y-26.824 Z-1.131 A49.7755 B-26.9895 
N117 X-185.599 Y-27.011 Z-1.347 A49.7859 B-26.9893 
N118 X-185.591 Y-27.198 Z-1.562 A49.7964 B-26.9890 
N119 X-185.584 Y-27.386 Z-1.777 A49.8068 B-26.9887 
N120 X-185.577 Y-27.573 Z-1.993 A49.8173 B-26.9884 
N121 X-185.570 Y-27.760 Z-2.208 A49.8277 B-26.9882 
N122 X-185.563 Y-27.947 Z-2.424 A49.8381 B-26.9879 
N123 X-185.555 Y-28.135 Z-2.639 A49.8486 B-26.9876 
N124 X-185.548 Y-28.322 Z-2.854 A49.8590 B-26.9874 
N125 X-185.538 Y-28.509 Z-3.070 A49.8694 B-26.9870 
N126 X-185.529 Y-28.696 Z-3.285 A49.8797 B-26.9867 
N127 X-185.520 Y-28.883 Z-3.500 A49.8901 B-26.9863 
N128 X-185.510 Y-29.071 Z-3.716 A49.9004 B-26.9860 
N129 X-185.501 Y-29.258 Z-3.931 A49.9108 B-26.9857 
N130 X-185.491 Y-29.445 Z-4.146 A49.9211 B-26.9853 
N131 X-185.482 Y-29.632 Z-4.362 A49.9315 B-26.9850 
N132 X-185.472 Y-29.819 Z-4.577 A49.9418 B-26.9847 
N133 X-185.463 Y-30.006 Z-4.792 A49.9522 B-26.9843 
N134 X-185.454 Y-30.194 Z-5.008 A49.9625 B-26.9840 
N135 X-185.444 Y-30.381 Z-5.223 A49.9729 B-26.9836 
N136 X-185.435 Y-30.568 Z-5.438 A49.9832 B-26.9833 
N137 X-185.425 Y-30.755 Z-5.654 A49.9936 B-26.9830 
N138 X-185.416 Y-30.942 Z-5.869 A50.0039 B-26.9826 
N139 X-185.407 Y-31.130 Z-6.084 A50.0143 B-26.9823 
N140 X-185.397 Y-31.317 Z-6.300 A50.0246 B-26.9819 
N141 X-185.388 Y-31.504 Z-6.515 A50.0350 B-26.9816 
N142 X-185.378 Y-31.691 Z-6.730 A50.0453 B-26.9812 
N143 X-185.369 Y-31.878 Z-6.946 A50.0556 B-26.9809 
N144 X-185.359 Y-32.065 Z-7.161 A50.0660 B-26.9805 
N145 X-185.346 Y-32.341 Z-7.478 
N146 X-185.016 Y-38.898 Z-15.021 
N147 G00 X-207.700 Y-73.065 Z13.581 
;RAPORT("TB000000","Slot Finishing:152 End")
;trailer : concat=None
; points cnt = 105
N149 MSG (" --- GROUPED OF SUBPROGRAM --- ")
N150 FGROUP()
N151 TRAFOOF
; PROGRAM NAME: B00000051
; ORDER       : B000000
; OPER. NAME  : Slot Finishing:153
; OPER. DESCR.: finishing root chamfer FSFSE
; OPER. TYPE  : slotMillFinish
; GEO. OPTION : 3
; MACHINE     : HSTM_500_SIM840D_Py
;             : HSTM500 - HAMUEL: 5-axis milling machine - SIM840D Traori PP_Script
; CONTROL     : SINUMERIK 840D
; created:   2021-11-15 10:01:00.516561
;-------DODATKOWE DANE-------------------
; PROGRAMISTA : Mariusz Malec
; PARTID      : 139T001534P1001_-
;  ap         : 100.0
;  ae         : 2.404526167
;  lean_angle : 0.0
;  rad_Offset : 2.0
;  fin_Offset : -0.3
;----------------------------------------
;RAPORT("TB000000","Slot Finishing:153")
N10 TRAFOOF
N11 D0
N12 G90 G94
N13 G0 G53 D0 Z550 B0
N14 STOPRE
M9 ; chlodziwo wyl
; --- Slot Finishing:153 - finishing root chamfer FSFSE ---
N16 ;ToolChange : concat=None ,current_tdmid=None, PP.tdmId=940790
N17 TRAFOOF
N18 G0 G53 D0 Z550 B0
N19 STOPRE
N20 MSG(" TLID=940790 D=8.0 R=0.0 Ang=18.0 Len=135.0 ")
N21 S7161 M03
N22 STOPRE
N23 CYCLE832(0.01,1,1)
N24 G0 G53 A48.7042 B-26.9985
N25 TRAORI
N26 G54 D1
N27 D1 
N28 TRANS  X=R19
STOPRE
E_ZDARZ=300008
;ACS_FINISH_ROOT_FRONT_CHAMFER=7740790
STOPRE
N29 ; DELTA A > 40.1
N30 TRAFOOF
N31 D1
N32 STOPRE
N33 G00 G54 Z251.000
N34 G01 A48.7042 F10000
N35 TRAORI
N36 G54 D1
N37 STOPRE
N38 TRANS  X=R19
N39 G00 X-157.442 Y-36.505 Z60.828 A48.7042 B-26.9985 
N40 M342 ; chlodziwo woda
N41 X-134.744 Y-3.033 Z31.427 
N42 G01 X-134.843 Y-9.593 Z23.880 F859 
N43 X-134.846 Y-9.812 Z23.628 
N44 X-134.849 Y-10.031 Z23.377 
N45 X-134.853 Y-10.250 Z23.125 
N46 X-134.857 Y-10.525 Z22.808 
N47 X-134.860 Y-10.713 Z22.592 A48.7154 B-26.9986 
N48 X-134.862 Y-10.900 Z22.377 A48.7265 B-26.9987 
N49 X-134.865 Y-11.087 Z22.161 A48.7377 B-26.9988 
N50 X-134.867 Y-11.275 Z21.946 A48.7488 B-26.9989 
N51 X-134.870 Y-11.462 Z21.730 A48.7600 B-26.9990 
N52 X-134.872 Y-11.649 Z21.515 A48.7712 B-26.9991 
N53 X-134.874 Y-11.837 Z21.299 A48.7823 B-26.9991 
N54 X-134.876 Y-12.024 Z21.084 A48.7935 B-26.9992 
N55 X-134.878 Y-12.212 Z20.868 A48.8047 B-26.9993 
N56 X-134.880 Y-12.399 Z20.653 A48.8158 B-26.9994 
N57 X-134.882 Y-12.586 Z20.437 A48.8270 B-26.9994 
N58 X-134.884 Y-12.774 Z20.222 A48.8381 B-26.9995 
N59 X-134.885 Y-12.961 Z20.006 A48.8493 B-26.9996 
N60 X-134.887 Y-13.148 Z19.791 A48.8605 B-26.9996 
N61 X-134.888 Y-13.336 Z19.575 A48.8716 B-26.9997 
N62 X-134.889 Y-13.523 Z19.360 A48.8828 B-26.9997 
N63 X-134.890 Y-13.710 Z19.144 A48.8940 B-26.9998 
N64 X-134.891 Y-13.898 Z18.929 A48.9051 B-26.9998 
N65 X-134.892 Y-14.085 Z18.713 A48.9163 B-26.9998 
N66 X-134.893 Y-14.272 Z18.498 A48.9274 B-26.9999 
N67 X-134.893 Y-14.460 Z18.282 A48.9386 B-26.9999 
N68 X-134.894 Y-14.647 Z18.067 A48.9498 B-26.9999 
N69 X-134.894 Y-14.834 Z17.851 A48.9609 B-26.9999 
N70 X-134.895 Y-15.022 Z17.635 A48.9721 B-26.9999 
N71 X-134.895 Y-15.209 Z17.420 A48.9833 B-27.0000 
N72 X-134.895 Y-15.396 Z17.204 A48.9944 
N73 X-134.895 Y-15.584 Z16.989 A49.0056 
N74 X-134.895 Y-15.771 Z16.773 A49.0167 
N75 X-134.895 Y-15.959 Z16.558 A49.0279 B-26.9999 
N76 X-134.894 Y-16.146 Z16.342 A49.0391 B-26.9999 
N77 X-134.894 Y-16.333 Z16.127 A49.0502 B-26.9999 
N78 X-134.893 Y-16.521 Z15.911 A49.0614 B-26.9999 
N79 X-134.893 Y-16.708 Z15.696 A49.0726 B-26.9999 
N80 X-134.892 Y-16.895 Z15.480 A49.0837 B-26.9998 
N81 X-134.891 Y-17.083 Z15.265 A49.0949 B-26.9998 
N82 X-134.890 Y-17.270 Z15.049 A49.1061 B-26.9998 
N83 X-134.889 Y-17.457 Z14.834 A49.1172 B-26.9997 
N84 X-134.888 Y-17.645 Z14.618 A49.1284 B-26.9997 
N85 X-134.887 Y-17.832 Z14.403 A49.1395 B-26.9996 
N86 X-134.885 Y-18.019 Z14.187 A49.1507 B-26.9996 
N87 X-134.884 Y-18.207 Z13.972 A49.1619 B-26.9995 
N88 X-134.882 Y-18.394 Z13.756 A49.1730 B-26.9994 
N89 X-134.880 Y-18.581 Z13.541 A49.1842 B-26.9994 
N90 X-134.878 Y-18.769 Z13.325 A49.1954 B-26.9993 
N91 X-134.876 Y-18.956 Z13.110 A49.2065 B-26.9992 
N92 X-134.874 Y-19.143 Z12.894 A49.2177 B-26.9991 
N93 X-134.872 Y-19.331 Z12.678 A49.2288 B-26.9991 
N94 X-134.870 Y-19.518 Z12.463 A49.2400 B-26.9990 
N95 X-134.867 Y-19.705 Z12.247 A49.2512 B-26.9989 
N96 X-134.865 Y-19.893 Z12.032 A49.2623 B-26.9988 
N97 X-134.862 Y-20.080 Z11.816 A49.2735 B-26.9987 
N98 X-134.860 Y-20.268 Z11.601 A49.2847 B-26.9986 
N99 X-134.857 Y-20.455 Z11.385 A49.2958 B-26.9985 
N100 X-134.854 Y-20.642 Z11.170 A49.3070 B-26.9983 
N101 X-134.851 Y-20.830 Z10.954 A49.3181 B-26.9982 
N102 X-134.848 Y-21.017 Z10.739 A49.3293 B-26.9981 
N103 X-134.844 Y-21.204 Z10.523 A49.3405 B-26.9980 
N104 X-134.841 Y-21.392 Z10.308 A49.3516 B-26.9978 
N105 X-134.837 Y-21.579 Z10.092 A49.3628 B-26.9977 
N106 X-134.834 Y-21.766 Z9.877 A49.3739 B-26.9976 
N107 X-134.830 Y-21.954 Z9.661 A49.3851 B-26.9974 
N108 X-134.826 Y-22.141 Z9.446 A49.3963 B-26.9973 
N109 X-134.822 Y-22.328 Z9.230 A49.4074 B-26.9971 
N110 X-134.818 Y-22.516 Z9.015 A49.4186 B-26.9970 
N111 X-134.814 Y-22.703 Z8.799 A49.4298 B-26.9968 
N112 X-134.810 Y-22.890 Z8.584 A49.4409 B-26.9966 
N113 X-134.806 Y-23.078 Z8.368 A49.4521 B-26.9965 
N114 X-134.801 Y-23.265 Z8.153 A49.4632 B-26.9963 
N115 X-134.797 Y-23.452 Z7.937 A49.4744 B-26.9961 
N116 X-134.792 Y-23.640 Z7.722 A49.4856 B-26.9959 
N117 X-134.787 Y-23.827 Z7.506 A49.4967 B-26.9957 
N118 X-134.782 Y-24.014 Z7.291 A49.5079 B-26.9955 
N119 X-134.777 Y-24.202 Z7.075 A49.5190 B-26.9953 
N120 X-134.772 Y-24.389 Z6.860 A49.5302 B-26.9951 
N121 X-134.767 Y-24.576 Z6.644 A49.5414 B-26.9949 
N122 X-134.761 Y-24.763 Z6.429 A49.5525 B-26.9947 
N123 X-134.756 Y-24.951 Z6.213 A49.5637 B-26.9945 
N124 X-134.750 Y-25.138 Z5.998 A49.5748 B-26.9943 
N125 X-134.745 Y-25.325 Z5.782 A49.5860 B-26.9941 
N126 X-134.739 Y-25.513 Z5.567 A49.5972 B-26.9938 
N127 X-134.733 Y-25.700 Z5.351 A49.6083 B-26.9936 
N128 X-134.727 Y-25.887 Z5.136 A49.6195 B-26.9934 
N129 X-134.721 Y-26.075 Z4.921 A49.6306 B-26.9931 
N130 X-134.715 Y-26.262 Z4.705 A49.6418 B-26.9929 
N131 X-134.708 Y-26.449 Z4.490 A49.6529 B-26.9927 
N132 X-134.702 Y-26.637 Z4.274 A49.6641 B-26.9924 
N133 X-134.695 Y-26.824 Z4.059 A49.6753 B-26.9921 
N134 X-134.689 Y-27.011 Z3.843 A49.6864 B-26.9919 
N135 X-134.682 Y-27.198 Z3.628 A49.6976 B-26.9916 
N136 X-134.675 Y-27.386 Z3.412 A49.7087 B-26.9913 
N137 X-134.668 Y-27.573 Z3.197 A49.7199 B-26.9911 
N138 X-134.661 Y-27.760 Z2.981 A49.7311 B-26.9908 
N139 X-134.654 Y-27.948 Z2.766 A49.7422 B-26.9905 
N140 X-134.646 Y-28.135 Z2.550 A49.7534 B-26.9902 
N141 X-134.639 Y-28.322 Z2.335 A49.7645 B-26.9899 
N142 X-134.631 Y-28.510 Z2.120 A49.7757 B-26.9896 
N143 X-134.624 Y-28.697 Z1.904 A49.7868 B-26.9894 
N144 X-134.616 Y-28.884 Z1.689 A49.7980 B-26.9890 
N145 X-134.608 Y-29.071 Z1.473 A49.8092 B-26.9887 
N146 X-134.600 Y-29.259 Z1.258 A49.8203 B-26.9884 
N147 X-134.592 Y-29.446 Z1.042 A49.8315 B-26.9881 
N148 X-134.584 Y-29.633 Z0.827 A49.8426 B-26.9878 
N149 X-134.576 Y-29.820 Z0.612 A49.8538 B-26.9875 
N150 X-134.567 Y-30.008 Z0.396 A49.8649 B-26.9871 
N151 X-134.559 Y-30.195 Z0.181 A49.8761 B-26.9868 
N152 X-134.550 Y-30.382 Z-0.035 A49.8872 B-26.9865 
N153 X-134.541 Y-30.570 Z-0.250 A49.8984 B-26.9861 
N154 X-134.532 Y-30.757 Z-0.466 A49.9096 B-26.9858 
N155 X-134.524 Y-30.944 Z-0.681 A49.9207 B-26.9854 
N156 X-134.514 Y-31.131 Z-0.896 A49.9319 B-26.9851 
N157 X-134.505 Y-31.319 Z-1.112 A49.9430 B-26.9847 
N158 X-134.496 Y-31.506 Z-1.327 A49.9542 B-26.9844 
N159 X-134.487 Y-31.693 Z-1.543 A49.9653 B-26.9840 
N160 X-134.477 Y-31.880 Z-1.758 A49.9765 B-26.9836 
N161 X-134.467 Y-32.068 Z-1.973 A49.9876 B-26.9832 
N162 X-134.458 Y-32.255 Z-2.189 A49.9988 B-26.9829 
N163 X-134.448 Y-32.442 Z-2.404 A50.0099 B-26.9825 
N164 X-134.438 Y-32.629 Z-2.620 A50.0211 B-26.9821 
N165 X-134.428 Y-32.817 Z-2.835 A50.0322 B-26.9817 
N166 X-134.418 Y-33.004 Z-3.050 A50.0434 B-26.9813 
N167 X-134.408 Y-33.191 Z-3.266 A50.0545 B-26.9809 
N168 X-134.397 Y-33.378 Z-3.481 A50.0657 B-26.9805 
N169 X-134.387 Y-33.565 Z-3.697 A50.0769 B-26.9801 
N170 X-134.376 Y-33.753 Z-3.912 A50.0880 B-26.9797 
N171 X-134.365 Y-33.940 Z-4.127 A50.0992 B-26.9793 
N172 X-134.355 Y-34.127 Z-4.343 A50.1103 B-26.9788 
N173 X-134.344 Y-34.314 Z-4.558 A50.1215 B-26.9784 
N174 X-134.333 Y-34.502 Z-4.773 A50.1326 B-26.9780 
N175 X-134.322 Y-34.689 Z-4.989 A50.1438 B-26.9775 
N176 X-134.310 Y-34.876 Z-5.204 A50.1549 B-26.9771 
N177 X-134.299 Y-35.063 Z-5.419 A50.1661 B-26.9767 
N178 X-134.287 Y-35.250 Z-5.635 A50.1772 B-26.9762 
N179 X-134.276 Y-35.438 Z-5.850 A50.1884 B-26.9758 
N180 X-134.264 Y-35.625 Z-6.066 A50.1995 B-26.9753 
N181 X-134.252 Y-35.812 Z-6.281 A50.2107 B-26.9748 
N182 X-134.241 Y-35.999 Z-6.496 A50.2218 B-26.9744 
N183 X-134.228 Y-36.186 Z-6.712 A50.2329 B-26.9739 
N184 X-134.216 Y-36.373 Z-6.927 A50.2441 B-26.9734 
N185 X-134.204 Y-36.561 Z-7.142 A50.2552 B-26.9730 
N186 X-134.192 Y-36.748 Z-7.358 A50.2664 B-26.9725 
N187 X-134.179 Y-36.935 Z-7.573 A50.2775 B-26.9720 
N188 X-134.167 Y-37.122 Z-7.788 A50.2887 B-26.9715 
N189 X-134.154 Y-37.309 Z-8.003 A50.2998 B-26.9710 
N190 X-134.141 Y-37.497 Z-8.219 A50.3110 B-26.9705 
N191 X-134.129 Y-37.684 Z-8.434 A50.3221 B-26.9700 
N192 X-134.115 Y-37.871 Z-8.649 A50.3333 B-26.9695 
N193 X-134.102 Y-38.058 Z-8.865 A50.3444 B-26.9690 
N194 X-134.089 Y-38.245 Z-9.080 A50.3556 B-26.9685 
N195 X-134.076 Y-38.432 Z-9.295 A50.3667 B-26.9679 
N196 X-134.062 Y-38.619 Z-9.511 A50.3778 B-26.9674 
N197 X-134.049 Y-38.807 Z-9.726 A50.3890 B-26.9669 
N198 X-134.035 Y-38.994 Z-9.941 A50.4001 B-26.9664 
N199 X-134.021 Y-39.181 Z-10.156 A50.4113 B-26.9658 
N200 X-134.008 Y-39.368 Z-10.372 A50.4224 B-26.9653 
N201 X-133.994 Y-39.555 Z-10.587 A50.4336 B-26.9647 
N202 X-133.980 Y-39.742 Z-10.802 A50.4447 B-26.9642 
N203 X-133.965 Y-39.929 Z-11.017 A50.4558 B-26.9636 
N204 X-133.951 Y-40.116 Z-11.233 A50.4670 B-26.9631 
N205 X-133.937 Y-40.304 Z-11.448 A50.4781 B-26.9625 
N206 X-133.922 Y-40.491 Z-11.663 A50.4893 B-26.9619 
N207 X-133.908 Y-40.678 Z-11.878 A50.5004 B-26.9614 
N208 X-133.893 Y-40.865 Z-12.094 A50.5115 B-26.9608 
N209 X-133.878 Y-41.052 Z-12.309 A50.5227 B-26.9602 
N210 X-133.863 Y-41.239 Z-12.524 A50.5338 B-26.9596 
N211 X-133.848 Y-41.426 Z-12.739 A50.5450 B-26.9590 
N212 X-133.833 Y-41.613 Z-12.955 A50.5561 B-26.9584 
N213 X-133.818 Y-41.800 Z-13.170 A50.5672 B-26.9578 
N214 X-133.795 Y-42.076 Z-13.487 
N215 X-133.262 Y-48.627 Z-21.023 
N216 G00 X-144.595 Y-65.838 Z-6.869 
N217 X-146.093 Y-17.229 Z43.920 A48.7042 B-26.9985 
N218 X-134.744 Y-0.494 Z29.219 
N219 G01 X-134.843 Y-7.054 Z21.672 F859 
N220 X-134.846 Y-7.272 Z21.421 
N221 X-134.849 Y-7.491 Z21.169 
N222 X-134.853 Y-7.710 Z20.918 
N223 X-134.857 Y-7.986 Z20.600 
N224 X-134.860 Y-8.173 Z20.385 A48.7154 B-26.9986 
N225 X-134.862 Y-8.360 Z20.169 A48.7265 B-26.9987 
N226 X-134.865 Y-8.548 Z19.954 A48.7377 B-26.9988 
N227 X-134.867 Y-8.735 Z19.738 A48.7488 B-26.9989 
N228 X-134.870 Y-8.922 Z19.523 A48.7600 B-26.9990 
N229 X-134.872 Y-9.110 Z19.307 A48.7712 B-26.9991 
N230 X-134.874 Y-9.297 Z19.092 A48.7823 B-26.9991 
N231 X-134.876 Y-9.484 Z18.876 A48.7935 B-26.9992 
N232 X-134.878 Y-9.672 Z18.661 A48.8047 B-26.9993 
N233 X-134.880 Y-9.859 Z18.445 A48.8158 B-26.9994 
N234 X-134.882 Y-10.047 Z18.229 A48.8270 B-26.9994 
N235 X-134.884 Y-10.234 Z18.014 A48.8381 B-26.9995 
N236 X-134.885 Y-10.421 Z17.798 A48.8493 B-26.9996 
N237 X-134.887 Y-10.609 Z17.583 A48.8605 B-26.9996 
N238 X-134.888 Y-10.796 Z17.367 A48.8716 B-26.9997 
N239 X-134.889 Y-10.983 Z17.152 A48.8828 B-26.9997 
N240 X-134.890 Y-11.171 Z16.936 A48.8940 B-26.9998 
N241 X-134.891 Y-11.358 Z16.721 A48.9051 B-26.9998 
N242 X-134.892 Y-11.545 Z16.505 A48.9163 B-26.9998 
N243 X-134.893 Y-11.733 Z16.290 A48.9274 B-26.9999 
N244 X-134.893 Y-11.920 Z16.074 A48.9386 B-26.9999 
N245 X-134.894 Y-12.107 Z15.859 A48.9498 B-26.9999 
N246 X-134.894 Y-12.295 Z15.643 A48.9609 B-26.9999 
N247 X-134.895 Y-12.482 Z15.428 A48.9721 B-26.9999 
N248 X-134.895 Y-12.669 Z15.212 A48.9833 B-27.0000 
N249 X-134.895 Y-12.857 Z14.997 A48.9944 
N250 X-134.895 Y-13.044 Z14.781 A49.0056 
N251 X-134.895 Y-13.231 Z14.566 A49.0167 
N252 X-134.895 Y-13.419 Z14.350 A49.0279 B-26.9999 
N253 X-134.894 Y-13.606 Z14.135 A49.0391 B-26.9999 
N254 X-134.894 Y-13.794 Z13.919 A49.0502 B-26.9999 
N255 X-134.893 Y-13.981 Z13.704 A49.0614 B-26.9999 
N256 X-134.893 Y-14.168 Z13.488 A49.0726 B-26.9999 
N257 X-134.892 Y-14.356 Z13.272 A49.0837 B-26.9998 
N258 X-134.891 Y-14.543 Z13.057 A49.0949 B-26.9998 
N259 X-134.890 Y-14.730 Z12.841 A49.1061 B-26.9998 
N260 X-134.889 Y-14.918 Z12.626 A49.1172 B-26.9997 
N261 X-134.888 Y-15.105 Z12.410 A49.1284 B-26.9997 
N262 X-134.887 Y-15.292 Z12.195 A49.1395 B-26.9996 
N263 X-134.885 Y-15.480 Z11.979 A49.1507 B-26.9996 
N264 X-134.884 Y-15.667 Z11.764 A49.1619 B-26.9995 
N265 X-134.882 Y-15.854 Z11.548 A49.1730 B-26.9994 
N266 X-134.880 Y-16.042 Z11.333 A49.1842 B-26.9994 
N267 X-134.878 Y-16.229 Z11.117 A49.1954 B-26.9993 
N268 X-134.876 Y-16.416 Z10.902 A49.2065 B-26.9992 
N269 X-134.874 Y-16.604 Z10.686 A49.2177 B-26.9991 
N270 X-134.872 Y-16.791 Z10.471 A49.2288 B-26.9991 
N271 X-134.870 Y-16.978 Z10.255 A49.2400 B-26.9990 
N272 X-134.867 Y-17.166 Z10.040 A49.2512 B-26.9989 
N273 X-134.865 Y-17.353 Z9.824 A49.2623 B-26.9988 
N274 X-134.862 Y-17.540 Z9.609 A49.2735 B-26.9987 
N275 X-134.860 Y-17.728 Z9.393 A49.2847 B-26.9986 
N276 X-134.857 Y-17.915 Z9.178 A49.2958 B-26.9985 
N277 X-134.854 Y-18.102 Z8.962 A49.3070 B-26.9983 
N278 X-134.851 Y-18.290 Z8.747 A49.3181 B-26.9982 
N279 X-134.848 Y-18.477 Z8.531 A49.3293 B-26.9981 
N280 X-134.844 Y-18.665 Z8.316 A49.3405 B-26.9980 
N281 X-134.841 Y-18.852 Z8.100 A49.3516 B-26.9978 
N282 X-134.837 Y-19.039 Z7.885 A49.3628 B-26.9977 
N283 X-134.834 Y-19.227 Z7.669 A49.3739 B-26.9976 
N284 X-134.830 Y-19.414 Z7.454 A49.3851 B-26.9974 
N285 X-134.826 Y-19.601 Z7.238 A49.3963 B-26.9973 
N286 X-134.822 Y-19.789 Z7.023 A49.4074 B-26.9971 
N287 X-134.818 Y-19.976 Z6.807 A49.4186 B-26.9970 
N288 X-134.814 Y-20.163 Z6.592 A49.4298 B-26.9968 
N289 X-134.810 Y-20.351 Z6.376 A49.4409 B-26.9966 
N290 X-134.806 Y-20.538 Z6.161 A49.4521 B-26.9965 
N291 X-134.801 Y-20.725 Z5.945 A49.4632 B-26.9963 
N292 X-134.797 Y-20.912 Z5.730 A49.4744 B-26.9961 
N293 X-134.792 Y-21.100 Z5.514 A49.4856 B-26.9959 
N294 X-134.787 Y-21.287 Z5.299 A49.4967 B-26.9957 
N295 X-134.782 Y-21.474 Z5.083 A49.5079 B-26.9955 
N296 X-134.777 Y-21.662 Z4.868 A49.5190 B-26.9953 
N297 X-134.772 Y-21.849 Z4.652 A49.5302 B-26.9951 
N298 X-134.767 Y-22.036 Z4.437 A49.5414 B-26.9949 
N299 X-134.761 Y-22.224 Z4.221 A49.5525 B-26.9947 
N300 X-134.756 Y-22.411 Z4.006 A49.5637 B-26.9945 
N301 X-134.750 Y-22.598 Z3.790 A49.5748 B-26.9943 
N302 X-134.745 Y-22.786 Z3.575 A49.5860 B-26.9941 
N303 X-134.739 Y-22.973 Z3.359 A49.5972 B-26.9938 
N304 X-134.733 Y-23.160 Z3.144 A49.6083 B-26.9936 
N305 X-134.727 Y-23.348 Z2.928 A49.6195 B-26.9934 
N306 X-134.721 Y-23.535 Z2.713 A49.6306 B-26.9931 
N307 X-134.715 Y-23.722 Z2.497 A49.6418 B-26.9929 
N308 X-134.708 Y-23.910 Z2.282 A49.6529 B-26.9927 
N309 X-134.702 Y-24.097 Z2.066 A49.6641 B-26.9924 
N310 X-134.695 Y-24.284 Z1.851 A49.6753 B-26.9921 
N311 X-134.689 Y-24.471 Z1.635 A49.6864 B-26.9919 
N312 X-134.682 Y-24.659 Z1.420 A49.6976 B-26.9916 
N313 X-134.675 Y-24.846 Z1.205 A49.7087 B-26.9913 
N314 X-134.668 Y-25.033 Z0.989 A49.7199 B-26.9911 
N315 X-134.661 Y-25.221 Z0.774 A49.7311 B-26.9908 
N316 X-134.654 Y-25.408 Z0.558 A49.7422 B-26.9905 
N317 X-134.646 Y-25.595 Z0.343 A49.7534 B-26.9902 
N318 X-134.639 Y-25.783 Z0.127 A49.7645 B-26.9899 
N319 X-134.631 Y-25.970 Z-0.088 A49.7757 B-26.9896 
N320 X-134.624 Y-26.157 Z-0.304 A49.7868 B-26.9894 
N321 X-134.616 Y-26.344 Z-0.519 A49.7980 B-26.9890 
N322 X-134.608 Y-26.532 Z-0.735 A49.8092 B-26.9887 
N323 X-134.600 Y-26.719 Z-0.950 A49.8203 B-26.9884 
N324 X-134.592 Y-26.906 Z-1.165 A49.8315 B-26.9881 
N325 X-134.584 Y-27.093 Z-1.381 A49.8426 B-26.9878 
N326 X-134.576 Y-27.281 Z-1.596 A49.8538 B-26.9875 
N327 X-134.567 Y-27.468 Z-1.812 A49.8649 B-26.9871 
N328 X-134.559 Y-27.655 Z-2.027 A49.8761 B-26.9868 
N329 X-134.550 Y-27.843 Z-2.243 A49.8872 B-26.9865 
N330 X-134.541 Y-28.030 Z-2.458 A49.8984 B-26.9861 
N331 X-134.532 Y-28.217 Z-2.673 A49.9096 B-26.9858 
N332 X-134.523 Y-28.404 Z-2.889 A49.9207 B-26.9854 
N333 X-134.514 Y-28.592 Z-3.104 A49.9319 B-26.9851 
N334 X-134.505 Y-28.779 Z-3.320 A49.9430 B-26.9847 
N335 X-134.496 Y-28.966 Z-3.535 A49.9542 B-26.9844 
N336 X-134.487 Y-29.153 Z-3.750 A49.9653 B-26.9840 
N337 X-134.477 Y-29.341 Z-3.966 A49.9765 B-26.9836 
N338 X-134.467 Y-29.528 Z-4.181 A49.9876 B-26.9832 
N339 X-134.458 Y-29.715 Z-4.397 A49.9988 B-26.9829 
N340 X-134.448 Y-29.902 Z-4.612 A50.0099 B-26.9825 
N341 X-134.438 Y-30.090 Z-4.827 A50.0211 B-26.9821 
N342 X-134.428 Y-30.277 Z-5.043 A50.0322 B-26.9817 
N343 X-134.418 Y-30.464 Z-5.258 A50.0434 B-26.9813 
N344 X-134.408 Y-30.651 Z-5.474 A50.0545 B-26.9809 
N345 X-134.397 Y-30.838 Z-5.689 A50.0657 B-26.9805 
N346 X-134.387 Y-31.026 Z-5.904 A50.0769 B-26.9801 
N347 X-134.376 Y-31.213 Z-6.120 A50.0880 B-26.9797 
N348 X-134.365 Y-31.400 Z-6.335 A50.0992 B-26.9793 
N349 X-134.355 Y-31.587 Z-6.550 A50.1103 B-26.9788 
N350 X-134.344 Y-31.775 Z-6.766 A50.1215 B-26.9784 
N351 X-134.333 Y-31.962 Z-6.981 A50.1326 B-26.9780 
N352 X-134.322 Y-32.149 Z-7.197 A50.1438 B-26.9775 
N353 X-134.310 Y-32.336 Z-7.412 A50.1549 B-26.9771 
N354 X-134.299 Y-32.523 Z-7.627 A50.1661 B-26.9767 
N355 X-134.287 Y-32.711 Z-7.843 A50.1772 B-26.9762 
N356 X-134.276 Y-32.898 Z-8.058 A50.1884 B-26.9758 
N357 X-134.264 Y-33.085 Z-8.273 A50.1995 B-26.9753 
N358 X-134.252 Y-33.272 Z-8.489 A50.2107 B-26.9748 
N359 X-134.241 Y-33.459 Z-8.704 A50.2218 B-26.9744 
N360 X-134.228 Y-33.647 Z-8.919 A50.2329 B-26.9739 
N361 X-134.216 Y-33.834 Z-9.135 A50.2441 B-26.9734 
N362 X-134.204 Y-34.021 Z-9.350 A50.2552 B-26.9730 
N363 X-134.192 Y-34.208 Z-9.565 A50.2664 B-26.9725 
N364 X-134.179 Y-34.395 Z-9.781 A50.2775 B-26.9720 
N365 X-134.167 Y-34.582 Z-9.996 A50.2887 B-26.9715 
N366 X-134.154 Y-34.770 Z-10.211 A50.2998 B-26.9710 
N367 X-134.141 Y-34.957 Z-10.427 A50.3110 B-26.9705 
N368 X-134.129 Y-35.144 Z-10.642 A50.3221 B-26.9700 
N369 X-134.115 Y-35.331 Z-10.857 A50.3333 B-26.9695 
N370 X-134.102 Y-35.518 Z-11.072 A50.3444 B-26.9690 
N371 X-134.089 Y-35.705 Z-11.288 A50.3556 B-26.9685 
N372 X-134.076 Y-35.893 Z-11.503 A50.3667 B-26.9679 
N373 X-134.062 Y-36.080 Z-11.718 A50.3778 B-26.9674 
N374 X-134.049 Y-36.267 Z-11.934 A50.3890 B-26.9669 
N375 X-134.035 Y-36.454 Z-12.149 A50.4001 B-26.9664 
N376 X-134.021 Y-36.641 Z-12.364 A50.4113 B-26.9658 
N377 X-134.008 Y-36.828 Z-12.579 A50.4224 B-26.9653 
N378 X-133.994 Y-37.015 Z-12.795 A50.4336 B-26.9647 
N379 X-133.980 Y-37.203 Z-13.010 A50.4447 B-26.9642 
N380 X-133.965 Y-37.390 Z-13.225 A50.4558 B-26.9636 
N381 X-133.951 Y-37.577 Z-13.440 A50.4670 B-26.9631 
N382 X-133.937 Y-37.764 Z-13.656 A50.4781 B-26.9625 
N383 X-133.922 Y-37.951 Z-13.871 A50.4893 B-26.9619 
N384 X-133.908 Y-38.138 Z-14.086 A50.5004 B-26.9614 
N385 X-133.893 Y-38.325 Z-14.301 A50.5115 B-26.9608 
N386 X-133.878 Y-38.512 Z-14.517 A50.5227 B-26.9602 
N387 X-133.863 Y-38.699 Z-14.732 A50.5338 B-26.9596 
N388 X-133.848 Y-38.886 Z-14.947 A50.5450 B-26.9590 
N389 X-133.833 Y-39.074 Z-15.162 A50.5561 B-26.9584 
N390 X-133.818 Y-39.261 Z-15.377 A50.5672 B-26.9578 
N391 X-133.795 Y-39.536 Z-15.694 
N392 X-133.262 Y-46.087 Z-23.231 
N393 G00 X-155.929 Y-80.510 Z5.077 
;RAPORT("TB000000","Slot Finishing:153 End")
;trailer : concat=None
; points cnt = 348
N395 MSG (" --- GROUPED OF SUBPROGRAM --- ")
N396 FGROUP()
N397 TRAFOOF
; PROGRAM NAME: B00000051
; ORDER       : B000000
; OPER. NAME  : Slot Finishing:154
; OPER. DESCR.: Finishing slot
; OPER. TYPE  : slotMillFinish
; GEO. OPTION : 3
; MACHINE     : HSTM_500_SIM840D_Py
;             : HSTM500 - HAMUEL: 5-axis milling machine - SIM840D Traori PP_Script
; CONTROL     : SINUMERIK 840D
; created:   2021-11-15 10:01:05.534064
;-------DODATKOWE DANE-------------------
; PROGRAMISTA : Mariusz Malec
; PARTID      : 139T001534P1001_-
;  ap         : 100.0
;  ae         : 2.0
;  lean_angle : 0.0
;  rad_Offset : 2.0
;  fin_Offset : 0.0
;----------------------------------------
;RAPORT("TB000000","Slot Finishing:154")
N10 TRAFOOF
N11 D0
N12 G90 G94
N13 G0 G53 D0 Z550 B0
N14 STOPRE
M9 ; chlodziwo wyl
; --- Slot Finishing:154 - Finishing slot ---
N16 ;ToolChange : concat=None ,current_tdmid=None, PP.tdmId=940790
N17 TRAFOOF
N18 G0 G53 D0 Z550 B0
N19 STOPRE
N20 MSG(" TLID=940790 D=8.0 R=0.0 Ang=18.0 Len=135.0 ")
N21 S7161 M03
N22 STOPRE
N23 CYCLE832(0.01,1,1)
N24 G0 G53 A48.7042 B-26.9985
N25 TRAORI
N26 G54 D1
N27 D1 
N28 TRANS  X=R19
STOPRE
E_ZDARZ=300008
;ACS_FINISH_ROOT_FRONT_CHAMFER=7740790
STOPRE
N29 ; DELTA A > 40.1
N30 TRAFOOF
N31 D1
N32 STOPRE
N33 G00 G54 Z251.000
N34 G01 A48.7042 F10000
N35 TRAORI
N36 G54 D1
N37 STOPRE
N38 TRANS  X=R19
N39 G00 X-157.742 Y-34.030 Z58.680 A48.7042 B-26.9985 
N40 M342 ; chlodziwo woda
N41 X-135.044 Y-0.558 Z29.279 
N42 G01 X-135.143 Y-7.118 Z21.732 F859 
N43 X-135.146 Y-7.337 Z21.481 
N44 X-135.149 Y-7.555 Z21.229 
N45 X-135.153 Y-7.774 Z20.978 
N46 X-135.157 Y-8.050 Z20.660 
N47 X-135.160 Y-8.237 Z20.445 A48.7154 B-26.9986 
N48 X-135.162 Y-8.425 Z20.229 A48.7265 B-26.9987 
N49 X-135.165 Y-8.612 Z20.013 A48.7377 B-26.9988 
N50 X-135.167 Y-8.800 Z19.798 A48.7488 B-26.9989 
N51 X-135.170 Y-8.987 Z19.582 A48.7600 B-26.9990 
N52 X-135.172 Y-9.175 Z19.367 A48.7712 B-26.9991 
N53 X-135.174 Y-9.362 Z19.151 A48.7823 B-26.9991 
N54 X-135.176 Y-9.549 Z18.935 A48.7935 B-26.9992 
N55 X-135.178 Y-9.737 Z18.720 A48.8047 B-26.9993 
N56 X-135.180 Y-9.924 Z18.504 A48.8158 B-26.9994 
N57 X-135.182 Y-10.112 Z18.288 A48.8270 B-26.9994 
N58 X-135.184 Y-10.299 Z18.073 A48.8381 B-26.9995 
N59 X-135.185 Y-10.486 Z17.857 A48.8493 B-26.9996 
N60 X-135.187 Y-10.674 Z17.642 A48.8605 B-26.9996 
N61 X-135.188 Y-10.861 Z17.426 A48.8716 B-26.9997 
N62 X-135.189 Y-11.049 Z17.210 A48.8828 B-26.9997 
N63 X-135.190 Y-11.236 Z16.995 A48.8940 B-26.9998 
N64 X-135.191 Y-11.424 Z16.779 A48.9051 B-26.9998 
N65 X-135.192 Y-11.611 Z16.564 A48.9163 B-26.9998 
N66 X-135.193 Y-11.798 Z16.348 A48.9274 B-26.9999 
N67 X-135.193 Y-11.986 Z16.132 A48.9386 B-26.9999 
N68 X-135.194 Y-12.173 Z15.917 A48.9498 B-26.9999 
N69 X-135.194 Y-12.361 Z15.701 A48.9609 B-26.9999 
N70 X-135.195 Y-12.548 Z15.486 A48.9721 B-26.9999 
N71 X-135.195 Y-12.736 Z15.270 A48.9833 B-27.0000 
N72 X-135.195 Y-12.923 Z15.054 A48.9944 
N73 X-135.195 Y-13.110 Z14.839 A49.0056 
N74 X-135.195 Y-13.298 Z14.623 A49.0167 
N75 X-135.195 Y-13.485 Z14.408 A49.0279 B-26.9999 
N76 X-135.194 Y-13.673 Z14.192 A49.0391 B-26.9999 
N77 X-135.194 Y-13.860 Z13.976 A49.0502 B-26.9999 
N78 X-135.193 Y-14.048 Z13.761 A49.0614 B-26.9999 
N79 X-135.193 Y-14.235 Z13.545 A49.0726 B-26.9999 
N80 X-135.192 Y-14.422 Z13.329 A49.0837 B-26.9998 
N81 X-135.191 Y-14.610 Z13.114 A49.0949 B-26.9998 
N82 X-135.190 Y-14.797 Z12.898 A49.1061 B-26.9998 
N83 X-135.189 Y-14.985 Z12.683 A49.1172 B-26.9997 
N84 X-135.188 Y-15.172 Z12.467 A49.1284 B-26.9997 
N85 X-135.187 Y-15.360 Z12.251 A49.1395 B-26.9996 
N86 X-135.185 Y-15.547 Z12.036 A49.1507 B-26.9996 
N87 X-135.184 Y-15.734 Z11.820 A49.1619 B-26.9995 
N88 X-135.182 Y-15.922 Z11.605 A49.1730 B-26.9994 
N89 X-135.180 Y-16.109 Z11.389 A49.1842 B-26.9994 
N90 X-135.178 Y-16.297 Z11.173 A49.1954 B-26.9993 
N91 X-135.176 Y-16.484 Z10.958 A49.2065 B-26.9992 
N92 X-135.174 Y-16.672 Z10.742 A49.2177 B-26.9991 
N93 X-135.172 Y-16.859 Z10.527 A49.2288 B-26.9991 
N94 X-135.170 Y-17.046 Z10.311 A49.2400 B-26.9990 
N95 X-135.167 Y-17.234 Z10.095 A49.2512 B-26.9989 
N96 X-135.165 Y-17.421 Z9.880 A49.2623 B-26.9988 
N97 X-135.162 Y-17.609 Z9.664 A49.2735 B-26.9987 
N98 X-135.160 Y-17.796 Z9.449 A49.2847 B-26.9986 
N99 X-135.157 Y-17.983 Z9.233 A49.2958 B-26.9985 
N100 X-135.154 Y-18.171 Z9.017 A49.3070 B-26.9983 
N101 X-135.151 Y-18.358 Z8.802 A49.3181 B-26.9982 
N102 X-135.148 Y-18.546 Z8.586 A49.3293 B-26.9981 
N103 X-135.144 Y-18.733 Z8.371 A49.3405 B-26.9980 
N104 X-135.141 Y-18.921 Z8.155 A49.3516 B-26.9978 
N105 X-135.137 Y-19.108 Z7.939 A49.3628 B-26.9977 
N106 X-135.134 Y-19.295 Z7.724 A49.3739 B-26.9976 
N107 X-135.130 Y-19.483 Z7.508 A49.3851 B-26.9974 
N108 X-135.126 Y-19.670 Z7.293 A49.3963 B-26.9973 
N109 X-135.122 Y-19.858 Z7.077 A49.4074 B-26.9971 
N110 X-135.118 Y-20.045 Z6.861 A49.4186 B-26.9970 
N111 X-135.114 Y-20.232 Z6.646 A49.4298 B-26.9968 
N112 X-135.110 Y-20.420 Z6.430 A49.4409 B-26.9966 
N113 X-135.106 Y-20.607 Z6.215 A49.4521 B-26.9965 
N114 X-135.101 Y-20.795 Z5.999 A49.4632 B-26.9963 
N115 X-135.096 Y-20.982 Z5.784 A49.4744 B-26.9961 
N116 X-135.092 Y-21.169 Z5.568 A49.4856 B-26.9959 
N117 X-135.087 Y-21.357 Z5.352 A49.4967 B-26.9957 
N118 X-135.082 Y-21.544 Z5.137 A49.5079 B-26.9955 
N119 X-135.077 Y-21.732 Z4.921 A49.5190 B-26.9953 
N120 X-135.072 Y-21.919 Z4.706 A49.5302 B-26.9951 
N121 X-135.067 Y-22.106 Z4.490 A49.5414 B-26.9949 
N122 X-135.061 Y-22.294 Z4.275 A49.5525 B-26.9947 
N123 X-135.056 Y-22.481 Z4.059 A49.5637 B-26.9945 
N124 X-135.050 Y-22.669 Z3.843 A49.5748 B-26.9943 
N125 X-135.045 Y-22.856 Z3.628 A49.5860 B-26.9941 
N126 X-135.039 Y-23.043 Z3.412 A49.5972 B-26.9938 
N127 X-135.033 Y-23.231 Z3.197 A49.6083 B-26.9936 
N128 X-135.027 Y-23.418 Z2.981 A49.6195 B-26.9934 
N129 X-135.021 Y-23.606 Z2.766 A49.6306 B-26.9931 
N130 X-135.014 Y-23.793 Z2.550 A49.6418 B-26.9929 
N131 X-135.008 Y-23.980 Z2.334 A49.6529 B-26.9927 
N132 X-135.002 Y-24.168 Z2.119 A49.6641 B-26.9924 
N133 X-134.995 Y-24.355 Z1.903 A49.6753 B-26.9921 
N134 X-134.988 Y-24.542 Z1.688 A49.6864 B-26.9919 
N135 X-134.982 Y-24.730 Z1.472 A49.6976 B-26.9916 
N136 X-134.975 Y-24.917 Z1.257 A49.7087 B-26.9913 
N137 X-134.968 Y-25.105 Z1.041 A49.7199 B-26.9911 
N138 X-134.961 Y-25.292 Z0.826 A49.7311 B-26.9908 
N139 X-134.954 Y-25.479 Z0.610 A49.7422 B-26.9905 
N140 X-134.946 Y-25.667 Z0.395 A49.7534 B-26.9902 
N141 X-134.939 Y-25.854 Z0.179 A49.7645 B-26.9899 
N142 X-134.931 Y-26.041 Z-0.037 A49.7757 B-26.9896 
N143 X-134.924 Y-26.229 Z-0.252 A49.7868 B-26.9894 
N144 X-134.916 Y-26.416 Z-0.468 A49.7980 B-26.9890 
N145 X-134.908 Y-26.603 Z-0.683 A49.8092 B-26.9887 
N146 X-134.900 Y-26.791 Z-0.899 A49.8203 B-26.9884 
N147 X-134.892 Y-26.978 Z-1.114 A49.8315 B-26.9881 
N148 X-134.884 Y-27.165 Z-1.330 A49.8426 B-26.9878 
N149 X-134.875 Y-27.353 Z-1.545 A49.8538 B-26.9875 
N150 X-134.867 Y-27.540 Z-1.761 A49.8649 B-26.9871 
N151 X-134.859 Y-27.728 Z-1.976 A49.8761 B-26.9868 
N152 X-134.850 Y-27.915 Z-2.192 A49.8872 B-26.9865 
N153 X-134.841 Y-28.102 Z-2.407 A49.8984 B-26.9861 
N154 X-134.832 Y-28.290 Z-2.623 A49.9096 B-26.9858 
N155 X-134.823 Y-28.477 Z-2.838 A49.9207 B-26.9854 
N156 X-134.814 Y-28.664 Z-3.054 A49.9319 B-26.9851 
N157 X-134.805 Y-28.852 Z-3.269 A49.9430 B-26.9847 
N158 X-134.796 Y-29.039 Z-3.485 A49.9542 B-26.9844 
N159 X-134.786 Y-29.226 Z-3.700 A49.9653 B-26.9840 
N160 X-134.777 Y-29.413 Z-3.916 A49.9765 B-26.9836 
N161 X-134.767 Y-29.601 Z-4.131 A49.9876 B-26.9832 
N162 X-134.758 Y-29.788 Z-4.347 A49.9988 B-26.9829 
N163 X-134.748 Y-29.975 Z-4.562 A50.0099 B-26.9825 
N164 X-134.738 Y-30.163 Z-4.778 A50.0211 B-26.9821 
N165 X-134.728 Y-30.350 Z-4.993 A50.0322 B-26.9817 
N166 X-134.718 Y-30.537 Z-5.209 A50.0434 B-26.9813 
N167 X-134.707 Y-30.725 Z-5.424 A50.0545 B-26.9809 
N168 X-134.697 Y-30.912 Z-5.640 A50.0657 B-26.9805 
N169 X-134.686 Y-31.099 Z-5.855 A50.0769 B-26.9801 
N170 X-134.676 Y-31.287 Z-6.070 A50.0880 B-26.9797 
N171 X-134.665 Y-31.474 Z-6.286 A50.0992 B-26.9793 
N172 X-134.654 Y-31.661 Z-6.501 A50.1103 B-26.9788 
N173 X-134.643 Y-31.848 Z-6.717 A50.1215 B-26.9784 
N174 X-134.632 Y-32.036 Z-6.932 A50.1326 B-26.9780 
N175 X-134.621 Y-32.223 Z-7.148 A50.1438 B-26.9775 
N176 X-134.610 Y-32.410 Z-7.363 A50.1549 B-26.9771 
N177 X-134.599 Y-32.598 Z-7.579 A50.1661 B-26.9767 
N178 X-134.587 Y-32.785 Z-7.794 A50.1772 B-26.9762 
N179 X-134.576 Y-32.972 Z-8.010 A50.1884 B-26.9758 
N180 X-134.564 Y-33.159 Z-8.225 A50.1995 B-26.9753 
N181 X-134.552 Y-33.347 Z-8.440 A50.2107 B-26.9748 
N182 X-134.540 Y-33.534 Z-8.656 A50.2218 B-26.9744 
N183 X-134.528 Y-33.721 Z-8.871 A50.2329 B-26.9739 
N184 X-134.516 Y-33.908 Z-9.087 A50.2441 B-26.9734 
N185 X-134.504 Y-34.096 Z-9.302 A50.2552 B-26.9730 
N186 X-134.492 Y-34.283 Z-9.517 A50.2664 B-26.9725 
N187 X-134.479 Y-34.470 Z-9.733 A50.2775 B-26.9720 
N188 X-134.467 Y-34.657 Z-9.948 A50.2887 B-26.9715 
N189 X-134.454 Y-34.845 Z-10.164 A50.2998 B-26.9710 
N190 X-134.441 Y-35.032 Z-10.379 A50.3110 B-26.9705 
N191 X-134.428 Y-35.219 Z-10.594 A50.3221 B-26.9700 
N192 X-134.415 Y-35.406 Z-10.810 A50.3333 B-26.9695 
N193 X-134.402 Y-35.594 Z-11.025 A50.3444 B-26.9690 
N194 X-134.389 Y-35.781 Z-11.241 A50.3556 B-26.9685 
N195 X-134.376 Y-35.968 Z-11.456 A50.3667 B-26.9679 
N196 X-134.362 Y-36.155 Z-11.671 A50.3778 B-26.9674 
N197 X-134.349 Y-36.343 Z-11.887 A50.3890 B-26.9669 
N198 X-134.335 Y-36.530 Z-12.102 A50.4001 B-26.9664 
N199 X-134.321 Y-36.717 Z-12.317 A50.4113 B-26.9658 
N200 X-134.307 Y-36.904 Z-12.533 A50.4224 B-26.9653 
N201 X-134.293 Y-37.091 Z-12.748 A50.4336 B-26.9647 
N202 X-134.279 Y-37.279 Z-12.963 A50.4447 B-26.9642 
N203 X-134.265 Y-37.466 Z-13.179 A50.4558 B-26.9636 
N204 X-134.251 Y-37.653 Z-13.394 A50.4670 B-26.9631 
N205 X-134.236 Y-37.840 Z-13.609 A50.4781 B-26.9625 
N206 X-134.222 Y-38.027 Z-13.825 A50.4893 B-26.9619 
N207 X-134.207 Y-38.215 Z-14.040 A50.5004 B-26.9614 
N208 X-134.192 Y-38.402 Z-14.255 A50.5115 B-26.9608 
N209 X-134.178 Y-38.589 Z-14.471 A50.5227 B-26.9602 
N210 X-134.163 Y-38.776 Z-14.686 A50.5338 B-26.9596 
N211 X-134.148 Y-38.963 Z-14.901 A50.5450 B-26.9590 
N212 X-134.132 Y-39.150 Z-15.117 A50.5561 B-26.9584 
N213 X-134.117 Y-39.338 Z-15.332 A50.5672 B-26.9578 
N214 X-134.095 Y-39.613 Z-15.649 
N215 X-133.562 Y-46.164 Z-23.185 
N216 G00 X-156.228 Y-80.587 Z5.122 
;RAPORT("TB000000","Slot Finishing:154 End")
;trailer : concat=None
; points cnt = 174
N218 MSG (" --- GROUPED OF SUBPROGRAM --- ")
N219 FGROUP()
N220 TRAFOOF
; PROGRAM NAME: B00000051
; ORDER       : B000000
; OPER. NAME  : Slot Finishing:155
; OPER. DESCR.: semi finish and finishing root chamfer BETE SFSA
; OPER. TYPE  : slotMillFinish
; GEO. OPTION : 1
; MACHINE     : HSTM_500_SIM840D_Py
;             : HSTM500 - HAMUEL: 5-axis milling machine - SIM840D Traori PP_Script
; CONTROL     : SINUMERIK 840D
; created:   2021-11-15 10:01:09.554418
;-------DODATKOWE DANE-------------------
; PROGRAMISTA : Mariusz Malec
; PARTID      : 139T001534P1001_-
;  ap         : 5.0
;  ae         : 0.5
;  lean_angle : 0.0
;  rad_Offset : 2.0
;  fin_Offset : 1.6
;----------------------------------------
;RAPORT("TB000000","Slot Finishing:155")
N10 TRAFOOF
N11 D0
N12 G90 G94
N13 G0 G53 D0 Z550 B0
N14 STOPRE
M9 ; chlodziwo wyl
; --- Slot Finishing:155 - semi finish and finishing root chamfer BETE SFSA ---
N16 ;ToolChange : concat=None ,current_tdmid=None, PP.tdmId=940790
N17 TRAFOOF
N18 G0 G53 D0 Z550 B0
N19 STOPRE
N20 MSG(" TLID=940790 D=8.0 R=0.0 Ang=18.0 Len=135.0 ")
N21 S7161 M03
N22 STOPRE
N23 CYCLE832(0.01,1,1)
N24 G0 G53 A228.9801 B-27.0000
N25 TRAORI
N26 G54 D2
N27 D2 
N28 TRANS  X=R20 B=R38
STOPRE
E_ZDARZ=300006
;ACS_FINISH_ROOT_BETA=7740790
STOPRE
N29 ; DELTA A > 40.1
N30 TRAFOOF
N31 D2
N32 STOPRE
N33 G00 G54 Z251.000
N34 G01 A228.9801 F10000
N35 TRAORI
N36 G54 D2
N37 STOPRE
N38 TRANS  X=R20 B=R38
N39 G00 X-207.867 Y39.097 Z-46.297 A228.9801 B-27.0000 
N40 M342 ; chlodziwo woda
N41 X-185.167 Y5.484 Z-17.058 
N42 G01 X-185.122 Y12.045 Z-9.511 F859 
N43 X-185.120 Y12.263 Z-9.259 
N44 X-185.119 Y12.482 Z-9.007 
N45 X-185.117 Y12.701 Z-8.756 
N46 X-185.115 Y12.977 Z-8.439 
N47 X-185.114 Y13.164 Z-8.223 A228.9905 B-27.0000 
N48 X-185.113 Y13.351 Z-8.008 A229.0009 B-26.9999 
N49 X-185.111 Y13.538 Z-7.793 A229.0113 B-26.9999 
N50 X-185.110 Y13.725 Z-7.578 A229.0216 B-26.9998 
N51 X-185.109 Y13.912 Z-7.363 A229.0320 B-26.9998 
N52 X-185.108 Y14.099 Z-7.148 A229.0424 B-26.9998 
N53 X-185.106 Y14.286 Z-6.933 A229.0528 B-26.9997 
N54 X-185.105 Y14.473 Z-6.718 A229.0632 B-26.9997 
N55 X-185.104 Y14.660 Z-6.503 A229.0735 B-26.9996 
N56 X-185.102 Y14.846 Z-6.288 A229.0839 B-26.9996 
N57 X-185.101 Y15.033 Z-6.072 A229.0943 B-26.9995 
N58 X-185.100 Y15.220 Z-5.857 A229.1047 B-26.9995 
N59 X-185.098 Y15.407 Z-5.642 A229.1151 B-26.9995 
N60 X-185.097 Y15.594 Z-5.427 A229.1254 B-26.9994 
N61 X-185.096 Y15.781 Z-5.212 A229.1358 B-26.9994 
N62 X-185.095 Y15.968 Z-4.997 A229.1462 B-26.9993 
N63 X-185.093 Y16.155 Z-4.782 A229.1566 B-26.9993 
N64 X-185.092 Y16.342 Z-4.567 A229.1670 B-26.9992 
N65 X-185.091 Y16.529 Z-4.352 A229.1773 B-26.9992 
N66 X-185.089 Y16.716 Z-4.137 A229.1877 B-26.9991 
N67 X-185.088 Y16.903 Z-3.922 A229.1981 B-26.9991 
N68 X-185.087 Y17.090 Z-3.706 A229.2085 B-26.9990 
N69 X-185.085 Y17.277 Z-3.491 A229.2188 B-26.9990 
N70 X-185.084 Y17.464 Z-3.276 A229.2292 B-26.9989 
N71 X-185.083 Y17.651 Z-3.061 A229.2396 B-26.9988 
N72 X-185.082 Y17.838 Z-2.846 A229.2500 B-26.9988 
N73 X-185.080 Y18.025 Z-2.631 A229.2604 B-26.9987 
N74 X-185.079 Y18.212 Z-2.416 A229.2707 B-26.9987 
N75 X-185.078 Y18.399 Z-2.201 A229.2811 B-26.9986 
N76 X-185.075 Y18.586 Z-1.986 A229.2915 B-26.9985 
N77 X-185.071 Y18.773 Z-1.771 A229.3020 B-26.9984 
N78 X-185.067 Y18.960 Z-1.556 A229.3124 B-26.9982 
N79 X-185.063 Y19.147 Z-1.340 A229.3228 B-26.9981 
N80 X-185.059 Y19.334 Z-1.125 A229.3333 B-26.9980 
N81 X-185.055 Y19.521 Z-0.910 A229.3437 B-26.9978 
N82 X-185.051 Y19.708 Z-0.695 A229.3542 B-26.9977 
N83 X-185.046 Y19.895 Z-0.480 A229.3646 B-26.9975 
N84 X-185.042 Y20.082 Z-0.265 A229.3750 B-26.9974 
N85 X-185.038 Y20.269 Z-0.050 A229.3855 B-26.9972 
N86 X-185.034 Y20.456 Z0.165 A229.3959 B-26.9971 
N87 X-185.030 Y20.643 Z0.380 A229.4064 B-26.9969 
N88 X-185.026 Y20.830 Z0.595 A229.4168 B-26.9968 
N89 X-185.021 Y21.017 Z0.810 A229.4272 B-26.9966 
N90 X-185.017 Y21.203 Z1.025 A229.4377 B-26.9965 
N91 X-185.013 Y21.390 Z1.240 A229.4481 B-26.9963 
N92 X-185.009 Y21.577 Z1.455 A229.4586 B-26.9962 
N93 X-185.005 Y21.764 Z1.671 A229.4690 B-26.9960 
N94 X-185.001 Y21.951 Z1.886 A229.4794 B-26.9959 
N95 X-184.997 Y22.138 Z2.101 A229.4899 B-26.9957 
N96 X-184.992 Y22.325 Z2.316 A229.5003 B-26.9955 
N97 X-184.988 Y22.512 Z2.531 A229.5108 B-26.9954 
N98 X-184.984 Y22.699 Z2.746 A229.5212 B-26.9952 
N99 X-184.980 Y22.886 Z2.961 A229.5316 B-26.9951 
N100 X-184.976 Y23.073 Z3.176 A229.5421 B-26.9949 
N101 X-184.972 Y23.260 Z3.391 A229.5525 B-26.9947 
N102 X-184.967 Y23.447 Z3.606 A229.5630 B-26.9946 
N103 X-184.961 Y23.634 Z3.821 A229.5734 B-26.9943 
N104 X-184.954 Y23.821 Z4.036 A229.5838 B-26.9941 
N105 X-184.947 Y24.008 Z4.251 A229.5943 B-26.9939 
N106 X-184.941 Y24.195 Z4.466 A229.6047 B-26.9936 
N107 X-184.934 Y24.382 Z4.681 A229.6151 B-26.9934 
N108 X-184.927 Y24.569 Z4.896 A229.6256 B-26.9931 
N109 X-184.921 Y24.756 Z5.111 A229.6360 B-26.9929 
N110 X-184.914 Y24.942 Z5.326 A229.6465 B-26.9927 
N111 X-184.908 Y25.129 Z5.542 A229.6569 B-26.9924 
N112 X-184.901 Y25.316 Z5.757 A229.6673 B-26.9922 
N113 X-184.894 Y25.503 Z5.972 A229.6778 B-26.9919 
N114 X-184.888 Y25.690 Z6.187 A229.6882 B-26.9917 
N115 X-184.881 Y25.877 Z6.402 A229.6986 B-26.9915 
N116 X-184.874 Y26.064 Z6.617 A229.7091 B-26.9912 
N117 X-184.868 Y26.251 Z6.832 A229.7195 B-26.9910 
N118 X-184.861 Y26.438 Z7.047 A229.7300 B-26.9907 
N119 X-184.855 Y26.625 Z7.262 A229.7404 B-26.9905 
N120 X-184.848 Y26.812 Z7.477 A229.7508 B-26.9902 
N121 X-184.841 Y26.999 Z7.692 A229.7613 B-26.9900 
N122 X-184.835 Y27.186 Z7.907 A229.7717 B-26.9897 
N123 X-184.828 Y27.373 Z8.122 A229.7821 B-26.9895 
N124 X-184.821 Y27.559 Z8.337 A229.7926 B-26.9892 
N125 X-184.813 Y27.746 Z8.552 A229.8029 B-26.9889 
N126 X-184.805 Y27.933 Z8.767 A229.8133 B-26.9886 
N127 X-184.796 Y28.120 Z8.982 A229.8236 B-26.9883 
N128 X-184.787 Y28.307 Z9.197 A229.8340 B-26.9880 
N129 X-184.778 Y28.494 Z9.412 A229.8443 B-26.9877 
N130 X-184.769 Y28.681 Z9.627 A229.8546 B-26.9874 
N131 X-184.761 Y28.868 Z9.842 A229.8650 B-26.9871 
N132 X-184.752 Y29.055 Z10.057 A229.8753 B-26.9867 
N133 X-184.743 Y29.241 Z10.272 A229.8857 B-26.9864 
N134 X-184.734 Y29.428 Z10.487 A229.8960 B-26.9861 
N135 X-184.726 Y29.615 Z10.702 A229.9064 B-26.9858 
N136 X-184.717 Y29.802 Z10.917 A229.9167 B-26.9855 
N137 X-184.708 Y29.989 Z11.132 A229.9270 B-26.9851 
N138 X-184.699 Y30.176 Z11.347 A229.9374 B-26.9848 
N139 X-184.691 Y30.363 Z11.562 A229.9477 B-26.9845 
N140 X-184.682 Y30.550 Z11.777 A229.9581 B-26.9842 
N141 X-184.673 Y30.737 Z11.992 A229.9684 B-26.9839 
N142 X-184.664 Y30.924 Z12.207 A229.9787 B-26.9835 
N143 X-184.655 Y31.110 Z12.422 A229.9891 B-26.9832 
N144 X-184.647 Y31.297 Z12.637 A229.9994 B-26.9829 
N145 X-184.634 Y31.573 Z12.954 
N146 X-184.326 Y38.131 Z20.498 
N147 G00 X-195.669 Y55.197 Z6.177 
N148 X-197.154 Y22.290 Z-31.678 A228.9801 B-27.0000 
N149 X-185.804 Y5.484 Z-17.058 
N150 G01 X-185.758 Y12.044 Z-9.511 F859 
N151 X-185.757 Y12.263 Z-9.259 
N152 X-185.755 Y12.482 Z-9.008 
N153 X-185.754 Y12.700 Z-8.756 
N154 X-185.752 Y12.976 Z-8.439 
N155 X-185.750 Y13.164 Z-8.224 A228.9905 B-27.0000 
N156 X-185.749 Y13.351 Z-8.008 A229.0009 B-26.9999 
N157 X-185.748 Y13.538 Z-7.793 A229.0113 B-26.9999 
N158 X-185.747 Y13.725 Z-7.578 A229.0216 B-26.9998 
N159 X-185.745 Y13.912 Z-7.363 A229.0320 B-26.9998 
N160 X-185.744 Y14.099 Z-7.147 A229.0424 B-26.9998 
N161 X-185.743 Y14.286 Z-6.932 A229.0528 B-26.9997 
N162 X-185.741 Y14.473 Z-6.717 A229.0632 B-26.9997 
N163 X-185.740 Y14.661 Z-6.501 A229.0735 B-26.9996 
N164 X-185.739 Y14.848 Z-6.286 A229.0839 B-26.9996 
N165 X-185.737 Y15.035 Z-6.071 A229.0943 B-26.9995 
N166 X-185.736 Y15.222 Z-5.856 A229.1047 B-26.9995 
N167 X-185.735 Y15.409 Z-5.640 A229.1151 B-26.9995 
N168 X-185.733 Y15.596 Z-5.425 A229.1254 B-26.9994 
N169 X-185.732 Y15.783 Z-5.210 A229.1358 B-26.9994 
N170 X-185.731 Y15.970 Z-4.995 A229.1462 B-26.9993 
N171 X-185.730 Y16.158 Z-4.779 A229.1566 B-26.9993 
N172 X-185.728 Y16.345 Z-4.564 A229.1670 B-26.9992 
N173 X-185.727 Y16.532 Z-4.349 A229.1773 B-26.9992 
N174 X-185.726 Y16.719 Z-4.134 A229.1877 B-26.9991 
N175 X-185.724 Y16.906 Z-3.918 A229.1981 B-26.9991 
N176 X-185.723 Y17.093 Z-3.703 A229.2085 B-26.9990 
N177 X-185.722 Y17.280 Z-3.488 A229.2188 B-26.9990 
N178 X-185.720 Y17.467 Z-3.272 A229.2292 B-26.9989 
N179 X-185.719 Y17.655 Z-3.057 A229.2396 B-26.9988 
N180 X-185.718 Y17.842 Z-2.842 A229.2500 B-26.9988 
N181 X-185.717 Y18.029 Z-2.627 A229.2604 B-26.9987 
N182 X-185.715 Y18.216 Z-2.411 A229.2707 B-26.9987 
N183 X-185.714 Y18.403 Z-2.196 A229.2811 B-26.9986 
N184 X-185.712 Y18.590 Z-1.981 A229.2915 B-26.9985 
N185 X-185.708 Y18.777 Z-1.766 A229.3020 B-26.9984 
N186 X-185.703 Y18.964 Z-1.550 A229.3124 B-26.9982 
N187 X-185.699 Y19.152 Z-1.335 A229.3228 B-26.9981 
N188 X-185.695 Y19.339 Z-1.120 A229.3333 B-26.9980 
N189 X-185.691 Y19.526 Z-0.905 A229.3437 B-26.9978 
N190 X-185.687 Y19.713 Z-0.689 A229.3542 B-26.9977 
N191 X-185.683 Y19.900 Z-0.474 A229.3646 B-26.9975 
N192 X-185.679 Y20.087 Z-0.259 A229.3750 B-26.9974 
N193 X-185.674 Y20.274 Z-0.044 A229.3855 B-26.9972 
N194 X-185.670 Y20.461 Z0.172 A229.3959 B-26.9971 
N195 X-185.666 Y20.648 Z0.387 A229.4064 B-26.9969 
N196 X-185.662 Y20.836 Z0.602 A229.4168 B-26.9968 
N197 X-185.658 Y21.023 Z0.817 A229.4272 B-26.9966 
N198 X-185.654 Y21.210 Z1.033 A229.4377 B-26.9965 
N199 X-185.650 Y21.397 Z1.248 A229.4481 B-26.9963 
N200 X-185.645 Y21.584 Z1.463 A229.4586 B-26.9962 
N201 X-185.641 Y21.771 Z1.678 A229.4690 B-26.9960 
N202 X-185.637 Y21.958 Z1.893 A229.4794 B-26.9959 
N203 X-185.633 Y22.145 Z2.109 A229.4899 B-26.9957 
N204 X-185.629 Y22.332 Z2.324 A229.5003 B-26.9955 
N205 X-185.625 Y22.520 Z2.539 A229.5108 B-26.9954 
N206 X-185.620 Y22.707 Z2.754 A229.5212 B-26.9952 
N207 X-185.616 Y22.894 Z2.970 A229.5316 B-26.9951 
N208 X-185.612 Y23.081 Z3.185 A229.5421 B-26.9949 
N209 X-185.608 Y23.268 Z3.400 A229.5525 B-26.9947 
N210 X-185.603 Y23.455 Z3.615 A229.5630 B-26.9946 
N211 X-185.597 Y23.642 Z3.831 A229.5734 B-26.9943 
N212 X-185.590 Y23.829 Z4.046 A229.5838 B-26.9941 
N213 X-185.584 Y24.016 Z4.261 A229.5943 B-26.9939 
N214 X-185.577 Y24.203 Z4.476 A229.6047 B-26.9936 
N215 X-185.570 Y24.390 Z4.691 A229.6151 B-26.9934 
N216 X-185.564 Y24.578 Z4.907 A229.6256 B-26.9931 
N217 X-185.557 Y24.765 Z5.122 A229.6360 B-26.9929 
N218 X-185.550 Y24.952 Z5.337 A229.6465 B-26.9927 
N219 X-185.544 Y25.139 Z5.552 A229.6569 B-26.9924 
N220 X-185.537 Y25.326 Z5.768 A229.6673 B-26.9922 
N221 X-185.531 Y25.513 Z5.983 A229.6778 B-26.9919 
N222 X-185.524 Y25.700 Z6.198 A229.6882 B-26.9917 
N223 X-185.517 Y25.887 Z6.413 A229.6986 B-26.9915 
N224 X-185.511 Y26.074 Z6.628 A229.7091 B-26.9912 
N225 X-185.504 Y26.261 Z6.844 A229.7195 B-26.9910 
N226 X-185.497 Y26.448 Z7.059 A229.7300 B-26.9907 
N227 X-185.491 Y26.635 Z7.274 A229.7404 B-26.9905 
N228 X-185.484 Y26.822 Z7.489 A229.7508 B-26.9902 
N229 X-185.478 Y27.010 Z7.704 A229.7613 B-26.9900 
N230 X-185.471 Y27.197 Z7.920 A229.7717 B-26.9897 
N231 X-185.464 Y27.384 Z8.135 A229.7821 B-26.9895 
N232 X-185.458 Y27.571 Z8.350 A229.7926 B-26.9892 
N233 X-185.449 Y27.758 Z8.565 A229.8029 B-26.9889 
N234 X-185.441 Y27.945 Z8.780 A229.8133 B-26.9886 
N235 X-185.432 Y28.132 Z8.996 A229.8236 B-26.9883 
N236 X-185.423 Y28.319 Z9.211 A229.8340 B-26.9880 
N237 X-185.414 Y28.506 Z9.426 A229.8443 B-26.9877 
N238 X-185.406 Y28.693 Z9.641 A229.8546 B-26.9874 
N239 X-185.397 Y28.880 Z9.856 A229.8650 B-26.9871 
N240 X-185.388 Y29.067 Z10.071 A229.8753 B-26.9867 
N241 X-185.379 Y29.254 Z10.287 A229.8857 B-26.9864 
N242 X-185.370 Y29.441 Z10.502 A229.8960 B-26.9861 
N243 X-185.362 Y29.628 Z10.717 A229.9064 B-26.9858 
N244 X-185.353 Y29.815 Z10.932 A229.9167 B-26.9855 
N245 X-185.344 Y30.002 Z11.147 A229.9270 B-26.9851 
N246 X-185.335 Y30.189 Z11.362 A229.9374 B-26.9848 
N247 X-185.327 Y30.376 Z11.578 A229.9477 B-26.9845 
N248 X-185.318 Y30.563 Z11.793 A229.9581 B-26.9842 
N249 X-185.309 Y30.750 Z12.008 A229.9684 B-26.9839 
N250 X-185.300 Y30.938 Z12.223 A229.9787 B-26.9835 
N251 X-185.291 Y31.125 Z12.438 A229.9891 B-26.9832 
N252 X-185.283 Y31.312 Z12.653 A229.9994 B-26.9829 
N253 X-185.270 Y31.587 Z12.971 
N254 X-184.962 Y38.145 Z20.514 
N255 G00 X-207.648 Y72.277 Z-8.127 
;RAPORT("TB000000","Slot Finishing:155 End")
;trailer : concat=None
; points cnt = 210
N257 MSG (" --- GROUPED OF SUBPROGRAM --- ")
N258 FGROUP()
N259 TRAFOOF
; PROGRAM NAME: B00000051
; ORDER       : B000000
; OPER. NAME  : Slot Finishing:156
; OPER. DESCR.: finishing root chamfer BETE SFSA
; OPER. TYPE  : slotMillFinish
; GEO. OPTION : 1
; MACHINE     : HSTM_500_SIM840D_Py
;             : HSTM500 - HAMUEL: 5-axis milling machine - SIM840D Traori PP_Script
; CONTROL     : SINUMERIK 840D
; created:   2021-11-15 10:01:13.716516
;-------DODATKOWE DANE-------------------
; PROGRAMISTA : Mariusz Malec
; PARTID      : 139T001534P1001_-
;  ap         : 5.0
;  ae         : 1.0
;  lean_angle : 0.0
;  rad_Offset : 2.0
;  fin_Offset : 1.6
;----------------------------------------
;RAPORT("TB000000","Slot Finishing:156")
N10 TRAFOOF
N11 D0
N12 G90 G94
N13 G0 G53 D0 Z550 B0
N14 STOPRE
M9 ; chlodziwo wyl
; --- Slot Finishing:156 - finishing root chamfer BETE SFSA ---
N16 ;ToolChange : concat=None ,current_tdmid=None, PP.tdmId=940790
N17 TRAFOOF
N18 G0 G53 D0 Z550 B0
N19 STOPRE
N20 MSG(" TLID=940790 D=8.0 R=0.0 Ang=18.0 Len=135.0 ")
N21 S7161 M03
N22 STOPRE
N23 CYCLE832(0.01,1,1)
N24 G0 G53 A228.9801 B-27.0000
N25 TRAORI
N26 G54 D2
N27 D2 
N28 TRANS  X=R20 B=R38
STOPRE
E_ZDARZ=300006
;ACS_FINISH_ROOT_BETA=7740790
STOPRE
N29 ; DELTA A > 40.1
N30 TRAFOOF
N31 D2
N32 STOPRE
N33 G00 G54 Z251.000
N34 G01 A228.9801 F10000
N35 TRAORI
N36 G54 D2
N37 STOPRE
N38 TRANS  X=R20 B=R38
N39 G00 X-208.645 Y39.096 Z-46.297 A228.9801 B-27.0000 
N40 M342 ; chlodziwo woda
N41 X-185.945 Y5.484 Z-17.058 
N42 G01 X-185.900 Y12.044 Z-9.511 F859 
N43 X-185.898 Y12.263 Z-9.259 
N44 X-185.897 Y12.482 Z-9.008 
N45 X-185.895 Y12.700 Z-8.756 
N46 X-185.893 Y12.976 Z-8.439 
N47 X-185.892 Y13.164 Z-8.224 A228.9905 B-27.0000 
N48 X-185.891 Y13.351 Z-8.008 A229.0009 B-26.9999 
N49 X-185.889 Y13.538 Z-7.793 A229.0113 B-26.9999 
N50 X-185.888 Y13.725 Z-7.578 A229.0216 B-26.9998 
N51 X-185.887 Y13.912 Z-7.362 A229.0320 B-26.9998 
N52 X-185.885 Y14.099 Z-7.147 A229.0424 B-26.9998 
N53 X-185.884 Y14.286 Z-6.932 A229.0528 B-26.9997 
N54 X-185.883 Y14.474 Z-6.716 A229.0632 B-26.9997 
N55 X-185.881 Y14.661 Z-6.501 A229.0735 B-26.9996 
N56 X-185.880 Y14.848 Z-6.286 A229.0839 B-26.9996 
N57 X-185.879 Y15.035 Z-6.071 A229.0943 B-26.9995 
N58 X-185.878 Y15.222 Z-5.855 A229.1047 B-26.9995 
N59 X-185.876 Y15.409 Z-5.640 A229.1151 B-26.9995 
N60 X-185.875 Y15.597 Z-5.425 A229.1254 B-26.9994 
N61 X-185.874 Y15.784 Z-5.209 A229.1358 B-26.9994 
N62 X-185.872 Y15.971 Z-4.994 A229.1462 B-26.9993 
N63 X-185.871 Y16.158 Z-4.779 A229.1566 B-26.9993 
N64 X-185.870 Y16.345 Z-4.563 A229.1670 B-26.9992 
N65 X-185.868 Y16.532 Z-4.348 A229.1773 B-26.9992 
N66 X-185.867 Y16.720 Z-4.133 A229.1877 B-26.9991 
N67 X-185.866 Y16.907 Z-3.918 A229.1981 B-26.9991 
N68 X-185.864 Y17.094 Z-3.702 A229.2085 B-26.9990 
N69 X-185.863 Y17.281 Z-3.487 A229.2188 B-26.9990 
N70 X-185.862 Y17.468 Z-3.272 A229.2292 B-26.9989 
N71 X-185.861 Y17.655 Z-3.056 A229.2396 B-26.9988 
N72 X-185.859 Y17.843 Z-2.841 A229.2500 B-26.9988 
N73 X-185.858 Y18.030 Z-2.626 A229.2604 B-26.9987 
N74 X-185.857 Y18.217 Z-2.410 A229.2707 B-26.9987 
N75 X-185.855 Y18.404 Z-2.195 A229.2811 B-26.9986 
N76 X-185.853 Y18.591 Z-1.980 A229.2915 B-26.9985 
N77 X-185.849 Y18.778 Z-1.765 A229.3020 B-26.9984 
N78 X-185.845 Y18.965 Z-1.549 A229.3124 B-26.9982 
N79 X-185.841 Y19.153 Z-1.334 A229.3228 B-26.9981 
N80 X-185.837 Y19.340 Z-1.119 A229.3333 B-26.9980 
N81 X-185.832 Y19.527 Z-0.903 A229.3437 B-26.9978 
N82 X-185.828 Y19.714 Z-0.688 A229.3542 B-26.9977 
N83 X-185.824 Y19.901 Z-0.473 A229.3646 B-26.9975 
N84 X-185.820 Y20.088 Z-0.258 A229.3750 B-26.9974 
N85 X-185.816 Y20.275 Z-0.042 A229.3855 B-26.9972 
N86 X-185.812 Y20.463 Z0.173 A229.3959 B-26.9971 
N87 X-185.808 Y20.650 Z0.388 A229.4064 B-26.9969 
N88 X-185.803 Y20.837 Z0.604 A229.4168 B-26.9968 
N89 X-185.799 Y21.024 Z0.819 A229.4272 B-26.9966 
N90 X-185.795 Y21.211 Z1.034 A229.4377 B-26.9965 
N91 X-185.791 Y21.398 Z1.249 A229.4481 B-26.9963 
N92 X-185.787 Y21.585 Z1.465 A229.4586 B-26.9962 
N93 X-185.783 Y21.773 Z1.680 A229.4690 B-26.9960 
N94 X-185.778 Y21.960 Z1.895 A229.4794 B-26.9959 
N95 X-185.774 Y22.147 Z2.111 A229.4899 B-26.9957 
N96 X-185.770 Y22.334 Z2.326 A229.5003 B-26.9955 
N97 X-185.766 Y22.521 Z2.541 A229.5108 B-26.9954 
N98 X-185.762 Y22.708 Z2.756 A229.5212 B-26.9952 
N99 X-185.758 Y22.895 Z2.972 A229.5316 B-26.9951 
N100 X-185.754 Y23.083 Z3.187 A229.5421 B-26.9949 
N101 X-185.749 Y23.270 Z3.402 A229.5525 B-26.9947 
N102 X-185.745 Y23.457 Z3.617 A229.5630 B-26.9946 
N103 X-185.738 Y23.644 Z3.833 A229.5734 B-26.9943 
N104 X-185.732 Y23.831 Z4.048 A229.5838 B-26.9941 
N105 X-185.725 Y24.018 Z4.263 A229.5943 B-26.9939 
N106 X-185.718 Y24.205 Z4.478 A229.6047 B-26.9936 
N107 X-185.712 Y24.392 Z4.694 A229.6151 B-26.9934 
N108 X-185.705 Y24.580 Z4.909 A229.6256 B-26.9931 
N109 X-185.698 Y24.767 Z5.124 A229.6360 B-26.9929 
N110 X-185.692 Y24.954 Z5.339 A229.6465 B-26.9927 
N111 X-185.685 Y25.141 Z5.555 A229.6569 B-26.9924 
N112 X-185.679 Y25.328 Z5.770 A229.6673 B-26.9922 
N113 X-185.672 Y25.515 Z5.985 A229.6778 B-26.9919 
N114 X-185.665 Y25.702 Z6.200 A229.6882 B-26.9917 
N115 X-185.659 Y25.889 Z6.416 A229.6986 B-26.9915 
N116 X-185.652 Y26.076 Z6.631 A229.7091 B-26.9912 
N117 X-185.645 Y26.264 Z6.846 A229.7195 B-26.9910 
N118 X-185.639 Y26.451 Z7.061 A229.7299 B-26.9907 
N119 X-185.632 Y26.638 Z7.277 A229.7404 B-26.9905 
N120 X-185.626 Y26.825 Z7.492 A229.7508 B-26.9902 
N121 X-185.619 Y27.012 Z7.707 A229.7613 B-26.9900 
N122 X-185.612 Y27.199 Z7.922 A229.7717 B-26.9897 
N123 X-185.606 Y27.386 Z8.138 A229.7821 B-26.9895 
N124 X-185.599 Y27.573 Z8.353 A229.7926 B-26.9892 
N125 X-185.591 Y27.760 Z8.568 A229.8029 B-26.9889 
N126 X-185.582 Y27.947 Z8.783 A229.8133 B-26.9886 
N127 X-185.573 Y28.135 Z8.999 A229.8236 B-26.9883 
N128 X-185.564 Y28.322 Z9.214 A229.8340 B-26.9880 
N129 X-185.556 Y28.509 Z9.429 A229.8443 B-26.9877 
N130 X-185.547 Y28.696 Z9.644 A229.8546 B-26.9874 
N131 X-185.538 Y28.883 Z9.859 A229.8650 B-26.9871 
N132 X-185.529 Y29.070 Z10.075 A229.8753 B-26.9867 
N133 X-185.521 Y29.257 Z10.290 A229.8857 B-26.9864 
N134 X-185.512 Y29.444 Z10.505 A229.8960 B-26.9861 
N135 X-185.503 Y29.631 Z10.720 A229.9064 B-26.9858 
N136 X-185.494 Y29.818 Z10.935 A229.9167 B-26.9855 
N137 X-185.485 Y30.005 Z11.151 A229.9270 B-26.9851 
N138 X-185.477 Y30.192 Z11.366 A229.9374 B-26.9848 
N139 X-185.468 Y30.379 Z11.581 A229.9477 B-26.9845 
N140 X-185.459 Y30.566 Z11.796 A229.9581 B-26.9842 
N141 X-185.450 Y30.754 Z12.011 A229.9684 B-26.9839 
N142 X-185.442 Y30.941 Z12.227 A229.9787 B-26.9835 
N143 X-185.433 Y31.128 Z12.442 A229.9891 B-26.9832 
N144 X-185.424 Y31.315 Z12.657 A229.9994 B-26.9829 
N145 X-185.411 Y31.591 Z12.974 
N146 X-185.103 Y38.148 Z20.518 
N147 G00 X-207.789 Y72.280 Z-8.123 
;RAPORT("TB000000","Slot Finishing:156 End")
;trailer : concat=None
; points cnt = 105
N149 MSG (" --- GROUPED OF SUBPROGRAM --- ")
N150 FGROUP()
N151 TRAFOOF
; PROGRAM NAME: B00000051
; ORDER       : B000000
; OPER. NAME  : Slot Finishing:157
; OPER. DESCR.: finishing root chamfer FSFSA
; OPER. TYPE  : slotMillFinish
; GEO. OPTION : 3
; MACHINE     : HSTM_500_SIM840D_Py
;             : HSTM500 - HAMUEL: 5-axis milling machine - SIM840D Traori PP_Script
; CONTROL     : SINUMERIK 840D
; created:   2021-11-15 10:01:19.626995
;-------DODATKOWE DANE-------------------
; PROGRAMISTA : Mariusz Malec
; PARTID      : 139T001534P1001_-
;  ap         : 100.0
;  ae         : 2.404526167
;  lean_angle : 0.0
;  rad_Offset : 2.0
;  fin_Offset : -0.3
;----------------------------------------
;RAPORT("TB000000","Slot Finishing:157")
N10 TRAFOOF
N11 D0
N12 G90 G94
N13 G0 G53 D0 Z550 B0
N14 STOPRE
M9 ; chlodziwo wyl
; --- Slot Finishing:157 - finishing root chamfer FSFSA ---
N16 ;ToolChange : concat=None ,current_tdmid=None, PP.tdmId=940790
N17 TRAFOOF
N18 G0 G53 D0 Z550 B0
N19 STOPRE
N20 MSG(" TLID=940790 D=8.0 R=0.0 Ang=18.0 Len=135.0 ")
N21 S7161 M03
N22 STOPRE
N23 CYCLE832(0.01,1,1)
N24 G0 G53 A228.7029 B-26.9984
N25 TRAORI
N26 G54 D2
N27 D2 
N28 TRANS  X=R21
STOPRE
E_ZDARZ=300008
;ACS_FINISH_ROOT_FRONT_CHAMFER=7740790
STOPRE
N29 ; DELTA A > 40.1
N30 TRAFOOF
N31 D2
N32 STOPRE
N33 G00 G54 Z251.000
N34 G01 A228.7029 F10000
N35 TRAORI
N36 G54 D2
N37 STOPRE
N38 TRANS  X=R21
N39 G00 X-157.442 Y36.926 Z-53.984 A228.7029 B-26.9984 
N40 M342 ; chlodziwo woda
N41 X-134.743 Y3.455 Z-24.582 
N42 G01 X-134.842 Y10.015 Z-17.035 F859 
N43 X-134.846 Y10.234 Z-16.783 
N44 X-134.849 Y10.453 Z-16.532 
N45 X-134.852 Y10.671 Z-16.280 
N46 X-134.856 Y10.947 Z-15.963 
N47 X-134.859 Y11.135 Z-15.747 A228.7141 B-26.9986 
N48 X-134.862 Y11.322 Z-15.532 A228.7253 B-26.9987 
N49 X-134.865 Y11.509 Z-15.316 A228.7364 B-26.9988 
N50 X-134.867 Y11.697 Z-15.101 A228.7476 B-26.9989 
N51 X-134.870 Y11.884 Z-14.885 A228.7587 B-26.9990 
N52 X-134.872 Y12.071 Z-14.670 A228.7699 B-26.9991 
N53 X-134.874 Y12.259 Z-14.454 A228.7811 B-26.9991 
N54 X-134.876 Y12.446 Z-14.239 A228.7922 B-26.9992 
N55 X-134.878 Y12.633 Z-14.023 A228.8034 B-26.9993 
N56 X-134.880 Y12.821 Z-13.808 A228.8146 B-26.9994 
N57 X-134.882 Y13.008 Z-13.592 A228.8257 B-26.9994 
N58 X-134.883 Y13.195 Z-13.377 A228.8369 B-26.9995 
N59 X-134.885 Y13.383 Z-13.161 A228.8480 B-26.9996 
N60 X-134.886 Y13.570 Z-12.946 A228.8592 B-26.9996 
N61 X-134.888 Y13.757 Z-12.730 A228.8704 B-26.9997 
N62 X-134.889 Y13.945 Z-12.515 A228.8815 B-26.9997 
N63 X-134.890 Y14.132 Z-12.299 A228.8927 B-26.9998 
N64 X-134.891 Y14.320 Z-12.084 A228.9039 B-26.9998 
N65 X-134.892 Y14.507 Z-11.868 A228.9150 B-26.9998 
N66 X-134.893 Y14.694 Z-11.653 A228.9262 B-26.9999 
N67 X-134.893 Y14.882 Z-11.437 A228.9373 B-26.9999 
N68 X-134.894 Y15.069 Z-11.222 A228.9485 B-26.9999 
N69 X-134.894 Y15.256 Z-11.006 A228.9597 B-26.9999 
N70 X-134.895 Y15.444 Z-10.791 A228.9708 B-26.9999 
N71 X-134.895 Y15.631 Z-10.575 A228.9820 B-27.0000 
N72 X-134.895 Y15.818 Z-10.360 A228.9932 
N73 X-134.895 Y16.006 Z-10.144 A229.0043 
N74 X-134.895 Y16.193 Z-9.929 A229.0155 
N75 X-134.895 Y16.380 Z-9.713 A229.0266 B-26.9999 
N76 X-134.894 Y16.568 Z-9.497 A229.0378 B-26.9999 
N77 X-134.894 Y16.755 Z-9.282 A229.0490 B-26.9999 
N78 X-134.894 Y16.942 Z-9.066 A229.0601 B-26.9999 
N79 X-134.893 Y17.130 Z-8.851 A229.0713 B-26.9999 
N80 X-134.892 Y17.317 Z-8.635 A229.0825 B-26.9998 
N81 X-134.891 Y17.504 Z-8.420 A229.0936 B-26.9998 
N82 X-134.890 Y17.692 Z-8.204 A229.1048 B-26.9998 
N83 X-134.889 Y17.879 Z-7.989 A229.1159 B-26.9997 
N84 X-134.888 Y18.066 Z-7.773 A229.1271 B-26.9997 
N85 X-134.887 Y18.254 Z-7.558 A229.1383 B-26.9996 
N86 X-134.885 Y18.441 Z-7.342 A229.1494 B-26.9996 
N87 X-134.884 Y18.628 Z-7.127 A229.1606 B-26.9995 
N88 X-134.882 Y18.816 Z-6.911 A229.1718 B-26.9995 
N89 X-134.880 Y19.003 Z-6.696 A229.1829 B-26.9994 
N90 X-134.879 Y19.190 Z-6.480 A229.1941 B-26.9993 
N91 X-134.877 Y19.378 Z-6.265 A229.2052 B-26.9992 
N92 X-134.875 Y19.565 Z-6.049 A229.2164 B-26.9992 
N93 X-134.872 Y19.752 Z-5.834 A229.2276 B-26.9991 
N94 X-134.870 Y19.940 Z-5.618 A229.2387 B-26.9990 
N95 X-134.868 Y20.127 Z-5.403 A229.2499 B-26.9989 
N96 X-134.865 Y20.314 Z-5.187 A229.2611 B-26.9988 
N97 X-134.863 Y20.502 Z-4.972 A229.2722 B-26.9987 
N98 X-134.860 Y20.689 Z-4.756 A229.2834 B-26.9986 
N99 X-134.857 Y20.876 Z-4.541 A229.2945 B-26.9985 
N100 X-134.854 Y21.064 Z-4.325 A229.3057 B-26.9984 
N101 X-134.851 Y21.251 Z-4.110 A229.3169 B-26.9982 
N102 X-134.848 Y21.438 Z-3.894 A229.3280 B-26.9981 
N103 X-134.845 Y21.626 Z-3.679 A229.3392 B-26.9980 
N104 X-134.841 Y21.813 Z-3.463 A229.3503 B-26.9979 
N105 X-134.838 Y22.000 Z-3.248 A229.3615 B-26.9977 
N106 X-134.834 Y22.188 Z-3.032 A229.3727 B-26.9976 
N107 X-134.831 Y22.375 Z-2.817 A229.3838 B-26.9974 
N108 X-134.827 Y22.562 Z-2.601 A229.3950 B-26.9973 
N109 X-134.823 Y22.750 Z-2.386 A229.4061 B-26.9971 
N110 X-134.819 Y22.937 Z-2.170 A229.4173 B-26.9970 
N111 X-134.815 Y23.124 Z-1.955 A229.4285 B-26.9968 
N112 X-134.810 Y23.312 Z-1.739 A229.4396 B-26.9966 
N113 X-134.806 Y23.499 Z-1.524 A229.4508 B-26.9965 
N114 X-134.802 Y23.686 Z-1.308 A229.4620 B-26.9963 
N115 X-134.797 Y23.874 Z-1.093 A229.4731 B-26.9961 
N116 X-134.792 Y24.061 Z-0.877 A229.4843 B-26.9959 
N117 X-134.788 Y24.248 Z-0.662 A229.4954 B-26.9958 
N118 X-134.783 Y24.436 Z-0.446 A229.5066 B-26.9956 
N119 X-134.778 Y24.623 Z-0.231 A229.5178 B-26.9954 
N120 X-134.773 Y24.810 Z-0.015 A229.5289 B-26.9952 
N121 X-134.767 Y24.998 Z0.200 A229.5401 B-26.9950 
N122 X-134.762 Y25.185 Z0.416 A229.5512 B-26.9948 
N123 X-134.757 Y25.372 Z0.631 A229.5624 B-26.9945 
N124 X-134.751 Y25.560 Z0.847 A229.5736 B-26.9943 
N125 X-134.745 Y25.747 Z1.062 A229.5847 B-26.9941 
N126 X-134.740 Y25.934 Z1.277 A229.5959 B-26.9939 
N127 X-134.734 Y26.121 Z1.493 A229.6070 B-26.9936 
N128 X-134.728 Y26.309 Z1.708 A229.6182 B-26.9934 
N129 X-134.722 Y26.496 Z1.924 A229.6293 B-26.9932 
N130 X-134.715 Y26.683 Z2.139 A229.6405 B-26.9929 
N131 X-134.709 Y26.871 Z2.355 A229.6517 B-26.9927 
N132 X-134.703 Y27.058 Z2.570 A229.6628 B-26.9924 
N133 X-134.696 Y27.245 Z2.786 A229.6740 B-26.9922 
N134 X-134.689 Y27.433 Z3.001 A229.6851 B-26.9919 
N135 X-134.683 Y27.620 Z3.217 A229.6963 B-26.9917 
N136 X-134.676 Y27.807 Z3.432 A229.7075 B-26.9914 
N137 X-134.669 Y27.994 Z3.648 A229.7186 B-26.9911 
N138 X-134.662 Y28.182 Z3.863 A229.7298 B-26.9908 
N139 X-134.654 Y28.369 Z4.078 A229.7409 B-26.9906 
N140 X-134.647 Y28.556 Z4.294 A229.7521 B-26.9903 
N141 X-134.640 Y28.744 Z4.509 A229.7632 B-26.9900 
N142 X-134.632 Y28.931 Z4.725 A229.7744 B-26.9897 
N143 X-134.625 Y29.118 Z4.940 A229.7856 B-26.9894 
N144 X-134.617 Y29.305 Z5.156 A229.7967 B-26.9891 
N145 X-134.609 Y29.493 Z5.371 A229.8079 B-26.9888 
N146 X-134.601 Y29.680 Z5.587 A229.8190 B-26.9885 
N147 X-134.593 Y29.867 Z5.802 A229.8302 B-26.9881 
N148 X-134.585 Y30.055 Z6.017 A229.8413 B-26.9878 
N149 X-134.577 Y30.242 Z6.233 A229.8525 B-26.9875 
N150 X-134.568 Y30.429 Z6.448 A229.8636 B-26.9872 
N151 X-134.560 Y30.616 Z6.664 A229.8748 B-26.9868 
N152 X-134.551 Y30.804 Z6.879 A229.8860 B-26.9865 
N153 X-134.542 Y30.991 Z7.094 A229.8971 B-26.9862 
N154 X-134.533 Y31.178 Z7.310 A229.9083 B-26.9858 
N155 X-134.525 Y31.365 Z7.525 A229.9194 B-26.9855 
N156 X-134.515 Y31.553 Z7.741 A229.9306 B-26.9851 
N157 X-134.506 Y31.740 Z7.956 A229.9417 B-26.9848 
N158 X-134.497 Y31.927 Z8.172 A229.9529 B-26.9844 
N159 X-134.488 Y32.114 Z8.387 A229.9640 B-26.9840 
N160 X-134.478 Y32.302 Z8.602 A229.9752 B-26.9837 
N161 X-134.469 Y32.489 Z8.818 A229.9863 B-26.9833 
N162 X-134.459 Y32.676 Z9.033 A229.9975 B-26.9829 
N163 X-134.449 Y32.863 Z9.248 A230.0086 B-26.9825 
N164 X-134.439 Y33.050 Z9.464 A230.0198 B-26.9821 
N165 X-134.429 Y33.238 Z9.679 A230.0309 B-26.9817 
N166 X-134.419 Y33.425 Z9.895 A230.0421 B-26.9813 
N167 X-134.409 Y33.612 Z10.110 A230.0532 B-26.9809 
N168 X-134.398 Y33.799 Z10.325 A230.0644 B-26.9805 
N169 X-134.388 Y33.987 Z10.541 A230.0755 B-26.9801 
N170 X-134.377 Y34.174 Z10.756 A230.0867 B-26.9797 
N171 X-134.367 Y34.361 Z10.971 A230.0979 B-26.9793 
N172 X-134.356 Y34.548 Z11.187 A230.1090 B-26.9789 
N173 X-134.345 Y34.735 Z11.402 A230.1202 B-26.9785 
N174 X-134.334 Y34.923 Z11.618 A230.1313 B-26.9780 
N175 X-134.323 Y35.110 Z11.833 A230.1425 B-26.9776 
N176 X-134.312 Y35.297 Z12.048 A230.1536 B-26.9772 
N177 X-134.300 Y35.484 Z12.264 A230.1647 B-26.9767 
N178 X-134.289 Y35.671 Z12.479 A230.1759 B-26.9763 
N179 X-134.277 Y35.859 Z12.694 A230.1870 B-26.9758 
N180 X-134.266 Y36.046 Z12.910 A230.1982 B-26.9754 
N181 X-134.254 Y36.233 Z13.125 A230.2093 B-26.9749 
N182 X-134.242 Y36.420 Z13.340 A230.2205 B-26.9744 
N183 X-134.230 Y36.607 Z13.556 A230.2316 B-26.9740 
N184 X-134.218 Y36.795 Z13.771 A230.2428 B-26.9735 
N185 X-134.206 Y36.982 Z13.986 A230.2539 B-26.9730 
N186 X-134.193 Y37.169 Z14.202 A230.2651 B-26.9725 
N187 X-134.181 Y37.356 Z14.417 A230.2762 B-26.9720 
N188 X-134.168 Y37.543 Z14.632 A230.2874 B-26.9716 
N189 X-134.156 Y37.730 Z14.847 A230.2985 B-26.9711 
N190 X-134.143 Y37.918 Z15.063 A230.3097 B-26.9706 
N191 X-134.130 Y38.105 Z15.278 A230.3208 B-26.9701 
N192 X-134.117 Y38.292 Z15.493 A230.3320 B-26.9695 
N193 X-134.104 Y38.479 Z15.709 A230.3431 B-26.9690 
N194 X-134.091 Y38.666 Z15.924 A230.3542 B-26.9685 
N195 X-134.077 Y38.853 Z16.139 A230.3654 B-26.9680 
N196 X-134.064 Y39.040 Z16.354 A230.3765 B-26.9675 
N197 X-134.050 Y39.228 Z16.570 A230.3877 B-26.9669 
N198 X-134.037 Y39.415 Z16.785 A230.3988 B-26.9664 
N199 X-134.023 Y39.602 Z17.000 A230.4100 B-26.9659 
N200 X-134.009 Y39.789 Z17.216 A230.4211 B-26.9653 
N201 X-133.995 Y39.976 Z17.431 A230.4322 B-26.9648 
N202 X-133.981 Y40.163 Z17.646 A230.4434 B-26.9642 
N203 X-133.967 Y40.350 Z17.861 A230.4545 B-26.9637 
N204 X-133.953 Y40.537 Z18.077 A230.4657 B-26.9631 
N205 X-133.938 Y40.725 Z18.292 A230.4768 B-26.9626 
N206 X-133.924 Y40.912 Z18.507 A230.4880 B-26.9620 
N207 X-133.909 Y41.099 Z18.722 A230.4991 B-26.9614 
N208 X-133.895 Y41.286 Z18.937 A230.5102 B-26.9609 
N209 X-133.880 Y41.473 Z19.153 A230.5214 B-26.9603 
N210 X-133.865 Y41.660 Z19.368 A230.5325 B-26.9597 
N211 X-133.850 Y41.847 Z19.583 A230.5437 B-26.9591 
N212 X-133.835 Y42.034 Z19.798 A230.5548 B-26.9585 
N213 X-133.819 Y42.221 Z20.014 A230.5659 B-26.9579 
N214 X-133.797 Y42.497 Z20.331 
N215 X-133.264 Y49.048 Z27.867 
N216 G00 X-144.598 Y66.259 Z13.713 
N217 X-146.092 Y17.651 Z-37.075 A228.7029 B-26.9984 
N218 X-134.743 Y0.915 Z-22.374 
N219 G01 X-134.842 Y7.476 Z-14.827 F859 
N220 X-134.846 Y7.694 Z-14.576 
N221 X-134.849 Y7.913 Z-14.324 
N222 X-134.852 Y8.132 Z-14.073 
N223 X-134.856 Y8.408 Z-13.755 
N224 X-134.859 Y8.595 Z-13.540 A228.7141 B-26.9986 
N225 X-134.862 Y8.782 Z-13.324 A228.7253 B-26.9987 
N226 X-134.865 Y8.970 Z-13.109 A228.7364 B-26.9988 
N227 X-134.867 Y9.157 Z-12.893 A228.7476 B-26.9989 
N228 X-134.870 Y9.344 Z-12.678 A228.7587 B-26.9990 
N229 X-134.872 Y9.532 Z-12.462 A228.7699 B-26.9991 
N230 X-134.874 Y9.719 Z-12.247 A228.7811 B-26.9991 
N231 X-134.876 Y9.906 Z-12.031 A228.7922 B-26.9992 
N232 X-134.878 Y10.094 Z-11.816 A228.8034 B-26.9993 
N233 X-134.880 Y10.281 Z-11.600 A228.8146 B-26.9994 
N234 X-134.882 Y10.468 Z-11.385 A228.8257 B-26.9994 
N235 X-134.883 Y10.656 Z-11.169 A228.8369 B-26.9995 
N236 X-134.885 Y10.843 Z-10.953 A228.8480 B-26.9996 
N237 X-134.886 Y11.030 Z-10.738 A228.8592 B-26.9996 
N238 X-134.888 Y11.218 Z-10.522 A228.8704 B-26.9997 
N239 X-134.889 Y11.405 Z-10.307 A228.8815 B-26.9997 
N240 X-134.890 Y11.592 Z-10.091 A228.8927 B-26.9998 
N241 X-134.891 Y11.780 Z-9.876 A228.9039 B-26.9998 
N242 X-134.892 Y11.967 Z-9.660 A228.9150 B-26.9998 
N243 X-134.893 Y12.154 Z-9.445 A228.9262 B-26.9999 
N244 X-134.893 Y12.342 Z-9.229 A228.9373 B-26.9999 
N245 X-134.894 Y12.529 Z-9.014 A228.9485 B-26.9999 
N246 X-134.894 Y12.717 Z-8.798 A228.9597 B-26.9999 
N247 X-134.895 Y12.904 Z-8.583 A228.9708 B-26.9999 
N248 X-134.895 Y13.091 Z-8.367 A228.9820 B-27.0000 
N249 X-134.895 Y13.279 Z-8.152 A228.9932 
N250 X-134.895 Y13.466 Z-7.936 A229.0043 
N251 X-134.895 Y13.653 Z-7.721 A229.0155 
N252 X-134.895 Y13.841 Z-7.505 A229.0266 B-26.9999 
N253 X-134.894 Y14.028 Z-7.290 A229.0378 B-26.9999 
N254 X-134.894 Y14.215 Z-7.074 A229.0490 B-26.9999 
N255 X-134.894 Y14.403 Z-6.859 A229.0601 B-26.9999 
N256 X-134.893 Y14.590 Z-6.643 A229.0713 B-26.9999 
N257 X-134.892 Y14.777 Z-6.428 A229.0825 B-26.9998 
N258 X-134.891 Y14.965 Z-6.212 A229.0936 B-26.9998 
N259 X-134.890 Y15.152 Z-5.997 A229.1048 B-26.9998 
N260 X-134.889 Y15.339 Z-5.781 A229.1159 B-26.9997 
N261 X-134.888 Y15.527 Z-5.566 A229.1271 B-26.9997 
N262 X-134.887 Y15.714 Z-5.350 A229.1383 B-26.9996 
N263 X-134.885 Y15.901 Z-5.135 A229.1494 B-26.9996 
N264 X-134.884 Y16.089 Z-4.919 A229.1606 B-26.9995 
N265 X-134.882 Y16.276 Z-4.704 A229.1718 B-26.9995 
N266 X-134.880 Y16.463 Z-4.488 A229.1829 B-26.9994 
N267 X-134.879 Y16.651 Z-4.273 A229.1941 B-26.9993 
N268 X-134.877 Y16.838 Z-4.057 A229.2052 B-26.9992 
N269 X-134.875 Y17.025 Z-3.842 A229.2164 B-26.9992 
N270 X-134.872 Y17.213 Z-3.626 A229.2276 B-26.9991 
N271 X-134.870 Y17.400 Z-3.411 A229.2387 B-26.9990 
N272 X-134.868 Y17.587 Z-3.195 A229.2499 B-26.9989 
N273 X-134.865 Y17.775 Z-2.979 A229.2611 B-26.9988 
N274 X-134.863 Y17.962 Z-2.764 A229.2722 B-26.9987 
N275 X-134.860 Y18.149 Z-2.548 A229.2834 B-26.9986 
N276 X-134.857 Y18.337 Z-2.333 A229.2945 B-26.9985 
N277 X-134.854 Y18.524 Z-2.117 A229.3057 B-26.9984 
N278 X-134.851 Y18.711 Z-1.902 A229.3169 B-26.9982 
N279 X-134.848 Y18.899 Z-1.686 A229.3280 B-26.9981 
N280 X-134.845 Y19.086 Z-1.471 A229.3392 B-26.9980 
N281 X-134.841 Y19.273 Z-1.255 A229.3503 B-26.9979 
N282 X-134.838 Y19.461 Z-1.040 A229.3615 B-26.9977 
N283 X-134.834 Y19.648 Z-0.824 A229.3727 B-26.9976 
N284 X-134.831 Y19.835 Z-0.609 A229.3838 B-26.9974 
N285 X-134.827 Y20.023 Z-0.393 A229.3950 B-26.9973 
N286 X-134.823 Y20.210 Z-0.178 A229.4061 B-26.9971 
N287 X-134.819 Y20.397 Z0.038 A229.4173 B-26.9970 
N288 X-134.815 Y20.585 Z0.253 A229.4285 B-26.9968 
N289 X-134.810 Y20.772 Z0.469 A229.4396 B-26.9966 
N290 X-134.806 Y20.959 Z0.684 A229.4508 B-26.9965 
N291 X-134.802 Y21.147 Z0.899 A229.4620 B-26.9963 
N292 X-134.797 Y21.334 Z1.115 A229.4731 B-26.9961 
N293 X-134.792 Y21.521 Z1.330 A229.4843 B-26.9959 
N294 X-134.788 Y21.709 Z1.546 A229.4954 B-26.9958 
N295 X-134.783 Y21.896 Z1.761 A229.5066 B-26.9956 
N296 X-134.778 Y22.083 Z1.977 A229.5178 B-26.9954 
N297 X-134.773 Y22.271 Z2.192 A229.5289 B-26.9952 
N298 X-134.767 Y22.458 Z2.408 A229.5401 B-26.9950 
N299 X-134.762 Y22.645 Z2.623 A229.5512 B-26.9948 
N300 X-134.757 Y22.833 Z2.839 A229.5624 B-26.9945 
N301 X-134.751 Y23.020 Z3.054 A229.5736 B-26.9943 
N302 X-134.745 Y23.207 Z3.270 A229.5847 B-26.9941 
N303 X-134.740 Y23.394 Z3.485 A229.5959 B-26.9939 
N304 X-134.734 Y23.582 Z3.701 A229.6070 B-26.9936 
N305 X-134.728 Y23.769 Z3.916 A229.6182 B-26.9934 
N306 X-134.722 Y23.956 Z4.132 A229.6293 B-26.9932 
N307 X-134.715 Y24.144 Z4.347 A229.6405 B-26.9929 
N308 X-134.709 Y24.331 Z4.563 A229.6517 B-26.9927 
N309 X-134.703 Y24.518 Z4.778 A229.6628 B-26.9924 
N310 X-134.696 Y24.706 Z4.993 A229.6740 B-26.9922 
N311 X-134.689 Y24.893 Z5.209 A229.6851 B-26.9919 
N312 X-134.683 Y25.080 Z5.424 A229.6963 B-26.9917 
N313 X-134.676 Y25.267 Z5.640 A229.7075 B-26.9914 
N314 X-134.669 Y25.455 Z5.855 A229.7186 B-26.9911 
N315 X-134.662 Y25.642 Z6.071 A229.7298 B-26.9908 
N316 X-134.654 Y25.829 Z6.286 A229.7409 B-26.9906 
N317 X-134.647 Y26.017 Z6.502 A229.7521 B-26.9903 
N318 X-134.640 Y26.204 Z6.717 A229.7632 B-26.9900 
N319 X-134.632 Y26.391 Z6.933 A229.7744 B-26.9897 
N320 X-134.625 Y26.578 Z7.148 A229.7856 B-26.9894 
N321 X-134.617 Y26.766 Z7.363 A229.7967 B-26.9891 
N322 X-134.609 Y26.953 Z7.579 A229.8079 B-26.9888 
N323 X-134.601 Y27.140 Z7.794 A229.8190 B-26.9885 
N324 X-134.593 Y27.328 Z8.010 A229.8302 B-26.9881 
N325 X-134.585 Y27.515 Z8.225 A229.8413 B-26.9878 
N326 X-134.577 Y27.702 Z8.441 A229.8525 B-26.9875 
N327 X-134.568 Y27.889 Z8.656 A229.8636 B-26.9872 
N328 X-134.560 Y28.077 Z8.871 A229.8748 B-26.9868 
N329 X-134.551 Y28.264 Z9.087 A229.8860 B-26.9865 
N330 X-134.542 Y28.451 Z9.302 A229.8971 B-26.9862 
N331 X-134.533 Y28.638 Z9.518 A229.9083 B-26.9858 
N332 X-134.525 Y28.826 Z9.733 A229.9194 B-26.9855 
N333 X-134.515 Y29.013 Z9.948 A229.9306 B-26.9851 
N334 X-134.506 Y29.200 Z10.164 A229.9417 B-26.9848 
N335 X-134.497 Y29.387 Z10.379 A229.9529 B-26.9844 
N336 X-134.488 Y29.575 Z10.595 A229.9640 B-26.9840 
N337 X-134.478 Y29.762 Z10.810 A229.9752 B-26.9837 
N338 X-134.469 Y29.949 Z11.025 A229.9863 B-26.9833 
N339 X-134.459 Y30.136 Z11.241 A229.9975 B-26.9829 
N340 X-134.449 Y30.324 Z11.456 A230.0086 B-26.9825 
N341 X-134.439 Y30.511 Z11.672 A230.0198 B-26.9821 
N342 X-134.429 Y30.698 Z11.887 A230.0309 B-26.9817 
N343 X-134.419 Y30.885 Z12.102 A230.0421 B-26.9813 
N344 X-134.409 Y31.072 Z12.318 A230.0532 B-26.9809 
N345 X-134.398 Y31.260 Z12.533 A230.0644 B-26.9805 
N346 X-134.388 Y31.447 Z12.748 A230.0755 B-26.9801 
N347 X-134.377 Y31.634 Z12.964 A230.0867 B-26.9797 
N348 X-134.367 Y31.821 Z13.179 A230.0979 B-26.9793 
N349 X-134.356 Y32.009 Z13.395 A230.1090 B-26.9789 
N350 X-134.345 Y32.196 Z13.610 A230.1202 B-26.9785 
N351 X-134.334 Y32.383 Z13.825 A230.1313 B-26.9780 
N352 X-134.323 Y32.570 Z14.041 A230.1425 B-26.9776 
N353 X-134.312 Y32.757 Z14.256 A230.1536 B-26.9772 
N354 X-134.300 Y32.945 Z14.471 A230.1647 B-26.9767 
N355 X-134.289 Y33.132 Z14.687 A230.1759 B-26.9763 
N356 X-134.277 Y33.319 Z14.902 A230.1870 B-26.9758 
N357 X-134.266 Y33.506 Z15.117 A230.1982 B-26.9754 
N358 X-134.254 Y33.693 Z15.333 A230.2093 B-26.9749 
N359 X-134.242 Y33.880 Z15.548 A230.2205 B-26.9744 
N360 X-134.230 Y34.068 Z15.763 A230.2316 B-26.9740 
N361 X-134.218 Y34.255 Z15.979 A230.2428 B-26.9735 
N362 X-134.206 Y34.442 Z16.194 A230.2539 B-26.9730 
N363 X-134.193 Y34.629 Z16.409 A230.2651 B-26.9725 
N364 X-134.181 Y34.816 Z16.625 A230.2762 B-26.9720 
N365 X-134.168 Y35.004 Z16.840 A230.2874 B-26.9716 
N366 X-134.156 Y35.191 Z17.055 A230.2985 B-26.9711 
N367 X-134.143 Y35.378 Z17.271 A230.3097 B-26.9706 
N368 X-134.130 Y35.565 Z17.486 A230.3208 B-26.9701 
N369 X-134.117 Y35.752 Z17.701 A230.3320 B-26.9695 
N370 X-134.104 Y35.939 Z17.916 A230.3431 B-26.9690 
N371 X-134.091 Y36.126 Z18.132 A230.3542 B-26.9685 
N372 X-134.077 Y36.314 Z18.347 A230.3654 B-26.9680 
N373 X-134.064 Y36.501 Z18.562 A230.3765 B-26.9675 
N374 X-134.050 Y36.688 Z18.778 A230.3877 B-26.9669 
N375 X-134.037 Y36.875 Z18.993 A230.3988 B-26.9664 
N376 X-134.023 Y37.062 Z19.208 A230.4100 B-26.9659 
N377 X-134.009 Y37.249 Z19.423 A230.4211 B-26.9653 
N378 X-133.995 Y37.436 Z19.639 A230.4322 B-26.9648 
N379 X-133.981 Y37.623 Z19.854 A230.4434 B-26.9642 
N380 X-133.967 Y37.811 Z20.069 A230.4545 B-26.9637 
N381 X-133.953 Y37.998 Z20.284 A230.4657 B-26.9631 
N382 X-133.938 Y38.185 Z20.500 A230.4768 B-26.9626 
N383 X-133.924 Y38.372 Z20.715 A230.4880 B-26.9620 
N384 X-133.909 Y38.559 Z20.930 A230.4991 B-26.9614 
N385 X-133.895 Y38.746 Z21.145 A230.5102 B-26.9609 
N386 X-133.880 Y38.933 Z21.360 A230.5214 B-26.9603 
N387 X-133.865 Y39.120 Z21.576 A230.5325 B-26.9597 
N388 X-133.850 Y39.307 Z21.791 A230.5437 B-26.9591 
N389 X-133.835 Y39.494 Z22.006 A230.5548 B-26.9585 
N390 X-133.819 Y39.682 Z22.221 A230.5659 B-26.9579 
N391 X-133.797 Y39.957 Z22.538 
N392 X-133.264 Y46.508 Z30.075 
N393 G00 X-155.931 Y80.930 Z1.766 
;RAPORT("TB000000","Slot Finishing:157 End")
;trailer : concat=None
; points cnt = 348
N395 MSG (" --- GROUPED OF SUBPROGRAM --- ")
N396 FGROUP()
N397 TRAFOOF
; PROGRAM NAME: B00000051
; ORDER       : B000000
; OPER. NAME  : Slot Finishing:158
; OPER. DESCR.: finishing root chamfer FSFSA
; OPER. TYPE  : slotMillFinish
; GEO. OPTION : 3
; MACHINE     : HSTM_500_SIM840D_Py
;             : HSTM500 - HAMUEL: 5-axis milling machine - SIM840D Traori PP_Script
; CONTROL     : SINUMERIK 840D
; created:   2021-11-15 10:01:26.491956
;-------DODATKOWE DANE-------------------
; PROGRAMISTA : Mariusz Malec
; PARTID      : 139T001534P1001_-
;  ap         : 100.0
;  ae         : 2.0
;  lean_angle : 0.0
;  rad_Offset : 2.0
;  fin_Offset : 0.0
;----------------------------------------
;RAPORT("TB000000","Slot Finishing:158")
N10 TRAFOOF
N11 D0
N12 G90 G94
N13 G0 G53 D0 Z550 B0
N14 STOPRE
M9 ; chlodziwo wyl
; --- Slot Finishing:158 - finishing root chamfer FSFSA ---
N16 ;ToolChange : concat=None ,current_tdmid=None, PP.tdmId=940790
N17 TRAFOOF
N18 G0 G53 D0 Z550 B0
N19 STOPRE
N20 MSG(" TLID=940790 D=8.0 R=0.0 Ang=18.0 Len=135.0 ")
N21 S7161 M03
N22 STOPRE
N23 CYCLE832(0.01,1,1)
N24 G0 G53 A228.7029 B-26.9984
N25 TRAORI
N26 G54 D2
N27 D2 
N28 TRANS  X=R21
STOPRE
E_ZDARZ=300008
;ACS_FINISH_ROOT_FRONT_CHAMFER=7740790
STOPRE
N29 ; DELTA A > 40.1
N30 TRAFOOF
N31 D2
N32 STOPRE
N33 G00 G54 Z251.000
N34 G01 A228.7029 F10000
N35 TRAORI
N36 G54 D2
N37 STOPRE
N38 TRANS  X=R21
N39 G00 X-157.742 Y34.451 Z-51.836 A228.7029 B-26.9984 
N40 M342 ; chlodziwo woda
N41 X-135.043 Y0.980 Z-22.434 
N42 G01 X-135.142 Y7.540 Z-14.887 F859 
N43 X-135.146 Y7.759 Z-14.636 
N44 X-135.149 Y7.977 Z-14.384 
N45 X-135.152 Y8.196 Z-14.132 
N46 X-135.156 Y8.472 Z-13.815 
N47 X-135.159 Y8.659 Z-13.599 A228.7141 B-26.9986 
N48 X-135.162 Y8.847 Z-13.384 A228.7253 B-26.9987 
N49 X-135.165 Y9.034 Z-13.168 A228.7364 B-26.9988 
N50 X-135.167 Y9.222 Z-12.953 A228.7476 B-26.9989 
N51 X-135.170 Y9.409 Z-12.737 A228.7587 B-26.9990 
N52 X-135.172 Y9.596 Z-12.522 A228.7699 B-26.9991 
N53 X-135.174 Y9.784 Z-12.306 A228.7811 B-26.9991 
N54 X-135.176 Y9.971 Z-12.090 A228.7922 B-26.9992 
N55 X-135.178 Y10.159 Z-11.875 A228.8034 B-26.9993 
N56 X-135.180 Y10.346 Z-11.659 A228.8146 B-26.9994 
N57 X-135.182 Y10.534 Z-11.444 A228.8257 B-26.9994 
N58 X-135.183 Y10.721 Z-11.228 A228.8369 B-26.9995 
N59 X-135.185 Y10.908 Z-11.012 A228.8480 B-26.9996 
N60 X-135.186 Y11.096 Z-10.797 A228.8592 B-26.9996 
N61 X-135.188 Y11.283 Z-10.581 A228.8704 B-26.9997 
N62 X-135.189 Y11.471 Z-10.366 A228.8815 B-26.9997 
N63 X-135.190 Y11.658 Z-10.150 A228.8927 B-26.9998 
N64 X-135.191 Y11.845 Z-9.934 A228.9039 B-26.9998 
N65 X-135.192 Y12.033 Z-9.719 A228.9150 B-26.9998 
N66 X-135.193 Y12.220 Z-9.503 A228.9262 B-26.9999 
N67 X-135.193 Y12.408 Z-9.288 A228.9373 B-26.9999 
N68 X-135.194 Y12.595 Z-9.072 A228.9485 B-26.9999 
N69 X-135.194 Y12.783 Z-8.856 A228.9597 B-26.9999 
N70 X-135.195 Y12.970 Z-8.641 A228.9708 B-26.9999 
N71 X-135.195 Y13.157 Z-8.425 A228.9820 B-27.0000 
N72 X-135.195 Y13.345 Z-8.210 A228.9932 
N73 X-135.195 Y13.532 Z-7.994 A229.0043 
N74 X-135.195 Y13.720 Z-7.778 A229.0155 
N75 X-135.195 Y13.907 Z-7.563 A229.0266 B-26.9999 
N76 X-135.194 Y14.094 Z-7.347 A229.0378 B-26.9999 
N77 X-135.194 Y14.282 Z-7.131 A229.0490 B-26.9999 
N78 X-135.194 Y14.469 Z-6.916 A229.0601 B-26.9999 
N79 X-135.193 Y14.657 Z-6.700 A229.0713 B-26.9999 
N80 X-135.192 Y14.844 Z-6.485 A229.0825 B-26.9998 
N81 X-135.191 Y15.032 Z-6.269 A229.0936 B-26.9998 
N82 X-135.190 Y15.219 Z-6.053 A229.1048 B-26.9998 
N83 X-135.189 Y15.406 Z-5.838 A229.1159 B-26.9997 
N84 X-135.188 Y15.594 Z-5.622 A229.1271 B-26.9997 
N85 X-135.187 Y15.781 Z-5.407 A229.1383 B-26.9996 
N86 X-135.185 Y15.969 Z-5.191 A229.1494 B-26.9996 
N87 X-135.184 Y16.156 Z-4.975 A229.1606 B-26.9995 
N88 X-135.182 Y16.344 Z-4.760 A229.1718 B-26.9995 
N89 X-135.180 Y16.531 Z-4.544 A229.1829 B-26.9994 
N90 X-135.179 Y16.718 Z-4.329 A229.1941 B-26.9993 
N91 X-135.177 Y16.906 Z-4.113 A229.2052 B-26.9992 
N92 X-135.175 Y17.093 Z-3.897 A229.2164 B-26.9992 
N93 X-135.172 Y17.281 Z-3.682 A229.2276 B-26.9991 
N94 X-135.170 Y17.468 Z-3.466 A229.2387 B-26.9990 
N95 X-135.168 Y17.655 Z-3.251 A229.2499 B-26.9989 
N96 X-135.165 Y17.843 Z-3.035 A229.2611 B-26.9988 
N97 X-135.163 Y18.030 Z-2.820 A229.2722 B-26.9987 
N98 X-135.160 Y18.218 Z-2.604 A229.2834 B-26.9986 
N99 X-135.157 Y18.405 Z-2.388 A229.2945 B-26.9985 
N100 X-135.154 Y18.592 Z-2.173 A229.3057 B-26.9984 
N101 X-135.151 Y18.780 Z-1.957 A229.3169 B-26.9982 
N102 X-135.148 Y18.967 Z-1.742 A229.3280 B-26.9981 
N103 X-135.145 Y19.155 Z-1.526 A229.3392 B-26.9980 
N104 X-135.141 Y19.342 Z-1.310 A229.3503 B-26.9979 
N105 X-135.138 Y19.530 Z-1.095 A229.3615 B-26.9977 
N106 X-135.134 Y19.717 Z-0.879 A229.3727 B-26.9976 
N107 X-135.131 Y19.904 Z-0.664 A229.3838 B-26.9974 
N108 X-135.127 Y20.092 Z-0.448 A229.3950 B-26.9973 
N109 X-135.123 Y20.279 Z-0.232 A229.4061 B-26.9971 
N110 X-135.119 Y20.467 Z-0.017 A229.4173 B-26.9970 
N111 X-135.115 Y20.654 Z0.199 A229.4285 B-26.9968 
N112 X-135.110 Y20.841 Z0.414 A229.4396 B-26.9966 
N113 X-135.106 Y21.029 Z0.630 A229.4508 B-26.9965 
N114 X-135.102 Y21.216 Z0.845 A229.4620 B-26.9963 
N115 X-135.097 Y21.404 Z1.061 A229.4731 B-26.9961 
N116 X-135.092 Y21.591 Z1.277 A229.4843 B-26.9959 
N117 X-135.088 Y21.778 Z1.492 A229.4954 B-26.9958 
N118 X-135.083 Y21.966 Z1.708 A229.5066 B-26.9956 
N119 X-135.078 Y22.153 Z1.923 A229.5178 B-26.9954 
N120 X-135.072 Y22.340 Z2.139 A229.5289 B-26.9952 
N121 X-135.067 Y22.528 Z2.354 A229.5401 B-26.9950 
N122 X-135.062 Y22.715 Z2.570 A229.5512 B-26.9948 
N123 X-135.056 Y22.903 Z2.786 A229.5624 B-26.9945 
N124 X-135.051 Y23.090 Z3.001 A229.5736 B-26.9943 
N125 X-135.045 Y23.277 Z3.217 A229.5847 B-26.9941 
N126 X-135.039 Y23.465 Z3.432 A229.5959 B-26.9939 
N127 X-135.034 Y23.652 Z3.648 A229.6070 B-26.9936 
N128 X-135.028 Y23.840 Z3.863 A229.6182 B-26.9934 
N129 X-135.021 Y24.027 Z4.079 A229.6293 B-26.9932 
N130 X-135.015 Y24.214 Z4.294 A229.6405 B-26.9929 
N131 X-135.009 Y24.402 Z4.510 A229.6517 B-26.9927 
N132 X-135.003 Y24.589 Z4.726 A229.6628 B-26.9924 
N133 X-134.996 Y24.776 Z4.941 A229.6740 B-26.9922 
N134 X-134.989 Y24.964 Z5.157 A229.6851 B-26.9919 
N135 X-134.983 Y25.151 Z5.372 A229.6963 B-26.9917 
N136 X-134.976 Y25.339 Z5.588 A229.7075 B-26.9914 
N137 X-134.969 Y25.526 Z5.803 A229.7186 B-26.9911 
N138 X-134.962 Y25.713 Z6.019 A229.7298 B-26.9908 
N139 X-134.954 Y25.901 Z6.234 A229.7409 B-26.9906 
N140 X-134.947 Y26.088 Z6.450 A229.7521 B-26.9903 
N141 X-134.940 Y26.275 Z6.665 A229.7632 B-26.9900 
N142 X-134.932 Y26.463 Z6.881 A229.7744 B-26.9897 
N143 X-134.925 Y26.650 Z7.096 A229.7856 B-26.9894 
N144 X-134.917 Y26.837 Z7.312 A229.7967 B-26.9891 
N145 X-134.909 Y27.025 Z7.527 A229.8079 B-26.9888 
N146 X-134.901 Y27.212 Z7.743 A229.8190 B-26.9885 
N147 X-134.893 Y27.399 Z7.958 A229.8302 B-26.9881 
N148 X-134.885 Y27.587 Z8.174 A229.8413 B-26.9878 
N149 X-134.876 Y27.774 Z8.390 A229.8525 B-26.9875 
N150 X-134.868 Y27.961 Z8.605 A229.8636 B-26.9872 
N151 X-134.860 Y28.149 Z8.821 A229.8748 B-26.9868 
N152 X-134.851 Y28.336 Z9.036 A229.8860 B-26.9865 
N153 X-134.842 Y28.523 Z9.252 A229.8971 B-26.9862 
N154 X-134.833 Y28.711 Z9.467 A229.9083 B-26.9858 
N155 X-134.824 Y28.898 Z9.683 A229.9194 B-26.9855 
N156 X-134.815 Y29.085 Z9.898 A229.9306 B-26.9851 
N157 X-134.806 Y29.273 Z10.114 A229.9417 B-26.9848 
N158 X-134.797 Y29.460 Z10.329 A229.9529 B-26.9844 
N159 X-134.788 Y29.647 Z10.544 A229.9640 B-26.9840 
N160 X-134.778 Y29.835 Z10.760 A229.9752 B-26.9837 
N161 X-134.768 Y30.022 Z10.975 A229.9863 B-26.9833 
N162 X-134.759 Y30.209 Z11.191 A229.9975 B-26.9829 
N163 X-134.749 Y30.397 Z11.406 A230.0086 B-26.9825 
N164 X-134.739 Y30.584 Z11.622 A230.0198 B-26.9821 
N165 X-134.729 Y30.771 Z11.837 A230.0309 B-26.9817 
N166 X-134.719 Y30.959 Z12.053 A230.0421 B-26.9813 
N167 X-134.709 Y31.146 Z12.268 A230.0532 B-26.9809 
N168 X-134.698 Y31.333 Z12.484 A230.0644 B-26.9805 
N169 X-134.688 Y31.520 Z12.699 A230.0755 B-26.9801 
N170 X-134.677 Y31.708 Z12.915 A230.0867 B-26.9797 
N171 X-134.666 Y31.895 Z13.130 A230.0979 B-26.9793 
N172 X-134.656 Y32.082 Z13.346 A230.1090 B-26.9789 
N173 X-134.645 Y32.270 Z13.561 A230.1202 B-26.9785 
N174 X-134.634 Y32.457 Z13.776 A230.1313 B-26.9780 
N175 X-134.623 Y32.644 Z13.992 A230.1425 B-26.9776 
N176 X-134.611 Y32.831 Z14.207 A230.1536 B-26.9772 
N177 X-134.600 Y33.019 Z14.423 A230.1647 B-26.9767 
N178 X-134.589 Y33.206 Z14.638 A230.1759 B-26.9763 
N179 X-134.577 Y33.393 Z14.854 A230.1870 B-26.9758 
N180 X-134.565 Y33.581 Z15.069 A230.1982 B-26.9754 
N181 X-134.554 Y33.768 Z15.284 A230.2093 B-26.9749 
N182 X-134.542 Y33.955 Z15.500 A230.2205 B-26.9744 
N183 X-134.530 Y34.142 Z15.715 A230.2316 B-26.9740 
N184 X-134.518 Y34.330 Z15.931 A230.2428 B-26.9735 
N185 X-134.505 Y34.517 Z16.146 A230.2539 B-26.9730 
N186 X-134.493 Y34.704 Z16.361 A230.2651 B-26.9725 
N187 X-134.481 Y34.891 Z16.577 A230.2762 B-26.9720 
N188 X-134.468 Y35.079 Z16.792 A230.2874 B-26.9716 
N189 X-134.455 Y35.266 Z17.008 A230.2985 B-26.9711 
N190 X-134.443 Y35.453 Z17.223 A230.3097 B-26.9706 
N191 X-134.430 Y35.640 Z17.438 A230.3208 B-26.9701 
N192 X-134.417 Y35.827 Z17.654 A230.3320 B-26.9695 
N193 X-134.404 Y36.015 Z17.869 A230.3431 B-26.9690 
N194 X-134.390 Y36.202 Z18.085 A230.3542 B-26.9685 
N195 X-134.377 Y36.389 Z18.300 A230.3654 B-26.9680 
N196 X-134.364 Y36.576 Z18.515 A230.3765 B-26.9675 
N197 X-134.350 Y36.764 Z18.731 A230.3877 B-26.9669 
N198 X-134.337 Y36.951 Z18.946 A230.3988 B-26.9664 
N199 X-134.323 Y37.138 Z19.161 A230.4100 B-26.9659 
N200 X-134.309 Y37.325 Z19.377 A230.4211 B-26.9653 
N201 X-134.295 Y37.512 Z19.592 A230.4322 B-26.9648 
N202 X-134.281 Y37.700 Z19.807 A230.4434 B-26.9642 
N203 X-134.267 Y37.887 Z20.023 A230.4545 B-26.9637 
N204 X-134.252 Y38.074 Z20.238 A230.4657 B-26.9631 
N205 X-134.238 Y38.261 Z20.453 A230.4768 B-26.9626 
N206 X-134.224 Y38.448 Z20.669 A230.4880 B-26.9620 
N207 X-134.209 Y38.635 Z20.884 A230.4991 B-26.9614 
N208 X-134.194 Y38.823 Z21.099 A230.5102 B-26.9609 
N209 X-134.179 Y39.010 Z21.315 A230.5214 B-26.9603 
N210 X-134.164 Y39.197 Z21.530 A230.5325 B-26.9597 
N211 X-134.149 Y39.384 Z21.745 A230.5437 B-26.9591 
N212 X-134.134 Y39.571 Z21.961 A230.5548 B-26.9585 
N213 X-134.119 Y39.758 Z22.176 A230.5659 B-26.9579 
N214 X-134.097 Y40.034 Z22.493 
N215 X-133.564 Y46.585 Z30.029 
N216 G00 X-156.231 Y81.007 Z1.721 
;RAPORT("TB000000","Slot Finishing:158 End")
;trailer : concat=None
; points cnt = 174
N218 M9 ; chlodziwo wyl.
N219 MSG (" --- KONIEC PODPROGRAMU --- ")
N220 FGROUP()
N221 TRAFOOF
N222 STOPRE
N223 G0 G53 D0 Z550.0 M9 M5
N224 G0 G53 Y150 A0 B0
N225 M17
