; PROGRAM NAME: B00000038
; ORDER       : B000000
; OPER. NAME  : Side Milling:148
; OPER. DESCR.: Side Milling/czolo nozki po luku zgr
; OPER. TYPE  : sideMill
; GEO. OPTION : 1
; MACHINE     : HSTM_500_SIM840D_Py
;             : HSTM500 - HAMUEL: 5-axis milling machine - SIM840D Traori PP_Script
; CONTROL     : SINUMERIK 840D
; created:   2021-11-15 10:00:39.020814
;-------DODATKOWE DANE-------------------
; PROGRAMISTA : Mariusz Malec
; PARTID      : 139T001534P1001_-
;  ap         : 4.4
;  ae         : 1.0
;  lean_angle : 0.0
;  fin_offset : -14.0
;----------------------------------------
;RAPORT("TB000000","Side Milling:148")
N10 TRAFOOF
N11 D0
N12 G90 G94
N13 G0 G53 D0 Z550 B0
N14 STOPRE
M9 ; chlodziwo wyl
; --- Side Milling:148 - Side Milling/czolo nozki po luku zgr ---
N16 ;ToolChange : concat=None ,current_tdmid=None, PP.tdmId=957774
N17 TRAFOOF
N18 G0 G53 D0 X-200 Y150 Z550 B0
N19 T="7757774"
;RAPORT("TB000000","ToolChangeStart 7757774")
N20 M6
;RAPORT("TB000000","ToolChangeEnd")
N21 STOPRE
N22 MSG(" TLID=957774 D=10.0 R=0.0 Ang=0.0 Len=129.0 ")
N23 ; (Preloading tool)
N24 T="7740790"
N25 S2864 M03
N26 STOPRE
N27 CYCLE832(0.01,1,1)
N28 G0 G53 A49.0000 B0.0000
N29 TRAORI
N30 G54 D1
;tol5=0.15
N31 D1 
STOPRE
E_ZDARZ=500001
;ACS_ROUGH_ROOT_FRONT=7757774
STOPRE
;UWAGA : ZMIENIONA TOLERANCJA OSI A i B, ruchy osi A i B beda usuniete : TOL5=0.15
N32 ; DELTA A > 40.1
N33 TRAFOOF
N34 D1
N35 STOPRE
N36 G00 G54 Z257.000
N37 G01 A49.0000 F10000
N38 TRAORI
N39 G54 D1
N40 STOPRE
N41 TRANS 
N42 G00 X-134.223 Y-41.798 Z61.338 A49.0000 
N43 M342 ; chlodziwo woda
N44 X-134.223 Y-4.062 Z28.535 
N45 ;FSE_1
N46 G01 G41 X-134.229 Y-4.718 Z27.780 F458
N47 G01 X-134.229 Y-4.718 Z27.780 F458 
N48 X-134.229 Y-4.817 Z27.667 
N49 X-134.230 Y-4.915 Z27.553 
N50 X-134.231 Y-5.013 Z27.440 
N51 X-134.232 Y-5.112 Z27.327 
N52 X-134.233 Y-5.210 Z27.214 
N53 X-134.234 Y-5.309 Z27.101 
N54 X-134.235 Y-5.407 Z26.987 
N55 X-134.235 Y-5.505 Z26.874 
N56 X-134.236 Y-5.604 Z26.761 
N57 X-134.237 Y-5.702 Z26.648 
N58 X-134.238 Y-5.801 Z26.535 
N59 X-134.239 Y-5.899 Z26.421 
N60 X-134.240 Y-5.998 Z26.308 
N61 X-134.240 Y-6.096 Z26.195 
N62 X-134.241 Y-6.194 Z26.082 
N63 X-134.242 Y-6.293 Z25.969 
N64 X-134.243 Y-6.391 Z25.855 
N65 X-134.244 Y-6.490 Z25.742 
N66 X-134.245 Y-6.588 Z25.629 
N67 X-134.245 Y-6.686 Z25.516 
N68 X-134.246 Y-6.786 Z25.401 
N69 X-134.247 Y-6.885 Z25.287 
N70 X-134.248 Y-6.985 Z25.173 
N71 X-134.249 Y-7.084 Z25.058 
N72 X-134.250 Y-7.183 Z24.944 
N73 X-134.250 Y-7.283 Z24.830 
N74 X-134.251 Y-7.382 Z24.715 
N75 X-134.252 Y-7.482 Z24.601 
N76 X-134.253 Y-7.581 Z24.487 
N77 X-134.254 Y-7.680 Z24.372 
N78 X-134.255 Y-7.780 Z24.258 
N79 X-134.256 Y-7.879 Z24.144 
N80 X-134.256 Y-7.979 Z24.029 
N81 X-134.257 Y-8.078 Z23.915 
N82 X-134.258 Y-8.177 Z23.801 
N83 X-134.259 Y-8.277 Z23.686 
N84 X-134.260 Y-8.376 Z23.572 
N85 X-134.261 Y-8.476 Z23.458 
N86 X-134.261 Y-8.575 Z23.343 
N87 X-134.262 Y-8.674 Z23.229 
N88 X-134.263 Y-8.774 Z23.114 
N89 X-134.264 Y-8.873 Z23.000 
N90 X-134.265 Y-8.973 Z22.886 
N91 X-134.266 Y-9.072 Z22.771 
N92 X-134.267 Y-9.171 Z22.657 
N93 X-134.267 Y-9.271 Z22.543 
N94 X-134.268 Y-9.370 Z22.428 
N95 X-134.269 Y-9.470 Z22.314 
N96 X-134.270 Y-9.569 Z22.200 
N97 X-134.271 Y-9.668 Z22.085 
N98 X-134.272 Y-9.768 Z21.971 
N99 X-134.272 Y-9.867 Z21.857 
N100 X-134.273 Y-9.967 Z21.742 
N101 X-134.274 Y-10.067 Z21.627 
N102 X-134.275 Y-10.167 Z21.511 
N103 X-134.276 Y-10.268 Z21.396 
N104 X-134.277 Y-10.368 Z21.281 
N105 X-134.278 Y-10.468 Z21.165 
N106 X-134.278 Y-10.569 Z21.050 
N107 X-134.279 Y-10.669 Z20.934 
N108 X-134.280 Y-10.769 Z20.819 
N109 X-134.281 Y-10.870 Z20.704 
N110 X-134.282 Y-10.970 Z20.588 
N111 X-134.283 Y-11.070 Z20.473 
N112 X-134.284 Y-11.171 Z20.357 
N113 X-134.284 Y-11.271 Z20.242 
N114 X-134.285 Y-11.371 Z20.127 
N115 X-134.286 Y-11.472 Z20.011 
N116 X-134.287 Y-11.572 Z19.896 
N117 X-134.288 Y-11.672 Z19.780 
N118 X-134.289 Y-11.773 Z19.665 
N119 X-134.289 Y-11.873 Z19.549 
N120 X-134.290 Y-11.973 Z19.434 
N121 X-134.291 Y-12.074 Z19.319 
N122 X-134.292 Y-12.174 Z19.203 
N123 X-134.293 Y-12.274 Z19.088 
N124 X-134.294 Y-12.375 Z18.972 
N125 X-134.295 Y-12.475 Z18.857 
N126 X-134.295 Y-12.575 Z18.742 
N127 X-134.296 Y-12.675 Z18.626 
N128 X-134.297 Y-12.776 Z18.511 
N129 X-134.298 Y-12.876 Z18.395 
N130 X-134.299 Y-12.976 Z18.280 
N131 X-134.300 Y-13.077 Z18.164 
N132 X-134.301 Y-13.177 Z18.049 
N133 X-134.301 Y-13.277 Z17.934 
N134 X-134.302 Y-13.378 Z17.818 
N135 X-134.303 Y-13.478 Z17.703 
N136 X-134.304 Y-13.578 Z17.587 
N137 X-134.305 Y-13.679 Z17.472 
N138 X-134.306 Y-13.779 Z17.357 
N139 X-134.306 Y-13.879 Z17.241 
N140 X-134.306 Y-13.980 Z17.126 
N141 X-134.306 Y-14.080 Z17.010 
N142 X-134.305 Y-14.180 Z16.895 
N143 X-134.305 Y-14.281 Z16.779 
N144 X-134.304 Y-14.381 Z16.664 
N145 X-134.304 Y-14.481 Z16.549 
N146 X-134.304 Y-14.582 Z16.433 
N147 X-134.303 Y-14.682 Z16.318 
N148 X-134.303 Y-14.782 Z16.202 
N149 X-134.302 Y-14.883 Z16.087 
N150 X-134.302 Y-14.983 Z15.972 
N151 X-134.302 Y-15.083 Z15.856 
N152 X-134.301 Y-15.184 Z15.741 
N153 X-134.301 Y-15.284 Z15.625 
N154 X-134.300 Y-15.384 Z15.510 
N155 X-134.300 Y-15.485 Z15.394 
N156 X-134.300 Y-15.585 Z15.279 
N157 X-134.299 Y-15.685 Z15.164 
N158 X-134.299 Y-15.786 Z15.048 
N159 X-134.298 Y-15.886 Z14.933 
N160 X-134.298 Y-15.986 Z14.817 
N161 X-134.298 Y-16.087 Z14.702 
N162 X-134.297 Y-16.187 Z14.587 
N163 X-134.297 Y-16.287 Z14.471 
N164 X-134.296 Y-16.388 Z14.356 
N165 X-134.296 Y-16.488 Z14.240 
N166 X-134.296 Y-16.588 Z14.125 
N167 X-134.295 Y-16.689 Z14.009 
N168 X-134.295 Y-16.789 Z13.894 
N169 X-134.294 Y-16.889 Z13.779 
N170 X-134.294 Y-16.990 Z13.663 
N171 X-134.294 Y-17.090 Z13.548 
N172 X-134.293 Y-17.190 Z13.432 
N173 X-134.293 Y-17.291 Z13.317 
N174 X-134.293 Y-17.391 Z13.202 
N175 X-134.292 Y-17.491 Z13.086 
N176 X-134.292 Y-17.592 Z12.971 
N177 X-134.291 Y-17.692 Z12.855 
N178 X-134.291 Y-17.792 Z12.740 
N179 X-134.291 Y-17.893 Z12.625 
N180 X-134.290 Y-17.993 Z12.509 
N181 X-134.288 Y-18.093 Z12.394 
N182 X-134.286 Y-18.194 Z12.278 
N183 X-134.284 Y-18.294 Z12.163 
N184 X-134.282 Y-18.394 Z12.047 
N185 X-134.280 Y-18.495 Z11.932 
N186 X-134.278 Y-18.595 Z11.817 
N187 X-134.276 Y-18.695 Z11.701 
N188 X-134.274 Y-18.796 Z11.586 
N189 X-134.272 Y-18.896 Z11.470 
N190 X-134.270 Y-18.996 Z11.355 
N191 X-134.268 Y-19.096 Z11.240 
N192 X-134.266 Y-19.197 Z11.124 
N193 X-134.264 Y-19.297 Z11.009 
N194 X-134.262 Y-19.397 Z10.893 
N195 X-134.260 Y-19.498 Z10.778 
N196 X-134.258 Y-19.598 Z10.663 
N197 X-134.256 Y-19.698 Z10.547 
N198 X-134.254 Y-19.799 Z10.432 
N199 X-134.252 Y-19.899 Z10.316 
N200 X-134.250 Y-19.999 Z10.201 
N201 X-134.248 Y-20.100 Z10.086 
N202 X-134.246 Y-20.200 Z9.970 
N203 X-134.244 Y-20.300 Z9.855 
N204 X-134.242 Y-20.401 Z9.739 
N205 X-134.240 Y-20.501 Z9.624 
N206 X-134.238 Y-20.601 Z9.509 
N207 X-134.236 Y-20.702 Z9.393 
N208 X-134.234 Y-20.802 Z9.278 
N209 X-134.232 Y-20.902 Z9.162 
N210 X-134.230 Y-21.003 Z9.047 
N211 X-134.228 Y-21.103 Z8.931 
N212 X-134.226 Y-21.203 Z8.816 
N213 X-134.224 Y-21.304 Z8.701 
N214 X-134.222 Y-21.404 Z8.585 
N215 X-134.220 Y-21.504 Z8.470 
N216 X-134.218 Y-21.605 Z8.354 
N217 X-134.216 Y-21.705 Z8.239 
N218 X-134.214 Y-21.805 Z8.124 
N219 X-134.211 Y-21.905 Z8.008 
N220 X-134.209 Y-22.006 Z7.893 
N221 X-134.207 Y-22.106 Z7.777 
N222 X-134.205 Y-22.206 Z7.662 
N223 X-134.203 Y-22.307 Z7.547 
N224 X-134.201 Y-22.407 Z7.431 
N225 X-134.199 Y-22.507 Z7.316 
N226 X-134.197 Y-22.608 Z7.200 
N227 X-134.195 Y-22.708 Z7.085 
N228 X-134.193 Y-22.808 Z6.970 
N229 X-134.191 Y-22.909 Z6.854 
N230 X-134.189 Y-23.009 Z6.739 
N231 X-134.187 Y-23.109 Z6.623 
N232 X-134.185 Y-23.210 Z6.508 
N233 X-134.183 Y-23.310 Z6.393 
N234 X-134.181 Y-23.410 Z6.277 
N235 X-134.179 Y-23.511 Z6.162 
N236 X-134.177 Y-23.611 Z6.046 
N237 X-134.175 Y-23.711 Z5.931 
N238 X-134.173 Y-23.812 Z5.816 
N239 X-134.171 Y-23.912 Z5.700 
N240 X-134.169 Y-24.012 Z5.585 
N241 X-134.167 Y-24.113 Z5.469 
N242 X-134.164 Y-24.213 Z5.354 
N243 X-134.161 Y-24.313 Z5.239 
N244 X-134.157 Y-24.413 Z5.123 
N245 X-134.154 Y-24.514 Z5.008 
N246 X-134.150 Y-24.614 Z4.892 
N247 X-134.146 Y-24.714 Z4.777 
N248 X-134.143 Y-24.815 Z4.662 
N249 X-134.139 Y-24.915 Z4.546 
N250 X-134.135 Y-25.015 Z4.431 
N251 X-134.132 Y-25.116 Z4.315 
N252 X-134.128 Y-25.216 Z4.200 
N253 X-134.124 Y-25.316 Z4.085 
N254 X-134.121 Y-25.416 Z3.969 
N255 X-134.117 Y-25.517 Z3.854 
N256 X-134.113 Y-25.617 Z3.739 
N257 X-134.110 Y-25.717 Z3.623 
N258 X-134.106 Y-25.818 Z3.508 
N259 X-134.102 Y-25.918 Z3.392 
N260 X-134.099 Y-26.018 Z3.277 
N261 X-134.095 Y-26.119 Z3.162 
N262 X-134.091 Y-26.219 Z3.046 
N263 X-134.088 Y-26.319 Z2.931 
N264 X-134.084 Y-26.419 Z2.815 
N265 X-134.080 Y-26.520 Z2.700 
N266 X-134.077 Y-26.620 Z2.585 
N267 X-134.073 Y-26.720 Z2.469 
N268 X-134.069 Y-26.821 Z2.354 
N269 X-134.066 Y-26.921 Z2.239 
N270 X-134.062 Y-27.021 Z2.123 
N271 X-134.058 Y-27.122 Z2.008 
N272 X-134.055 Y-27.222 Z1.892 
N273 X-134.051 Y-27.322 Z1.777 
N274 X-134.048 Y-27.423 Z1.662 
N275 X-134.044 Y-27.523 Z1.546 
N276 X-134.040 Y-27.623 Z1.431 
N277 X-134.037 Y-27.723 Z1.315 
N278 X-134.033 Y-27.824 Z1.200 
N279 X-134.029 Y-27.924 Z1.085 
N280 X-134.026 Y-28.024 Z0.969 
N281 X-134.022 Y-28.125 Z0.854 
N282 X-134.018 Y-28.225 Z0.739 
N283 X-134.015 Y-28.325 Z0.623 
N284 X-134.011 Y-28.426 Z0.508 
N285 X-134.007 Y-28.526 Z0.392 
N286 X-134.003 Y-28.626 Z0.277 
N287 X-133.998 Y-28.726 Z0.162 
N288 X-133.993 Y-28.827 Z0.046 
N289 X-133.988 Y-28.927 Z-0.069 
N290 X-133.983 Y-29.027 Z-0.184 
N291 X-133.978 Y-29.127 Z-0.300 
N292 X-133.973 Y-29.228 Z-0.415 
N293 X-133.968 Y-29.328 Z-0.530 
N294 X-133.963 Y-29.428 Z-0.646 
N295 X-133.959 Y-29.529 Z-0.761 
N296 X-133.954 Y-29.629 Z-0.877 
N297 X-133.949 Y-29.729 Z-0.992 
N298 X-133.944 Y-29.829 Z-1.107 
N299 X-133.939 Y-29.930 Z-1.223 
N300 X-133.934 Y-30.030 Z-1.338 
N301 X-133.929 Y-30.130 Z-1.453 
N302 X-133.924 Y-30.231 Z-1.569 
N303 X-133.919 Y-30.331 Z-1.684 
N304 X-133.915 Y-30.431 Z-1.799 
N305 X-133.910 Y-30.531 Z-1.915 
N306 X-133.905 Y-30.632 Z-2.030 
N307 X-133.900 Y-30.732 Z-2.145 
N308 X-133.895 Y-30.832 Z-2.261 
N309 X-133.890 Y-30.933 Z-2.376 
N310 X-133.885 Y-31.033 Z-2.492 
N311 X-133.880 Y-31.133 Z-2.607 
N312 X-133.875 Y-31.233 Z-2.722 
N313 X-133.871 Y-31.334 Z-2.838 
N314 X-133.866 Y-31.434 Z-2.953 
N315 X-133.861 Y-31.534 Z-3.068 
N316 X-133.856 Y-31.634 Z-3.184 
N317 X-133.851 Y-31.735 Z-3.299 
N318 X-133.846 Y-31.835 Z-3.414 
N319 X-133.841 Y-31.935 Z-3.530 
N320 X-133.836 Y-32.036 Z-3.645 
N321 X-133.832 Y-32.135 Z-3.759 
N322 X-133.827 Y-32.234 Z-3.874 
N323 X-133.822 Y-32.334 Z-3.988 
N324 X-133.817 Y-32.433 Z-4.102 
N325 X-133.812 Y-32.532 Z-4.217 
N326 X-133.807 Y-32.632 Z-4.331 
N327 X-133.802 Y-32.731 Z-4.445 
N328 X-133.798 Y-32.830 Z-4.559 
N329 X-133.793 Y-32.930 Z-4.674 
N330 X-133.788 Y-33.029 Z-4.788 
N331 X-133.783 Y-33.128 Z-4.902 
N332 X-133.778 Y-33.228 Z-5.017 
N333 X-133.773 Y-33.327 Z-5.131 
N334 X-133.769 Y-33.427 Z-5.245 
N335 X-133.764 Y-33.526 Z-5.359 
N336 X-133.759 Y-33.625 Z-5.474 
N337 X-133.754 Y-33.725 Z-5.588 
N338 X-133.749 Y-33.824 Z-5.702 
N339 X-133.744 Y-33.923 Z-5.817 
N340 X-133.740 Y-34.023 Z-5.931 
N341 X-133.735 Y-34.122 Z-6.045 
N342 X-133.730 Y-34.221 Z-6.160 
N343 X-133.725 Y-34.321 Z-6.274 
N344 X-133.720 Y-34.420 Z-6.388 
N345 X-133.715 Y-34.519 Z-6.502 
N346 X-133.711 Y-34.619 Z-6.617 
N347 X-133.706 Y-34.718 Z-6.731 
N348 X-133.701 Y-34.817 Z-6.845 
N349 X-133.696 Y-34.917 Z-6.960 
N350 X-133.691 Y-35.016 Z-7.074 
N351 X-133.686 Y-35.115 Z-7.188 
N352 X-133.681 Y-35.215 Z-7.302 
N353 X-133.677 Y-35.314 Z-7.417 
N354 G40 X-133.645 Y-35.970 Z-8.171 F458
N355 X-133.645 Y-35.970 Z-8.171 
N356 G00 X-133.645 Y-58.611 Z11.511 
N357 X-134.223 Y-24.062 Z45.920 
N358 X-134.223 Y-1.421 Z26.238 
N359 ;FSE_1
N360 G01 G41 X-134.229 Y-2.077 Z25.484 F458
N361 G01 X-134.229 Y-2.077 Z25.484 F458 
N362 X-134.229 Y-2.175 Z25.370 
N363 X-134.230 Y-2.274 Z25.257 
N364 X-134.231 Y-2.372 Z25.144 
N365 X-134.232 Y-2.470 Z25.031 
N366 X-134.233 Y-2.569 Z24.918 
N367 X-134.234 Y-2.667 Z24.804 
N368 X-134.235 Y-2.766 Z24.691 
N369 X-134.235 Y-2.864 Z24.578 
N370 X-134.236 Y-2.962 Z24.465 
N371 X-134.237 Y-3.061 Z24.352 
N372 X-134.238 Y-3.159 Z24.238 
N373 X-134.239 Y-3.258 Z24.125 
N374 X-134.240 Y-3.356 Z24.012 
N375 X-134.240 Y-3.454 Z23.899 
N376 X-134.241 Y-3.553 Z23.786 
N377 X-134.242 Y-3.651 Z23.672 
N378 X-134.243 Y-3.750 Z23.559 
N379 X-134.244 Y-3.848 Z23.446 
N380 X-134.245 Y-3.946 Z23.333 
N381 X-134.245 Y-4.045 Z23.220 
N382 X-134.246 Y-4.144 Z23.105 
N383 X-134.247 Y-4.244 Z22.991 
N384 X-134.248 Y-4.343 Z22.877 
N385 X-134.249 Y-4.443 Z22.762 
N386 X-134.250 Y-4.542 Z22.648 
N387 X-134.250 Y-4.641 Z22.534 
N388 X-134.251 Y-4.741 Z22.419 
N389 X-134.252 Y-4.840 Z22.305 
N390 X-134.253 Y-4.940 Z22.190 
N391 X-134.254 Y-5.039 Z22.076 
N392 X-134.255 Y-5.138 Z21.962 
N393 X-134.256 Y-5.238 Z21.847 
N394 X-134.256 Y-5.337 Z21.733 
N395 X-134.257 Y-5.437 Z21.619 
N396 X-134.258 Y-5.536 Z21.504 
N397 X-134.259 Y-5.635 Z21.390 
N398 X-134.260 Y-5.735 Z21.276 
N399 X-134.261 Y-5.834 Z21.161 
N400 X-134.261 Y-5.934 Z21.047 
N401 X-134.262 Y-6.033 Z20.933 
N402 X-134.263 Y-6.132 Z20.818 
N403 X-134.264 Y-6.232 Z20.704 
N404 X-134.265 Y-6.331 Z20.590 
N405 X-134.266 Y-6.431 Z20.475 
N406 X-134.267 Y-6.530 Z20.361 
N407 X-134.267 Y-6.629 Z20.247 
N408 X-134.268 Y-6.729 Z20.132 
N409 X-134.269 Y-6.828 Z20.018 
N410 X-134.270 Y-6.928 Z19.904 
N411 X-134.271 Y-7.027 Z19.789 
N412 X-134.272 Y-7.126 Z19.675 
N413 X-134.272 Y-7.226 Z19.560 
N414 X-134.273 Y-7.325 Z19.446 
N415 X-134.274 Y-7.425 Z19.331 
N416 X-134.275 Y-7.526 Z19.215 
N417 X-134.276 Y-7.626 Z19.100 
N418 X-134.277 Y-7.726 Z18.984 
N419 X-134.278 Y-7.827 Z18.869 
N420 X-134.278 Y-7.927 Z18.754 
N421 X-134.279 Y-8.027 Z18.638 
N422 X-134.280 Y-8.128 Z18.523 
N423 X-134.281 Y-8.228 Z18.407 
N424 X-134.282 Y-8.328 Z18.292 
N425 X-134.283 Y-8.429 Z18.177 
N426 X-134.284 Y-8.529 Z18.061 
N427 X-134.284 Y-8.629 Z17.946 
N428 X-134.285 Y-8.730 Z17.830 
N429 X-134.286 Y-8.830 Z17.715 
N430 X-134.287 Y-8.930 Z17.599 
N431 X-134.288 Y-9.031 Z17.484 
N432 X-134.289 Y-9.131 Z17.369 
N433 X-134.289 Y-9.231 Z17.253 
N434 X-134.290 Y-9.332 Z17.138 
N435 X-134.291 Y-9.432 Z17.022 
N436 X-134.292 Y-9.532 Z16.907 
N437 X-134.293 Y-9.633 Z16.792 
N438 X-134.294 Y-9.733 Z16.676 
N439 X-134.295 Y-9.833 Z16.561 
N440 X-134.295 Y-9.934 Z16.445 
N441 X-134.296 Y-10.034 Z16.330 
N442 X-134.297 Y-10.134 Z16.214 
N443 X-134.298 Y-10.235 Z16.099 
N444 X-134.299 Y-10.335 Z15.984 
N445 X-134.300 Y-10.435 Z15.868 
N446 X-134.301 Y-10.536 Z15.753 
N447 X-134.301 Y-10.636 Z15.637 
N448 X-134.302 Y-10.736 Z15.522 
N449 X-134.303 Y-10.837 Z15.407 
N450 X-134.304 Y-10.937 Z15.291 
N451 X-134.305 Y-11.037 Z15.176 
N452 X-134.306 Y-11.138 Z15.060 
N453 X-134.306 Y-11.238 Z14.945 
N454 X-134.306 Y-11.338 Z14.830 
N455 X-134.306 Y-11.439 Z14.714 
N456 X-134.305 Y-11.539 Z14.599 
N457 X-134.305 Y-11.639 Z14.483 
N458 X-134.304 Y-11.740 Z14.368 
N459 X-134.304 Y-11.840 Z14.252 
N460 X-134.304 Y-11.940 Z14.137 
N461 X-134.303 Y-12.041 Z14.022 
N462 X-134.303 Y-12.141 Z13.906 
N463 X-134.302 Y-12.241 Z13.791 
N464 X-134.302 Y-12.342 Z13.675 
N465 X-134.302 Y-12.442 Z13.560 
N466 X-134.301 Y-12.542 Z13.445 
N467 X-134.301 Y-12.643 Z13.329 
N468 X-134.300 Y-12.743 Z13.214 
N469 X-134.300 Y-12.843 Z13.098 
N470 X-134.300 Y-12.944 Z12.983 
N471 X-134.299 Y-13.044 Z12.867 
N472 X-134.299 Y-13.144 Z12.752 
N473 X-134.298 Y-13.245 Z12.637 
N474 X-134.298 Y-13.345 Z12.521 
N475 X-134.298 Y-13.445 Z12.406 
N476 X-134.297 Y-13.546 Z12.290 
N477 X-134.297 Y-13.646 Z12.175 
N478 X-134.296 Y-13.746 Z12.060 
N479 X-134.296 Y-13.847 Z11.944 
N480 X-134.296 Y-13.947 Z11.829 
N481 X-134.295 Y-14.047 Z11.713 
N482 X-134.295 Y-14.148 Z11.598 
N483 X-134.294 Y-14.248 Z11.482 
N484 X-134.294 Y-14.348 Z11.367 
N485 X-134.294 Y-14.449 Z11.252 
N486 X-134.293 Y-14.549 Z11.136 
N487 X-134.293 Y-14.649 Z11.021 
N488 X-134.293 Y-14.749 Z10.905 
N489 X-134.292 Y-14.850 Z10.790 
N490 X-134.292 Y-14.950 Z10.675 
N491 X-134.291 Y-15.050 Z10.559 
N492 X-134.291 Y-15.151 Z10.444 
N493 X-134.291 Y-15.251 Z10.328 
N494 X-134.290 Y-15.351 Z10.213 
N495 X-134.288 Y-15.452 Z10.097 
N496 X-134.286 Y-15.552 Z9.982 
N497 X-134.284 Y-15.652 Z9.867 
N498 X-134.282 Y-15.753 Z9.751 
N499 X-134.280 Y-15.853 Z9.636 
N500 X-134.278 Y-15.953 Z9.520 
N501 X-134.276 Y-16.054 Z9.405 
N502 X-134.274 Y-16.154 Z9.290 
N503 X-134.272 Y-16.254 Z9.174 
N504 X-134.270 Y-16.355 Z9.059 
N505 X-134.268 Y-16.455 Z8.943 
N506 X-134.266 Y-16.555 Z8.828 
N507 X-134.264 Y-16.656 Z8.713 
N508 X-134.262 Y-16.756 Z8.597 
N509 X-134.260 Y-16.856 Z8.482 
N510 X-134.258 Y-16.957 Z8.366 
N511 X-134.256 Y-17.057 Z8.251 
N512 X-134.254 Y-17.157 Z8.136 
N513 X-134.252 Y-17.258 Z8.020 
N514 X-134.250 Y-17.358 Z7.905 
N515 X-134.248 Y-17.458 Z7.789 
N516 X-134.246 Y-17.559 Z7.674 
N517 X-134.244 Y-17.659 Z7.559 
N518 X-134.242 Y-17.759 Z7.443 
N519 X-134.240 Y-17.859 Z7.328 
N520 X-134.238 Y-17.960 Z7.212 
N521 X-134.236 Y-18.060 Z7.097 
N522 X-134.234 Y-18.160 Z6.982 
N523 X-134.232 Y-18.261 Z6.866 
N524 X-134.230 Y-18.361 Z6.751 
N525 X-134.228 Y-18.461 Z6.635 
N526 X-134.226 Y-18.562 Z6.520 
N527 X-134.224 Y-18.662 Z6.404 
N528 X-134.222 Y-18.762 Z6.289 
N529 X-134.220 Y-18.863 Z6.174 
N530 X-134.218 Y-18.963 Z6.058 
N531 X-134.216 Y-19.063 Z5.943 
N532 X-134.214 Y-19.164 Z5.827 
N533 X-134.211 Y-19.264 Z5.712 
N534 X-134.209 Y-19.364 Z5.597 
N535 X-134.207 Y-19.465 Z5.481 
N536 X-134.205 Y-19.565 Z5.366 
N537 X-134.203 Y-19.665 Z5.250 
N538 X-134.201 Y-19.766 Z5.135 
N539 X-134.199 Y-19.866 Z5.020 
N540 X-134.197 Y-19.966 Z4.904 
N541 X-134.195 Y-20.067 Z4.789 
N542 X-134.193 Y-20.167 Z4.673 
N543 X-134.191 Y-20.267 Z4.558 
N544 X-134.189 Y-20.368 Z4.443 
N545 X-134.187 Y-20.468 Z4.327 
N546 X-134.185 Y-20.568 Z4.212 
N547 X-134.183 Y-20.668 Z4.096 
N548 X-134.181 Y-20.769 Z3.981 
N549 X-134.179 Y-20.869 Z3.866 
N550 X-134.177 Y-20.969 Z3.750 
N551 X-134.175 Y-21.070 Z3.635 
N552 X-134.173 Y-21.170 Z3.519 
N553 X-134.171 Y-21.270 Z3.404 
N554 X-134.169 Y-21.371 Z3.288 
N555 X-134.167 Y-21.471 Z3.173 
N556 X-134.164 Y-21.571 Z3.058 
N557 X-134.161 Y-21.672 Z2.942 
N558 X-134.157 Y-21.772 Z2.827 
N559 X-134.154 Y-21.872 Z2.712 
N560 X-134.150 Y-21.973 Z2.596 
N561 X-134.146 Y-22.073 Z2.481 
N562 X-134.143 Y-22.173 Z2.365 
N563 X-134.139 Y-22.273 Z2.250 
N564 X-134.135 Y-22.374 Z2.135 
N565 X-134.132 Y-22.474 Z2.019 
N566 X-134.128 Y-22.574 Z1.904 
N567 X-134.124 Y-22.675 Z1.788 
N568 X-134.121 Y-22.775 Z1.673 
N569 X-134.117 Y-22.875 Z1.558 
N570 X-134.113 Y-22.976 Z1.442 
N571 X-134.110 Y-23.076 Z1.327 
N572 X-134.106 Y-23.176 Z1.212 
N573 X-134.102 Y-23.276 Z1.096 
N574 X-134.099 Y-23.377 Z0.981 
N575 X-134.095 Y-23.477 Z0.865 
N576 X-134.091 Y-23.577 Z0.750 
N577 X-134.088 Y-23.678 Z0.635 
N578 X-134.084 Y-23.778 Z0.519 
N579 X-134.080 Y-23.878 Z0.404 
N580 X-134.077 Y-23.979 Z0.288 
N581 X-134.073 Y-24.079 Z0.173 
N582 X-134.069 Y-24.179 Z0.058 
N583 X-134.066 Y-24.280 Z-0.058 
N584 X-134.062 Y-24.380 Z-0.173 
N585 X-134.058 Y-24.480 Z-0.288 
N586 X-134.055 Y-24.580 Z-0.404 
N587 X-134.051 Y-24.681 Z-0.519 
N588 X-134.048 Y-24.781 Z-0.635 
N589 X-134.044 Y-24.881 Z-0.750 
N590 X-134.040 Y-24.982 Z-0.865 
N591 X-134.037 Y-25.082 Z-0.981 
N592 X-134.033 Y-25.182 Z-1.096 
N593 X-134.029 Y-25.283 Z-1.211 
N594 X-134.026 Y-25.383 Z-1.327 
N595 X-134.022 Y-25.483 Z-1.442 
N596 X-134.018 Y-25.583 Z-1.558 
N597 X-134.015 Y-25.684 Z-1.673 
N598 X-134.011 Y-25.784 Z-1.788 
N599 X-134.007 Y-25.884 Z-1.904 
N600 X-134.003 Y-25.985 Z-2.019 
N601 X-133.998 Y-26.085 Z-2.135 
N602 X-133.993 Y-26.185 Z-2.250 
N603 X-133.988 Y-26.285 Z-2.365 
N604 X-133.983 Y-26.386 Z-2.481 
N605 X-133.978 Y-26.486 Z-2.596 
N606 X-133.973 Y-26.586 Z-2.711 
N607 X-133.968 Y-26.687 Z-2.827 
N608 X-133.963 Y-26.787 Z-2.942 
N609 X-133.959 Y-26.887 Z-3.057 
N610 X-133.954 Y-26.987 Z-3.173 
N611 X-133.949 Y-27.088 Z-3.288 
N612 X-133.944 Y-27.188 Z-3.403 
N613 X-133.939 Y-27.288 Z-3.519 
N614 X-133.934 Y-27.389 Z-3.634 
N615 X-133.929 Y-27.489 Z-3.750 
N616 X-133.924 Y-27.589 Z-3.865 
N617 X-133.919 Y-27.689 Z-3.980 
N618 X-133.915 Y-27.790 Z-4.096 
N619 X-133.910 Y-27.890 Z-4.211 
N620 X-133.905 Y-27.990 Z-4.326 
N621 X-133.900 Y-28.090 Z-4.442 
N622 X-133.895 Y-28.191 Z-4.557 
N623 X-133.890 Y-28.291 Z-4.672 
N624 X-133.885 Y-28.391 Z-4.788 
N625 X-133.880 Y-28.492 Z-4.903 
N626 X-133.875 Y-28.592 Z-5.018 
N627 X-133.871 Y-28.692 Z-5.134 
N628 X-133.866 Y-28.792 Z-5.249 
N629 X-133.861 Y-28.893 Z-5.365 
N630 X-133.856 Y-28.993 Z-5.480 
N631 X-133.851 Y-29.093 Z-5.595 
N632 X-133.846 Y-29.194 Z-5.711 
N633 X-133.841 Y-29.294 Z-5.826 
N634 X-133.836 Y-29.394 Z-5.941 
N635 X-133.832 Y-29.493 Z-6.056 
N636 X-133.827 Y-29.593 Z-6.170 
N637 X-133.822 Y-29.692 Z-6.284 
N638 X-133.817 Y-29.791 Z-6.398 
N639 X-133.812 Y-29.891 Z-6.513 
N640 X-133.807 Y-29.990 Z-6.627 
N641 X-133.802 Y-30.090 Z-6.741 
N642 X-133.798 Y-30.189 Z-6.856 
N643 X-133.793 Y-30.288 Z-6.970 
N644 X-133.788 Y-30.388 Z-7.084 
N645 X-133.783 Y-30.487 Z-7.199 
N646 X-133.778 Y-30.586 Z-7.313 
N647 X-133.773 Y-30.686 Z-7.427 
N648 X-133.769 Y-30.785 Z-7.541 
N649 X-133.764 Y-30.884 Z-7.656 
N650 X-133.759 Y-30.984 Z-7.770 
N651 X-133.754 Y-31.083 Z-7.884 
N652 X-133.749 Y-31.182 Z-7.999 
N653 X-133.744 Y-31.282 Z-8.113 
N654 X-133.740 Y-31.381 Z-8.227 
N655 X-133.735 Y-31.480 Z-8.341 
N656 X-133.730 Y-31.580 Z-8.456 
N657 X-133.725 Y-31.679 Z-8.570 
N658 X-133.720 Y-31.779 Z-8.684 
N659 X-133.715 Y-31.878 Z-8.799 
N660 X-133.711 Y-31.977 Z-8.913 
N661 X-133.706 Y-32.077 Z-9.027 
N662 X-133.701 Y-32.176 Z-9.141 
N663 X-133.696 Y-32.275 Z-9.256 
N664 X-133.691 Y-32.375 Z-9.370 
N665 X-133.686 Y-32.474 Z-9.484 
N666 X-133.681 Y-32.573 Z-9.599 
N667 X-133.677 Y-32.673 Z-9.713 
N668 G40 X-133.645 Y-33.328 Z-10.467 F458
N669 X-133.645 Y-33.328 Z-10.467 
N670 G00 X-133.645 Y-55.970 Z9.215 
N671 X-134.223 Y-21.421 Z43.624 
N672 X-134.223 Y1.221 Z23.942 
N673 ;FSE_1
N674 G01 G41 X-134.229 Y0.565 Z23.187 F458
N675 G01 X-134.229 Y0.565 Z23.187 F458 
N676 X-134.229 Y0.466 Z23.074 
N677 X-134.230 Y0.368 Z22.961 
N678 X-134.231 Y0.270 Z22.848 
N679 X-134.232 Y0.171 Z22.735 
N680 X-134.233 Y0.073 Z22.621 
N681 X-134.234 Y-0.026 Z22.508 
N682 X-134.235 Y-0.124 Z22.395 
N683 X-134.235 Y-0.223 Z22.282 
N684 X-134.236 Y-0.321 Z22.169 
N685 X-134.237 Y-0.419 Z22.055 
N686 X-134.238 Y-0.518 Z21.942 
N687 X-134.239 Y-0.616 Z21.829 
N688 X-134.240 Y-0.715 Z21.716 
N689 X-134.240 Y-0.813 Z21.603 
N690 X-134.241 Y-0.911 Z21.489 
N691 X-134.242 Y-1.010 Z21.376 
N692 X-134.243 Y-1.108 Z21.263 
N693 X-134.244 Y-1.207 Z21.150 
N694 X-134.245 Y-1.305 Z21.037 
N695 X-134.245 Y-1.403 Z20.923 
N696 X-134.246 Y-1.503 Z20.809 
N697 X-134.247 Y-1.602 Z20.695 
N698 X-134.248 Y-1.702 Z20.580 
N699 X-134.249 Y-1.801 Z20.466 
N700 X-134.250 Y-1.900 Z20.352 
N701 X-134.250 Y-2.000 Z20.237 
N702 X-134.251 Y-2.099 Z20.123 
N703 X-134.252 Y-2.199 Z20.009 
N704 X-134.253 Y-2.298 Z19.894 
N705 X-134.254 Y-2.397 Z19.780 
N706 X-134.255 Y-2.497 Z19.666 
N707 X-134.256 Y-2.596 Z19.551 
N708 X-134.256 Y-2.696 Z19.437 
N709 X-134.257 Y-2.795 Z19.323 
N710 X-134.258 Y-2.894 Z19.208 
N711 X-134.259 Y-2.994 Z19.094 
N712 X-134.260 Y-3.093 Z18.979 
N713 X-134.261 Y-3.193 Z18.865 
N714 X-134.261 Y-3.292 Z18.751 
N715 X-134.262 Y-3.391 Z18.636 
N716 X-134.263 Y-3.491 Z18.522 
N717 X-134.264 Y-3.590 Z18.408 
N718 X-134.265 Y-3.690 Z18.293 
N719 X-134.266 Y-3.789 Z18.179 
N720 X-134.267 Y-3.888 Z18.065 
N721 X-134.267 Y-3.988 Z17.950 
N722 X-134.268 Y-4.087 Z17.836 
N723 X-134.269 Y-4.187 Z17.722 
N724 X-134.270 Y-4.286 Z17.607 
N725 X-134.271 Y-4.385 Z17.493 
N726 X-134.272 Y-4.485 Z17.379 
N727 X-134.272 Y-4.584 Z17.264 
N728 X-134.273 Y-4.684 Z17.150 
N729 X-134.274 Y-4.784 Z17.034 
N730 X-134.275 Y-4.884 Z16.919 
N731 X-134.276 Y-4.985 Z16.804 
N732 X-134.277 Y-5.085 Z16.688 
N733 X-134.278 Y-5.185 Z16.573 
N734 X-134.278 Y-5.286 Z16.457 
N735 X-134.279 Y-5.386 Z16.342 
N736 X-134.280 Y-5.486 Z16.227 
N737 X-134.281 Y-5.587 Z16.111 
N738 X-134.282 Y-5.687 Z15.996 
N739 X-134.283 Y-5.787 Z15.880 
N740 X-134.284 Y-5.888 Z15.765 
N741 X-134.284 Y-5.988 Z15.650 
N742 X-134.285 Y-6.088 Z15.534 
N743 X-134.286 Y-6.189 Z15.419 
N744 X-134.287 Y-6.289 Z15.303 
N745 X-134.288 Y-6.389 Z15.188 
N746 X-134.289 Y-6.490 Z15.072 
N747 X-134.289 Y-6.590 Z14.957 
N748 X-134.290 Y-6.690 Z14.842 
N749 X-134.291 Y-6.791 Z14.726 
N750 X-134.292 Y-6.891 Z14.611 
N751 X-134.293 Y-6.991 Z14.495 
N752 X-134.294 Y-7.092 Z14.380 
N753 X-134.295 Y-7.192 Z14.265 
N754 X-134.295 Y-7.292 Z14.149 
N755 X-134.296 Y-7.393 Z14.034 
N756 X-134.297 Y-7.493 Z13.918 
N757 X-134.298 Y-7.593 Z13.803 
N758 X-134.299 Y-7.694 Z13.687 
N759 X-134.300 Y-7.794 Z13.572 
N760 X-134.301 Y-7.894 Z13.457 
N761 X-134.301 Y-7.995 Z13.341 
N762 X-134.302 Y-8.095 Z13.226 
N763 X-134.303 Y-8.195 Z13.110 
N764 X-134.304 Y-8.295 Z12.995 
N765 X-134.305 Y-8.396 Z12.880 
N766 X-134.306 Y-8.496 Z12.764 
N767 X-134.306 Y-8.596 Z12.649 
N768 X-134.306 Y-8.697 Z12.533 
N769 X-134.306 Y-8.797 Z12.418 
N770 X-134.305 Y-8.897 Z12.302 
N771 X-134.305 Y-8.998 Z12.187 
N772 X-134.304 Y-9.098 Z12.072 
N773 X-134.304 Y-9.198 Z11.956 
N774 X-134.304 Y-9.299 Z11.841 
N775 X-134.303 Y-9.399 Z11.725 
N776 X-134.303 Y-9.499 Z11.610 
N777 X-134.302 Y-9.600 Z11.495 
N778 X-134.302 Y-9.700 Z11.379 
N779 X-134.302 Y-9.800 Z11.264 
N780 X-134.301 Y-9.901 Z11.148 
N781 X-134.301 Y-10.001 Z11.033 
N782 X-134.300 Y-10.101 Z10.917 
N783 X-134.300 Y-10.202 Z10.802 
N784 X-134.300 Y-10.302 Z10.687 
N785 X-134.299 Y-10.402 Z10.571 
N786 X-134.299 Y-10.503 Z10.456 
N787 X-134.298 Y-10.603 Z10.340 
N788 X-134.298 Y-10.703 Z10.225 
N789 X-134.298 Y-10.804 Z10.110 
N790 X-134.297 Y-10.904 Z9.994 
N791 X-134.297 Y-11.004 Z9.879 
N792 X-134.296 Y-11.105 Z9.763 
N793 X-134.296 Y-11.205 Z9.648 
N794 X-134.296 Y-11.305 Z9.532 
N795 X-134.295 Y-11.406 Z9.417 
N796 X-134.295 Y-11.506 Z9.302 
N797 X-134.294 Y-11.606 Z9.186 
N798 X-134.294 Y-11.707 Z9.071 
N799 X-134.294 Y-11.807 Z8.955 
N800 X-134.293 Y-11.907 Z8.840 
N801 X-134.293 Y-12.008 Z8.725 
N802 X-134.293 Y-12.108 Z8.609 
N803 X-134.292 Y-12.208 Z8.494 
N804 X-134.292 Y-12.309 Z8.378 
N805 X-134.291 Y-12.409 Z8.263 
N806 X-134.291 Y-12.509 Z8.148 
N807 X-134.291 Y-12.610 Z8.032 
N808 X-134.290 Y-12.710 Z7.917 
N809 X-134.288 Y-12.810 Z7.801 
N810 X-134.286 Y-12.911 Z7.686 
N811 X-134.284 Y-13.011 Z7.570 
N812 X-134.282 Y-13.111 Z7.455 
N813 X-134.280 Y-13.212 Z7.340 
N814 X-134.278 Y-13.312 Z7.224 
N815 X-134.276 Y-13.412 Z7.109 
N816 X-134.274 Y-13.513 Z6.993 
N817 X-134.272 Y-13.613 Z6.878 
N818 X-134.270 Y-13.713 Z6.763 
N819 X-134.268 Y-13.814 Z6.647 
N820 X-134.266 Y-13.914 Z6.532 
N821 X-134.264 Y-14.014 Z6.416 
N822 X-134.262 Y-14.114 Z6.301 
N823 X-134.260 Y-14.215 Z6.186 
N824 X-134.258 Y-14.315 Z6.070 
N825 X-134.256 Y-14.415 Z5.955 
N826 X-134.254 Y-14.516 Z5.839 
N827 X-134.252 Y-14.616 Z5.724 
N828 X-134.250 Y-14.716 Z5.609 
N829 X-134.248 Y-14.817 Z5.493 
N830 X-134.246 Y-14.917 Z5.378 
N831 X-134.244 Y-15.017 Z5.262 
N832 X-134.242 Y-15.118 Z5.147 
N833 X-134.240 Y-15.218 Z5.032 
N834 X-134.238 Y-15.318 Z4.916 
N835 X-134.236 Y-15.419 Z4.801 
N836 X-134.234 Y-15.519 Z4.685 
N837 X-134.232 Y-15.619 Z4.570 
N838 X-134.230 Y-15.720 Z4.454 
N839 X-134.228 Y-15.820 Z4.339 
N840 X-134.226 Y-15.920 Z4.224 
N841 X-134.224 Y-16.021 Z4.108 
N842 X-134.222 Y-16.121 Z3.993 
N843 X-134.220 Y-16.221 Z3.877 
N844 X-134.218 Y-16.322 Z3.762 
N845 X-134.216 Y-16.422 Z3.647 
N846 X-134.214 Y-16.522 Z3.531 
N847 X-134.211 Y-16.623 Z3.416 
N848 X-134.209 Y-16.723 Z3.300 
N849 X-134.207 Y-16.823 Z3.185 
N850 X-134.205 Y-16.923 Z3.070 
N851 X-134.203 Y-17.024 Z2.954 
N852 X-134.201 Y-17.124 Z2.839 
N853 X-134.199 Y-17.224 Z2.723 
N854 X-134.197 Y-17.325 Z2.608 
N855 X-134.195 Y-17.425 Z2.493 
N856 X-134.193 Y-17.525 Z2.377 
N857 X-134.191 Y-17.626 Z2.262 
N858 X-134.189 Y-17.726 Z2.146 
N859 X-134.187 Y-17.826 Z2.031 
N860 X-134.185 Y-17.927 Z1.916 
N861 X-134.183 Y-18.027 Z1.800 
N862 X-134.181 Y-18.127 Z1.685 
N863 X-134.179 Y-18.228 Z1.569 
N864 X-134.177 Y-18.328 Z1.454 
N865 X-134.175 Y-18.428 Z1.339 
N866 X-134.173 Y-18.529 Z1.223 
N867 X-134.171 Y-18.629 Z1.108 
N868 X-134.169 Y-18.729 Z0.992 
N869 X-134.167 Y-18.830 Z0.877 
N870 X-134.164 Y-18.930 Z0.761 
N871 X-134.161 Y-19.030 Z0.646 
N872 X-134.157 Y-19.130 Z0.531 
N873 X-134.154 Y-19.231 Z0.415 
N874 X-134.150 Y-19.331 Z0.300 
N875 X-134.146 Y-19.431 Z0.185 
N876 X-134.143 Y-19.532 Z0.069 
N877 X-134.139 Y-19.632 Z-0.046 
N878 X-134.135 Y-19.732 Z-0.162 
N879 X-134.132 Y-19.833 Z-0.277 
N880 X-134.128 Y-19.933 Z-0.392 
N881 X-134.124 Y-20.033 Z-0.508 
N882 X-134.121 Y-20.134 Z-0.623 
N883 X-134.117 Y-20.234 Z-0.738 
N884 X-134.113 Y-20.334 Z-0.854 
N885 X-134.110 Y-20.434 Z-0.969 
N886 X-134.106 Y-20.535 Z-1.085 
N887 X-134.102 Y-20.635 Z-1.200 
N888 X-134.099 Y-20.735 Z-1.315 
N889 X-134.095 Y-20.836 Z-1.431 
N890 X-134.091 Y-20.936 Z-1.546 
N891 X-134.088 Y-21.036 Z-1.662 
N892 X-134.084 Y-21.137 Z-1.777 
N893 X-134.080 Y-21.237 Z-1.892 
N894 X-134.077 Y-21.337 Z-2.008 
N895 X-134.073 Y-21.437 Z-2.123 
N896 X-134.069 Y-21.538 Z-2.238 
N897 X-134.066 Y-21.638 Z-2.354 
N898 X-134.062 Y-21.738 Z-2.469 
N899 X-134.058 Y-21.839 Z-2.585 
N900 X-134.055 Y-21.939 Z-2.700 
N901 X-134.051 Y-22.039 Z-2.815 
N902 X-134.048 Y-22.140 Z-2.931 
N903 X-134.044 Y-22.240 Z-3.046 
N904 X-134.040 Y-22.340 Z-3.162 
N905 X-134.037 Y-22.440 Z-3.277 
N906 X-134.033 Y-22.541 Z-3.392 
N907 X-134.029 Y-22.641 Z-3.508 
N908 X-134.026 Y-22.741 Z-3.623 
N909 X-134.022 Y-22.842 Z-3.738 
N910 X-134.018 Y-22.942 Z-3.854 
N911 X-134.015 Y-23.042 Z-3.969 
N912 X-134.011 Y-23.143 Z-4.085 
N913 X-134.007 Y-23.243 Z-4.200 
N914 X-134.003 Y-23.343 Z-4.315 
N915 X-133.998 Y-23.443 Z-4.431 
N916 X-133.993 Y-23.544 Z-4.546 
N917 X-133.988 Y-23.644 Z-4.661 
N918 X-133.983 Y-23.744 Z-4.777 
N919 X-133.978 Y-23.845 Z-4.892 
N920 X-133.973 Y-23.945 Z-5.008 
N921 X-133.968 Y-24.045 Z-5.123 
N922 X-133.963 Y-24.145 Z-5.238 
N923 X-133.959 Y-24.246 Z-5.354 
N924 X-133.954 Y-24.346 Z-5.469 
N925 X-133.949 Y-24.446 Z-5.584 
N926 X-133.944 Y-24.546 Z-5.700 
N927 X-133.939 Y-24.647 Z-5.815 
N928 X-133.934 Y-24.747 Z-5.930 
N929 X-133.929 Y-24.847 Z-6.046 
N930 X-133.924 Y-24.948 Z-6.161 
N931 X-133.919 Y-25.048 Z-6.276 
N932 X-133.915 Y-25.148 Z-6.392 
N933 X-133.910 Y-25.248 Z-6.507 
N934 X-133.905 Y-25.349 Z-6.623 
N935 X-133.900 Y-25.449 Z-6.738 
N936 X-133.895 Y-25.549 Z-6.853 
N937 X-133.890 Y-25.650 Z-6.969 
N938 X-133.885 Y-25.750 Z-7.084 
N939 X-133.880 Y-25.850 Z-7.199 
N940 X-133.875 Y-25.950 Z-7.315 
N941 X-133.871 Y-26.051 Z-7.430 
N942 X-133.866 Y-26.151 Z-7.545 
N943 X-133.861 Y-26.251 Z-7.661 
N944 X-133.856 Y-26.351 Z-7.776 
N945 X-133.851 Y-26.452 Z-7.891 
N946 X-133.846 Y-26.552 Z-8.007 
N947 X-133.841 Y-26.652 Z-8.122 
N948 X-133.836 Y-26.753 Z-8.238 
N949 X-133.832 Y-26.852 Z-8.352 
N950 X-133.827 Y-26.951 Z-8.466 
N951 X-133.822 Y-27.051 Z-8.580 
N952 X-133.817 Y-27.150 Z-8.695 
N953 X-133.812 Y-27.249 Z-8.809 
N954 X-133.807 Y-27.349 Z-8.923 
N955 X-133.802 Y-27.448 Z-9.038 
N956 X-133.798 Y-27.547 Z-9.152 
N957 X-133.793 Y-27.647 Z-9.266 
N958 X-133.788 Y-27.746 Z-9.380 
N959 X-133.783 Y-27.845 Z-9.495 
N960 X-133.778 Y-27.945 Z-9.609 
N961 X-133.773 Y-28.044 Z-9.723 
N962 X-133.769 Y-28.144 Z-9.838 
N963 X-133.764 Y-28.243 Z-9.952 
N964 X-133.759 Y-28.342 Z-10.066 
N965 X-133.754 Y-28.442 Z-10.180 
N966 X-133.749 Y-28.541 Z-10.295 
N967 X-133.744 Y-28.640 Z-10.409 
N968 X-133.740 Y-28.740 Z-10.523 
N969 X-133.735 Y-28.839 Z-10.638 
N970 X-133.730 Y-28.938 Z-10.752 
N971 X-133.725 Y-29.038 Z-10.866 
N972 X-133.720 Y-29.137 Z-10.981 
N973 X-133.715 Y-29.236 Z-11.095 
N974 X-133.711 Y-29.336 Z-11.209 
N975 X-133.706 Y-29.435 Z-11.323 
N976 X-133.701 Y-29.534 Z-11.438 
N977 X-133.696 Y-29.634 Z-11.552 
N978 X-133.691 Y-29.733 Z-11.666 
N979 X-133.686 Y-29.833 Z-11.781 
N980 X-133.681 Y-29.932 Z-11.895 
N981 X-133.677 Y-30.031 Z-12.009 
N982 G40 X-133.645 Y-30.687 Z-12.763 F458
N983 X-133.645 Y-30.687 Z-12.763 
N984 G00 X-133.645 Y-53.328 Z6.918 
N985 X-134.223 Y-18.779 Z41.328 
N986 X-134.223 Y3.862 Z21.646 
N987 ;FSE_1
N988 G01 G41 X-134.229 Y3.206 Z20.891 F458
N989 G01 X-134.229 Y3.206 Z20.891 F458 
N990 X-134.229 Y3.108 Z20.778 
N991 X-134.230 Y3.009 Z20.665 
N992 X-134.231 Y2.911 Z20.552 
N993 X-134.232 Y2.813 Z20.438 
N994 X-134.233 Y2.714 Z20.325 
N995 X-134.234 Y2.616 Z20.212 
N996 X-134.235 Y2.517 Z20.099 
N997 X-134.235 Y2.419 Z19.986 
N998 X-134.236 Y2.321 Z19.872 
N999 X-134.237 Y2.222 Z19.759 
N1000 X-134.238 Y2.124 Z19.646 
N1001 X-134.239 Y2.025 Z19.533 
N1002 X-134.240 Y1.927 Z19.420 
N1003 X-134.240 Y1.829 Z19.306 
N1004 X-134.241 Y1.730 Z19.193 
N1005 X-134.242 Y1.632 Z19.080 
N1006 X-134.243 Y1.533 Z18.967 
N1007 X-134.244 Y1.435 Z18.854 
N1008 X-134.245 Y1.336 Z18.740 
N1009 X-134.245 Y1.238 Z18.627 
N1010 X-134.246 Y1.139 Z18.513 
N1011 X-134.247 Y1.039 Z18.398 
N1012 X-134.248 Y0.940 Z18.284 
N1013 X-134.249 Y0.840 Z18.170 
N1014 X-134.250 Y0.741 Z18.055 
N1015 X-134.250 Y0.642 Z17.941 
N1016 X-134.251 Y0.542 Z17.827 
N1017 X-134.252 Y0.443 Z17.712 
N1018 X-134.253 Y0.343 Z17.598 
N1019 X-134.254 Y0.244 Z17.484 
N1020 X-134.255 Y0.145 Z17.369 
N1021 X-134.256 Y0.045 Z17.255 
N1022 X-134.256 Y-0.054 Z17.141 
N1023 X-134.257 Y-0.154 Z17.026 
N1024 X-134.258 Y-0.253 Z16.912 
N1025 X-134.259 Y-0.352 Z16.798 
N1026 X-134.260 Y-0.452 Z16.683 
N1027 X-134.261 Y-0.551 Z16.569 
N1028 X-134.261 Y-0.651 Z16.455 
N1029 X-134.262 Y-0.750 Z16.340 
N1030 X-134.263 Y-0.849 Z16.226 
N1031 X-134.264 Y-0.949 Z16.112 
N1032 X-134.265 Y-1.048 Z15.997 
N1033 X-134.266 Y-1.148 Z15.883 
N1034 X-134.267 Y-1.247 Z15.768 
N1035 X-134.267 Y-1.346 Z15.654 
N1036 X-134.268 Y-1.446 Z15.540 
N1037 X-134.269 Y-1.545 Z15.425 
N1038 X-134.270 Y-1.645 Z15.311 
N1039 X-134.271 Y-1.744 Z15.197 
N1040 X-134.272 Y-1.843 Z15.082 
N1041 X-134.272 Y-1.943 Z14.968 
N1042 X-134.273 Y-2.042 Z14.854 
N1043 X-134.274 Y-2.143 Z14.738 
N1044 X-134.275 Y-2.243 Z14.623 
N1045 X-134.276 Y-2.343 Z14.507 
N1046 X-134.277 Y-2.443 Z14.392 
N1047 X-134.278 Y-2.544 Z14.277 
N1048 X-134.278 Y-2.644 Z14.161 
N1049 X-134.279 Y-2.744 Z14.046 
N1050 X-134.280 Y-2.845 Z13.930 
N1051 X-134.281 Y-2.945 Z13.815 
N1052 X-134.282 Y-3.045 Z13.700 
N1053 X-134.283 Y-3.146 Z13.584 
N1054 X-134.284 Y-3.246 Z13.469 
N1055 X-134.284 Y-3.346 Z13.353 
N1056 X-134.285 Y-3.447 Z13.238 
N1057 X-134.286 Y-3.547 Z13.122 
N1058 X-134.287 Y-3.647 Z13.007 
N1059 X-134.288 Y-3.748 Z12.892 
N1060 X-134.289 Y-3.848 Z12.776 
N1061 X-134.289 Y-3.948 Z12.661 
N1062 X-134.290 Y-4.049 Z12.545 
N1063 X-134.291 Y-4.149 Z12.430 
N1064 X-134.292 Y-4.249 Z12.315 
N1065 X-134.293 Y-4.350 Z12.199 
N1066 X-134.294 Y-4.450 Z12.084 
N1067 X-134.295 Y-4.550 Z11.968 
N1068 X-134.295 Y-4.651 Z11.853 
N1069 X-134.296 Y-4.751 Z11.738 
N1070 X-134.297 Y-4.851 Z11.622 
N1071 X-134.298 Y-4.952 Z11.507 
N1072 X-134.299 Y-5.052 Z11.391 
N1073 X-134.300 Y-5.152 Z11.276 
N1074 X-134.301 Y-5.253 Z11.160 
N1075 X-134.301 Y-5.353 Z11.045 
N1076 X-134.302 Y-5.453 Z10.930 
N1077 X-134.303 Y-5.554 Z10.814 
N1078 X-134.304 Y-5.654 Z10.699 
N1079 X-134.305 Y-5.754 Z10.583 
N1080 X-134.306 Y-5.855 Z10.468 
N1081 X-134.306 Y-5.955 Z10.353 
N1082 X-134.306 Y-6.055 Z10.237 
N1083 X-134.306 Y-6.156 Z10.122 
N1084 X-134.305 Y-6.256 Z10.006 
N1085 X-134.305 Y-6.356 Z9.891 
N1086 X-134.304 Y-6.457 Z9.775 
N1087 X-134.304 Y-6.557 Z9.660 
N1088 X-134.304 Y-6.657 Z9.545 
N1089 X-134.303 Y-6.758 Z9.429 
N1090 X-134.303 Y-6.858 Z9.314 
N1091 X-134.302 Y-6.958 Z9.198 
N1092 X-134.302 Y-7.059 Z9.083 
N1093 X-134.302 Y-7.159 Z8.968 
N1094 X-134.301 Y-7.259 Z8.852 
N1095 X-134.301 Y-7.360 Z8.737 
N1096 X-134.300 Y-7.460 Z8.621 
N1097 X-134.300 Y-7.560 Z8.506 
N1098 X-134.300 Y-7.661 Z8.390 
N1099 X-134.299 Y-7.761 Z8.275 
N1100 X-134.299 Y-7.861 Z8.160 
N1101 X-134.298 Y-7.962 Z8.044 
N1102 X-134.298 Y-8.062 Z7.929 
N1103 X-134.298 Y-8.162 Z7.813 
N1104 X-134.297 Y-8.263 Z7.698 
N1105 X-134.297 Y-8.363 Z7.583 
N1106 X-134.296 Y-8.463 Z7.467 
N1107 X-134.296 Y-8.564 Z7.352 
N1108 X-134.296 Y-8.664 Z7.236 
N1109 X-134.295 Y-8.764 Z7.121 
N1110 X-134.295 Y-8.865 Z7.005 
N1111 X-134.294 Y-8.965 Z6.890 
N1112 X-134.294 Y-9.065 Z6.775 
N1113 X-134.294 Y-9.166 Z6.659 
N1114 X-134.293 Y-9.266 Z6.544 
N1115 X-134.293 Y-9.366 Z6.428 
N1116 X-134.293 Y-9.467 Z6.313 
N1117 X-134.292 Y-9.567 Z6.198 
N1118 X-134.292 Y-9.667 Z6.082 
N1119 X-134.291 Y-9.768 Z5.967 
N1120 X-134.291 Y-9.868 Z5.851 
N1121 X-134.291 Y-9.968 Z5.736 
N1122 X-134.290 Y-10.068 Z5.620 
N1123 X-134.288 Y-10.169 Z5.505 
N1124 X-134.286 Y-10.269 Z5.390 
N1125 X-134.284 Y-10.369 Z5.274 
N1126 X-134.282 Y-10.470 Z5.159 
N1127 X-134.280 Y-10.570 Z5.043 
N1128 X-134.278 Y-10.670 Z4.928 
N1129 X-134.276 Y-10.771 Z4.813 
N1130 X-134.274 Y-10.871 Z4.697 
N1131 X-134.272 Y-10.971 Z4.582 
N1132 X-134.270 Y-11.072 Z4.466 
N1133 X-134.268 Y-11.172 Z4.351 
N1134 X-134.266 Y-11.272 Z4.236 
N1135 X-134.264 Y-11.373 Z4.120 
N1136 X-134.262 Y-11.473 Z4.005 
N1137 X-134.260 Y-11.573 Z3.889 
N1138 X-134.258 Y-11.674 Z3.774 
N1139 X-134.256 Y-11.774 Z3.659 
N1140 X-134.254 Y-11.874 Z3.543 
N1141 X-134.252 Y-11.975 Z3.428 
N1142 X-134.250 Y-12.075 Z3.312 
N1143 X-134.248 Y-12.175 Z3.197 
N1144 X-134.246 Y-12.276 Z3.082 
N1145 X-134.244 Y-12.376 Z2.966 
N1146 X-134.242 Y-12.476 Z2.851 
N1147 X-134.240 Y-12.577 Z2.735 
N1148 X-134.238 Y-12.677 Z2.620 
N1149 X-134.236 Y-12.777 Z2.504 
N1150 X-134.234 Y-12.877 Z2.389 
N1151 X-134.232 Y-12.978 Z2.274 
N1152 X-134.230 Y-13.078 Z2.158 
N1153 X-134.228 Y-13.178 Z2.043 
N1154 X-134.226 Y-13.279 Z1.927 
N1155 X-134.224 Y-13.379 Z1.812 
N1156 X-134.222 Y-13.479 Z1.697 
N1157 X-134.220 Y-13.580 Z1.581 
N1158 X-134.218 Y-13.680 Z1.466 
N1159 X-134.216 Y-13.780 Z1.350 
N1160 X-134.214 Y-13.881 Z1.235 
N1161 X-134.211 Y-13.981 Z1.120 
N1162 X-134.209 Y-14.081 Z1.004 
N1163 X-134.207 Y-14.182 Z0.889 
N1164 X-134.205 Y-14.282 Z0.773 
N1165 X-134.203 Y-14.382 Z0.658 
N1166 X-134.201 Y-14.483 Z0.543 
N1167 X-134.199 Y-14.583 Z0.427 
N1168 X-134.197 Y-14.683 Z0.312 
N1169 X-134.195 Y-14.784 Z0.196 
N1170 X-134.193 Y-14.884 Z0.081 
N1171 X-134.191 Y-14.984 Z-0.034 
N1172 X-134.189 Y-15.085 Z-0.150 
N1173 X-134.187 Y-15.185 Z-0.265 
N1174 X-134.185 Y-15.285 Z-0.381 
N1175 X-134.183 Y-15.386 Z-0.496 
N1176 X-134.181 Y-15.486 Z-0.611 
N1177 X-134.179 Y-15.586 Z-0.727 
N1178 X-134.177 Y-15.686 Z-0.842 
N1179 X-134.175 Y-15.787 Z-0.958 
N1180 X-134.173 Y-15.887 Z-1.073 
N1181 X-134.171 Y-15.987 Z-1.189 
N1182 X-134.169 Y-16.088 Z-1.304 
N1183 X-134.167 Y-16.188 Z-1.419 
N1184 X-134.164 Y-16.288 Z-1.535 
N1185 X-134.161 Y-16.389 Z-1.650 
N1186 X-134.157 Y-16.489 Z-1.765 
N1187 X-134.154 Y-16.589 Z-1.881 
N1188 X-134.150 Y-16.690 Z-1.996 
N1189 X-134.146 Y-16.790 Z-2.112 
N1190 X-134.143 Y-16.890 Z-2.227 
N1191 X-134.139 Y-16.991 Z-2.342 
N1192 X-134.135 Y-17.091 Z-2.458 
N1193 X-134.132 Y-17.191 Z-2.573 
N1194 X-134.128 Y-17.291 Z-2.689 
N1195 X-134.124 Y-17.392 Z-2.804 
N1196 X-134.121 Y-17.492 Z-2.919 
N1197 X-134.117 Y-17.592 Z-3.035 
N1198 X-134.113 Y-17.693 Z-3.150 
N1199 X-134.110 Y-17.793 Z-3.265 
N1200 X-134.106 Y-17.893 Z-3.381 
N1201 X-134.102 Y-17.994 Z-3.496 
N1202 X-134.099 Y-18.094 Z-3.612 
N1203 X-134.095 Y-18.194 Z-3.727 
N1204 X-134.091 Y-18.294 Z-3.842 
N1205 X-134.088 Y-18.395 Z-3.958 
N1206 X-134.084 Y-18.495 Z-4.073 
N1207 X-134.080 Y-18.595 Z-4.189 
N1208 X-134.077 Y-18.696 Z-4.304 
N1209 X-134.073 Y-18.796 Z-4.419 
N1210 X-134.069 Y-18.896 Z-4.535 
N1211 X-134.066 Y-18.997 Z-4.650 
N1212 X-134.062 Y-19.097 Z-4.765 
N1213 X-134.058 Y-19.197 Z-4.881 
N1214 X-134.055 Y-19.297 Z-4.996 
N1215 X-134.051 Y-19.398 Z-5.112 
N1216 X-134.048 Y-19.498 Z-5.227 
N1217 X-134.044 Y-19.598 Z-5.342 
N1218 X-134.040 Y-19.699 Z-5.458 
N1219 X-134.037 Y-19.799 Z-5.573 
N1220 X-134.033 Y-19.899 Z-5.689 
N1221 X-134.029 Y-20.000 Z-5.804 
N1222 X-134.026 Y-20.100 Z-5.919 
N1223 X-134.022 Y-20.200 Z-6.035 
N1224 X-134.018 Y-20.300 Z-6.150 
N1225 X-134.015 Y-20.401 Z-6.265 
N1226 X-134.011 Y-20.501 Z-6.381 
N1227 X-134.007 Y-20.601 Z-6.496 
N1228 X-134.003 Y-20.702 Z-6.612 
N1229 X-133.998 Y-20.802 Z-6.727 
N1230 X-133.993 Y-20.902 Z-6.842 
N1231 X-133.988 Y-21.002 Z-6.958 
N1232 X-133.983 Y-21.103 Z-7.073 
N1233 X-133.978 Y-21.203 Z-7.188 
N1234 X-133.973 Y-21.303 Z-7.304 
N1235 X-133.968 Y-21.404 Z-7.419 
N1236 X-133.963 Y-21.504 Z-7.534 
N1237 X-133.959 Y-21.604 Z-7.650 
N1238 X-133.954 Y-21.704 Z-7.765 
N1239 X-133.949 Y-21.805 Z-7.880 
N1240 X-133.944 Y-21.905 Z-7.996 
N1241 X-133.939 Y-22.005 Z-8.111 
N1242 X-133.934 Y-22.106 Z-8.227 
N1243 X-133.929 Y-22.206 Z-8.342 
N1244 X-133.924 Y-22.306 Z-8.457 
N1245 X-133.919 Y-22.406 Z-8.573 
N1246 X-133.915 Y-22.507 Z-8.688 
N1247 X-133.910 Y-22.607 Z-8.803 
N1248 X-133.905 Y-22.707 Z-8.919 
N1249 X-133.900 Y-22.807 Z-9.034 
N1250 X-133.895 Y-22.908 Z-9.149 
N1251 X-133.890 Y-23.008 Z-9.265 
N1252 X-133.885 Y-23.108 Z-9.380 
N1253 X-133.880 Y-23.209 Z-9.496 
N1254 X-133.875 Y-23.309 Z-9.611 
N1255 X-133.871 Y-23.409 Z-9.726 
N1256 X-133.866 Y-23.509 Z-9.842 
N1257 X-133.861 Y-23.610 Z-9.957 
N1258 X-133.856 Y-23.710 Z-10.072 
N1259 X-133.851 Y-23.810 Z-10.188 
N1260 X-133.846 Y-23.911 Z-10.303 
N1261 X-133.841 Y-24.011 Z-10.418 
N1262 X-133.836 Y-24.111 Z-10.534 
N1263 X-133.832 Y-24.210 Z-10.648 
N1264 X-133.827 Y-24.310 Z-10.762 
N1265 X-133.822 Y-24.409 Z-10.877 
N1266 X-133.817 Y-24.509 Z-10.991 
N1267 X-133.812 Y-24.608 Z-11.105 
N1268 X-133.807 Y-24.707 Z-11.219 
N1269 X-133.802 Y-24.807 Z-11.334 
N1270 X-133.798 Y-24.906 Z-11.448 
N1271 X-133.793 Y-25.005 Z-11.562 
N1272 X-133.788 Y-25.105 Z-11.677 
N1273 X-133.783 Y-25.204 Z-11.791 
N1274 X-133.778 Y-25.303 Z-11.905 
N1275 X-133.773 Y-25.403 Z-12.020 
N1276 X-133.769 Y-25.502 Z-12.134 
N1277 X-133.764 Y-25.601 Z-12.248 
N1278 X-133.759 Y-25.701 Z-12.362 
N1279 X-133.754 Y-25.800 Z-12.477 
N1280 X-133.749 Y-25.899 Z-12.591 
N1281 X-133.744 Y-25.999 Z-12.705 
N1282 X-133.740 Y-26.098 Z-12.820 
N1283 X-133.735 Y-26.198 Z-12.934 
N1284 X-133.730 Y-26.297 Z-13.048 
N1285 X-133.725 Y-26.396 Z-13.162 
N1286 X-133.720 Y-26.496 Z-13.277 
N1287 X-133.715 Y-26.595 Z-13.391 
N1288 X-133.711 Y-26.694 Z-13.505 
N1289 X-133.706 Y-26.794 Z-13.620 
N1290 X-133.701 Y-26.893 Z-13.734 
N1291 X-133.696 Y-26.992 Z-13.848 
N1292 X-133.691 Y-27.092 Z-13.962 
N1293 X-133.686 Y-27.191 Z-14.077 
N1294 X-133.681 Y-27.290 Z-14.191 
N1295 X-133.677 Y-27.390 Z-14.305 
N1296 G40 X-133.645 Y-28.045 Z-15.060 F458
N1297 X-133.645 Y-28.045 Z-15.060 
N1298 G00 X-133.645 Y-65.781 Z17.743 
;RAPORT("TB000000","Side Milling:148 End")
;trailer : concat=None
; points cnt = 1232
N1300 MSG (" --- GROUPED OF SUBPROGRAM --- ")
N1301 FGROUP()
N1302 TRAFOOF
; PROGRAM NAME: B00000038
; ORDER       : B000000
; OPER. NAME  : Side Milling:149
; OPER. DESCR.: rough face root outlet FSA
; OPER. TYPE  : sideMill
; GEO. OPTION : 1
; MACHINE     : HSTM_500_SIM840D_Py
;             : HSTM500 - HAMUEL: 5-axis milling machine - SIM840D Traori PP_Script
; CONTROL     : SINUMERIK 840D
; created:   2021-11-15 10:00:43.874281
;-------DODATKOWE DANE-------------------
; PROGRAMISTA : Mariusz Malec
; PARTID      : 139T001534P1001_-
;  ap         : 4.4
;  ae         : 1.0
;  lean_angle : 0.0
;  fin_offset : -14.0
;----------------------------------------
;RAPORT("TB000000","Side Milling:149")
N10 TRAFOOF
N11 D0
N12 G90 G94
N13 G0 G53 D0 Z550 B0
N14 STOPRE
M9 ; chlodziwo wyl
; --- Side Milling:149 - rough face root outlet FSA ---
N16 ;ToolChange : concat=None ,current_tdmid=None, PP.tdmId=957774
N17 TRAFOOF
N18 G0 G53 D0 Z550 B0
N19 STOPRE
N20 MSG(" TLID=957774 D=10.0 R=0.0 Ang=0.0 Len=129.0 ")
N21 S2864 M03
N22 STOPRE
N23 CYCLE832(0.01,1,1)
N24 G0 G53 A229.0000 B-0.0000
N25 TRAORI
N26 G54 D2
;tol5=0.15
N27 D2 
STOPRE
E_ZDARZ=500001
;ACS_ROUGH_ROOT_FRONT=7757774
STOPRE
;UWAGA : ZMIENIONA TOLERANCJA OSI A i B, ruchy osi A i B beda usuniete : TOL5=0.15
N28 ; DELTA A > 40.1
N29 TRAFOOF
N30 D2
N31 STOPRE
N32 G00 G54 Z257.000
N33 G01 A229.0000 F10000
N34 TRAORI
N35 G54 D2
N36 STOPRE
N37 TRANS 
N38 G00 X-134.222 Y42.218 Z-54.495 A229.0000 
N39 M342 ; chlodziwo woda
N40 X-134.222 Y4.482 Z-21.692 
N41 ;FSA_1
N42 G01 G41 X-134.228 Y5.138 Z-20.937 F458
N43 G01 X-134.228 Y5.138 Z-20.937 F458 
N44 X-134.229 Y5.237 Z-20.824 
N45 X-134.230 Y5.335 Z-20.711 
N46 X-134.230 Y5.434 Z-20.597 
N47 X-134.231 Y5.532 Z-20.484 
N48 X-134.232 Y5.630 Z-20.371 
N49 X-134.233 Y5.729 Z-20.258 
N50 X-134.234 Y5.827 Z-20.144 
N51 X-134.235 Y5.926 Z-20.031 
N52 X-134.236 Y6.024 Z-19.918 
N53 X-134.236 Y6.122 Z-19.805 
N54 X-134.237 Y6.221 Z-19.692 
N55 X-134.238 Y6.319 Z-19.578 
N56 X-134.239 Y6.418 Z-19.465 
N57 X-134.240 Y6.516 Z-19.352 
N58 X-134.241 Y6.615 Z-19.239 
N59 X-134.241 Y6.713 Z-19.126 
N60 X-134.242 Y6.811 Z-19.012 
N61 X-134.243 Y6.910 Z-18.899 
N62 X-134.244 Y7.008 Z-18.786 
N63 X-134.245 Y7.107 Z-18.673 
N64 X-134.246 Y7.206 Z-18.558 
N65 X-134.247 Y7.305 Z-18.444 
N66 X-134.247 Y7.405 Z-18.330 
N67 X-134.248 Y7.504 Z-18.215 
N68 X-134.249 Y7.604 Z-18.101 
N69 X-134.250 Y7.703 Z-17.987 
N70 X-134.251 Y7.802 Z-17.872 
N71 X-134.252 Y7.902 Z-17.758 
N72 X-134.252 Y8.001 Z-17.644 
N73 X-134.253 Y8.101 Z-17.529 
N74 X-134.254 Y8.200 Z-17.415 
N75 X-134.255 Y8.299 Z-17.301 
N76 X-134.256 Y8.399 Z-17.186 
N77 X-134.257 Y8.498 Z-17.072 
N78 X-134.258 Y8.598 Z-16.958 
N79 X-134.258 Y8.697 Z-16.843 
N80 X-134.259 Y8.796 Z-16.729 
N81 X-134.260 Y8.896 Z-16.615 
N82 X-134.261 Y8.995 Z-16.500 
N83 X-134.262 Y9.095 Z-16.386 
N84 X-134.263 Y9.194 Z-16.272 
N85 X-134.264 Y9.293 Z-16.157 
N86 X-134.264 Y9.393 Z-16.043 
N87 X-134.265 Y9.492 Z-15.928 
N88 X-134.266 Y9.592 Z-15.814 
N89 X-134.267 Y9.691 Z-15.700 
N90 X-134.268 Y9.790 Z-15.585 
N91 X-134.269 Y9.890 Z-15.471 
N92 X-134.270 Y9.989 Z-15.357 
N93 X-134.270 Y10.089 Z-15.242 
N94 X-134.271 Y10.188 Z-15.128 
N95 X-134.272 Y10.287 Z-15.014 
N96 X-134.273 Y10.387 Z-14.899 
N97 X-134.274 Y10.487 Z-14.784 
N98 X-134.275 Y10.587 Z-14.669 
N99 X-134.276 Y10.688 Z-14.553 
N100 X-134.276 Y10.788 Z-14.438 
N101 X-134.277 Y10.888 Z-14.322 
N102 X-134.278 Y10.989 Z-14.207 
N103 X-134.279 Y11.089 Z-14.091 
N104 X-134.280 Y11.189 Z-13.976 
N105 X-134.281 Y11.290 Z-13.861 
N106 X-134.282 Y11.390 Z-13.745 
N107 X-134.282 Y11.490 Z-13.630 
N108 X-134.283 Y11.591 Z-13.514 
N109 X-134.284 Y11.691 Z-13.399 
N110 X-134.285 Y11.791 Z-13.284 
N111 X-134.286 Y11.892 Z-13.168 
N112 X-134.287 Y11.992 Z-13.053 
N113 X-134.288 Y12.092 Z-12.937 
N114 X-134.288 Y12.193 Z-12.822 
N115 X-134.289 Y12.293 Z-12.707 
N116 X-134.290 Y12.393 Z-12.591 
N117 X-134.291 Y12.494 Z-12.476 
N118 X-134.292 Y12.594 Z-12.360 
N119 X-134.293 Y12.694 Z-12.245 
N120 X-134.294 Y12.795 Z-12.129 
N121 X-134.294 Y12.895 Z-12.014 
N122 X-134.295 Y12.995 Z-11.899 
N123 X-134.296 Y13.096 Z-11.783 
N124 X-134.297 Y13.196 Z-11.668 
N125 X-134.298 Y13.296 Z-11.552 
N126 X-134.299 Y13.397 Z-11.437 
N127 X-134.300 Y13.497 Z-11.322 
N128 X-134.301 Y13.597 Z-11.206 
N129 X-134.301 Y13.698 Z-11.091 
N130 X-134.302 Y13.798 Z-10.975 
N131 X-134.303 Y13.898 Z-10.860 
N132 X-134.304 Y13.998 Z-10.745 
N133 X-134.305 Y14.099 Z-10.629 
N134 X-134.306 Y14.199 Z-10.514 
N135 X-134.306 Y14.299 Z-10.398 
N136 X-134.306 Y14.400 Z-10.283 
N137 X-134.306 Y14.500 Z-10.167 
N138 X-134.305 Y14.600 Z-10.052 
N139 X-134.305 Y14.701 Z-9.937 
N140 X-134.304 Y14.801 Z-9.821 
N141 X-134.304 Y14.901 Z-9.706 
N142 X-134.304 Y15.002 Z-9.590 
N143 X-134.303 Y15.102 Z-9.475 
N144 X-134.303 Y15.202 Z-9.360 
N145 X-134.302 Y15.303 Z-9.244 
N146 X-134.302 Y15.403 Z-9.129 
N147 X-134.302 Y15.503 Z-9.013 
N148 X-134.301 Y15.604 Z-8.898 
N149 X-134.301 Y15.704 Z-8.783 
N150 X-134.300 Y15.804 Z-8.667 
N151 X-134.300 Y15.905 Z-8.552 
N152 X-134.300 Y16.005 Z-8.436 
N153 X-134.299 Y16.105 Z-8.321 
N154 X-134.299 Y16.206 Z-8.205 
N155 X-134.299 Y16.306 Z-8.090 
N156 X-134.298 Y16.406 Z-7.975 
N157 X-134.298 Y16.507 Z-7.859 
N158 X-134.297 Y16.607 Z-7.744 
N159 X-134.297 Y16.707 Z-7.628 
N160 X-134.297 Y16.808 Z-7.513 
N161 X-134.296 Y16.908 Z-7.398 
N162 X-134.296 Y17.008 Z-7.282 
N163 X-134.295 Y17.109 Z-7.167 
N164 X-134.295 Y17.209 Z-7.051 
N165 X-134.295 Y17.309 Z-6.936 
N166 X-134.294 Y17.410 Z-6.821 
N167 X-134.294 Y17.510 Z-6.705 
N168 X-134.293 Y17.610 Z-6.590 
N169 X-134.293 Y17.711 Z-6.474 
N170 X-134.293 Y17.811 Z-6.359 
N171 X-134.292 Y17.911 Z-6.243 
N172 X-134.292 Y18.012 Z-6.128 
N173 X-134.292 Y18.112 Z-6.013 
N174 X-134.291 Y18.212 Z-5.897 
N175 X-134.291 Y18.312 Z-5.782 
N176 X-134.290 Y18.413 Z-5.666 
N177 X-134.288 Y18.513 Z-5.551 
N178 X-134.286 Y18.613 Z-5.436 
N179 X-134.284 Y18.714 Z-5.320 
N180 X-134.282 Y18.814 Z-5.205 
N181 X-134.280 Y18.914 Z-5.089 
N182 X-134.278 Y19.015 Z-4.974 
N183 X-134.276 Y19.115 Z-4.859 
N184 X-134.274 Y19.215 Z-4.743 
N185 X-134.272 Y19.316 Z-4.628 
N186 X-134.270 Y19.416 Z-4.512 
N187 X-134.268 Y19.516 Z-4.397 
N188 X-134.266 Y19.617 Z-4.282 
N189 X-134.264 Y19.717 Z-4.166 
N190 X-134.262 Y19.817 Z-4.051 
N191 X-134.260 Y19.918 Z-3.935 
N192 X-134.258 Y20.018 Z-3.820 
N193 X-134.256 Y20.118 Z-3.705 
N194 X-134.254 Y20.219 Z-3.589 
N195 X-134.252 Y20.319 Z-3.474 
N196 X-134.250 Y20.419 Z-3.358 
N197 X-134.248 Y20.519 Z-3.243 
N198 X-134.246 Y20.620 Z-3.128 
N199 X-134.244 Y20.720 Z-3.012 
N200 X-134.242 Y20.820 Z-2.897 
N201 X-134.240 Y20.921 Z-2.781 
N202 X-134.238 Y21.021 Z-2.666 
N203 X-134.236 Y21.121 Z-2.551 
N204 X-134.234 Y21.222 Z-2.435 
N205 X-134.232 Y21.322 Z-2.320 
N206 X-134.230 Y21.422 Z-2.204 
N207 X-134.228 Y21.523 Z-2.089 
N208 X-134.226 Y21.623 Z-1.974 
N209 X-134.224 Y21.723 Z-1.858 
N210 X-134.222 Y21.824 Z-1.743 
N211 X-134.220 Y21.924 Z-1.627 
N212 X-134.218 Y22.024 Z-1.512 
N213 X-134.216 Y22.125 Z-1.397 
N214 X-134.214 Y22.225 Z-1.281 
N215 X-134.212 Y22.325 Z-1.166 
N216 X-134.210 Y22.426 Z-1.050 
N217 X-134.208 Y22.526 Z-0.935 
N218 X-134.206 Y22.626 Z-0.820 
N219 X-134.204 Y22.726 Z-0.704 
N220 X-134.202 Y22.827 Z-0.589 
N221 X-134.200 Y22.927 Z-0.473 
N222 X-134.198 Y23.027 Z-0.358 
N223 X-134.196 Y23.128 Z-0.243 
N224 X-134.194 Y23.228 Z-0.127 
N225 X-134.192 Y23.328 Z-0.012 
N226 X-134.190 Y23.429 Z0.104 
N227 X-134.188 Y23.529 Z0.219 
N228 X-134.186 Y23.629 Z0.334 
N229 X-134.184 Y23.730 Z0.450 
N230 X-134.182 Y23.830 Z0.565 
N231 X-134.180 Y23.930 Z0.681 
N232 X-134.178 Y24.031 Z0.796 
N233 X-134.176 Y24.131 Z0.912 
N234 X-134.174 Y24.231 Z1.027 
N235 X-134.172 Y24.332 Z1.142 
N236 X-134.170 Y24.432 Z1.258 
N237 X-134.168 Y24.532 Z1.373 
N238 X-134.165 Y24.633 Z1.489 
N239 X-134.162 Y24.733 Z1.604 
N240 X-134.158 Y24.833 Z1.719 
N241 X-134.154 Y24.933 Z1.835 
N242 X-134.151 Y25.034 Z1.950 
N243 X-134.147 Y25.134 Z2.065 
N244 X-134.143 Y25.234 Z2.181 
N245 X-134.140 Y25.335 Z2.296 
N246 X-134.136 Y25.435 Z2.412 
N247 X-134.132 Y25.535 Z2.527 
N248 X-134.129 Y25.635 Z2.642 
N249 X-134.125 Y25.736 Z2.758 
N250 X-134.121 Y25.836 Z2.873 
N251 X-134.118 Y25.936 Z2.988 
N252 X-134.114 Y26.037 Z3.104 
N253 X-134.110 Y26.137 Z3.219 
N254 X-134.107 Y26.237 Z3.335 
N255 X-134.103 Y26.338 Z3.450 
N256 X-134.100 Y26.438 Z3.565 
N257 X-134.096 Y26.538 Z3.681 
N258 X-134.092 Y26.638 Z3.796 
N259 X-134.089 Y26.739 Z3.911 
N260 X-134.085 Y26.839 Z4.027 
N261 X-134.081 Y26.939 Z4.142 
N262 X-134.078 Y27.040 Z4.258 
N263 X-134.074 Y27.140 Z4.373 
N264 X-134.070 Y27.240 Z4.488 
N265 X-134.067 Y27.341 Z4.604 
N266 X-134.063 Y27.441 Z4.719 
N267 X-134.059 Y27.541 Z4.835 
N268 X-134.056 Y27.641 Z4.950 
N269 X-134.052 Y27.742 Z5.065 
N270 X-134.048 Y27.842 Z5.181 
N271 X-134.045 Y27.942 Z5.296 
N272 X-134.041 Y28.043 Z5.411 
N273 X-134.037 Y28.143 Z5.527 
N274 X-134.034 Y28.243 Z5.642 
N275 X-134.030 Y28.344 Z5.758 
N276 X-134.027 Y28.444 Z5.873 
N277 X-134.023 Y28.544 Z5.988 
N278 X-134.019 Y28.644 Z6.104 
N279 X-134.016 Y28.745 Z6.219 
N280 X-134.012 Y28.845 Z6.334 
N281 X-134.008 Y28.945 Z6.450 
N282 X-134.004 Y29.046 Z6.565 
N283 X-133.999 Y29.146 Z6.681 
N284 X-133.994 Y29.246 Z6.796 
N285 X-133.989 Y29.346 Z6.911 
N286 X-133.984 Y29.447 Z7.027 
N287 X-133.979 Y29.547 Z7.142 
N288 X-133.974 Y29.647 Z7.257 
N289 X-133.969 Y29.748 Z7.373 
N290 X-133.965 Y29.848 Z7.488 
N291 X-133.960 Y29.948 Z7.603 
N292 X-133.955 Y30.048 Z7.719 
N293 X-133.950 Y30.149 Z7.834 
N294 X-133.945 Y30.249 Z7.949 
N295 X-133.940 Y30.349 Z8.065 
N296 X-133.935 Y30.449 Z8.180 
N297 X-133.930 Y30.550 Z8.295 
N298 X-133.925 Y30.650 Z8.411 
N299 X-133.921 Y30.750 Z8.526 
N300 X-133.916 Y30.851 Z8.642 
N301 X-133.911 Y30.951 Z8.757 
N302 X-133.906 Y31.051 Z8.872 
N303 X-133.901 Y31.151 Z8.988 
N304 X-133.896 Y31.252 Z9.103 
N305 X-133.891 Y31.352 Z9.218 
N306 X-133.886 Y31.452 Z9.334 
N307 X-133.882 Y31.552 Z9.449 
N308 X-133.877 Y31.653 Z9.564 
N309 X-133.872 Y31.753 Z9.680 
N310 X-133.867 Y31.853 Z9.795 
N311 X-133.862 Y31.954 Z9.910 
N312 X-133.857 Y32.054 Z10.026 
N313 X-133.852 Y32.154 Z10.141 
N314 X-133.847 Y32.254 Z10.256 
N315 X-133.843 Y32.355 Z10.372 
N316 X-133.838 Y32.455 Z10.487 
N317 X-133.833 Y32.554 Z10.601 
N318 X-133.828 Y32.654 Z10.716 
N319 X-133.823 Y32.753 Z10.830 
N320 X-133.818 Y32.852 Z10.944 
N321 X-133.813 Y32.952 Z11.059 
N322 X-133.809 Y33.051 Z11.173 
N323 X-133.804 Y33.150 Z11.287 
N324 X-133.799 Y33.250 Z11.402 
N325 X-133.794 Y33.349 Z11.516 
N326 X-133.789 Y33.448 Z11.630 
N327 X-133.784 Y33.548 Z11.744 
N328 X-133.780 Y33.647 Z11.859 
N329 X-133.775 Y33.747 Z11.973 
N330 X-133.770 Y33.846 Z12.087 
N331 X-133.765 Y33.945 Z12.202 
N332 X-133.760 Y34.045 Z12.316 
N333 X-133.755 Y34.144 Z12.430 
N334 X-133.751 Y34.243 Z12.544 
N335 X-133.746 Y34.343 Z12.659 
N336 X-133.741 Y34.442 Z12.773 
N337 X-133.736 Y34.541 Z12.887 
N338 X-133.731 Y34.641 Z13.002 
N339 X-133.726 Y34.740 Z13.116 
N340 X-133.722 Y34.839 Z13.230 
N341 X-133.717 Y34.939 Z13.344 
N342 X-133.712 Y35.038 Z13.459 
N343 X-133.707 Y35.137 Z13.573 
N344 X-133.702 Y35.237 Z13.687 
N345 X-133.697 Y35.336 Z13.802 
N346 X-133.693 Y35.436 Z13.916 
N347 X-133.688 Y35.535 Z14.030 
N348 X-133.683 Y35.634 Z14.145 
N349 X-133.678 Y35.734 Z14.259 
N350 G40 X-133.646 Y36.389 Z15.013 F458
N351 X-133.646 Y36.389 Z15.013 
N352 G00 X-133.646 Y59.031 Z-4.669 
N353 X-134.222 Y24.482 Z-39.077 
N354 X-134.222 Y1.841 Z-19.395 
N355 ;FSA_1
N356 G01 G41 X-134.228 Y2.497 Z-18.641 F458
N357 G01 X-134.228 Y2.497 Z-18.641 F458 
N358 X-134.229 Y2.595 Z-18.528 
N359 X-134.230 Y2.694 Z-18.414 
N360 X-134.230 Y2.792 Z-18.301 
N361 X-134.231 Y2.891 Z-18.188 
N362 X-134.232 Y2.989 Z-18.075 
N363 X-134.233 Y3.087 Z-17.961 
N364 X-134.234 Y3.186 Z-17.848 
N365 X-134.235 Y3.284 Z-17.735 
N366 X-134.236 Y3.383 Z-17.622 
N367 X-134.236 Y3.481 Z-17.509 
N368 X-134.237 Y3.579 Z-17.395 
N369 X-134.238 Y3.678 Z-17.282 
N370 X-134.239 Y3.776 Z-17.169 
N371 X-134.240 Y3.875 Z-17.056 
N372 X-134.241 Y3.973 Z-16.943 
N373 X-134.241 Y4.071 Z-16.829 
N374 X-134.242 Y4.170 Z-16.716 
N375 X-134.243 Y4.268 Z-16.603 
N376 X-134.244 Y4.367 Z-16.490 
N377 X-134.245 Y4.465 Z-16.377 
N378 X-134.246 Y4.564 Z-16.262 
N379 X-134.247 Y4.664 Z-16.148 
N380 X-134.247 Y4.763 Z-16.034 
N381 X-134.248 Y4.863 Z-15.919 
N382 X-134.249 Y4.962 Z-15.805 
N383 X-134.250 Y5.061 Z-15.691 
N384 X-134.251 Y5.161 Z-15.576 
N385 X-134.252 Y5.260 Z-15.462 
N386 X-134.252 Y5.360 Z-15.347 
N387 X-134.253 Y5.459 Z-15.233 
N388 X-134.254 Y5.558 Z-15.119 
N389 X-134.255 Y5.658 Z-15.004 
N390 X-134.256 Y5.757 Z-14.890 
N391 X-134.257 Y5.857 Z-14.776 
N392 X-134.258 Y5.956 Z-14.661 
N393 X-134.258 Y6.055 Z-14.547 
N394 X-134.259 Y6.155 Z-14.433 
N395 X-134.260 Y6.254 Z-14.318 
N396 X-134.261 Y6.354 Z-14.204 
N397 X-134.262 Y6.453 Z-14.090 
N398 X-134.263 Y6.552 Z-13.975 
N399 X-134.264 Y6.652 Z-13.861 
N400 X-134.264 Y6.751 Z-13.747 
N401 X-134.265 Y6.851 Z-13.632 
N402 X-134.266 Y6.950 Z-13.518 
N403 X-134.267 Y7.049 Z-13.404 
N404 X-134.268 Y7.149 Z-13.289 
N405 X-134.269 Y7.248 Z-13.175 
N406 X-134.270 Y7.348 Z-13.061 
N407 X-134.270 Y7.447 Z-12.946 
N408 X-134.271 Y7.546 Z-12.832 
N409 X-134.272 Y7.646 Z-12.717 
N410 X-134.273 Y7.745 Z-12.603 
N411 X-134.274 Y7.846 Z-12.488 
N412 X-134.275 Y7.946 Z-12.372 
N413 X-134.276 Y8.046 Z-12.257 
N414 X-134.276 Y8.147 Z-12.141 
N415 X-134.277 Y8.247 Z-12.026 
N416 X-134.278 Y8.347 Z-11.911 
N417 X-134.279 Y8.448 Z-11.795 
N418 X-134.280 Y8.548 Z-11.680 
N419 X-134.281 Y8.648 Z-11.564 
N420 X-134.282 Y8.749 Z-11.449 
N421 X-134.282 Y8.849 Z-11.334 
N422 X-134.283 Y8.949 Z-11.218 
N423 X-134.284 Y9.050 Z-11.103 
N424 X-134.285 Y9.150 Z-10.987 
N425 X-134.286 Y9.250 Z-10.872 
N426 X-134.287 Y9.350 Z-10.757 
N427 X-134.288 Y9.451 Z-10.641 
N428 X-134.288 Y9.551 Z-10.526 
N429 X-134.289 Y9.651 Z-10.410 
N430 X-134.290 Y9.752 Z-10.295 
N431 X-134.291 Y9.852 Z-10.180 
N432 X-134.292 Y9.952 Z-10.064 
N433 X-134.293 Y10.053 Z-9.949 
N434 X-134.294 Y10.153 Z-9.833 
N435 X-134.294 Y10.253 Z-9.718 
N436 X-134.295 Y10.354 Z-9.602 
N437 X-134.296 Y10.454 Z-9.487 
N438 X-134.297 Y10.554 Z-9.372 
N439 X-134.298 Y10.655 Z-9.256 
N440 X-134.299 Y10.755 Z-9.141 
N441 X-134.300 Y10.855 Z-9.025 
N442 X-134.301 Y10.956 Z-8.910 
N443 X-134.301 Y11.056 Z-8.795 
N444 X-134.302 Y11.156 Z-8.679 
N445 X-134.303 Y11.257 Z-8.564 
N446 X-134.304 Y11.357 Z-8.448 
N447 X-134.305 Y11.457 Z-8.333 
N448 X-134.306 Y11.558 Z-8.218 
N449 X-134.306 Y11.658 Z-8.102 
N450 X-134.306 Y11.758 Z-7.987 
N451 X-134.306 Y11.859 Z-7.871 
N452 X-134.305 Y11.959 Z-7.756 
N453 X-134.305 Y12.059 Z-7.640 
N454 X-134.304 Y12.160 Z-7.525 
N455 X-134.304 Y12.260 Z-7.410 
N456 X-134.304 Y12.360 Z-7.294 
N457 X-134.303 Y12.461 Z-7.179 
N458 X-134.303 Y12.561 Z-7.063 
N459 X-134.302 Y12.661 Z-6.948 
N460 X-134.302 Y12.762 Z-6.833 
N461 X-134.302 Y12.862 Z-6.717 
N462 X-134.301 Y12.962 Z-6.602 
N463 X-134.301 Y13.063 Z-6.486 
N464 X-134.300 Y13.163 Z-6.371 
N465 X-134.300 Y13.263 Z-6.256 
N466 X-134.300 Y13.364 Z-6.140 
N467 X-134.299 Y13.464 Z-6.025 
N468 X-134.299 Y13.564 Z-5.909 
N469 X-134.299 Y13.664 Z-5.794 
N470 X-134.298 Y13.765 Z-5.678 
N471 X-134.298 Y13.865 Z-5.563 
N472 X-134.297 Y13.965 Z-5.448 
N473 X-134.297 Y14.066 Z-5.332 
N474 X-134.297 Y14.166 Z-5.217 
N475 X-134.296 Y14.266 Z-5.101 
N476 X-134.296 Y14.367 Z-4.986 
N477 X-134.295 Y14.467 Z-4.871 
N478 X-134.295 Y14.567 Z-4.755 
N479 X-134.295 Y14.668 Z-4.640 
N480 X-134.294 Y14.768 Z-4.524 
N481 X-134.294 Y14.868 Z-4.409 
N482 X-134.293 Y14.969 Z-4.294 
N483 X-134.293 Y15.069 Z-4.178 
N484 X-134.293 Y15.169 Z-4.063 
N485 X-134.292 Y15.270 Z-3.947 
N486 X-134.292 Y15.370 Z-3.832 
N487 X-134.292 Y15.470 Z-3.716 
N488 X-134.291 Y15.571 Z-3.601 
N489 X-134.291 Y15.671 Z-3.486 
N490 X-134.290 Y15.771 Z-3.370 
N491 X-134.288 Y15.872 Z-3.255 
N492 X-134.286 Y15.972 Z-3.139 
N493 X-134.284 Y16.072 Z-3.024 
N494 X-134.282 Y16.173 Z-2.909 
N495 X-134.280 Y16.273 Z-2.793 
N496 X-134.278 Y16.373 Z-2.678 
N497 X-134.276 Y16.474 Z-2.562 
N498 X-134.274 Y16.574 Z-2.447 
N499 X-134.272 Y16.674 Z-2.332 
N500 X-134.270 Y16.775 Z-2.216 
N501 X-134.268 Y16.875 Z-2.101 
N502 X-134.266 Y16.975 Z-1.985 
N503 X-134.264 Y17.075 Z-1.870 
N504 X-134.262 Y17.176 Z-1.755 
N505 X-134.260 Y17.276 Z-1.639 
N506 X-134.258 Y17.376 Z-1.524 
N507 X-134.256 Y17.477 Z-1.408 
N508 X-134.254 Y17.577 Z-1.293 
N509 X-134.252 Y17.677 Z-1.178 
N510 X-134.250 Y17.778 Z-1.062 
N511 X-134.248 Y17.878 Z-0.947 
N512 X-134.246 Y17.978 Z-0.831 
N513 X-134.244 Y18.079 Z-0.716 
N514 X-134.242 Y18.179 Z-0.601 
N515 X-134.240 Y18.279 Z-0.485 
N516 X-134.238 Y18.380 Z-0.370 
N517 X-134.236 Y18.480 Z-0.254 
N518 X-134.234 Y18.580 Z-0.139 
N519 X-134.232 Y18.681 Z-0.024 
N520 X-134.230 Y18.781 Z0.092 
N521 X-134.228 Y18.881 Z0.207 
N522 X-134.226 Y18.982 Z0.323 
N523 X-134.224 Y19.082 Z0.438 
N524 X-134.222 Y19.182 Z0.553 
N525 X-134.220 Y19.282 Z0.669 
N526 X-134.218 Y19.383 Z0.784 
N527 X-134.216 Y19.483 Z0.900 
N528 X-134.214 Y19.583 Z1.015 
N529 X-134.212 Y19.684 Z1.130 
N530 X-134.210 Y19.784 Z1.246 
N531 X-134.208 Y19.884 Z1.361 
N532 X-134.206 Y19.985 Z1.477 
N533 X-134.204 Y20.085 Z1.592 
N534 X-134.202 Y20.185 Z1.707 
N535 X-134.200 Y20.286 Z1.823 
N536 X-134.198 Y20.386 Z1.938 
N537 X-134.196 Y20.486 Z2.054 
N538 X-134.194 Y20.587 Z2.169 
N539 X-134.192 Y20.687 Z2.284 
N540 X-134.190 Y20.787 Z2.400 
N541 X-134.188 Y20.888 Z2.515 
N542 X-134.186 Y20.988 Z2.631 
N543 X-134.184 Y21.088 Z2.746 
N544 X-134.182 Y21.189 Z2.862 
N545 X-134.180 Y21.289 Z2.977 
N546 X-134.178 Y21.389 Z3.092 
N547 X-134.176 Y21.489 Z3.208 
N548 X-134.174 Y21.590 Z3.323 
N549 X-134.172 Y21.690 Z3.439 
N550 X-134.170 Y21.790 Z3.554 
N551 X-134.168 Y21.891 Z3.669 
N552 X-134.165 Y21.991 Z3.785 
N553 X-134.162 Y22.091 Z3.900 
N554 X-134.158 Y22.192 Z4.015 
N555 X-134.154 Y22.292 Z4.131 
N556 X-134.151 Y22.392 Z4.246 
N557 X-134.147 Y22.493 Z4.362 
N558 X-134.143 Y22.593 Z4.477 
N559 X-134.140 Y22.693 Z4.592 
N560 X-134.136 Y22.793 Z4.708 
N561 X-134.132 Y22.894 Z4.823 
N562 X-134.129 Y22.994 Z4.939 
N563 X-134.125 Y23.094 Z5.054 
N564 X-134.121 Y23.195 Z5.169 
N565 X-134.118 Y23.295 Z5.285 
N566 X-134.114 Y23.395 Z5.400 
N567 X-134.110 Y23.496 Z5.515 
N568 X-134.107 Y23.596 Z5.631 
N569 X-134.103 Y23.696 Z5.746 
N570 X-134.100 Y23.796 Z5.862 
N571 X-134.096 Y23.897 Z5.977 
N572 X-134.092 Y23.997 Z6.092 
N573 X-134.089 Y24.097 Z6.208 
N574 X-134.085 Y24.198 Z6.323 
N575 X-134.081 Y24.298 Z6.438 
N576 X-134.078 Y24.398 Z6.554 
N577 X-134.074 Y24.498 Z6.669 
N578 X-134.070 Y24.599 Z6.785 
N579 X-134.067 Y24.699 Z6.900 
N580 X-134.063 Y24.799 Z7.015 
N581 X-134.059 Y24.900 Z7.131 
N582 X-134.056 Y25.000 Z7.246 
N583 X-134.052 Y25.100 Z7.361 
N584 X-134.048 Y25.201 Z7.477 
N585 X-134.045 Y25.301 Z7.592 
N586 X-134.041 Y25.401 Z7.708 
N587 X-134.037 Y25.501 Z7.823 
N588 X-134.034 Y25.602 Z7.938 
N589 X-134.030 Y25.702 Z8.054 
N590 X-134.027 Y25.802 Z8.169 
N591 X-134.023 Y25.903 Z8.285 
N592 X-134.019 Y26.003 Z8.400 
N593 X-134.016 Y26.103 Z8.515 
N594 X-134.012 Y26.204 Z8.631 
N595 X-134.008 Y26.304 Z8.746 
N596 X-134.004 Y26.404 Z8.861 
N597 X-133.999 Y26.504 Z8.977 
N598 X-133.994 Y26.605 Z9.092 
N599 X-133.989 Y26.705 Z9.207 
N600 X-133.984 Y26.805 Z9.323 
N601 X-133.979 Y26.905 Z9.438 
N602 X-133.974 Y27.006 Z9.554 
N603 X-133.969 Y27.106 Z9.669 
N604 X-133.965 Y27.206 Z9.784 
N605 X-133.960 Y27.307 Z9.900 
N606 X-133.955 Y27.407 Z10.015 
N607 X-133.950 Y27.507 Z10.130 
N608 X-133.945 Y27.607 Z10.246 
N609 X-133.940 Y27.708 Z10.361 
N610 X-133.935 Y27.808 Z10.476 
N611 X-133.930 Y27.908 Z10.592 
N612 X-133.925 Y28.009 Z10.707 
N613 X-133.921 Y28.109 Z10.822 
N614 X-133.916 Y28.209 Z10.938 
N615 X-133.911 Y28.309 Z11.053 
N616 X-133.906 Y28.410 Z11.168 
N617 X-133.901 Y28.510 Z11.284 
N618 X-133.896 Y28.610 Z11.399 
N619 X-133.891 Y28.710 Z11.515 
N620 X-133.886 Y28.811 Z11.630 
N621 X-133.882 Y28.911 Z11.745 
N622 X-133.877 Y29.011 Z11.861 
N623 X-133.872 Y29.112 Z11.976 
N624 X-133.867 Y29.212 Z12.091 
N625 X-133.862 Y29.312 Z12.207 
N626 X-133.857 Y29.412 Z12.322 
N627 X-133.852 Y29.513 Z12.437 
N628 X-133.847 Y29.613 Z12.553 
N629 X-133.843 Y29.713 Z12.668 
N630 X-133.838 Y29.813 Z12.783 
N631 X-133.833 Y29.913 Z12.898 
N632 X-133.828 Y30.012 Z13.012 
N633 X-133.823 Y30.112 Z13.126 
N634 X-133.818 Y30.211 Z13.241 
N635 X-133.813 Y30.310 Z13.355 
N636 X-133.809 Y30.410 Z13.469 
N637 X-133.804 Y30.509 Z13.583 
N638 X-133.799 Y30.608 Z13.698 
N639 X-133.794 Y30.708 Z13.812 
N640 X-133.789 Y30.807 Z13.926 
N641 X-133.784 Y30.906 Z14.041 
N642 X-133.780 Y31.006 Z14.155 
N643 X-133.775 Y31.105 Z14.269 
N644 X-133.770 Y31.204 Z14.383 
N645 X-133.765 Y31.304 Z14.498 
N646 X-133.760 Y31.403 Z14.612 
N647 X-133.755 Y31.502 Z14.726 
N648 X-133.751 Y31.602 Z14.841 
N649 X-133.746 Y31.701 Z14.955 
N650 X-133.741 Y31.801 Z15.069 
N651 X-133.736 Y31.900 Z15.184 
N652 X-133.731 Y31.999 Z15.298 
N653 X-133.726 Y32.099 Z15.412 
N654 X-133.722 Y32.198 Z15.526 
N655 X-133.717 Y32.297 Z15.641 
N656 X-133.712 Y32.397 Z15.755 
N657 X-133.707 Y32.496 Z15.869 
N658 X-133.702 Y32.595 Z15.984 
N659 X-133.697 Y32.695 Z16.098 
N660 X-133.693 Y32.794 Z16.212 
N661 X-133.688 Y32.893 Z16.326 
N662 X-133.683 Y32.993 Z16.441 
N663 X-133.678 Y33.092 Z16.555 
N664 G40 X-133.646 Y33.748 Z17.309 F458
N665 X-133.646 Y33.748 Z17.309 
N666 G00 X-133.646 Y56.389 Z-2.372 
N667 X-134.222 Y21.841 Z-36.781 
N668 X-134.222 Y-0.801 Z-17.099 
N669 ;FSA_1
N670 G01 G41 X-134.228 Y-0.145 Z-16.344 F458
N671 G01 X-134.228 Y-0.145 Z-16.344 F458 
N672 X-134.229 Y-0.046 Z-16.231 
N673 X-134.230 Y0.052 Z-16.118 
N674 X-134.230 Y0.151 Z-16.005 
N675 X-134.231 Y0.249 Z-15.892 
N676 X-134.232 Y0.347 Z-15.778 
N677 X-134.233 Y0.446 Z-15.665 
N678 X-134.234 Y0.544 Z-15.552 
N679 X-134.235 Y0.643 Z-15.439 
N680 X-134.236 Y0.741 Z-15.326 
N681 X-134.236 Y0.840 Z-15.212 
N682 X-134.237 Y0.938 Z-15.099 
N683 X-134.238 Y1.036 Z-14.986 
N684 X-134.239 Y1.135 Z-14.873 
N685 X-134.240 Y1.233 Z-14.760 
N686 X-134.241 Y1.332 Z-14.646 
N687 X-134.241 Y1.430 Z-14.533 
N688 X-134.242 Y1.528 Z-14.420 
N689 X-134.243 Y1.627 Z-14.307 
N690 X-134.244 Y1.725 Z-14.194 
N691 X-134.245 Y1.824 Z-14.080 
N692 X-134.246 Y1.923 Z-13.966 
N693 X-134.247 Y2.022 Z-13.852 
N694 X-134.247 Y2.122 Z-13.737 
N695 X-134.248 Y2.221 Z-13.623 
N696 X-134.249 Y2.321 Z-13.509 
N697 X-134.250 Y2.420 Z-13.394 
N698 X-134.251 Y2.519 Z-13.280 
N699 X-134.252 Y2.619 Z-13.166 
N700 X-134.252 Y2.718 Z-13.051 
N701 X-134.253 Y2.818 Z-12.937 
N702 X-134.254 Y2.917 Z-12.823 
N703 X-134.255 Y3.016 Z-12.708 
N704 X-134.256 Y3.116 Z-12.594 
N705 X-134.257 Y3.215 Z-12.480 
N706 X-134.258 Y3.315 Z-12.365 
N707 X-134.258 Y3.414 Z-12.251 
N708 X-134.259 Y3.513 Z-12.136 
N709 X-134.260 Y3.613 Z-12.022 
N710 X-134.261 Y3.712 Z-11.908 
N711 X-134.262 Y3.812 Z-11.793 
N712 X-134.263 Y3.911 Z-11.679 
N713 X-134.264 Y4.010 Z-11.565 
N714 X-134.264 Y4.110 Z-11.450 
N715 X-134.265 Y4.209 Z-11.336 
N716 X-134.266 Y4.309 Z-11.222 
N717 X-134.267 Y4.408 Z-11.107 
N718 X-134.268 Y4.507 Z-10.993 
N719 X-134.269 Y4.607 Z-10.879 
N720 X-134.270 Y4.706 Z-10.764 
N721 X-134.270 Y4.806 Z-10.650 
N722 X-134.271 Y4.905 Z-10.536 
N723 X-134.272 Y5.004 Z-10.421 
N724 X-134.273 Y5.104 Z-10.307 
N725 X-134.274 Y5.204 Z-10.192 
N726 X-134.275 Y5.304 Z-10.076 
N727 X-134.276 Y5.405 Z-9.961 
N728 X-134.276 Y5.505 Z-9.845 
N729 X-134.277 Y5.605 Z-9.730 
N730 X-134.278 Y5.706 Z-9.614 
N731 X-134.279 Y5.806 Z-9.499 
N732 X-134.280 Y5.906 Z-9.384 
N733 X-134.281 Y6.007 Z-9.268 
N734 X-134.282 Y6.107 Z-9.153 
N735 X-134.282 Y6.207 Z-9.037 
N736 X-134.283 Y6.308 Z-8.922 
N737 X-134.284 Y6.408 Z-8.807 
N738 X-134.285 Y6.508 Z-8.691 
N739 X-134.286 Y6.609 Z-8.576 
N740 X-134.287 Y6.709 Z-8.460 
N741 X-134.288 Y6.809 Z-8.345 
N742 X-134.288 Y6.910 Z-8.230 
N743 X-134.289 Y7.010 Z-8.114 
N744 X-134.290 Y7.110 Z-7.999 
N745 X-134.291 Y7.211 Z-7.883 
N746 X-134.292 Y7.311 Z-7.768 
N747 X-134.293 Y7.411 Z-7.652 
N748 X-134.294 Y7.512 Z-7.537 
N749 X-134.294 Y7.612 Z-7.422 
N750 X-134.295 Y7.712 Z-7.306 
N751 X-134.296 Y7.813 Z-7.191 
N752 X-134.297 Y7.913 Z-7.075 
N753 X-134.298 Y8.013 Z-6.960 
N754 X-134.299 Y8.114 Z-6.845 
N755 X-134.300 Y8.214 Z-6.729 
N756 X-134.301 Y8.314 Z-6.614 
N757 X-134.301 Y8.415 Z-6.498 
N758 X-134.302 Y8.515 Z-6.383 
N759 X-134.303 Y8.615 Z-6.268 
N760 X-134.304 Y8.716 Z-6.152 
N761 X-134.305 Y8.816 Z-6.037 
N762 X-134.306 Y8.916 Z-5.921 
N763 X-134.306 Y9.016 Z-5.806 
N764 X-134.306 Y9.117 Z-5.690 
N765 X-134.306 Y9.217 Z-5.575 
N766 X-134.305 Y9.317 Z-5.460 
N767 X-134.305 Y9.418 Z-5.344 
N768 X-134.304 Y9.518 Z-5.229 
N769 X-134.304 Y9.618 Z-5.113 
N770 X-134.304 Y9.719 Z-4.998 
N771 X-134.303 Y9.819 Z-4.883 
N772 X-134.303 Y9.919 Z-4.767 
N773 X-134.302 Y10.020 Z-4.652 
N774 X-134.302 Y10.120 Z-4.536 
N775 X-134.302 Y10.220 Z-4.421 
N776 X-134.301 Y10.321 Z-4.306 
N777 X-134.301 Y10.421 Z-4.190 
N778 X-134.300 Y10.521 Z-4.075 
N779 X-134.300 Y10.622 Z-3.959 
N780 X-134.300 Y10.722 Z-3.844 
N781 X-134.299 Y10.822 Z-3.728 
N782 X-134.299 Y10.923 Z-3.613 
N783 X-134.299 Y11.023 Z-3.498 
N784 X-134.298 Y11.123 Z-3.382 
N785 X-134.298 Y11.224 Z-3.267 
N786 X-134.297 Y11.324 Z-3.151 
N787 X-134.297 Y11.424 Z-3.036 
N788 X-134.297 Y11.525 Z-2.921 
N789 X-134.296 Y11.625 Z-2.805 
N790 X-134.296 Y11.725 Z-2.690 
N791 X-134.295 Y11.826 Z-2.574 
N792 X-134.295 Y11.926 Z-2.459 
N793 X-134.295 Y12.026 Z-2.344 
N794 X-134.294 Y12.127 Z-2.228 
N795 X-134.294 Y12.227 Z-2.113 
N796 X-134.293 Y12.327 Z-1.997 
N797 X-134.293 Y12.428 Z-1.882 
N798 X-134.293 Y12.528 Z-1.766 
N799 X-134.292 Y12.628 Z-1.651 
N800 X-134.292 Y12.729 Z-1.536 
N801 X-134.292 Y12.829 Z-1.420 
N802 X-134.291 Y12.929 Z-1.305 
N803 X-134.291 Y13.030 Z-1.189 
N804 X-134.290 Y13.130 Z-1.074 
N805 X-134.288 Y13.230 Z-0.959 
N806 X-134.286 Y13.330 Z-0.843 
N807 X-134.284 Y13.431 Z-0.728 
N808 X-134.282 Y13.531 Z-0.612 
N809 X-134.280 Y13.631 Z-0.497 
N810 X-134.278 Y13.732 Z-0.382 
N811 X-134.276 Y13.832 Z-0.266 
N812 X-134.274 Y13.932 Z-0.151 
N813 X-134.272 Y14.033 Z-0.035 
N814 X-134.270 Y14.133 Z0.080 
N815 X-134.268 Y14.233 Z0.195 
N816 X-134.266 Y14.334 Z0.311 
N817 X-134.264 Y14.434 Z0.426 
N818 X-134.262 Y14.534 Z0.542 
N819 X-134.260 Y14.635 Z0.657 
N820 X-134.258 Y14.735 Z0.772 
N821 X-134.256 Y14.835 Z0.888 
N822 X-134.254 Y14.936 Z1.003 
N823 X-134.252 Y15.036 Z1.119 
N824 X-134.250 Y15.136 Z1.234 
N825 X-134.248 Y15.237 Z1.349 
N826 X-134.246 Y15.337 Z1.465 
N827 X-134.244 Y15.437 Z1.580 
N828 X-134.242 Y15.537 Z1.696 
N829 X-134.240 Y15.638 Z1.811 
N830 X-134.238 Y15.738 Z1.926 
N831 X-134.236 Y15.838 Z2.042 
N832 X-134.234 Y15.939 Z2.157 
N833 X-134.232 Y16.039 Z2.273 
N834 X-134.230 Y16.139 Z2.388 
N835 X-134.228 Y16.240 Z2.503 
N836 X-134.226 Y16.340 Z2.619 
N837 X-134.224 Y16.440 Z2.734 
N838 X-134.222 Y16.541 Z2.850 
N839 X-134.220 Y16.641 Z2.965 
N840 X-134.218 Y16.741 Z3.080 
N841 X-134.216 Y16.842 Z3.196 
N842 X-134.214 Y16.942 Z3.311 
N843 X-134.212 Y17.042 Z3.427 
N844 X-134.210 Y17.143 Z3.542 
N845 X-134.208 Y17.243 Z3.657 
N846 X-134.206 Y17.343 Z3.773 
N847 X-134.204 Y17.444 Z3.888 
N848 X-134.202 Y17.544 Z4.004 
N849 X-134.200 Y17.644 Z4.119 
N850 X-134.198 Y17.744 Z4.234 
N851 X-134.196 Y17.845 Z4.350 
N852 X-134.194 Y17.945 Z4.465 
N853 X-134.192 Y18.045 Z4.581 
N854 X-134.190 Y18.146 Z4.696 
N855 X-134.188 Y18.246 Z4.812 
N856 X-134.186 Y18.346 Z4.927 
N857 X-134.184 Y18.447 Z5.042 
N858 X-134.182 Y18.547 Z5.158 
N859 X-134.180 Y18.647 Z5.273 
N860 X-134.178 Y18.748 Z5.389 
N861 X-134.176 Y18.848 Z5.504 
N862 X-134.174 Y18.948 Z5.619 
N863 X-134.172 Y19.049 Z5.735 
N864 X-134.170 Y19.149 Z5.850 
N865 X-134.168 Y19.249 Z5.966 
N866 X-134.165 Y19.350 Z6.081 
N867 X-134.162 Y19.450 Z6.196 
N868 X-134.158 Y19.550 Z6.312 
N869 X-134.154 Y19.650 Z6.427 
N870 X-134.151 Y19.751 Z6.542 
N871 X-134.147 Y19.851 Z6.658 
N872 X-134.143 Y19.951 Z6.773 
N873 X-134.140 Y20.052 Z6.889 
N874 X-134.136 Y20.152 Z7.004 
N875 X-134.132 Y20.252 Z7.119 
N876 X-134.129 Y20.353 Z7.235 
N877 X-134.125 Y20.453 Z7.350 
N878 X-134.121 Y20.553 Z7.465 
N879 X-134.118 Y20.653 Z7.581 
N880 X-134.114 Y20.754 Z7.696 
N881 X-134.110 Y20.854 Z7.812 
N882 X-134.107 Y20.954 Z7.927 
N883 X-134.103 Y21.055 Z8.042 
N884 X-134.100 Y21.155 Z8.158 
N885 X-134.096 Y21.255 Z8.273 
N886 X-134.092 Y21.356 Z8.389 
N887 X-134.089 Y21.456 Z8.504 
N888 X-134.085 Y21.556 Z8.619 
N889 X-134.081 Y21.656 Z8.735 
N890 X-134.078 Y21.757 Z8.850 
N891 X-134.074 Y21.857 Z8.965 
N892 X-134.070 Y21.957 Z9.081 
N893 X-134.067 Y22.058 Z9.196 
N894 X-134.063 Y22.158 Z9.312 
N895 X-134.059 Y22.258 Z9.427 
N896 X-134.056 Y22.358 Z9.542 
N897 X-134.052 Y22.459 Z9.658 
N898 X-134.048 Y22.559 Z9.773 
N899 X-134.045 Y22.659 Z9.888 
N900 X-134.041 Y22.760 Z10.004 
N901 X-134.037 Y22.860 Z10.119 
N902 X-134.034 Y22.960 Z10.235 
N903 X-134.030 Y23.061 Z10.350 
N904 X-134.027 Y23.161 Z10.465 
N905 X-134.023 Y23.261 Z10.581 
N906 X-134.019 Y23.361 Z10.696 
N907 X-134.016 Y23.462 Z10.811 
N908 X-134.012 Y23.562 Z10.927 
N909 X-134.008 Y23.662 Z11.042 
N910 X-134.004 Y23.763 Z11.158 
N911 X-133.999 Y23.863 Z11.273 
N912 X-133.994 Y23.963 Z11.388 
N913 X-133.989 Y24.063 Z11.504 
N914 X-133.984 Y24.164 Z11.619 
N915 X-133.979 Y24.264 Z11.734 
N916 X-133.974 Y24.364 Z11.850 
N917 X-133.969 Y24.465 Z11.965 
N918 X-133.965 Y24.565 Z12.080 
N919 X-133.960 Y24.665 Z12.196 
N920 X-133.955 Y24.765 Z12.311 
N921 X-133.950 Y24.866 Z12.426 
N922 X-133.945 Y24.966 Z12.542 
N923 X-133.940 Y25.066 Z12.657 
N924 X-133.935 Y25.166 Z12.773 
N925 X-133.930 Y25.267 Z12.888 
N926 X-133.925 Y25.367 Z13.003 
N927 X-133.921 Y25.467 Z13.119 
N928 X-133.916 Y25.568 Z13.234 
N929 X-133.911 Y25.668 Z13.349 
N930 X-133.906 Y25.768 Z13.465 
N931 X-133.901 Y25.868 Z13.580 
N932 X-133.896 Y25.969 Z13.695 
N933 X-133.891 Y26.069 Z13.811 
N934 X-133.886 Y26.169 Z13.926 
N935 X-133.882 Y26.270 Z14.041 
N936 X-133.877 Y26.370 Z14.157 
N937 X-133.872 Y26.470 Z14.272 
N938 X-133.867 Y26.570 Z14.387 
N939 X-133.862 Y26.671 Z14.503 
N940 X-133.857 Y26.771 Z14.618 
N941 X-133.852 Y26.871 Z14.734 
N942 X-133.847 Y26.971 Z14.849 
N943 X-133.843 Y27.072 Z14.964 
N944 X-133.838 Y27.172 Z15.080 
N945 X-133.833 Y27.271 Z15.194 
N946 X-133.828 Y27.371 Z15.308 
N947 X-133.823 Y27.470 Z15.422 
N948 X-133.818 Y27.569 Z15.537 
N949 X-133.813 Y27.669 Z15.651 
N950 X-133.809 Y27.768 Z15.765 
N951 X-133.804 Y27.867 Z15.880 
N952 X-133.799 Y27.967 Z15.994 
N953 X-133.794 Y28.066 Z16.108 
N954 X-133.789 Y28.166 Z16.223 
N955 X-133.784 Y28.265 Z16.337 
N956 X-133.780 Y28.364 Z16.451 
N957 X-133.775 Y28.464 Z16.565 
N958 X-133.770 Y28.563 Z16.680 
N959 X-133.765 Y28.662 Z16.794 
N960 X-133.760 Y28.762 Z16.908 
N961 X-133.755 Y28.861 Z17.023 
N962 X-133.751 Y28.960 Z17.137 
N963 X-133.746 Y29.060 Z17.251 
N964 X-133.741 Y29.159 Z17.365 
N965 X-133.736 Y29.258 Z17.480 
N966 X-133.731 Y29.358 Z17.594 
N967 X-133.726 Y29.457 Z17.708 
N968 X-133.722 Y29.556 Z17.823 
N969 X-133.717 Y29.656 Z17.937 
N970 X-133.712 Y29.755 Z18.051 
N971 X-133.707 Y29.855 Z18.165 
N972 X-133.702 Y29.954 Z18.280 
N973 X-133.697 Y30.053 Z18.394 
N974 X-133.693 Y30.153 Z18.508 
N975 X-133.688 Y30.252 Z18.623 
N976 X-133.683 Y30.351 Z18.737 
N977 X-133.678 Y30.451 Z18.851 
N978 G40 X-133.646 Y31.106 Z19.606 F458
N979 X-133.646 Y31.106 Z19.606 
N980 G00 X-133.646 Y53.748 Z-0.076 
N981 X-134.222 Y19.199 Z-34.485 
N982 X-134.222 Y-3.442 Z-14.803 
N983 ;FSA_1
N984 G01 G41 X-134.228 Y-2.786 Z-14.048 F458
N985 G01 X-134.228 Y-2.786 Z-14.048 F458 
N986 X-134.229 Y-2.688 Z-13.935 
N987 X-134.230 Y-2.589 Z-13.822 
N988 X-134.230 Y-2.491 Z-13.709 
N989 X-134.231 Y-2.392 Z-13.595 
N990 X-134.232 Y-2.294 Z-13.482 
N991 X-134.233 Y-2.196 Z-13.369 
N992 X-134.234 Y-2.097 Z-13.256 
N993 X-134.235 Y-1.999 Z-13.143 
N994 X-134.236 Y-1.900 Z-13.029 
N995 X-134.236 Y-1.802 Z-12.916 
N996 X-134.237 Y-1.704 Z-12.803 
N997 X-134.238 Y-1.605 Z-12.690 
N998 X-134.239 Y-1.507 Z-12.577 
N999 X-134.240 Y-1.408 Z-12.463 
N1000 X-134.241 Y-1.310 Z-12.350 
N1001 X-134.241 Y-1.212 Z-12.237 
N1002 X-134.242 Y-1.113 Z-12.124 
N1003 X-134.243 Y-1.015 Z-12.011 
N1004 X-134.244 Y-0.916 Z-11.897 
N1005 X-134.245 Y-0.818 Z-11.784 
N1006 X-134.246 Y-0.719 Z-11.670 
N1007 X-134.247 Y-0.619 Z-11.556 
N1008 X-134.247 Y-0.520 Z-11.441 
N1009 X-134.248 Y-0.420 Z-11.327 
N1010 X-134.249 Y-0.321 Z-11.212 
N1011 X-134.250 Y-0.222 Z-11.098 
N1012 X-134.251 Y-0.122 Z-10.984 
N1013 X-134.252 Y-0.023 Z-10.869 
N1014 X-134.252 Y0.077 Z-10.755 
N1015 X-134.253 Y0.176 Z-10.641 
N1016 X-134.254 Y0.276 Z-10.526 
N1017 X-134.255 Y0.375 Z-10.412 
N1018 X-134.256 Y0.474 Z-10.298 
N1019 X-134.257 Y0.574 Z-10.183 
N1020 X-134.258 Y0.673 Z-10.069 
N1021 X-134.258 Y0.773 Z-9.955 
N1022 X-134.259 Y0.872 Z-9.840 
N1023 X-134.260 Y0.971 Z-9.726 
N1024 X-134.261 Y1.071 Z-9.612 
N1025 X-134.262 Y1.170 Z-9.497 
N1026 X-134.263 Y1.270 Z-9.383 
N1027 X-134.264 Y1.369 Z-9.269 
N1028 X-134.264 Y1.468 Z-9.154 
N1029 X-134.265 Y1.568 Z-9.040 
N1030 X-134.266 Y1.667 Z-8.925 
N1031 X-134.267 Y1.767 Z-8.811 
N1032 X-134.268 Y1.866 Z-8.697 
N1033 X-134.269 Y1.965 Z-8.582 
N1034 X-134.270 Y2.065 Z-8.468 
N1035 X-134.270 Y2.164 Z-8.354 
N1036 X-134.271 Y2.264 Z-8.239 
N1037 X-134.272 Y2.363 Z-8.125 
N1038 X-134.273 Y2.462 Z-8.011 
N1039 X-134.274 Y2.563 Z-7.895 
N1040 X-134.275 Y2.663 Z-7.780 
N1041 X-134.276 Y2.763 Z-7.664 
N1042 X-134.276 Y2.864 Z-7.549 
N1043 X-134.277 Y2.964 Z-7.434 
N1044 X-134.278 Y3.064 Z-7.318 
N1045 X-134.279 Y3.165 Z-7.203 
N1046 X-134.280 Y3.265 Z-7.087 
N1047 X-134.281 Y3.365 Z-6.972 
N1048 X-134.282 Y3.466 Z-6.857 
N1049 X-134.282 Y3.566 Z-6.741 
N1050 X-134.283 Y3.666 Z-6.626 
N1051 X-134.284 Y3.767 Z-6.510 
N1052 X-134.285 Y3.867 Z-6.395 
N1053 X-134.286 Y3.967 Z-6.280 
N1054 X-134.287 Y4.068 Z-6.164 
N1055 X-134.288 Y4.168 Z-6.049 
N1056 X-134.288 Y4.268 Z-5.933 
N1057 X-134.289 Y4.369 Z-5.818 
N1058 X-134.290 Y4.469 Z-5.703 
N1059 X-134.291 Y4.569 Z-5.587 
N1060 X-134.292 Y4.669 Z-5.472 
N1061 X-134.293 Y4.770 Z-5.356 
N1062 X-134.294 Y4.870 Z-5.241 
N1063 X-134.294 Y4.970 Z-5.125 
N1064 X-134.295 Y5.071 Z-5.010 
N1065 X-134.296 Y5.171 Z-4.895 
N1066 X-134.297 Y5.271 Z-4.779 
N1067 X-134.298 Y5.372 Z-4.664 
N1068 X-134.299 Y5.472 Z-4.548 
N1069 X-134.300 Y5.572 Z-4.433 
N1070 X-134.301 Y5.673 Z-4.318 
N1071 X-134.301 Y5.773 Z-4.202 
N1072 X-134.302 Y5.873 Z-4.087 
N1073 X-134.303 Y5.974 Z-3.971 
N1074 X-134.304 Y6.074 Z-3.856 
N1075 X-134.305 Y6.174 Z-3.741 
N1076 X-134.306 Y6.275 Z-3.625 
N1077 X-134.306 Y6.375 Z-3.510 
N1078 X-134.306 Y6.475 Z-3.394 
N1079 X-134.306 Y6.576 Z-3.279 
N1080 X-134.305 Y6.676 Z-3.163 
N1081 X-134.305 Y6.776 Z-3.048 
N1082 X-134.304 Y6.877 Z-2.933 
N1083 X-134.304 Y6.977 Z-2.817 
N1084 X-134.304 Y7.077 Z-2.702 
N1085 X-134.303 Y7.178 Z-2.586 
N1086 X-134.303 Y7.278 Z-2.471 
N1087 X-134.302 Y7.378 Z-2.356 
N1088 X-134.302 Y7.479 Z-2.240 
N1089 X-134.302 Y7.579 Z-2.125 
N1090 X-134.301 Y7.679 Z-2.009 
N1091 X-134.301 Y7.780 Z-1.894 
N1092 X-134.300 Y7.880 Z-1.779 
N1093 X-134.300 Y7.980 Z-1.663 
N1094 X-134.300 Y8.081 Z-1.548 
N1095 X-134.299 Y8.181 Z-1.432 
N1096 X-134.299 Y8.281 Z-1.317 
N1097 X-134.299 Y8.382 Z-1.201 
N1098 X-134.298 Y8.482 Z-1.086 
N1099 X-134.298 Y8.582 Z-0.971 
N1100 X-134.297 Y8.683 Z-0.855 
N1101 X-134.297 Y8.783 Z-0.740 
N1102 X-134.297 Y8.883 Z-0.624 
N1103 X-134.296 Y8.983 Z-0.509 
N1104 X-134.296 Y9.084 Z-0.394 
N1105 X-134.295 Y9.184 Z-0.278 
N1106 X-134.295 Y9.284 Z-0.163 
N1107 X-134.295 Y9.385 Z-0.047 
N1108 X-134.294 Y9.485 Z0.068 
N1109 X-134.294 Y9.585 Z0.183 
N1110 X-134.293 Y9.686 Z0.299 
N1111 X-134.293 Y9.786 Z0.414 
N1112 X-134.293 Y9.886 Z0.530 
N1113 X-134.292 Y9.987 Z0.645 
N1114 X-134.292 Y10.087 Z0.761 
N1115 X-134.292 Y10.187 Z0.876 
N1116 X-134.291 Y10.288 Z0.991 
N1117 X-134.291 Y10.388 Z1.107 
N1118 X-134.290 Y10.488 Z1.222 
N1119 X-134.288 Y10.589 Z1.338 
N1120 X-134.286 Y10.689 Z1.453 
N1121 X-134.284 Y10.789 Z1.568 
N1122 X-134.282 Y10.890 Z1.684 
N1123 X-134.280 Y10.990 Z1.799 
N1124 X-134.278 Y11.090 Z1.915 
N1125 X-134.276 Y11.191 Z2.030 
N1126 X-134.274 Y11.291 Z2.145 
N1127 X-134.272 Y11.391 Z2.261 
N1128 X-134.270 Y11.492 Z2.376 
N1129 X-134.268 Y11.592 Z2.492 
N1130 X-134.266 Y11.692 Z2.607 
N1131 X-134.264 Y11.793 Z2.722 
N1132 X-134.262 Y11.893 Z2.838 
N1133 X-134.260 Y11.993 Z2.953 
N1134 X-134.258 Y12.093 Z3.069 
N1135 X-134.256 Y12.194 Z3.184 
N1136 X-134.254 Y12.294 Z3.299 
N1137 X-134.252 Y12.394 Z3.415 
N1138 X-134.250 Y12.495 Z3.530 
N1139 X-134.248 Y12.595 Z3.646 
N1140 X-134.246 Y12.695 Z3.761 
N1141 X-134.244 Y12.796 Z3.876 
N1142 X-134.242 Y12.896 Z3.992 
N1143 X-134.240 Y12.996 Z4.107 
N1144 X-134.238 Y13.097 Z4.223 
N1145 X-134.236 Y13.197 Z4.338 
N1146 X-134.234 Y13.297 Z4.453 
N1147 X-134.232 Y13.398 Z4.569 
N1148 X-134.230 Y13.498 Z4.684 
N1149 X-134.228 Y13.598 Z4.800 
N1150 X-134.226 Y13.699 Z4.915 
N1151 X-134.224 Y13.799 Z5.030 
N1152 X-134.222 Y13.899 Z5.146 
N1153 X-134.220 Y13.999 Z5.261 
N1154 X-134.218 Y14.100 Z5.377 
N1155 X-134.216 Y14.200 Z5.492 
N1156 X-134.214 Y14.300 Z5.607 
N1157 X-134.212 Y14.401 Z5.723 
N1158 X-134.210 Y14.501 Z5.838 
N1159 X-134.208 Y14.601 Z5.954 
N1160 X-134.206 Y14.702 Z6.069 
N1161 X-134.204 Y14.802 Z6.184 
N1162 X-134.202 Y14.902 Z6.300 
N1163 X-134.200 Y15.003 Z6.415 
N1164 X-134.198 Y15.103 Z6.531 
N1165 X-134.196 Y15.203 Z6.646 
N1166 X-134.194 Y15.304 Z6.762 
N1167 X-134.192 Y15.404 Z6.877 
N1168 X-134.190 Y15.504 Z6.992 
N1169 X-134.188 Y15.605 Z7.108 
N1170 X-134.186 Y15.705 Z7.223 
N1171 X-134.184 Y15.805 Z7.339 
N1172 X-134.182 Y15.906 Z7.454 
N1173 X-134.180 Y16.006 Z7.569 
N1174 X-134.178 Y16.106 Z7.685 
N1175 X-134.176 Y16.206 Z7.800 
N1176 X-134.174 Y16.307 Z7.916 
N1177 X-134.172 Y16.407 Z8.031 
N1178 X-134.170 Y16.507 Z8.146 
N1179 X-134.168 Y16.608 Z8.262 
N1180 X-134.165 Y16.708 Z8.377 
N1181 X-134.162 Y16.808 Z8.493 
N1182 X-134.158 Y16.909 Z8.608 
N1183 X-134.154 Y17.009 Z8.723 
N1184 X-134.151 Y17.109 Z8.839 
N1185 X-134.147 Y17.210 Z8.954 
N1186 X-134.143 Y17.310 Z9.069 
N1187 X-134.140 Y17.410 Z9.185 
N1188 X-134.136 Y17.510 Z9.300 
N1189 X-134.132 Y17.611 Z9.416 
N1190 X-134.129 Y17.711 Z9.531 
N1191 X-134.125 Y17.811 Z9.646 
N1192 X-134.121 Y17.912 Z9.762 
N1193 X-134.118 Y18.012 Z9.877 
N1194 X-134.114 Y18.112 Z9.992 
N1195 X-134.110 Y18.213 Z10.108 
N1196 X-134.107 Y18.313 Z10.223 
N1197 X-134.103 Y18.413 Z10.339 
N1198 X-134.100 Y18.513 Z10.454 
N1199 X-134.096 Y18.614 Z10.569 
N1200 X-134.092 Y18.714 Z10.685 
N1201 X-134.089 Y18.814 Z10.800 
N1202 X-134.085 Y18.915 Z10.915 
N1203 X-134.081 Y19.015 Z11.031 
N1204 X-134.078 Y19.115 Z11.146 
N1205 X-134.074 Y19.216 Z11.262 
N1206 X-134.070 Y19.316 Z11.377 
N1207 X-134.067 Y19.416 Z11.492 
N1208 X-134.063 Y19.516 Z11.608 
N1209 X-134.059 Y19.617 Z11.723 
N1210 X-134.056 Y19.717 Z11.839 
N1211 X-134.052 Y19.817 Z11.954 
N1212 X-134.048 Y19.918 Z12.069 
N1213 X-134.045 Y20.018 Z12.185 
N1214 X-134.041 Y20.118 Z12.300 
N1215 X-134.037 Y20.218 Z12.415 
N1216 X-134.034 Y20.319 Z12.531 
N1217 X-134.030 Y20.419 Z12.646 
N1218 X-134.027 Y20.519 Z12.762 
N1219 X-134.023 Y20.620 Z12.877 
N1220 X-134.019 Y20.720 Z12.992 
N1221 X-134.016 Y20.820 Z13.108 
N1222 X-134.012 Y20.921 Z13.223 
N1223 X-134.008 Y21.021 Z13.338 
N1224 X-134.004 Y21.121 Z13.454 
N1225 X-133.999 Y21.221 Z13.569 
N1226 X-133.994 Y21.322 Z13.685 
N1227 X-133.989 Y21.422 Z13.800 
N1228 X-133.984 Y21.522 Z13.915 
N1229 X-133.979 Y21.623 Z14.031 
N1230 X-133.974 Y21.723 Z14.146 
N1231 X-133.969 Y21.823 Z14.261 
N1232 X-133.965 Y21.923 Z14.377 
N1233 X-133.960 Y22.024 Z14.492 
N1234 X-133.955 Y22.124 Z14.607 
N1235 X-133.950 Y22.224 Z14.723 
N1236 X-133.945 Y22.324 Z14.838 
N1237 X-133.940 Y22.425 Z14.953 
N1238 X-133.935 Y22.525 Z15.069 
N1239 X-133.930 Y22.625 Z15.184 
N1240 X-133.925 Y22.726 Z15.299 
N1241 X-133.921 Y22.826 Z15.415 
N1242 X-133.916 Y22.926 Z15.530 
N1243 X-133.911 Y23.026 Z15.646 
N1244 X-133.906 Y23.127 Z15.761 
N1245 X-133.901 Y23.227 Z15.876 
N1246 X-133.896 Y23.327 Z15.992 
N1247 X-133.891 Y23.427 Z16.107 
N1248 X-133.886 Y23.528 Z16.222 
N1249 X-133.882 Y23.628 Z16.338 
N1250 X-133.877 Y23.728 Z16.453 
N1251 X-133.872 Y23.829 Z16.568 
N1252 X-133.867 Y23.929 Z16.684 
N1253 X-133.862 Y24.029 Z16.799 
N1254 X-133.857 Y24.129 Z16.914 
N1255 X-133.852 Y24.230 Z17.030 
N1256 X-133.847 Y24.330 Z17.145 
N1257 X-133.843 Y24.430 Z17.260 
N1258 X-133.838 Y24.531 Z17.376 
N1259 X-133.833 Y24.630 Z17.490 
N1260 X-133.828 Y24.729 Z17.604 
N1261 X-133.823 Y24.829 Z17.719 
N1262 X-133.818 Y24.928 Z17.833 
N1263 X-133.813 Y25.027 Z17.947 
N1264 X-133.809 Y25.127 Z18.062 
N1265 X-133.804 Y25.226 Z18.176 
N1266 X-133.799 Y25.325 Z18.290 
N1267 X-133.794 Y25.425 Z18.404 
N1268 X-133.789 Y25.524 Z18.519 
N1269 X-133.784 Y25.623 Z18.633 
N1270 X-133.780 Y25.723 Z18.747 
N1271 X-133.775 Y25.822 Z18.862 
N1272 X-133.770 Y25.921 Z18.976 
N1273 X-133.765 Y26.021 Z19.090 
N1274 X-133.760 Y26.120 Z19.204 
N1275 X-133.755 Y26.220 Z19.319 
N1276 X-133.751 Y26.319 Z19.433 
N1277 X-133.746 Y26.418 Z19.547 
N1278 X-133.741 Y26.518 Z19.662 
N1279 X-133.736 Y26.617 Z19.776 
N1280 X-133.731 Y26.716 Z19.890 
N1281 X-133.726 Y26.816 Z20.005 
N1282 X-133.722 Y26.915 Z20.119 
N1283 X-133.717 Y27.014 Z20.233 
N1284 X-133.712 Y27.114 Z20.347 
N1285 X-133.707 Y27.213 Z20.462 
N1286 X-133.702 Y27.312 Z20.576 
N1287 X-133.697 Y27.412 Z20.690 
N1288 X-133.693 Y27.511 Z20.805 
N1289 X-133.688 Y27.610 Z20.919 
N1290 X-133.683 Y27.710 Z21.033 
N1291 X-133.678 Y27.809 Z21.147 
N1292 G40 X-133.646 Y28.465 Z21.902 F458
N1293 X-133.646 Y28.465 Z21.902 
N1294 G00 X-133.646 Y66.200 Z-10.901 
;RAPORT("TB000000","Side Milling:149 End")
;trailer : concat=None
; points cnt = 1232
N1296 MSG (" --- GROUPED OF SUBPROGRAM --- ")
N1297 FGROUP()
N1298 TRAFOOF
; PROGRAM NAME: B00000038
; ORDER       : B000000
; OPER. NAME  : Side Milling:150
; OPER. DESCR.: Semi Finishing shroud Radius Cut KR
; OPER. TYPE  : sideMill
; GEO. OPTION : 1
; MACHINE     : HSTM_500_SIM840D_Py
;             : HSTM500 - HAMUEL: 5-axis milling machine - SIM840D Traori PP_Script
; CONTROL     : SINUMERIK 840D
; created:   2021-11-15 10:00:47.642282
;-------DODATKOWE DANE-------------------
; PROGRAMISTA : Mariusz Malec
; PARTID      : 139T001534P1001_-
;  ap         : 0.9
;  ae         : 1.0
;  lean_angle : 0.02
;  fin_offset : 0.3
;----------------------------------------
;RAPORT("TB000000","Side Milling:150")
N10 TRAFOOF
N11 D0
N12 G90 G94
N13 G0 G53 D0 Z550 B0
N14 STOPRE
M9 ; chlodziwo wyl
; --- Side Milling:150 - Semi Finishing shroud Radius Cut KR ---
N16 ;ToolChange : concat=None ,current_tdmid=None, PP.tdmId=957774
N17 TRAFOOF
N18 G0 G53 D0 Z550 B0
N19 STOPRE
N20 MSG(" TLID=957774 D=10.0 R=0.0 Ang=0.0 Len=129.0 ")
N21 S2864 M03
N22 STOPRE
N23 CYCLE832(0.01,1,1)
N24 G0 G53 A180.0375 B1.5177
N25 TRAORI
N26 G54 D3
N27 D3 
STOPRE
E_ZDARZ=400003
;ACS_PREFINISH_SHROUD=7757774
STOPRE
N28 ; DELTA A > 40.1
N29 TRAFOOF
N30 D3
N31 STOPRE
N32 G00 G54 Z257.000
N33 G01 A180.0375 F10000
N34 TRAORI
N35 G54 D3
N36 STOPRE
N37 TRANS 
N38 G00 X-314.806 Y-54.991 Z-62.706 A180.0375 B1.5177 
N39 M342 ; chlodziwo woda
N40 X-316.130 Y-55.024 Z-12.724 
N41 G01 X-316.130 Y-45.024 Z-12.721 F458 
N42 X-316.130 Y-44.024 Z-12.720 
N43 X-316.130 Y-39.024 Z-12.719 
N44 X-316.130 Y-1.494 Z-12.707 
N45 X-316.130 Y3.506 Z-12.706 
N46 X-316.130 Y13.506 Z-12.703 
N47 G00 X-314.806 Y13.539 Z-62.685 
;RAPORT("TB000000","Side Milling:150 End")
;trailer : concat=None
; points cnt = 6
N49 M9 ; chlodziwo wyl.
N50 MSG (" --- KONIEC PODPROGRAMU --- ")
N51 FGROUP()
N52 TRAFOOF
N53 STOPRE
N54 G0 G53 D0 Z550.0 M9 M5
N55 G0 G53 Y150 A0 B0
N56 M17
