; PROGRAM NAME: B00000032
; ORDER       : B000000
; OPER. NAME  : Spiral Finish Transition:111
; OPER. DESCR.: Spiral transition - Semi finish transition root/promienie przejsc pwk
; OPER. TYPE  : finTransRoot
; GEO. OPTION : 7
; MACHINE     : HSTM_500_SIM840D_Py
;             : HSTM500 - HAMUEL: 5-axis milling machine - SIM840D Traori PP_Script
; CONTROL     : SINUMERIK 840D
; created:   2021-11-15 09:58:29.373584
;-------DODATKOWE DANE-------------------
; PROGRAMISTA : Mariusz Malec
; PARTID      : 139T001534P1001_-
;  ae         : 1.5
;  lean_angle : 5.0
;  tilt_angle : -12.3
;  airf_offset: 0.05
;  plat_offset: 0.6
;----------------------------------------
;RAPORT("TB000000","Spiral Finish Transition:111")
N10 TRAFOOF
N11 D0
N12 G90 G94
N13 G0 G53 D0 Z550 B0
N14 STOPRE
M9 ; chlodziwo wyl
; --- Spiral Finish Transition:111 - Spiral transition - Semi finish transition root/promienie przejsc pwk ---
N16 ;ToolChange : concat=None ,current_tdmid=None, PP.tdmId=940626
N17 TRAFOOF
N18 G0 G53 D0 X-200 Y150 Z550 B0
N19 T="7740626"
;RAPORT("TB000000","ToolChangeStart 7740626")
N20 M6
;RAPORT("TB000000","ToolChangeEnd")
N21 STOPRE
N22 MSG(" TLID=940626 D=8.391 R=5.0 Ang=10.0 Len=155.0 ")
N23 ; (Preloading tool)
N24 T="7741290"
N25 S6987 M03
N26 STOPRE
N27 CYCLE832(0.01,1,1)
N28 G0 G53 A216.5060 B-12.3000
N29 TRAORI
N30 G54 D1
N31 D1 
N32 TRANS  X=R3 A=R25
STOPRE
E_ZDARZ=400004
;ACS_PREFINISH_UBG_B_CONST_BBK_ROOT=7740626
STOPRE
N33 ; DELTA A > 40.1
N34 TRAFOOF
N35 D1
N36 STOPRE
N37 G00 G54 Z231.000
N38 G01 A216.5060 F10000
N39 TRAORI
N40 G54 D1
N41 STOPRE
N42 TRANS  X=R3 A=R25
N43 G00 X-220.801 Y71.192 Z-31.148 A216.5060 B-12.3000 
N44 M342 ; chlodziwo woda
N45 X-210.150 Y42.129 Z8.119 
N46 G01 X-210.150 Y39.715 Z10.109 F1456 
N47 X-210.150 Y36.804 Z11.255 
N48 X-210.150 Y33.681 Z11.446 
N49 X-210.150 Y30.652 Z10.662 
N50 X-210.150 Y28.013 Z8.981 
N51 X-210.149 Y27.934 Z8.908 A215.3004 
N52 X-210.148 Y27.855 Z8.843 A214.8672 
N53 X-210.148 Y27.762 Z8.768 A214.7237 
N54 X-210.147 Y27.641 Z8.671 A214.6249 
N55 X-210.146 Y27.487 Z8.546 A214.5342 
N56 X-210.145 Y27.291 Z8.388 A214.4463 
N57 X-210.144 Y27.046 Z8.189 A214.3559 
N58 X-210.143 Y26.745 Z7.945 A214.2578 
N59 X-210.142 Y26.382 Z7.649 A214.1470 
N60 X-210.141 Y25.951 Z7.298 A214.0183 
N61 X-210.139 Y25.446 Z6.888 A213.8661 
N62 X-210.138 Y24.866 Z6.417 A213.6841 
N63 X-210.136 Y24.209 Z5.886 A213.4657 
N64 X-210.134 Y23.479 Z5.298 A213.2039 
N65 X-210.132 Y22.678 Z4.658 A212.8918 
N66 X-210.130 Y21.814 Z3.973 A212.5223 
N67 X-210.128 Y20.894 Z3.252 A212.0889 
N68 X-210.126 Y19.929 Z2.506 A211.5860 
N69 X-210.124 Y18.931 Z1.747 A211.0097 
N70 X-210.122 Y17.910 Z0.988 A210.3576 
N71 X-210.119 Y16.880 Z0.241 A209.6288 
N72 X-210.117 Y15.851 Z-0.485 A208.8237 
N73 X-210.115 Y14.835 Z-1.179 A207.9441 
N74 X-210.113 Y13.841 Z-1.834 A206.9931 
N75 X-210.111 Y12.878 Z-2.445 A205.9752 
N76 X-210.109 Y11.951 Z-3.008 A204.8960 
N77 X-210.107 Y11.065 Z-3.521 A203.7633 
N78 X-210.106 Y10.222 Z-3.985 A202.5857 
N79 X-210.104 Y9.425 Z-4.401 A201.3721 
N80 X-210.102 Y8.673 Z-4.772 A200.1301 
N81 X-210.101 Y7.964 Z-5.102 A198.8668 
N82 X-210.099 Y7.298 Z-5.393 A197.5881 
N83 X-210.098 Y6.670 Z-5.651 A196.2989 
N84 X-210.097 Y6.079 Z-5.878 A195.0034 
N85 X-210.096 Y5.521 Z-6.078 A193.7049 
N86 X-210.095 Y4.993 Z-6.254 A192.4057 
N87 X-210.093 Y4.492 Z-6.409 A191.1076 
N88 X-210.092 Y4.014 Z-6.544 A189.8119 
N89 X-210.091 Y3.559 Z-6.662 A188.5194 
N90 X-210.090 Y3.123 Z-6.765 A187.2304 
N91 X-210.089 Y2.704 Z-6.854 A185.9452 
N92 X-210.088 Y2.301 Z-6.930 A184.6636 
N93 X-210.087 Y1.913 Z-6.995 A183.3855 
N94 X-210.087 Y1.537 Z-7.050 A182.1107 
N95 X-210.086 Y1.173 Z-7.094 A180.8389 
N96 X-210.085 Y0.820 Z-7.130 A179.5700 
N97 X-210.084 Y0.476 Z-7.156 A178.3035 
N98 X-210.083 Y0.141 Z-7.175 A177.0394 
N99 X-210.082 Y-0.185 Z-7.186 A175.7774 
N100 X-210.082 Y-0.504 Z-7.191 A174.5172 
N101 X-210.081 Y-0.815 Z-7.188 A173.2586 
N102 X-210.080 Y-1.120 Z-7.178 A172.0015 
N103 X-210.079 Y-1.419 Z-7.163 A170.7457 
N104 X-210.078 Y-1.713 Z-7.141 A169.4911 
N105 X-210.078 Y-2.001 Z-7.113 A168.2376 
N106 X-210.077 Y-2.285 Z-7.080 A166.9851 
N107 X-210.076 Y-2.564 Z-7.041 A165.7335 
N108 X-210.076 Y-2.839 Z-6.996 A164.4828 
N109 X-210.075 Y-3.110 Z-6.946 A163.2329 
N110 X-210.074 Y-3.378 Z-6.891 A161.9836 
N111 X-210.073 Y-3.642 Z-6.830 A160.7350 
N112 X-210.073 Y-3.903 Z-6.764 A159.4870 
N113 X-210.072 Y-4.162 Z-6.692 A158.2394 
N114 X-210.071 Y-4.418 Z-6.616 A156.9921 
N115 X-210.071 Y-4.671 Z-6.534 A155.7452 
N116 X-210.070 Y-4.923 Z-6.446 A154.4987 
N117 X-210.069 Y-5.172 Z-6.354 A153.2524 
N118 X-210.069 Y-5.420 Z-6.255 A152.0064 
N119 X-210.068 Y-5.666 Z-6.151 A150.7608 
N120 X-210.067 Y-5.911 Z-6.042 A149.5155 
N121 X-210.067 Y-6.154 Z-5.926 A148.2706 
N122 X-210.066 Y-6.396 Z-5.804 A147.0261 
N123 X-210.066 Y-6.637 Z-5.677 A145.7820 
N124 X-210.065 Y-6.878 Z-5.543 A144.5383 
N125 X-210.064 Y-7.117 Z-5.402 A143.2951 
N126 X-210.064 Y-7.357 Z-5.255 A142.0524 
N127 X-210.063 Y-7.595 Z-5.100 A140.8104 
N128 X-210.063 Y-7.834 Z-4.939 A139.5693 
N129 X-210.062 Y-8.072 Z-4.770 A138.3293 
N130 X-210.061 Y-8.309 Z-4.593 A137.0905 
N131 X-210.061 Y-8.547 Z-4.407 A135.8533 
N132 X-210.060 Y-8.785 Z-4.214 A134.6181 
N133 X-210.060 Y-9.023 Z-4.011 A133.3852 
N134 X-210.059 Y-9.260 Z-3.800 A132.1550 
N135 X-210.059 Y-9.498 Z-3.579 A130.9280 
N136 X-210.058 Y-9.736 Z-3.348 A129.7049 
N137 X-210.058 Y-9.973 Z-3.107 A128.4862 
N138 X-210.057 Y-10.210 Z-2.856 A127.2725 
N139 X-210.057 Y-10.447 Z-2.594 A126.0648 
N140 X-210.056 Y-10.683 Z-2.322 A124.8637 
N141 X-210.056 Y-10.919 Z-2.038 A123.6701 
N142 X-210.055 Y-11.153 Z-1.743 A122.4849 
N143 X-210.055 Y-11.386 Z-1.437 A121.3087 
N144 X-210.054 Y-11.616 Z-1.120 A120.1421 
N145 X-210.054 Y-11.844 Z-0.793 A118.9856 
N146 X-210.053 Y-12.070 Z-0.455 A117.8393 
N147 X-210.053 Y-12.292 Z-0.108 A116.7032 
N148 X-210.053 Y-12.509 Z0.248 A115.5771 
N149 X-210.052 Y-12.722 Z0.613 A114.4608 
N150 X-210.052 Y-12.930 Z0.985 A113.3545 
N151 X-210.051 Y-13.131 Z1.362 A112.2584 
N152 X-210.051 Y-13.326 Z1.745 A111.1732 
N153 X-210.051 Y-13.512 Z2.130 A110.0996 
N154 X-210.050 Y-13.691 Z2.517 A109.0375 
N155 X-210.050 Y-13.861 Z2.903 A107.9862 
N156 X-210.050 Y-14.022 Z3.288 A106.9438 
N157 X-210.049 Y-14.174 Z3.669 A105.9073 
N158 X-210.049 Y-14.316 Z4.044 A104.8733 
N159 X-210.049 Y-14.448 Z4.412 A103.8382 
N160 X-210.049 Y-14.571 Z4.772 A102.7992 
N161 X-210.048 Y-14.683 Z5.122 A101.7545 
N162 X-210.048 Y-14.785 Z5.462 A100.7029 
N163 X-210.048 Y-14.877 Z5.789 A99.6441 
N164 X-210.047 Y-14.959 Z6.103 A98.5778 
N165 X-210.047 Y-15.032 Z6.403 A97.5037 
N166 X-210.047 Y-15.096 Z6.690 A96.4216 
N167 X-210.046 Y-15.151 Z6.961 A95.3321 
N168 X-210.046 Y-15.199 Z7.219 A94.2369 
N169 X-210.045 Y-15.239 Z7.461 A93.1378 
N170 X-210.045 Y-15.273 Z7.689 A92.0348 
N171 X-210.045 Y-15.300 Z7.903 A90.9257 
N172 X-210.044 Y-15.322 Z8.104 A89.8062 
N173 X-210.044 Y-15.340 Z8.292 A88.6724 
N174 X-210.043 Y-15.353 Z8.468 A87.5216 
N175 X-210.043 Y-15.363 Z8.632 A86.3532 
N176 X-210.043 Y-15.368 Z8.786 A85.1682 
N177 X-210.042 Y-15.371 Z8.931 A83.9683 
N178 X-210.042 Y-15.371 Z9.066 A82.7550 
N179 X-210.041 Y-15.368 Z9.193 A81.5290 
N180 X-210.041 Y-15.364 Z9.312 A80.2906 
N181 X-210.040 Y-15.357 Z9.425 A79.0391 
N182 X-210.040 Y-15.349 Z9.531 A77.7743 
N183 X-210.039 Y-15.339 Z9.631 A76.4957 
N184 X-210.039 Y-15.328 Z9.727 A75.2037 
N185 X-210.038 Y-15.315 Z9.818 A73.8989 
N186 X-210.038 Y-15.301 Z9.905 A72.5826 
N187 X-210.037 Y-15.286 Z9.989 A71.2569 
N188 X-210.037 Y-15.270 Z10.069 A69.9240 
N189 X-210.036 Y-15.252 Z10.146 A68.5864 
N190 X-210.036 Y-15.234 Z10.220 A67.2466 
N191 X-210.035 Y-15.214 Z10.292 A65.9068 
N192 X-210.035 Y-15.194 Z10.362 A64.5688 
N193 X-210.034 Y-15.172 Z10.429 A63.2341 
N194 X-210.034 Y-15.150 Z10.495 A61.9038 
N195 X-210.033 Y-15.126 Z10.558 A60.5788 
N196 X-210.033 Y-15.102 Z10.620 A59.2595 
N197 X-210.032 Y-15.076 Z10.680 A57.9462 
N198 X-210.032 Y-15.050 Z10.738 A56.6390 
N199 X-210.031 Y-15.023 Z10.795 A55.3378 
N200 X-210.031 Y-14.995 Z10.851 A54.0424 
N201 X-210.030 Y-14.966 Z10.906 A52.7528 
N202 X-210.030 Y-14.936 Z10.959 A51.4687 
N203 X-210.029 Y-14.906 Z11.011 A50.1897 
N204 X-210.029 Y-14.874 Z11.062 A48.9155 
N205 X-210.028 Y-14.842 Z11.112 A47.6458 
N206 X-210.028 Y-14.808 Z11.161 A46.3803 
N207 X-210.027 Y-14.774 Z11.209 A45.1185 
N208 X-210.026 Y-14.739 Z11.256 A43.8600 
N209 X-210.026 Y-14.703 Z11.302 A42.6044 
N210 X-210.025 Y-14.666 Z11.347 A41.3513 
N211 X-210.025 Y-14.628 Z11.392 A40.1003 
N212 X-210.024 Y-14.589 Z11.435 A38.8509 
N213 X-210.024 Y-14.550 Z11.478 A37.6028 
N214 X-210.023 Y-14.509 Z11.519 A36.3554 
N215 X-210.023 Y-14.467 Z11.560 A35.1084 
N216 X-210.022 Y-14.425 Z11.600 A33.8613 
N217 X-210.022 Y-14.381 Z11.639 A32.6136 
N218 X-210.021 Y-14.337 Z11.678 A31.3649 
N219 X-210.021 Y-14.291 Z11.715 A30.1146 
N220 X-210.020 Y-14.245 Z11.752 A28.8622 
N221 X-210.020 Y-14.197 Z11.788 A27.6073 
N222 X-210.019 Y-14.148 Z11.823 A26.3492 
N223 X-210.019 Y-14.098 Z11.858 A25.0875 
N224 X-210.018 Y-14.047 Z11.891 A23.8217 
N225 X-210.018 Y-13.994 Z11.924 A22.5512 
N226 X-210.017 Y-13.940 Z11.956 A21.2756 
N227 X-210.016 Y-13.885 Z11.987 A19.9945 
N228 X-210.016 Y-13.828 Z12.017 A18.7078 
N229 X-210.015 Y-13.769 Z12.046 A17.4150 
N230 X-210.015 Y-13.709 Z12.075 A16.1162 
N231 X-210.014 Y-13.647 Z12.103 A14.8114 
N232 X-210.014 Y-13.583 Z12.130 A13.5009 
N233 X-210.013 Y-13.517 Z12.155 A12.1850 
N234 X-210.013 Y-13.448 Z12.180 A10.8644 
N235 X-210.012 Y-13.377 Z12.204 A9.5399 
N236 X-210.012 Y-13.303 Z12.227 A8.2124 
N237 X-210.011 Y-13.227 Z12.248 A6.8832 
N238 X-210.011 Y-13.146 Z12.269 A5.5531 
N239 X-210.010 Y-13.063 Z12.288 A4.2231 
N240 X-210.010 Y-12.975 Z12.305 A2.8937 
N241 X-210.009 Y-12.882 Z12.321 A1.5647 
N242 X-210.009 Y-12.785 Z12.336 A0.2356 
N243 X-210.008 Y-12.681 Z12.349 A358.9050 
N244 X-210.008 Y-12.570 Z12.359 A357.5712 
N245 X-210.007 Y-12.451 Z12.368 A356.2322 
N246 X-210.007 Y-12.322 Z12.374 A354.8865 
N247 X-210.006 Y-12.183 Z12.376 A353.5329 
N248 X-210.006 Y-12.030 Z12.375 A352.1722 
N249 X-210.006 Y-11.862 Z12.370 A350.8063 
N250 X-210.005 Y-11.677 Z12.359 A349.4392 
N251 X-210.005 Y-11.471 Z12.340 A348.0748 
N252 X-210.004 Y-11.241 Z12.314 A346.7166 
N253 X-210.004 Y-10.985 Z12.278 A345.3665 
N254 X-210.003 Y-10.697 Z12.229 A344.0265 
N255 X-210.003 Y-10.374 Z12.166 A342.7016 
N256 X-210.003 Y-10.012 Z12.085 A341.4019 
N257 X-210.002 Y-9.610 Z11.983 A340.1386 
N258 X-210.002 Y-9.163 Z11.859 A338.9206 
N259 X-210.002 Y-8.671 Z11.709 A337.8039 
N260 X-210.002 Y-8.134 Z11.533 A336.8014 
N261 X-210.001 Y-7.551 Z11.330 A335.9260 
N262 X-210.001 Y-6.925 Z11.100 A335.1860 
N263 X-210.001 Y-6.257 Z10.845 A334.5818 
N264 X-210.001 Y-5.552 Z10.568 A334.1072 
N265 X-210.000 Y-4.814 Z10.273 A333.7517 
N266 X-210.000 Y-4.053 Z9.964 A333.6065 
N267 X-210.000 Y-3.275 Z9.646 A333.6658 
N268 X-210.000 Y-2.488 Z9.326 A333.9349 
N269 X-210.000 Y-1.700 Z9.009 A334.4215 
N270 X-210.000 Y-0.917 Z8.703 A335.1312 
N271 X-209.999 Y-0.148 Z8.413 A336.0663 
N272 X-209.999 Y0.605 Z8.143 A337.1163 
N273 X-209.999 Y1.338 Z7.896 A338.2718 
N274 X-209.999 Y2.046 Z7.675 A339.5181 
N275 X-209.999 Y2.727 Z7.479 A340.8400 
N276 X-209.999 Y3.381 Z7.307 A342.1929 
N277 X-209.999 Y4.008 Z7.160 A343.5693 
N278 X-209.999 Y4.608 Z7.034 A344.9614 
N279 X-209.999 Y5.184 Z6.928 A346.3620 
N280 X-209.998 Y5.739 Z6.841 A347.7651 
N281 X-209.998 Y6.274 Z6.770 A349.1659 
N282 X-209.998 Y6.795 Z6.714 A350.5608 
N283 X-209.998 Y7.304 Z6.672 A351.9474 
N284 X-209.998 Y7.805 Z6.642 A353.3242 
N285 X-209.998 Y8.300 Z6.625 A354.6905 
N286 X-209.998 Y8.795 Z6.620 A356.0459 
N287 X-209.998 Y9.290 Z6.626 A357.3904 
N288 X-209.998 Y9.789 Z6.644 A358.7240 
N289 X-209.998 Y10.294 Z6.675 A0.0464 
N290 X-209.998 Y10.809 Z6.718 A1.3572 
N291 X-209.998 Y11.333 Z6.774 A2.6557 
N292 X-209.998 Y11.871 Z6.845 A3.9405 
N293 X-209.998 Y12.422 Z6.931 A5.2099 
N294 X-209.998 Y12.988 Z7.032 A6.4617 
N295 X-209.998 Y13.570 Z7.151 A7.6929 
N296 X-209.998 Y14.168 Z7.286 A8.9006 
N297 X-209.998 Y14.782 Z7.440 A10.0809 
N298 X-209.999 Y15.410 Z7.612 A11.2301 
N299 X-209.999 Y16.049 Z7.802 A12.3441 
N300 X-209.999 Y16.699 Z8.009 A13.4187 
N301 X-209.999 Y17.354 Z8.233 A14.4498 
N302 X-210.000 Y18.010 Z8.471 A15.4333 
N303 X-210.000 Y18.662 Z8.721 A16.3655 
N304 X-210.000 Y19.305 Z8.980 A17.2429 
N305 X-210.001 Y19.933 Z9.244 A18.0622 
N306 X-210.001 Y20.538 Z9.509 A18.8202 
N307 X-210.001 Y21.117 Z9.772 A19.5144 
N308 X-210.002 Y21.663 Z10.028 A20.1440 
N309 X-210.002 Y22.172 Z10.272 A20.7106 
N310 X-210.002 Y22.641 Z10.502 A21.2182 
N311 X-210.002 Y23.067 Z10.714 A21.6717 
N312 X-210.002 Y23.447 Z10.906 A22.0766 
N313 X-210.002 Y23.783 Z11.078 A22.4379 
N314 X-210.002 Y24.075 Z11.228 A22.7607 
N315 X-210.002 Y24.325 Z11.359 A23.0177 
N316 X-210.001 Y24.536 Z11.469 A23.2167 
N317 X-210.001 Y24.712 Z11.561 A23.3615 
N318 X-210.001 Y24.857 Z11.638 A23.4507 
N319 X-210.000 Y24.975 Z11.699 A23.4757 
N320 X-210.000 Y25.071 Z11.751 A23.3433 
N321 X-209.999 Y25.152 Z11.794 A23.0049 
N322 X-209.999 Y25.226 Z11.836 A22.1757 
N323 X-209.998 Y25.299 Z11.880 A20.7499 
N324 X-209.998 Y25.375 Z11.925 A18.6842 
N325 X-209.997 Y25.457 Z11.972 A16.0704 
N326 X-209.997 Y25.537 Z12.015 A13.2900 
N327 X-209.996 Y25.614 Z12.052 A10.5163 
N328 X-209.996 Y25.689 Z12.083 A7.7911 
N329 X-209.995 Y25.759 Z12.110 A5.1413 
N330 X-209.995 Y25.822 Z12.130 A2.7945 
N331 X-209.994 Y25.878 Z12.146 A0.7251 
N332 X-209.994 Y25.926 Z12.157 A358.9319 
N333 X-209.993 Y25.972 Z12.166 A357.2588 
N334 X-209.993 Y26.013 Z12.173 A355.7097 
N335 X-209.992 Y26.054 Z12.179 A354.2130 
N336 X-209.991 Y26.093 Z12.183 A352.7645 
N337 X-209.991 Y26.131 Z12.187 A351.3573 
N338 X-209.990 Y26.168 Z12.189 A349.9835 
N339 X-209.990 Y26.204 Z12.190 A348.6386 
N340 X-209.989 Y26.240 Z12.191 A347.3169 
N341 X-209.989 Y26.275 Z12.191 A346.0140 
N342 X-209.988 Y26.310 Z12.189 A344.7271 
N343 X-209.988 Y26.344 Z12.187 A343.4532 
N344 X-209.987 Y26.378 Z12.185 A342.1902 
N345 X-209.986 Y26.411 Z12.181 A340.9363 
N346 X-209.986 Y26.444 Z12.177 A339.6904 
N347 X-209.985 Y26.477 Z12.172 A338.4515 
N348 X-209.985 Y26.510 Z12.167 A337.2183 
N349 X-209.984 Y26.542 Z12.161 A335.9906 
N350 X-209.984 Y26.574 Z12.154 A334.7677 
N351 X-209.983 Y26.606 Z12.146 A333.5488 
N352 X-209.983 Y26.638 Z12.138 A332.3340 
N353 X-209.982 Y26.669 Z12.130 A331.1225 
N354 X-209.981 Y26.700 Z12.120 A329.9141 
N355 X-209.981 Y26.730 Z12.110 A328.7086 
N356 X-209.980 Y26.761 Z12.100 A327.5053 
N357 X-209.980 Y26.791 Z12.088 A326.3043 
N358 X-209.979 Y26.820 Z12.077 A325.1053 
N359 X-209.979 Y26.850 Z12.064 A323.9078 
N360 X-209.978 Y26.879 Z12.051 A322.7118 
N361 X-209.978 Y26.908 Z12.038 A321.5168 
N362 X-209.977 Y26.936 Z12.023 A320.3227 
N363 X-209.976 Y26.964 Z12.009 A319.1295 
N364 X-209.976 Y26.992 Z11.993 A317.9365 
N365 X-209.975 Y27.020 Z11.978 A316.7441 
N366 X-209.975 Y27.047 Z11.961 A315.5518 
N367 X-209.974 Y27.073 Z11.944 A314.3597 
N368 X-209.974 Y27.100 Z11.927 A313.1678 
N369 X-209.973 Y27.126 Z11.909 A311.9758 
N370 X-209.973 Y27.151 Z11.890 A310.7840 
N371 X-209.972 Y27.176 Z11.871 A309.5921 
N372 X-209.971 Y27.201 Z11.852 A308.4002 
N373 X-209.971 Y27.225 Z11.832 A307.2083 
N374 X-209.970 Y27.249 Z11.812 A306.0165 
N375 X-209.970 Y27.272 Z11.791 A304.8247 
N376 X-209.969 Y27.295 Z11.770 A303.6330 
N377 X-209.969 Y27.318 Z11.748 A302.4414 
N378 X-209.968 Y27.340 Z11.726 A301.2499 
N379 X-209.968 Y27.361 Z11.703 A300.0586 
N380 X-209.967 Y27.382 Z11.680 A298.8675 
N381 X-209.966 Y27.403 Z11.657 A297.6766 
N382 X-209.966 Y27.422 Z11.633 A296.4859 
N383 X-209.965 Y27.442 Z11.609 A295.2955 
N384 X-209.965 Y27.461 Z11.585 A294.1054 
N385 X-209.964 Y27.479 Z11.560 A292.9156 
N386 X-209.964 Y27.497 Z11.535 A291.7261 
N387 X-209.963 Y27.514 Z11.510 A290.5368 
N388 X-209.963 Y27.531 Z11.484 A289.3479 
N389 X-209.962 Y27.547 Z11.458 A288.1591 
N390 X-209.961 Y27.562 Z11.432 A286.9706 
N391 X-209.961 Y27.577 Z11.406 A285.7821 
N392 X-209.960 Y27.592 Z11.379 A284.5936 
N393 X-209.960 Y27.606 Z11.352 A283.4051 
N394 X-209.959 Y27.619 Z11.325 A282.2163 
N395 X-209.959 Y27.632 Z11.298 A281.0274 
N396 X-209.958 Y27.644 Z11.271 A279.8377 
N397 X-209.958 Y27.655 Z11.243 A278.6473 
N398 X-209.957 Y27.666 Z11.215 A277.4561 
N399 X-209.956 Y27.677 Z11.187 A276.2635 
N400 X-209.956 Y27.686 Z11.159 A275.0696 
N401 X-209.955 Y27.695 Z11.131 A273.8739 
N402 X-209.955 Y27.704 Z11.102 A272.6760 
N403 X-209.954 Y27.712 Z11.074 A271.4762 
N404 X-209.954 Y27.720 Z11.045 A270.2734 
N405 X-209.953 Y27.726 Z11.016 A269.0678 
N406 X-209.953 Y27.733 Z10.988 A267.8591 
N407 X-209.952 Y27.738 Z10.959 A266.6466 
N408 X-209.951 Y27.743 Z10.930 A265.4305 
N409 X-209.951 Y27.748 Z10.900 A264.2100 
N410 X-209.950 Y27.752 Z10.871 A262.9846 
N411 X-209.950 Y27.755 Z10.842 A261.7543 
N412 X-209.949 Y27.758 Z10.812 A260.5180 
N413 X-209.949 Y27.760 Z10.782 A259.2748 
N414 X-209.948 Y27.762 Z10.753 A258.0243 
N415 X-209.948 Y27.763 Z10.723 A256.7649 
N416 X-209.947 Y27.763 Z10.693 A255.4949 
N417 X-209.946 Y27.762 Z10.662 A254.2127 
N418 X-209.946 Y27.762 Z10.632 A252.9158 
N419 X-209.945 Y27.760 Z10.601 A251.6012 
N420 X-209.945 Y27.758 Z10.569 A250.2649 
N421 X-209.944 Y27.755 Z10.538 A248.9042 
N422 X-209.944 Y27.751 Z10.505 A247.5145 
N423 X-209.943 Y27.746 Z10.472 A246.0569 
N424 X-209.942 Y27.740 Z10.436 A244.5289 
N425 X-209.942 Y27.733 Z10.397 A242.8286 
N426 X-209.941 Y27.724 Z10.354 A240.9414 
N427 X-209.941 Y27.712 Z10.305 A238.8308 
N428 X-209.940 Y27.696 Z10.247 A236.2965 
N429 X-209.940 Y27.674 Z10.178 A233.2920 
N430 X-209.939 Y27.644 Z10.099 A229.8266 
N431 X-209.939 Y27.604 Z10.015 A226.1671 
N432 X-209.938 Y27.553 Z9.925 A222.3790 
N433 X-209.937 Y27.493 Z9.838 A218.8611 
N434 X-209.937 Y27.432 Z9.766 A216.5060 
N435 X-209.936 Y27.369 Z9.705 A215.3004 
N436 X-209.935 Y27.297 Z9.645 A214.8672 
N437 X-209.935 Y27.205 Z9.571 A214.7237 
N438 X-209.934 Y27.086 Z9.475 A214.6249 
N439 X-209.933 Y26.933 Z9.351 A214.5342 
N440 X-209.932 Y26.738 Z9.193 A214.4463 
N441 X-209.931 Y26.495 Z8.996 A214.3559 
N442 X-209.930 Y26.195 Z8.752 A214.2578 
N443 X-209.929 Y25.834 Z8.458 A214.1470 
N444 X-209.928 Y25.404 Z8.108 A214.0183 
N445 X-209.926 Y24.901 Z7.699 A213.8661 
N446 X-209.925 Y24.324 Z7.230 A213.6841 
N447 X-209.923 Y23.671 Z6.701 A213.4657 
N448 X-209.921 Y22.944 Z6.116 A213.2039 
N449 X-209.919 Y22.148 Z5.478 A212.8918 
N450 X-209.917 Y21.288 Z4.796 A212.5223 
N451 X-209.915 Y20.375 Z4.079 A212.0889 
N452 X-209.913 Y19.418 Z3.338 A211.5860 
N453 X-209.911 Y18.427 Z2.585 A211.0097 
N454 X-209.909 Y17.416 Z1.831 A210.3576 
N455 X-209.906 Y16.397 Z1.090 A209.6288 
N456 X-209.904 Y15.380 Z0.371 A208.8237 
N457 X-209.902 Y14.377 Z-0.316 A207.9441 
N458 X-209.900 Y13.398 Z-0.964 A206.9931 
N459 X-209.898 Y12.450 Z-1.567 A205.9752 
N460 X-209.896 Y11.539 Z-2.121 A204.8960 
N461 X-209.894 Y10.671 Z-2.627 A203.7633 
N462 X-209.893 Y9.847 Z-3.083 A202.5857 
N463 X-209.891 Y9.069 Z-3.491 A201.3721 
N464 X-209.889 Y8.336 Z-3.855 A200.1301 
N465 X-209.888 Y7.648 Z-4.177 A198.8668 
N466 X-209.886 Y7.003 Z-4.462 A197.5881 
N467 X-209.885 Y6.396 Z-4.713 A196.2989 
N468 X-209.884 Y5.826 Z-4.935 A195.0034 
N469 X-209.883 Y5.290 Z-5.129 A193.7049 
N470 X-209.881 Y4.783 Z-5.300 A192.4057 
N471 X-209.880 Y4.303 Z-5.450 A191.1076 
N472 X-209.879 Y3.848 Z-5.581 A189.8119 
N473 X-209.878 Y3.414 Z-5.696 A188.5194 
N474 X-209.877 Y3.000 Z-5.796 A187.2304 
N475 X-209.876 Y2.603 Z-5.882 A185.9452 
N476 X-209.875 Y2.222 Z-5.957 A184.6636 
N477 X-209.874 Y1.855 Z-6.020 A183.3855 
N478 X-209.874 Y1.501 Z-6.073 A182.1107 
N479 X-209.873 Y1.159 Z-6.117 A180.8389 
N480 X-209.872 Y0.827 Z-6.153 A179.5700 
N481 X-209.871 Y0.505 Z-6.180 A178.3035 
N482 X-209.870 Y0.192 Z-6.199 A177.0394 
N483 X-209.869 Y-0.113 Z-6.212 A175.7774 
N484 X-209.869 Y-0.410 Z-6.218 A174.5172 
N485 X-209.868 Y-0.701 Z-6.217 A173.2586 
N486 X-209.867 Y-0.984 Z-6.211 A172.0015 
N487 X-209.866 Y-1.262 Z-6.198 A170.7457 
N488 X-209.865 Y-1.535 Z-6.180 A169.4911 
N489 X-209.865 Y-1.802 Z-6.157 A168.2376 
N490 X-209.864 Y-2.065 Z-6.128 A166.9851 
N491 X-209.863 Y-2.323 Z-6.094 A165.7335 
N492 X-209.863 Y-2.578 Z-6.055 A164.4828 
N493 X-209.862 Y-2.828 Z-6.010 A163.2329 
N494 X-209.861 Y-3.075 Z-5.961 A161.9836 
N495 X-209.860 Y-3.320 Z-5.907 A160.7350 
N496 X-209.860 Y-3.561 Z-5.849 A159.4870 
N497 X-209.859 Y-3.800 Z-5.785 A158.2394 
N498 X-209.858 Y-4.036 Z-5.716 A156.9921 
N499 X-209.858 Y-4.270 Z-5.643 A155.7452 
N500 X-209.857 Y-4.502 Z-5.564 A154.4987 
N501 X-209.856 Y-4.732 Z-5.481 A153.2524 
N502 X-209.856 Y-4.961 Z-5.392 A152.0064 
N503 X-209.855 Y-5.189 Z-5.299 A150.7608 
N504 X-209.854 Y-5.415 Z-5.200 A149.5155 
N505 X-209.854 Y-5.640 Z-5.095 A148.2706 
N506 X-209.853 Y-5.864 Z-4.985 A147.0261 
N507 X-209.853 Y-6.088 Z-4.869 A145.7820 
N508 X-209.852 Y-6.311 Z-4.747 A144.5383 
N509 X-209.851 Y-6.534 Z-4.619 A143.2951 
N510 X-209.851 Y-6.756 Z-4.484 A142.0524 
N511 X-209.850 Y-6.978 Z-4.343 A140.8104 
N512 X-209.849 Y-7.200 Z-4.195 A139.5693 
N513 X-209.849 Y-7.422 Z-4.040 A138.3293 
N514 X-209.848 Y-7.644 Z-3.877 A137.0905 
N515 X-209.848 Y-7.867 Z-3.706 A135.8533 
N516 X-209.847 Y-8.089 Z-3.528 A134.6181 
N517 X-209.847 Y-8.312 Z-3.340 A133.3852 
N518 X-209.846 Y-8.536 Z-3.144 A132.1550 
N519 X-209.846 Y-8.760 Z-2.939 A130.9280 
N520 X-209.845 Y-8.984 Z-2.724 A129.7049 
N521 X-209.845 Y-9.208 Z-2.499 A128.4862 
N522 X-209.844 Y-9.433 Z-2.264 A127.2725 
N523 X-209.844 Y-9.657 Z-2.019 A126.0648 
N524 X-209.843 Y-9.882 Z-1.763 A124.8637 
N525 X-209.843 Y-10.106 Z-1.496 A123.6701 
N526 X-209.842 Y-10.329 Z-1.218 A122.4849 
N527 X-209.842 Y-10.551 Z-0.929 A121.3087 
N528 X-209.841 Y-10.771 Z-0.630 A120.1421 
N529 X-209.841 Y-10.990 Z-0.320 A118.9856 
N530 X-209.840 Y-11.206 Z0.001 A117.8393 
N531 X-209.840 Y-11.419 Z0.331 A116.7032 
N532 X-209.840 Y-11.628 Z0.670 A115.5771 
N533 X-209.839 Y-11.833 Z1.017 A114.4608 
N534 X-209.839 Y-12.033 Z1.372 A113.3545 
N535 X-209.838 Y-12.227 Z1.732 A112.2584 
N536 X-209.838 Y-12.415 Z2.098 A111.1732 
N537 X-209.838 Y-12.595 Z2.466 A110.0996 
N538 X-209.837 Y-12.768 Z2.836 A109.0375 
N539 X-209.837 Y-12.932 Z3.205 A107.9862 
N540 X-209.837 Y-13.088 Z3.573 A106.9438 
N541 X-209.836 Y-13.234 Z3.936 A105.9073 
N542 X-209.836 Y-13.372 Z4.295 A104.8733 
N543 X-209.836 Y-13.500 Z4.646 A103.8382 
N544 X-209.835 Y-13.618 Z4.989 A102.7992 
N545 X-209.835 Y-13.726 Z5.321 A101.7545 
N546 X-209.835 Y-13.825 Z5.643 A100.7029 
N547 X-209.835 Y-13.914 Z5.952 A99.6441 
N548 X-209.834 Y-13.993 Z6.249 A98.5778 
N549 X-209.834 Y-14.063 Z6.531 A97.5037 
N550 X-209.834 Y-14.125 Z6.799 A96.4216 
N551 X-209.833 Y-14.179 Z7.052 A95.3321 
N552 X-209.833 Y-14.225 Z7.291 A94.2369 
N553 X-209.832 Y-14.263 Z7.515 A93.1378 
N554 X-209.832 Y-14.296 Z7.724 A92.0348 
N555 X-209.832 Y-14.323 Z7.919 A90.9257 
N556 X-209.831 Y-14.345 Z8.100 A89.8062 
N557 X-209.831 Y-14.363 Z8.269 A88.6724 
N558 X-209.830 Y-14.377 Z8.425 A87.5216 
N559 X-209.830 Y-14.387 Z8.570 A86.3532 
N560 X-209.830 Y-14.395 Z8.704 A85.1682 
N561 X-209.829 Y-14.399 Z8.828 A83.9683 
N562 X-209.829 Y-14.402 Z8.943 A82.7550 
N563 X-209.828 Y-14.402 Z9.049 A81.5290 
N564 X-209.828 Y-14.401 Z9.147 A80.2906 
N565 X-209.827 Y-14.398 Z9.239 A79.0391 
N566 X-209.827 Y-14.394 Z9.324 A77.7743 
N567 X-209.826 Y-14.389 Z9.403 A76.4957 
N568 X-209.826 Y-14.383 Z9.477 A75.2037 
N569 X-209.825 Y-14.376 Z9.547 A73.8989 
N570 X-209.825 Y-14.369 Z9.613 A72.5826 
N571 X-209.824 Y-14.361 Z9.675 A71.2569 
N572 X-209.824 Y-14.352 Z9.733 A69.9240 
N573 X-209.823 Y-14.343 Z9.789 A68.5864 
N574 X-209.823 Y-14.333 Z9.843 A67.2466 
N575 X-209.822 Y-14.322 Z9.893 A65.9068 
N576 X-209.822 Y-14.311 Z9.942 A64.5688 
N577 X-209.821 Y-14.300 Z9.989 A63.2341 
N578 X-209.821 Y-14.288 Z10.034 A61.9038 
N579 X-209.820 Y-14.275 Z10.078 A60.5788 
N580 X-209.820 Y-14.262 Z10.120 A59.2595 
N581 X-209.819 Y-14.248 Z10.161 A57.9462 
N582 X-209.819 Y-14.234 Z10.201 A56.6390 
N583 X-209.818 Y-14.219 Z10.240 A55.3378 
N584 X-209.818 Y-14.204 Z10.278 A54.0424 
N585 X-209.817 Y-14.188 Z10.314 A52.7528 
N586 X-209.817 Y-14.172 Z10.350 A51.4687 
N587 X-209.816 Y-14.155 Z10.386 A50.1897 
N588 X-209.816 Y-14.138 Z10.420 A48.9155 
N589 X-209.815 Y-14.120 Z10.454 A47.6458 
N590 X-209.814 Y-14.101 Z10.487 A46.3803 
N591 X-209.814 Y-14.082 Z10.520 A45.1185 
N592 X-209.813 Y-14.062 Z10.552 A43.8600 
N593 X-209.813 Y-14.041 Z10.583 A42.6044 
N594 X-209.812 Y-14.020 Z10.614 A41.3513 
N595 X-209.812 Y-13.999 Z10.644 A40.1003 
N596 X-209.811 Y-13.976 Z10.674 A38.8509 
N597 X-209.811 Y-13.953 Z10.704 A37.6028 
N598 X-209.810 Y-13.930 Z10.732 A36.3554 
N599 X-209.810 Y-13.906 Z10.761 A35.1084 
N600 X-209.809 Y-13.880 Z10.789 A33.8613 
N601 X-209.809 Y-13.855 Z10.816 A32.6136 
N602 X-209.808 Y-13.828 Z10.844 A31.3649 
N603 X-209.808 Y-13.801 Z10.870 A30.1146 
N604 X-209.807 Y-13.773 Z10.896 A28.8622 
N605 X-209.807 Y-13.744 Z10.922 A27.6073 
N606 X-209.806 Y-13.714 Z10.948 A26.3492 
N607 X-209.806 Y-13.684 Z10.973 A25.0875 
N608 X-209.805 Y-13.652 Z10.997 A23.8217 
N609 X-209.804 Y-13.619 Z11.021 A22.5512 
N610 X-209.804 Y-13.586 Z11.045 A21.2756 
N611 X-209.803 Y-13.551 Z11.069 A19.9945 
N612 X-209.803 Y-13.514 Z11.092 A18.7078 
N613 X-209.802 Y-13.477 Z11.114 A17.4150 
N614 X-209.802 Y-13.438 Z11.136 A16.1162 
N615 X-209.801 Y-13.397 Z11.158 A14.8114 
N616 X-209.801 Y-13.355 Z11.179 A13.5009 
N617 X-209.800 Y-13.310 Z11.200 A12.1850 
N618 X-209.800 Y-13.264 Z11.221 A10.8644 
N619 X-209.799 Y-13.215 Z11.240 A9.5399 
N620 X-209.799 Y-13.164 Z11.260 A8.2124 
N621 X-209.798 Y-13.109 Z11.278 A6.8832 
N622 X-209.798 Y-13.052 Z11.296 A5.5531 
N623 X-209.797 Y-12.991 Z11.313 A4.2231 
N624 X-209.797 Y-12.926 Z11.329 A2.8937 
N625 X-209.796 Y-12.856 Z11.345 A1.5647 
N626 X-209.796 Y-12.781 Z11.359 A0.2356 
N627 X-209.795 Y-12.699 Z11.372 A358.9050 
N628 X-209.795 Y-12.611 Z11.383 A357.5712 
N629 X-209.794 Y-12.515 Z11.393 A356.2322 
N630 X-209.794 Y-12.409 Z11.401 A354.8865 
N631 X-209.793 Y-12.293 Z11.406 A353.5329 
N632 X-209.793 Y-12.163 Z11.407 A352.1722 
N633 X-209.792 Y-12.018 Z11.405 A350.8063 
N634 X-209.792 Y-11.856 Z11.398 A349.4392 
N635 X-209.792 Y-11.673 Z11.384 A348.0748 
N636 X-209.791 Y-11.466 Z11.363 A346.7166 
N637 X-209.791 Y-11.231 Z11.332 A345.3665 
N638 X-209.790 Y-10.965 Z11.290 A344.0265 
N639 X-209.790 Y-10.664 Z11.233 A342.7016 
N640 X-209.790 Y-10.324 Z11.159 A341.4019 
N641 X-209.789 Y-9.942 Z11.064 A340.1386 
N642 X-209.789 Y-9.514 Z10.947 A338.9206 
N643 X-209.789 Y-9.040 Z10.805 A337.8039 
N644 X-209.789 Y-8.519 Z10.635 A336.8014 
N645 X-209.788 Y-7.950 Z10.438 A335.9260 
N646 X-209.788 Y-7.335 Z10.213 A335.1860 
N647 X-209.788 Y-6.677 Z9.963 A334.5818 
N648 X-209.788 Y-5.979 Z9.689 A334.1072 
N649 X-209.787 Y-5.246 Z9.397 A333.7517 
N650 X-209.787 Y-4.487 Z9.089 A333.6065 
N651 X-209.787 Y-3.708 Z8.770 A333.6658 
N652 X-209.787 Y-2.917 Z8.448 A333.9349 
N653 X-209.787 Y-2.121 Z8.128 A334.4215 
N654 X-209.787 Y-1.328 Z7.816 A335.1312 
N655 X-209.786 Y-0.545 Z7.520 A336.0663 
N656 X-209.786 Y0.225 Z7.243 A337.1163 
N657 X-209.786 Y0.976 Z6.989 A338.2718 
N658 X-209.786 Y1.704 Z6.759 A339.5181 
N659 X-209.786 Y2.407 Z6.556 A340.8400 
N660 X-209.786 Y3.083 Z6.377 A342.1929 
N661 X-209.786 Y3.732 Z6.223 A343.5693 
N662 X-209.786 Y4.355 Z6.090 A344.9614 
N663 X-209.785 Y4.954 Z5.979 A346.3620 
N664 X-209.785 Y5.532 Z5.886 A347.7651 
N665 X-209.785 Y6.091 Z5.810 A349.1659 
N666 X-209.785 Y6.635 Z5.750 A350.5608 
N667 X-209.785 Y7.167 Z5.704 A351.9474 
N668 X-209.785 Y7.691 Z5.672 A353.3242 
N669 X-209.785 Y8.210 Z5.652 A354.6905 
N670 X-209.785 Y8.727 Z5.645 A356.0459 
N671 X-209.785 Y9.245 Z5.650 A357.3904 
N672 X-209.785 Y9.767 Z5.667 A358.7240 
N673 X-209.785 Y10.295 Z5.698 A0.0464 
N674 X-209.785 Y10.832 Z5.741 A1.3572 
N675 X-209.785 Y11.379 Z5.798 A2.6557 
N676 X-209.785 Y11.938 Z5.870 A3.9405 
N677 X-209.785 Y12.511 Z5.958 A5.2099 
N678 X-209.785 Y13.098 Z6.061 A6.4617 
N679 X-209.785 Y13.701 Z6.182 A7.6929 
N680 X-209.785 Y14.320 Z6.321 A8.9006 
N681 X-209.785 Y14.953 Z6.478 A10.0809 
N682 X-209.786 Y15.600 Z6.654 A11.2301 
N683 X-209.786 Y16.258 Z6.847 A12.3441 
N684 X-209.786 Y16.926 Z7.059 A13.4187 
N685 X-209.786 Y17.598 Z7.287 A14.4498 
N686 X-209.787 Y18.270 Z7.529 A15.4333 
N687 X-209.787 Y18.938 Z7.783 A16.3655 
N688 X-209.787 Y19.595 Z8.047 A17.2429 
N689 X-209.788 Y20.236 Z8.315 A18.0622 
N690 X-209.788 Y20.854 Z8.585 A18.8202 
N691 X-209.788 Y21.443 Z8.851 A19.5144 
N692 X-209.789 Y22.000 Z9.110 A20.1440 
N693 X-209.789 Y22.518 Z9.358 A20.7106 
N694 X-209.789 Y22.995 Z9.591 A21.2182 
N695 X-209.789 Y23.427 Z9.806 A21.6717 
N696 X-209.789 Y23.814 Z10.001 A22.0766 
N697 X-209.789 Y24.156 Z10.175 A22.4379 
N698 X-209.789 Y24.453 Z10.327 A22.7607 
N699 X-209.788 Y24.707 Z10.459 A23.0177 
N700 X-209.788 Y24.921 Z10.571 A23.2167 
N701 X-209.788 Y25.100 Z10.665 A23.3615 
N702 X-209.788 Y25.246 Z10.741 A23.4507 
N703 X-209.787 Y25.364 Z10.803 A23.4757 
N704 X-209.787 Y25.458 Z10.854 A23.3433 
N705 X-209.786 Y25.534 Z10.895 A23.0049 
N706 X-209.786 Y25.594 Z10.932 A22.1757 
N707 X-209.785 Y25.645 Z10.966 A20.7499 
N708 X-209.785 Y25.688 Z11.000 A18.6842 
N709 X-209.784 Y25.727 Z11.033 A16.0704 
N710 X-209.784 Y25.762 Z11.064 A13.2900 
N711 X-209.783 Y25.793 Z11.091 A10.5163 
N712 X-209.783 Y25.821 Z11.115 A7.7911 
N713 X-209.782 Y25.847 Z11.137 A5.1413 
N714 X-209.782 Y25.870 Z11.154 A2.7945 
N715 X-209.781 Y25.890 Z11.169 A0.7251 
N716 X-209.781 Y25.908 Z11.180 A358.9319 
N717 X-209.780 Y25.925 Z11.190 A357.2588 
N718 X-209.779 Y25.940 Z11.199 A355.7097 
N719 X-209.779 Y25.955 Z11.207 A354.2130 
N720 X-209.778 Y25.970 Z11.214 A352.7645 
N721 X-209.778 Y25.984 Z11.221 A351.3573 
N722 X-209.777 Y25.998 Z11.227 A349.9835 
N723 X-209.777 Y26.012 Z11.233 A348.6386 
N724 X-209.776 Y26.025 Z11.238 A347.3169 
N725 X-209.776 Y26.039 Z11.242 A346.0140 
N726 X-209.775 Y26.052 Z11.247 A344.7271 
N727 X-209.775 Y26.066 Z11.251 A343.4532 
N728 X-209.774 Y26.079 Z11.255 A342.1902 
N729 X-209.773 Y26.092 Z11.258 A340.9363 
N730 X-209.773 Y26.105 Z11.261 A339.6904 
N731 X-209.772 Y26.118 Z11.264 A338.4515 
N732 X-209.772 Y26.132 Z11.266 A337.2183 
N733 X-209.771 Y26.145 Z11.268 A335.9906 
N734 X-209.771 Y26.158 Z11.270 A334.7677 
N735 X-209.770 Y26.171 Z11.272 A333.5488 
N736 X-209.770 Y26.184 Z11.273 A332.3340 
N737 X-209.769 Y26.197 Z11.274 A331.1225 
N738 X-209.768 Y26.210 Z11.275 A329.9141 
N739 X-209.768 Y26.223 Z11.275 A328.7086 
N740 X-209.767 Y26.236 Z11.276 A327.5053 
N741 X-209.767 Y26.249 Z11.275 A326.3043 
N742 X-209.766 Y26.261 Z11.275 A325.1053 
N743 X-209.766 Y26.274 Z11.275 A323.9078 
N744 X-209.765 Y26.287 Z11.274 A322.7118 
N745 X-209.765 Y26.300 Z11.273 A321.5168 
N746 X-209.764 Y26.312 Z11.271 A320.3227 
N747 X-209.763 Y26.325 Z11.270 A319.1295 
N748 X-209.763 Y26.338 Z11.268 A317.9365 
N749 X-209.762 Y26.350 Z11.266 A316.7441 
N750 X-209.762 Y26.362 Z11.264 A315.5518 
N751 X-209.761 Y26.375 Z11.261 A314.3597 
N752 X-209.761 Y26.387 Z11.258 A313.1678 
N753 X-209.760 Y26.399 Z11.255 A311.9758 
N754 X-209.760 Y26.411 Z11.252 A310.7840 
N755 X-209.759 Y26.423 Z11.249 A309.5921 
N756 X-209.758 Y26.435 Z11.245 A308.4002 
N757 X-209.758 Y26.447 Z11.241 A307.2083 
N758 X-209.757 Y26.459 Z11.237 A306.0165 
N759 X-209.757 Y26.470 Z11.233 A304.8247 
N760 X-209.756 Y26.482 Z11.228 A303.6330 
N761 X-209.756 Y26.493 Z11.224 A302.4414 
N762 X-209.755 Y26.504 Z11.219 A301.2499 
N763 X-209.755 Y26.516 Z11.214 A300.0586 
N764 X-209.754 Y26.526 Z11.209 A298.8675 
N765 X-209.753 Y26.537 Z11.203 A297.6766 
N766 X-209.753 Y26.548 Z11.197 A296.4859 
N767 X-209.752 Y26.559 Z11.192 A295.2955 
N768 X-209.752 Y26.569 Z11.186 A294.1054 
N769 X-209.751 Y26.579 Z11.180 A292.9156 
N770 X-209.751 Y26.589 Z11.173 A291.7261 
N771 X-209.750 Y26.599 Z11.167 A290.5368 
N772 X-209.750 Y26.609 Z11.160 A289.3479 
N773 X-209.749 Y26.619 Z11.154 A288.1591 
N774 X-209.748 Y26.628 Z11.147 A286.9706 
N775 X-209.748 Y26.637 Z11.140 A285.7821 
N776 X-209.747 Y26.646 Z11.133 A284.5936 
N777 X-209.747 Y26.655 Z11.126 A283.4051 
N778 X-209.746 Y26.664 Z11.118 A282.2163 
N779 X-209.746 Y26.673 Z11.111 A281.0274 
N780 X-209.745 Y26.681 Z11.104 A279.8377 
N781 X-209.745 Y26.689 Z11.096 A278.6473 
N782 X-209.744 Y26.697 Z11.088 A277.4561 
N783 X-209.743 Y26.705 Z11.081 A276.2635 
N784 X-209.743 Y26.713 Z11.073 A275.0696 
N785 X-209.742 Y26.721 Z11.065 A273.8739 
N786 X-209.742 Y26.728 Z11.057 A272.6760 
N787 X-209.741 Y26.735 Z11.049 A271.4762 
N788 X-209.741 Y26.743 Z11.041 A270.2734 
N789 X-209.740 Y26.750 Z11.032 A269.0678 
N790 X-209.740 Y26.756 Z11.024 A267.8591 
N791 X-209.739 Y26.763 Z11.016 A266.6466 
N792 X-209.738 Y26.770 Z11.007 A265.4305 
N793 X-209.738 Y26.776 Z10.999 A264.2100 
N794 X-209.737 Y26.782 Z10.990 A262.9846 
N795 X-209.737 Y26.788 Z10.982 A261.7543 
N796 X-209.736 Y26.794 Z10.973 A260.5180 
N797 X-209.736 Y26.800 Z10.964 A259.2748 
N798 X-209.735 Y26.806 Z10.955 A258.0243 
N799 X-209.734 Y26.811 Z10.946 A256.7649 
N800 X-209.734 Y26.817 Z10.937 A255.4949 
N801 X-209.733 Y26.822 Z10.928 A254.2127 
N802 X-209.733 Y26.828 Z10.919 A252.9158 
N803 X-209.732 Y26.833 Z10.909 A251.6012 
N804 X-209.732 Y26.838 Z10.899 A250.2649 
N805 X-209.731 Y26.843 Z10.889 A248.9042 
N806 X-209.731 Y26.848 Z10.879 A247.5145 
N807 X-209.730 Y26.853 Z10.868 A246.0569 
N808 X-209.729 Y26.858 Z10.856 A244.5289 
N809 X-209.729 Y26.864 Z10.843 A242.8286 
N810 X-209.728 Y26.870 Z10.828 A240.9414 
N811 X-209.728 Y26.876 Z10.811 A238.8308 
N812 X-209.727 Y26.884 Z10.789 A236.2965 
N813 X-209.727 Y26.891 Z10.762 A233.2920 
N814 X-209.726 Y26.897 Z10.730 A229.8266 
N815 X-209.725 Y26.899 Z10.691 A226.1671 
N816 X-209.725 Y26.895 Z10.647 A222.3790 
N817 X-209.724 Y26.880 Z10.599 A218.8611 
N818 X-209.724 Y26.851 Z10.551 A216.5060 
N819 X-209.724 Y26.806 Z10.501 A215.3004 
N820 X-209.723 Y26.741 Z10.442 A214.8672 
N821 X-209.723 Y26.653 Z10.368 A214.7237 
N822 X-209.723 Y26.537 Z10.271 A214.6249 
N823 X-209.723 Y26.386 Z10.146 A214.5342 
N824 X-209.723 Y26.194 Z9.987 A214.4463 
N825 X-209.722 Y25.953 Z9.788 A214.3559 
N826 X-209.722 Y25.657 Z9.543 A214.2578 
N827 X-209.721 Y25.298 Z9.247 A214.1470 
N828 X-209.720 Y24.872 Z8.896 A214.0183 
N829 X-209.719 Y24.373 Z8.487 A213.8661 
N830 X-209.718 Y23.799 Z8.018 A213.6841 
N831 X-209.717 Y23.150 Z7.489 A213.4657 
N832 X-209.716 Y22.428 Z6.903 A213.2039 
N833 X-209.715 Y21.638 Z6.267 A212.8918 
N834 X-209.713 Y20.785 Z5.586 A212.5223 
N835 X-209.712 Y19.879 Z4.870 A212.0889 
N836 X-209.710 Y18.930 Z4.131 A211.5860 
N837 X-209.708 Y17.949 Z3.381 A211.0097 
N838 X-209.707 Y16.948 Z2.631 A210.3576 
N839 X-209.705 Y15.940 Z1.893 A209.6288 
N840 X-209.703 Y14.936 Z1.178 A208.8237 
N841 X-209.702 Y13.947 Z0.495 A207.9441 
N842 X-209.700 Y12.982 Z-0.147 A206.9931 
N843 X-209.699 Y12.050 Z-0.745 A205.9752 
N844 X-209.697 Y11.156 Z-1.295 A204.8960 
N845 X-209.696 Y10.305 Z-1.795 A203.7633 
N846 X-209.695 Y9.499 Z-2.246 A202.5857 
N847 X-209.694 Y8.740 Z-2.650 A201.3721 
N848 X-209.693 Y8.026 Z-3.009 A200.1301 
N849 X-209.692 Y7.358 Z-3.327 A198.8668 
N850 X-209.691 Y6.732 Z-3.608 A197.5881 
N851 X-209.690 Y6.146 Z-3.856 A196.2989 
N852 X-209.690 Y5.596 Z-4.074 A195.0034 
N853 X-209.689 Y5.079 Z-4.266 A193.7049 
N854 X-209.688 Y4.593 Z-4.435 A192.4057 
N855 X-209.688 Y4.133 Z-4.583 A191.1076 
N856 X-209.687 Y3.698 Z-4.714 A189.8119 
N857 X-209.687 Y3.284 Z-4.828 A188.5194 
N858 X-209.686 Y2.890 Z-4.927 A187.2304 
N859 X-209.686 Y2.513 Z-5.014 A185.9452 
N860 X-209.686 Y2.151 Z-5.089 A184.6636 
N861 X-209.685 Y1.804 Z-5.154 A183.3855 
N862 X-209.685 Y1.469 Z-5.209 A182.1107 
N863 X-209.685 Y1.146 Z-5.255 A180.8389 
N864 X-209.684 Y0.833 Z-5.293 A179.5700 
N865 X-209.684 Y0.530 Z-5.323 A178.3035 
N866 X-209.684 Y0.236 Z-5.346 A177.0394 
N867 X-209.683 Y-0.050 Z-5.362 A175.7774 
N868 X-209.683 Y-0.329 Z-5.372 A174.5172 
N869 X-209.683 Y-0.601 Z-5.376 A173.2586 
N870 X-209.683 Y-0.867 Z-5.374 A172.0015 
N871 X-209.683 Y-1.127 Z-5.367 A170.7457 
N872 X-209.682 Y-1.382 Z-5.355 A169.4911 
N873 X-209.682 Y-1.631 Z-5.337 A168.2376 
N874 X-209.682 Y-1.877 Z-5.315 A166.9851 
N875 X-209.682 Y-2.118 Z-5.287 A165.7335 
N876 X-209.682 Y-2.356 Z-5.255 A164.4828 
N877 X-209.681 Y-2.590 Z-5.219 A163.2329 
N878 X-209.681 Y-2.820 Z-5.177 A161.9836 
N879 X-209.681 Y-3.048 Z-5.132 A160.7350 
N880 X-209.681 Y-3.274 Z-5.081 A159.4870 
N881 X-209.681 Y-3.497 Z-5.026 A158.2394 
N882 X-209.681 Y-3.718 Z-4.967 A156.9921 
N883 X-209.681 Y-3.937 Z-4.903 A155.7452 
N884 X-209.681 Y-4.154 Z-4.834 A154.4987 
N885 X-209.680 Y-4.369 Z-4.761 A153.2524 
N886 X-209.680 Y-4.584 Z-4.682 A152.0064 
N887 X-209.680 Y-4.797 Z-4.599 A150.7608 
N888 X-209.680 Y-5.010 Z-4.511 A149.5155 
N889 X-209.680 Y-5.221 Z-4.418 A148.2706 
N890 X-209.680 Y-5.432 Z-4.319 A147.0261 
N891 X-209.680 Y-5.643 Z-4.214 A145.7820 
N892 X-209.680 Y-5.853 Z-4.104 A144.5383 
N893 X-209.680 Y-6.064 Z-3.988 A143.2951 
N894 X-209.680 Y-6.274 Z-3.866 A142.0524 
N895 X-209.680 Y-6.484 Z-3.738 A140.8104 
N896 X-209.680 Y-6.695 Z-3.602 A139.5693 
N897 X-209.680 Y-6.906 Z-3.460 A138.3293 
N898 X-209.680 Y-7.118 Z-3.310 A137.0905 
N899 X-209.680 Y-7.330 Z-3.153 A135.8533 
N900 X-209.680 Y-7.542 Z-2.988 A134.6181 
N901 X-209.680 Y-7.756 Z-2.814 A133.3852 
N902 X-209.680 Y-7.970 Z-2.632 A132.1550 
N903 X-209.680 Y-8.185 Z-2.441 A130.9280 
N904 X-209.680 Y-8.401 Z-2.240 A129.7049 
N905 X-209.680 Y-8.617 Z-2.029 A128.4862 
N906 X-209.680 Y-8.834 Z-1.808 A127.2725 
N907 X-209.680 Y-9.051 Z-1.577 A126.0648 
N908 X-209.680 Y-9.268 Z-1.335 A124.8637 
N909 X-209.680 Y-9.485 Z-1.083 A123.6701 
N910 X-209.680 Y-9.702 Z-0.819 A122.4849 
N911 X-209.680 Y-9.918 Z-0.545 A121.3087 
N912 X-209.680 Y-10.133 Z-0.259 A120.1421 
N913 X-209.680 Y-10.347 Z0.037 A118.9856 
N914 X-209.681 Y-10.558 Z0.343 A117.8393 
N915 X-209.681 Y-10.766 Z0.659 A116.7032 
N916 X-209.681 Y-10.972 Z0.984 A115.5771 
N917 X-209.681 Y-11.173 Z1.318 A114.4608 
N918 X-209.681 Y-11.370 Z1.658 A113.3545 
N919 X-209.681 Y-11.561 Z2.005 A112.2584 
N920 X-209.682 Y-11.745 Z2.357 A111.1732 
N921 X-209.682 Y-11.924 Z2.712 A110.0996 
N922 X-209.682 Y-12.094 Z3.068 A109.0375 
N923 X-209.682 Y-12.257 Z3.424 A107.9862 
N924 X-209.683 Y-12.411 Z3.779 A106.9438 
N925 X-209.683 Y-12.557 Z4.130 A105.9073 
N926 X-209.683 Y-12.693 Z4.475 A104.8733 
N927 X-209.683 Y-12.820 Z4.813 A103.8382 
N928 X-209.683 Y-12.938 Z5.143 A102.7992 
N929 X-209.684 Y-13.046 Z5.463 A101.7545 
N930 X-209.684 Y-13.145 Z5.772 A100.7029 
N931 X-209.684 Y-13.234 Z6.068 A99.6441 
N932 X-209.684 Y-13.314 Z6.351 A98.5778 
N933 X-209.685 Y-13.385 Z6.620 A97.5037 
N934 X-209.685 Y-13.447 Z6.875 A96.4216 
N935 X-209.685 Y-13.502 Z7.115 A95.3321 
N936 X-209.685 Y-13.550 Z7.341 A94.2369 
N937 X-209.685 Y-13.590 Z7.551 A93.1378 
N938 X-209.686 Y-13.625 Z7.748 A92.0348 
N939 X-209.686 Y-13.654 Z7.930 A90.9257 
N940 X-209.686 Y-13.679 Z8.098 A89.8062 
N941 X-209.686 Y-13.699 Z8.254 A88.6724 
N942 X-209.686 Y-13.716 Z8.397 A87.5216 
N943 X-209.686 Y-13.730 Z8.528 A86.3532 
N944 X-209.686 Y-13.741 Z8.649 A85.1682 
N945 X-209.687 Y-13.749 Z8.759 A83.9683 
N946 X-209.687 Y-13.755 Z8.861 A82.7550 
N947 X-209.687 Y-13.760 Z8.953 A81.5290 
N948 X-209.687 Y-13.764 Z9.038 A80.2906 
N949 X-209.687 Y-13.766 Z9.116 A79.0391 
N950 X-209.687 Y-13.767 Z9.188 A77.7743 
N951 X-209.687 Y-13.768 Z9.254 A76.4957 
N952 X-209.687 Y-13.768 Z9.315 A75.2037 
N953 X-209.687 Y-13.768 Z9.371 A73.8989 
N954 X-209.687 Y-13.767 Z9.424 A72.5826 
N955 X-209.687 Y-13.766 Z9.473 A71.2569 
N956 X-209.687 Y-13.764 Z9.519 A69.9240 
N957 X-209.687 Y-13.762 Z9.562 A68.5864 
N958 X-209.687 Y-13.760 Z9.602 A67.2466 
N959 X-209.688 Y-13.758 Z9.641 A65.9068 
N960 X-209.688 Y-13.755 Z9.678 A64.5688 
N961 X-209.688 Y-13.752 Z9.713 A63.2341 
N962 X-209.688 Y-13.749 Z9.747 A61.9038 
N963 X-209.688 Y-13.745 Z9.779 A60.5788 
N964 X-209.688 Y-13.742 Z9.811 A59.2595 
N965 X-209.688 Y-13.737 Z9.841 A57.9462 
N966 X-209.688 Y-13.733 Z9.871 A56.6390 
N967 X-209.688 Y-13.728 Z9.900 A55.3378 
N968 X-209.688 Y-13.722 Z9.928 A54.0424 
N969 X-209.688 Y-13.716 Z9.956 A52.7528 
N970 X-209.688 Y-13.710 Z9.983 A51.4687 
N971 X-209.688 Y-13.704 Z10.009 A50.1897 
N972 X-209.688 Y-13.697 Z10.036 A48.9155 
N973 X-209.688 Y-13.689 Z10.061 A47.6458 
N974 X-209.688 Y-13.681 Z10.087 A46.3803 
N975 X-209.688 Y-13.672 Z10.112 A45.1185 
N976 X-209.688 Y-13.663 Z10.137 A43.8600 
N977 X-209.688 Y-13.654 Z10.162 A42.6044 
N978 X-209.688 Y-13.644 Z10.186 A41.3513 
N979 X-209.688 Y-13.633 Z10.210 A40.1003 
N980 X-209.688 Y-13.622 Z10.234 A38.8509 
N981 X-209.688 Y-13.610 Z10.258 A37.6028 
N982 X-209.688 Y-13.598 Z10.282 A36.3554 
N983 X-209.688 Y-13.585 Z10.305 A35.1084 
N984 X-209.688 Y-13.571 Z10.328 A33.8613 
N985 X-209.688 Y-13.557 Z10.351 A32.6136 
N986 X-209.688 Y-13.542 Z10.374 A31.3649 
N987 X-209.688 Y-13.527 Z10.397 A30.1146 
N988 X-209.688 Y-13.510 Z10.420 A28.8622 
N989 X-209.688 Y-13.493 Z10.442 A27.6073 
N990 X-209.688 Y-13.475 Z10.464 A26.3492 
N991 X-209.688 Y-13.456 Z10.486 A25.0875 
N992 X-209.689 Y-13.436 Z10.508 A23.8217 
N993 X-209.689 Y-13.415 Z10.530 A22.5512 
N994 X-209.689 Y-13.394 Z10.552 A21.2756 
N995 X-209.689 Y-13.371 Z10.574 A19.9945 
N996 X-209.689 Y-13.346 Z10.595 A18.7078 
N997 X-209.689 Y-13.321 Z10.617 A17.4150 
N998 X-209.689 Y-13.294 Z10.638 A16.1162 
N999 X-209.689 Y-13.265 Z10.659 A14.8114 
N1000 X-209.689 Y-13.235 Z10.680 A13.5009 
N1001 X-209.689 Y-13.203 Z10.700 A12.1850 
N1002 X-209.689 Y-13.168 Z10.721 A10.8644 
N1003 X-209.689 Y-13.131 Z10.741 A9.5399 
N1004 X-209.689 Y-13.092 Z10.761 A8.2124 
N1005 X-209.689 Y-13.049 Z10.781 A6.8832 
N1006 X-209.689 Y-13.004 Z10.800 A5.5531 
N1007 X-209.689 Y-12.954 Z10.818 A4.2231 
N1008 X-209.689 Y-12.901 Z10.836 A2.8937 
N1009 X-209.689 Y-12.842 Z10.854 A1.5647 
N1010 X-209.689 Y-12.779 Z10.870 A0.2356 
N1011 X-209.689 Y-12.709 Z10.886 A358.9050 
N1012 X-209.689 Y-12.632 Z10.900 A357.5712 
N1013 X-209.689 Y-12.547 Z10.913 A356.2322 
N1014 X-209.690 Y-12.452 Z10.924 A354.8865 
N1015 X-209.690 Y-12.346 Z10.933 A353.5329 
N1016 X-209.690 Y-12.228 Z10.939 A352.1722 
N1017 X-209.690 Y-12.094 Z10.941 A350.8063 
N1018 X-209.690 Y-11.942 Z10.938 A349.4392 
N1019 X-209.690 Y-11.769 Z10.929 A348.0748 
N1020 X-209.690 Y-11.572 Z10.912 A346.7166 
N1021 X-209.690 Y-11.348 Z10.887 A345.3665 
N1022 X-209.691 Y-11.091 Z10.849 A344.0265 
N1023 X-209.691 Y-10.800 Z10.798 A342.7016 
N1024 X-209.691 Y-10.469 Z10.729 A341.4019 
N1025 X-209.691 Y-10.095 Z10.641 A340.1386 
N1026 X-209.691 Y-9.675 Z10.529 A338.9206 
N1027 X-209.692 Y-9.208 Z10.392 A337.8039 
N1028 X-209.692 Y-8.693 Z10.228 A336.8014 
N1029 X-209.692 Y-8.129 Z10.036 A335.9260 
N1030 X-209.693 Y-7.519 Z9.816 A335.1860 
N1031 X-209.693 Y-6.863 Z9.570 A334.5818 
N1032 X-209.693 Y-6.168 Z9.300 A334.1072 
N1033 X-209.694 Y-5.437 Z9.011 A333.7517 
N1034 X-209.694 Y-4.677 Z8.706 A333.6065 
N1035 X-209.694 Y-3.897 Z8.390 A333.6658 
N1036 X-209.695 Y-3.103 Z8.069 A333.9349 
N1037 X-209.695 Y-2.303 Z7.749 A334.4215 
N1038 X-209.696 Y-1.504 Z7.438 A335.1312 
N1039 X-209.696 Y-0.713 Z7.141 A336.0663 
N1040 X-209.696 Y0.065 Z6.863 A337.1163 
N1041 X-209.697 Y0.825 Z6.608 A338.2718 
N1042 X-209.697 Y1.562 Z6.378 A339.5181 
N1043 X-209.698 Y2.274 Z6.174 A340.8400 
N1044 X-209.698 Y2.960 Z5.994 A342.1929 
N1045 X-209.699 Y3.619 Z5.839 A343.5693 
N1046 X-209.699 Y4.252 Z5.707 A344.9614 
N1047 X-209.699 Y4.861 Z5.596 A346.3620 
N1048 X-209.700 Y5.448 Z5.503 A347.7651 
N1049 X-209.700 Y6.017 Z5.428 A349.1659 
N1050 X-209.701 Y6.571 Z5.369 A350.5608 
N1051 X-209.701 Y7.113 Z5.324 A351.9474 
N1052 X-209.702 Y7.647 Z5.293 A353.3242 
N1053 X-209.702 Y8.175 Z5.275 A354.6905 
N1054 X-209.703 Y8.701 Z5.269 A356.0459 
N1055 X-209.703 Y9.228 Z5.276 A357.3904 
N1056 X-209.704 Y9.759 Z5.296 A358.7240 
N1057 X-209.704 Y10.296 Z5.329 A0.0464 
N1058 X-209.705 Y10.840 Z5.375 A1.3572 
N1059 X-209.705 Y11.396 Z5.435 A2.6557 
N1060 X-209.706 Y11.963 Z5.510 A3.9405 
N1061 X-209.707 Y12.543 Z5.600 A5.2099 
N1062 X-209.707 Y13.138 Z5.707 A6.4617 
N1063 X-209.708 Y13.749 Z5.832 A7.6929 
N1064 X-209.709 Y14.374 Z5.974 A8.9006 
N1065 X-209.709 Y15.014 Z6.135 A10.0809 
N1066 X-209.710 Y15.667 Z6.314 A11.2301 
N1067 X-209.711 Y16.332 Z6.512 A12.3441 
N1068 X-209.712 Y17.005 Z6.727 A13.4187 
N1069 X-209.713 Y17.682 Z6.959 A14.4498 
N1070 X-209.714 Y18.359 Z7.205 A15.4333 
N1071 X-209.714 Y19.032 Z7.464 A16.3655 
N1072 X-209.715 Y19.693 Z7.731 A17.2429 
N1073 X-209.716 Y20.337 Z8.003 A18.0622 
N1074 X-209.717 Y20.959 Z8.276 A18.8202 
N1075 X-209.718 Y21.551 Z8.547 A19.5144 
N1076 X-209.719 Y22.110 Z8.809 A20.1440 
N1077 X-209.719 Y22.630 Z9.061 A20.7106 
N1078 X-209.720 Y23.109 Z9.297 A21.2182 
N1079 X-209.721 Y23.543 Z9.515 A21.6717 
N1080 X-209.721 Y23.931 Z9.713 A22.0766 
N1081 X-209.722 Y24.273 Z9.890 A22.4379 
N1082 X-209.722 Y24.571 Z10.046 A22.7607 
N1083 X-209.722 Y24.825 Z10.181 A23.0177 
N1084 X-209.723 Y25.040 Z10.295 A23.2167 
N1085 X-209.723 Y25.218 Z10.391 A23.3615 
N1086 X-209.723 Y25.363 Z10.470 A23.4507 
N1087 X-209.723 Y25.481 Z10.535 A23.4757 
N1088 X-209.724 Y25.573 Z10.587 A23.3433 
N1089 X-209.724 Y25.646 Z10.630 A23.0049 
N1090 X-209.724 Y25.702 Z10.668 A22.1757 
N1091 X-209.724 Y25.745 Z10.702 A20.7499 
N1092 X-209.724 Y25.778 Z10.735 A18.6842 
N1093 X-209.724 Y25.804 Z10.767 A16.0704 
N1094 X-209.724 Y25.825 Z10.796 A13.2900 
N1095 X-209.724 Y25.842 Z10.823 A10.5163 
N1096 X-209.724 Y25.858 Z10.848 A7.7911 
N1097 X-209.724 Y25.871 Z10.870 A5.1413 
N1098 X-209.724 Y25.883 Z10.890 A2.7945 
N1099 X-209.724 Y25.894 Z10.907 A0.7251 
N1100 X-209.724 Y25.903 Z10.921 A358.9319 
N1101 X-209.724 Y25.913 Z10.934 A357.2588 
N1102 X-209.724 Y25.921 Z10.945 A355.7097 
N1103 X-209.724 Y25.930 Z10.956 A354.2130 
N1104 X-209.724 Y25.938 Z10.967 A352.7645 
N1105 X-209.724 Y25.947 Z10.977 A351.3573 
N1106 X-209.724 Y25.956 Z10.986 A349.9835 
N1107 X-209.724 Y25.964 Z10.996 A348.6386 
N1108 X-209.724 Y25.973 Z11.004 A347.3169 
N1109 X-209.724 Y25.982 Z11.013 A346.0140 
N1110 X-209.724 Y25.991 Z11.021 A344.7271 
N1111 X-209.724 Y26.000 Z11.029 A343.4532 
N1112 X-209.724 Y26.009 Z11.037 A342.1902 
N1113 X-209.724 Y26.018 Z11.044 A340.9363 
N1114 X-209.724 Y26.028 Z11.051 A339.6904 
N1115 X-209.724 Y26.037 Z11.058 A338.4515 
N1116 X-209.724 Y26.047 Z11.064 A337.2183 
N1117 X-209.724 Y26.057 Z11.071 A335.9906 
N1118 X-209.724 Y26.067 Z11.077 A334.7677 
N1119 X-209.724 Y26.077 Z11.083 A333.5488 
N1120 X-209.724 Y26.087 Z11.088 A332.3340 
N1121 X-209.724 Y26.097 Z11.094 A331.1225 
N1122 X-209.724 Y26.108 Z11.099 A329.9141 
N1123 X-209.724 Y26.118 Z11.104 A328.7086 
N1124 X-209.724 Y26.129 Z11.108 A327.5053 
N1125 X-209.724 Y26.140 Z11.112 A326.3043 
N1126 X-209.724 Y26.151 Z11.117 A325.1053 
N1127 X-209.724 Y26.162 Z11.120 A323.9078 
N1128 X-209.724 Y26.173 Z11.124 A322.7118 
N1129 X-209.724 Y26.184 Z11.127 A321.5168 
N1130 X-209.724 Y26.195 Z11.130 A320.3227 
N1131 X-209.724 Y26.207 Z11.133 A319.1295 
N1132 X-209.724 Y26.218 Z11.136 A317.9365 
N1133 X-209.724 Y26.230 Z11.138 A316.7441 
N1134 X-209.724 Y26.241 Z11.140 A315.5518 
N1135 X-209.724 Y26.253 Z11.142 A314.3597 
N1136 X-209.724 Y26.265 Z11.144 A313.1678 
N1137 X-209.724 Y26.276 Z11.145 A311.9758 
N1138 X-209.724 Y26.288 Z11.146 A310.7840 
N1139 X-209.724 Y26.300 Z11.147 A309.5921 
N1140 X-209.724 Y26.312 Z11.147 A308.4002 
N1141 X-209.724 Y26.323 Z11.147 A307.2083 
N1142 X-209.724 Y26.335 Z11.147 A306.0165 
N1143 X-209.724 Y26.347 Z11.147 A304.8247 
N1144 X-209.724 Y26.359 Z11.147 A303.6330 
N1145 X-209.724 Y26.371 Z11.146 A302.4414 
N1146 X-209.724 Y26.383 Z11.145 A301.2499 
N1147 X-209.724 Y26.394 Z11.144 A300.0586 
N1148 X-209.724 Y26.406 Z11.142 A298.8675 
N1149 X-209.724 Y26.418 Z11.140 A297.6766 
N1150 X-209.724 Y26.430 Z11.138 A296.4859 
N1151 X-209.724 Y26.441 Z11.136 A295.2955 
N1152 X-209.724 Y26.453 Z11.134 A294.1054 
N1153 X-209.724 Y26.464 Z11.131 A292.9156 
N1154 X-209.724 Y26.476 Z11.128 A291.7261 
N1155 X-209.724 Y26.487 Z11.125 A290.5368 
N1156 X-209.724 Y26.498 Z11.122 A289.3479 
N1157 X-209.724 Y26.510 Z11.118 A288.1591 
N1158 X-209.724 Y26.521 Z11.114 A286.9706 
N1159 X-209.724 Y26.532 Z11.110 A285.7821 
N1160 X-209.724 Y26.543 Z11.106 A284.5936 
N1161 X-209.724 Y26.554 Z11.102 A283.4051 
N1162 X-209.724 Y26.565 Z11.097 A282.2163 
N1163 X-209.724 Y26.575 Z11.092 A281.0274 
N1164 X-209.724 Y26.586 Z11.087 A279.8377 
N1165 X-209.724 Y26.596 Z11.082 A278.6473 
N1166 X-209.724 Y26.607 Z11.076 A277.4561 
N1167 X-209.724 Y26.617 Z11.071 A276.2635 
N1168 X-209.724 Y26.627 Z11.065 A275.0696 
N1169 X-209.724 Y26.637 Z11.059 A273.8739 
N1170 X-209.724 Y26.647 Z11.053 A272.6760 
N1171 X-209.724 Y26.657 Z11.047 A271.4762 
N1172 X-209.724 Y26.666 Z11.040 A270.2734 
N1173 X-209.724 Y26.676 Z11.034 A269.0678 
N1174 X-209.724 Y26.685 Z11.027 A267.8591 
N1175 X-209.724 Y26.694 Z11.020 A266.6466 
N1176 X-209.724 Y26.704 Z11.013 A265.4305 
N1177 X-209.724 Y26.713 Z11.005 A264.2100 
N1178 X-209.724 Y26.722 Z10.998 A262.9846 
N1179 X-209.724 Y26.730 Z10.990 A261.7543 
N1180 X-209.724 Y26.739 Z10.982 A260.5180 
N1181 X-209.724 Y26.748 Z10.974 A259.2748 
N1182 X-209.724 Y26.756 Z10.966 A258.0243 
N1183 X-209.724 Y26.764 Z10.957 A256.7649 
N1184 X-209.724 Y26.773 Z10.949 A255.4949 
N1185 X-209.724 Y26.781 Z10.940 A254.2127 
N1186 X-209.724 Y26.789 Z10.931 A252.9158 
N1187 X-209.724 Y26.797 Z10.921 A251.6012 
N1188 X-209.724 Y26.804 Z10.911 A250.2649 
N1189 X-209.724 Y26.812 Z10.901 A248.9042 
N1190 X-209.724 Y26.820 Z10.891 A247.5145 
N1191 X-209.724 Y26.827 Z10.879 A246.0569 
N1192 X-209.724 Y26.835 Z10.867 A244.5289 
N1193 X-209.724 Y26.843 Z10.854 A242.8286 
N1194 X-209.724 Y26.852 Z10.838 A240.9414 
N1195 X-209.724 Y26.861 Z10.820 A238.8308 
N1196 X-209.724 Y26.871 Z10.798 A236.2965 
N1197 X-209.724 Y26.881 Z10.770 A233.2920 
N1198 X-209.724 Y26.889 Z10.736 A229.8266 
N1199 X-209.724 Y26.894 Z10.696 A226.1671 
N1200 X-209.724 Y26.891 Z10.651 A222.3790 
N1201 X-209.724 Y26.879 Z10.601 A218.8611 
N1202 X-209.724 Y26.851 Z10.551 A216.5053 
N1203 X-209.724 Y26.808 Z10.503 A215.3406 
N1204 X-209.723 Y26.747 Z10.448 A214.9063 
N1205 X-209.723 Y26.664 Z10.377 A214.7567 
N1206 X-209.723 Y26.553 Z10.285 A214.6517 
N1207 X-209.723 Y26.409 Z10.165 A214.5553 
N1208 X-209.723 Y26.226 Z10.013 A214.4626 
N1209 X-209.722 Y25.995 Z9.822 A214.3687 
N1210 X-209.722 Y25.709 Z9.586 A214.2686 
N1211 X-209.721 Y25.363 Z9.300 A214.1578 
N1212 X-209.720 Y24.949 Z8.960 A214.0317 
N1213 X-209.719 Y24.464 Z8.561 A213.8854 
N1214 X-209.718 Y23.903 Z8.103 A213.7136 
N1215 X-209.716 Y23.268 Z7.585 A213.5110 
N1216 X-209.714 Y22.558 Z7.009 A213.2721 
N1217 X-209.711 Y21.779 Z6.380 A212.9921 
N1218 X-209.708 Y20.935 Z5.706 A212.6664 
N1219 X-209.702 Y20.036 Z4.995 A212.2915 
N1220 X-209.695 Y19.091 Z4.258 A211.8658 
N1221 X-209.685 Y18.112 Z3.507 A211.3405 
N1222 X-209.671 Y17.110 Z2.753 A210.7167 
N1223 X-209.653 Y16.098 Z2.009 A209.9947 
N1224 X-209.632 Y15.088 Z1.287 A209.1747 
N1225 X-209.607 Y14.090 Z0.594 A208.2562 
N1226 X-209.580 Y13.114 Z-0.060 A207.2383 
N1227 X-209.554 Y12.169 Z-0.670 A206.1692 
N1228 X-209.528 Y11.262 Z-1.231 A205.0505 
N1229 X-209.505 Y10.396 Z-1.743 A203.8859 
N1230 X-209.484 Y9.575 Z-2.205 A202.6814 
N1231 X-209.465 Y8.800 Z-2.619 A201.4435 
N1232 X-209.448 Y8.071 Z-2.987 A200.1786 
N1233 X-209.433 Y7.388 Z-3.314 A198.8926 
N1234 X-209.420 Y6.748 Z-3.602 A197.5907 
N1235 X-209.408 Y6.148 Z-3.855 A196.2776 
N1236 X-209.398 Y5.586 Z-4.078 A194.9570 
N1237 X-209.388 Y5.058 Z-4.274 A193.6322 
N1238 X-209.379 Y4.561 Z-4.446 A192.3056 
N1239 X-209.371 Y4.092 Z-4.596 A190.9793 
N1240 X-209.364 Y3.648 Z-4.728 A189.6545 
N1241 X-209.357 Y3.226 Z-4.843 A188.3322 
N1242 X-209.350 Y2.825 Z-4.943 A187.0129 
N1243 X-209.344 Y2.441 Z-5.030 A185.6969 
N1244 X-209.338 Y2.073 Z-5.104 A184.3843 
N1245 X-209.333 Y1.720 Z-5.168 A183.0750 
N1246 X-209.328 Y1.380 Z-5.222 A181.7689 
N1247 X-209.323 Y1.052 Z-5.267 A180.4658 
N1248 X-209.318 Y0.734 Z-5.303 A179.1655 
N1249 X-209.313 Y0.427 Z-5.331 A177.8678 
N1250 X-209.309 Y0.128 Z-5.353 A176.5724 
N1251 X-209.304 Y-0.162 Z-5.367 A175.2792 
N1252 X-209.300 Y-0.445 Z-5.374 A173.9879 
N1253 X-209.296 Y-0.721 Z-5.376 A172.6983 
N1254 X-209.292 Y-0.991 Z-5.372 A171.4103 
N1255 X-209.288 Y-1.255 Z-5.361 A170.1236 
N1256 X-209.285 Y-1.513 Z-5.346 A168.8383 
N1257 X-209.281 Y-1.767 Z-5.325 A167.5541 
N1258 X-209.278 Y-2.016 Z-5.300 A166.2710 
N1259 X-209.274 Y-2.260 Z-5.269 A164.9889 
N1260 X-209.271 Y-2.502 Z-5.233 A163.7077 
N1261 X-209.268 Y-2.739 Z-5.192 A162.4274 
N1262 X-209.264 Y-2.974 Z-5.147 A161.1477 
N1263 X-209.261 Y-3.205 Z-5.097 A159.8688 
N1264 X-209.258 Y-3.435 Z-5.042 A158.5904 
N1265 X-209.255 Y-3.661 Z-4.983 A157.3124 
N1266 X-209.252 Y-3.886 Z-4.918 A156.0349 
N1267 X-209.249 Y-4.109 Z-4.849 A154.7578 
N1268 X-209.245 Y-4.330 Z-4.774 A153.4811 
N1269 X-209.242 Y-4.550 Z-4.695 A152.2047 
N1270 X-209.239 Y-4.769 Z-4.611 A150.9288 
N1271 X-209.236 Y-4.986 Z-4.521 A149.6533 
N1272 X-209.233 Y-5.203 Z-4.426 A148.3782 
N1273 X-209.230 Y-5.420 Z-4.325 A147.1036 
N1274 X-209.227 Y-5.635 Z-4.218 A145.8295 
N1275 X-209.224 Y-5.851 Z-4.106 A144.5560 
N1276 X-209.221 Y-6.066 Z-3.987 A143.2831 
N1277 X-209.217 Y-6.282 Z-3.862 A142.0109 
N1278 X-209.214 Y-6.497 Z-3.730 A140.7396 
N1279 X-209.211 Y-6.713 Z-3.591 A139.4694 
N1280 X-209.208 Y-6.929 Z-3.444 A138.2004 
N1281 X-209.205 Y-7.146 Z-3.290 A136.9331 
N1282 X-209.201 Y-7.363 Z-3.128 A135.6677 
N1283 X-209.198 Y-7.581 Z-2.957 A134.4047 
N1284 X-209.194 Y-7.800 Z-2.778 A133.1444 
N1285 X-209.191 Y-8.019 Z-2.589 A131.8874 
N1286 X-209.187 Y-8.239 Z-2.391 A130.6341 
N1287 X-209.184 Y-8.460 Z-2.183 A129.3854 
N1288 X-209.180 Y-8.681 Z-1.964 A128.1417 
N1289 X-209.177 Y-8.903 Z-1.735 A126.9039 
N1290 X-209.173 Y-9.125 Z-1.495 A125.6728 
N1291 X-209.169 Y-9.347 Z-1.244 A124.4492 
N1292 X-209.165 Y-9.569 Z-0.982 A123.2340 
N1293 X-209.161 Y-9.790 Z-0.708 A122.0279 
N1294 X-209.157 Y-10.011 Z-0.423 A120.8318 
N1295 X-209.153 Y-10.230 Z-0.127 A119.6459 
N1296 X-209.149 Y-10.446 Z0.180 A118.4708 
N1297 X-209.145 Y-10.661 Z0.497 A117.3065 
N1298 X-209.141 Y-10.872 Z0.825 A116.1529 
N1299 X-209.137 Y-11.079 Z1.160 A115.0098 
N1300 X-209.133 Y-11.282 Z1.504 A113.8772 
N1301 X-209.128 Y-11.479 Z1.855 A112.7550 
N1302 X-209.124 Y-11.670 Z2.211 A111.6439 
N1303 X-209.120 Y-11.854 Z2.571 A110.5442 
N1304 X-209.116 Y-12.031 Z2.934 A109.4562 
N1305 X-209.112 Y-12.199 Z3.296 A108.3793 
N1306 X-209.108 Y-12.359 Z3.658 A107.3119 
N1307 X-209.104 Y-12.510 Z4.016 A106.2515 
N1308 X-209.100 Y-12.652 Z4.369 A105.1948 
N1309 X-209.097 Y-12.784 Z4.716 A104.1382 
N1310 X-209.093 Y-12.907 Z5.054 A103.0789 
N1311 X-209.090 Y-13.019 Z5.382 A102.0145 
N1312 X-209.086 Y-13.122 Z5.699 A100.9438 
N1313 X-209.083 Y-13.215 Z6.003 A99.8661 
N1314 X-209.080 Y-13.298 Z6.294 A98.7809 
N1315 X-209.078 Y-13.372 Z6.571 A97.6879 
N1316 X-209.075 Y-13.437 Z6.833 A96.5866 
N1317 X-209.073 Y-13.494 Z7.080 A95.4774 
N1318 X-209.071 Y-13.544 Z7.311 A94.3616 
N1319 X-209.069 Y-13.586 Z7.528 A93.2406 
N1320 X-209.067 Y-13.622 Z7.729 A92.1147 
N1321 X-209.065 Y-13.652 Z7.916 A90.9818 
N1322 X-209.064 Y-13.678 Z8.089 A89.8382 
N1323 X-209.062 Y-13.699 Z8.248 A88.6799 
N1324 X-209.061 Y-13.716 Z8.394 A87.5043 
N1325 X-209.060 Y-13.730 Z8.529 A86.3109 
N1326 X-209.059 Y-13.741 Z8.652 A85.1003 
N1327 X-209.058 Y-13.750 Z8.764 A83.8739 
N1328 X-209.057 Y-13.756 Z8.867 A82.6332 
N1329 X-209.056 Y-13.761 Z8.962 A81.3787 
N1330 X-209.056 Y-13.764 Z9.048 A80.1105 
N1331 X-209.055 Y-13.766 Z9.127 A78.8283 
N1332 X-209.055 Y-13.768 Z9.199 A77.5318 
N1333 X-209.054 Y-13.768 Z9.266 A76.2208 
N1334 X-209.054 Y-13.768 Z9.327 A74.8957 
N1335 X-209.053 Y-13.768 Z9.384 A73.5574 
N1336 X-209.053 Y-13.767 Z9.437 A72.2076 
N1337 X-209.053 Y-13.765 Z9.487 A70.8484 
N1338 X-209.053 Y-13.764 Z9.533 A69.4822 
N1339 X-209.053 Y-13.762 Z9.576 A68.1116 
N1340 X-209.052 Y-13.759 Z9.617 A66.7390 
N1341 X-209.052 Y-13.757 Z9.656 A65.3667 
N1342 X-209.052 Y-13.754 Z9.693 A63.9965 
N1343 X-209.052 Y-13.751 Z9.729 A62.6299 
N1344 X-209.052 Y-13.747 Z9.763 A61.2679 
N1345 X-209.052 Y-13.743 Z9.796 A59.9114 
N1346 X-209.052 Y-13.739 Z9.827 A58.5609 
N1347 X-209.051 Y-13.735 Z9.858 A57.2166 
N1348 X-209.051 Y-13.730 Z9.888 A55.8785 
N1349 X-209.051 Y-13.724 Z9.917 A54.5467 
N1350 X-209.051 Y-13.718 Z9.946 A53.2210 
N1351 X-209.051 Y-13.712 Z9.974 A51.9012 
N1352 X-209.051 Y-13.706 Z10.001 A50.5870 
N1353 X-209.051 Y-13.698 Z10.028 A49.2781 
N1354 X-209.051 Y-13.691 Z10.055 A47.9742 
N1355 X-209.051 Y-13.683 Z10.081 A46.6748 
N1356 X-209.050 Y-13.674 Z10.107 A45.3795 
N1357 X-209.050 Y-13.665 Z10.133 A44.0880 
N1358 X-209.050 Y-13.655 Z10.158 A42.7997 
N1359 X-209.050 Y-13.645 Z10.183 A41.5141 
N1360 X-209.050 Y-13.634 Z10.208 A40.2309 
N1361 X-209.050 Y-13.623 Z10.232 A38.9495 
N1362 X-209.050 Y-13.611 Z10.257 A37.6694 
N1363 X-209.050 Y-13.598 Z10.281 A36.3902 
N1364 X-209.049 Y-13.585 Z10.305 A35.1114 
N1365 X-209.049 Y-13.571 Z10.329 A33.8324 
N1366 X-209.049 Y-13.557 Z10.352 A32.5528 
N1367 X-209.049 Y-13.541 Z10.376 A31.2719 
N1368 X-209.049 Y-13.525 Z10.399 A29.9893 
N1369 X-209.049 Y-13.508 Z10.422 A28.7044 
N1370 X-209.048 Y-13.490 Z10.445 A27.4166 
N1371 X-209.048 Y-13.472 Z10.468 A26.1253 
N1372 X-209.048 Y-13.452 Z10.491 A24.8300 
N1373 X-209.048 Y-13.432 Z10.513 A23.5301 
N1374 X-209.048 Y-13.410 Z10.536 A22.2252 
N1375 X-209.047 Y-13.387 Z10.558 A20.9148 
N1376 X-209.047 Y-13.364 Z10.580 A19.5984 
N1377 X-209.047 Y-13.338 Z10.602 A18.2759 
N1378 X-209.047 Y-13.312 Z10.624 A16.9471 
N1379 X-209.046 Y-13.283 Z10.646 A15.6120 
N1380 X-209.046 Y-13.253 Z10.667 A14.2706 
N1381 X-209.046 Y-13.221 Z10.689 A12.9234 
N1382 X-209.045 Y-13.187 Z10.710 A11.5708 
N1383 X-209.045 Y-13.151 Z10.731 A10.2136 
N1384 X-209.044 Y-13.111 Z10.751 A8.8526 
N1385 X-209.044 Y-13.069 Z10.772 A7.4889 
N1386 X-209.043 Y-13.024 Z10.792 A6.1236 
N1387 X-209.043 Y-12.975 Z10.811 A4.7575 
N1388 X-209.042 Y-12.921 Z10.830 A3.3915 
N1389 X-209.042 Y-12.863 Z10.848 A2.0256 
N1390 X-209.041 Y-12.800 Z10.865 A0.6594 
N1391 X-209.040 Y-12.730 Z10.881 A359.2921 
N1392 X-209.040 Y-12.653 Z10.897 A357.9221 
N1393 X-209.039 Y-12.568 Z10.910 A356.5478 
N1394 X-209.038 Y-12.473 Z10.922 A355.1677 
N1395 X-209.036 Y-12.366 Z10.931 A353.7810 
N1396 X-209.035 Y-12.247 Z10.938 A352.3880 
N1397 X-209.034 Y-12.111 Z10.941 A350.9908 
N1398 X-209.032 Y-11.958 Z10.938 A349.5928 
N1399 X-209.030 Y-11.783 Z10.930 A348.1980 
N1400 X-209.028 Y-11.584 Z10.913 A346.8099 
N1401 X-209.025 Y-11.356 Z10.888 A345.4301 
N1402 X-209.022 Y-11.095 Z10.850 A344.0603 
N1403 X-209.019 Y-10.799 Z10.798 A342.7048 
N1404 X-209.015 Y-10.462 Z10.728 A341.3714 
N1405 X-209.010 Y-10.082 Z10.638 A340.0694 
N1406 X-209.005 Y-9.656 Z10.524 A338.8420 
N1407 X-208.999 Y-9.181 Z10.384 A337.6991 
N1408 X-208.993 Y-8.657 Z10.217 A336.6494 
N1409 X-208.986 Y-8.084 Z10.021 A335.6977 
N1410 X-208.978 Y-7.464 Z9.797 A334.9341 
N1411 X-208.969 Y-6.800 Z9.547 A334.3505 
N1412 X-208.960 Y-6.095 Z9.273 A333.9391 
N1413 X-208.951 Y-5.354 Z8.978 A333.6963 
N1414 X-208.941 Y-4.585 Z8.668 A333.6262 
N1415 X-208.931 Y-3.796 Z8.348 A333.7401 
N1416 X-208.920 Y-2.992 Z8.024 A334.0510 
N1417 X-208.910 Y-2.183 Z7.701 A334.5686 
N1418 X-208.899 Y-1.374 Z7.388 A335.2952 
N1419 X-208.889 Y-0.574 Z7.090 A336.2250 
N1420 X-208.879 Y0.213 Z6.812 A337.3470 
N1421 X-208.869 Y0.981 Z6.558 A338.5604 
N1422 X-208.859 Y1.727 Z6.329 A339.8545 
N1423 X-208.850 Y2.448 Z6.126 A341.2169 
N1424 X-208.841 Y3.142 Z5.949 A342.6073 
N1425 X-208.832 Y3.810 Z5.797 A344.0190 
N1426 X-208.824 Y4.453 Z5.668 A345.4448 
N1427 X-208.816 Y5.072 Z5.561 A346.8782 
N1428 X-208.808 Y5.670 Z5.472 A348.3133 
N1429 X-208.801 Y6.250 Z5.401 A349.7456 
N1430 X-208.793 Y6.815 Z5.347 A351.1717 
N1431 X-208.786 Y7.370 Z5.307 A352.5892 
N1432 X-208.779 Y7.917 Z5.282 A353.9965 
N1433 X-208.772 Y8.460 Z5.270 A355.3927 
N1434 X-208.765 Y9.002 Z5.272 A356.7772 
N1435 X-208.757 Y9.546 Z5.287 A358.1497 
N1436 X-208.750 Y10.095 Z5.315 A359.5096 
N1437 X-208.742 Y10.652 Z5.358 A0.8565 
N1438 X-208.734 Y11.218 Z5.415 A2.1893 
N1439 X-208.726 Y11.796 Z5.487 A3.5069 
N1440 X-208.718 Y12.387 Z5.575 A4.8074 
N1441 X-208.709 Y12.992 Z5.680 A6.0886 
N1442 X-208.699 Y13.612 Z5.803 A7.3478 
N1443 X-208.690 Y14.247 Z5.945 A8.5819 
N1444 X-208.680 Y14.897 Z6.105 A9.7876 
N1445 X-208.669 Y15.560 Z6.284 A10.9612 
N1446 X-208.658 Y16.234 Z6.483 A12.0989 
N1447 X-208.647 Y16.916 Z6.699 A13.1971 
N1448 X-208.635 Y17.603 Z6.932 A14.2523 
N1449 X-208.623 Y18.289 Z7.180 A15.2611 
N1450 X-208.611 Y18.969 Z7.439 A16.2207 
N1451 X-208.598 Y19.638 Z7.708 A17.1290 
N1452 X-208.586 Y20.289 Z7.982 A17.9842 
N1453 X-208.574 Y20.917 Z8.257 A18.7853 
N1454 X-208.562 Y21.515 Z8.529 A19.5322 
N1455 X-208.550 Y22.079 Z8.794 A20.1754 
N1456 X-208.539 Y22.604 Z9.047 A20.7186 
N1457 X-208.529 Y23.086 Z9.285 A21.2128 
N1458 X-208.520 Y23.523 Z9.505 A21.6614 
N1459 X-208.511 Y23.914 Z9.704 A22.0682 
N1460 X-208.503 Y24.258 Z9.882 A22.4378 
N1461 X-208.496 Y24.557 Z10.039 A22.7427 
N1462 X-208.491 Y24.813 Z10.174 A22.9896 
N1463 X-208.486 Y25.028 Z10.289 A23.1838 
N1464 X-208.481 Y25.207 Z10.386 A23.3278 
N1465 X-208.478 Y25.353 Z10.465 A23.4203 
N1466 X-208.475 Y25.471 Z10.530 A23.4543 
N1467 X-208.473 Y25.564 Z10.582 A23.3483 
N1468 X-208.471 Y25.637 Z10.625 A23.0634 
N1469 X-208.469 Y25.693 Z10.661 A22.3568 
N1470 X-208.467 Y25.736 Z10.694 A21.1445 
N1471 X-208.465 Y25.769 Z10.725 A19.3893 
N1472 X-208.462 Y25.795 Z10.755 A17.1546 
N1473 X-208.460 Y25.815 Z10.782 A14.7598 
N1474 X-208.457 Y25.832 Z10.806 A12.3544 
N1475 X-208.454 Y25.846 Z10.828 A9.9798 
N1476 X-208.452 Y25.858 Z10.849 A7.6629 
N1477 X-208.451 Y25.869 Z10.868 A5.4824 
N1478 X-208.449 Y25.879 Z10.885 A3.4318 
N1479 X-208.448 Y25.889 Z10.900 A1.6023 
N1480 X-208.447 Y25.897 Z10.912 A359.9915 
N1481 X-208.446 Y25.906 Z10.925 A358.4297 
N1482 X-208.445 Y25.914 Z10.936 A356.9172 
N1483 X-208.444 Y25.922 Z10.947 A355.4466 
N1484 X-208.443 Y25.931 Z10.958 A354.0133 
N1485 X-208.442 Y25.939 Z10.968 A352.6132 
N1486 X-208.441 Y25.947 Z10.978 A351.2407 
N1487 X-208.441 Y25.956 Z10.987 A349.8931 
N1488 X-208.440 Y25.965 Z10.996 A348.5667 
N1489 X-208.439 Y25.973 Z11.005 A347.2588 
N1490 X-208.438 Y25.982 Z11.013 A345.9681 
N1491 X-208.438 Y25.991 Z11.021 A344.6923 
N1492 X-208.437 Y26.000 Z11.029 A343.4299 
N1493 X-208.436 Y26.009 Z11.037 A342.1800 
N1494 X-208.436 Y26.018 Z11.044 A340.9413 
N1495 X-208.435 Y26.028 Z11.051 A339.7128 
N1496 X-208.435 Y26.037 Z11.058 A338.4937 
N1497 X-208.434 Y26.046 Z11.064 A337.2832 
N1498 X-208.433 Y26.056 Z11.070 A336.0803 
N1499 X-208.433 Y26.066 Z11.076 A334.8843 
N1500 X-208.432 Y26.076 Z11.082 A333.6946 
N1501 X-208.432 Y26.086 Z11.087 A332.5103 
N1502 X-208.432 Y26.096 Z11.093 A331.3308 
N1503 X-208.431 Y26.106 Z11.098 A330.1556 
N1504 X-208.431 Y26.116 Z11.102 A328.9836 
N1505 X-208.431 Y26.126 Z11.107 A327.8147 
N1506 X-208.430 Y26.137 Z11.111 A326.6482 
N1507 X-208.430 Y26.147 Z11.115 A325.4831 
N1508 X-208.430 Y26.158 Z11.119 A324.3195 
N1509 X-208.429 Y26.169 Z11.123 A323.1568 
N1510 X-208.429 Y26.180 Z11.126 A321.9944 
N1511 X-208.429 Y26.191 Z11.129 A320.8323 
N1512 X-208.429 Y26.202 Z11.132 A319.6699 
N1513 X-208.429 Y26.213 Z11.135 A318.5072 
N1514 X-208.429 Y26.224 Z11.137 A317.3440 
N1515 X-208.428 Y26.235 Z11.139 A316.1799 
N1516 X-208.428 Y26.246 Z11.141 A315.0152 
N1517 X-208.428 Y26.258 Z11.143 A313.8495 
N1518 X-208.428 Y26.269 Z11.144 A312.6830 
N1519 X-208.428 Y26.281 Z11.145 A311.5156 
N1520 X-208.428 Y26.292 Z11.146 A310.3472 
N1521 X-208.428 Y26.304 Z11.147 A309.1781 
N1522 X-208.428 Y26.315 Z11.147 A308.0081 
N1523 X-208.428 Y26.327 Z11.147 A306.8373 
N1524 X-208.429 Y26.339 Z11.147 A305.6659 
N1525 X-208.429 Y26.350 Z11.147 A304.4936 
N1526 X-208.429 Y26.362 Z11.147 A303.3208 
N1527 X-208.429 Y26.374 Z11.146 A302.1473 
N1528 X-208.429 Y26.385 Z11.145 A300.9733 
N1529 X-208.429 Y26.397 Z11.143 A299.7988 
N1530 X-208.430 Y26.409 Z11.142 A298.6238 
N1531 X-208.430 Y26.420 Z11.140 A297.4483 
N1532 X-208.430 Y26.432 Z11.138 A296.2725 
N1533 X-208.431 Y26.443 Z11.136 A295.0962 
N1534 X-208.431 Y26.455 Z11.133 A293.9195 
N1535 X-208.431 Y26.466 Z11.131 A292.7426 
N1536 X-208.432 Y26.477 Z11.128 A291.5653 
N1537 X-208.432 Y26.489 Z11.125 A290.3876 
N1538 X-208.433 Y26.500 Z11.121 A289.2097 
N1539 X-208.433 Y26.511 Z11.118 A288.0315 
N1540 X-208.434 Y26.522 Z11.114 A286.8529 
N1541 X-208.434 Y26.533 Z11.110 A285.6739 
N1542 X-208.435 Y26.544 Z11.106 A284.4944 
N1543 X-208.435 Y26.555 Z11.101 A283.3144 
N1544 X-208.436 Y26.565 Z11.097 A282.1338 
N1545 X-208.436 Y26.576 Z11.092 A280.9523 
N1546 X-208.437 Y26.586 Z11.087 A279.7698 
N1547 X-208.437 Y26.597 Z11.082 A278.5860 
N1548 X-208.438 Y26.607 Z11.076 A277.4005 
N1549 X-208.439 Y26.617 Z11.071 A276.2134 
N1550 X-208.439 Y26.627 Z11.065 A275.0239 
N1551 X-208.440 Y26.637 Z11.059 A273.8317 
N1552 X-208.441 Y26.647 Z11.053 A272.6364 
N1553 X-208.441 Y26.657 Z11.047 A271.4373 
N1554 X-208.442 Y26.666 Z11.040 A270.2343 
N1555 X-208.443 Y26.676 Z11.033 A269.0266 
N1556 X-208.444 Y26.685 Z11.027 A267.8136 
N1557 X-208.445 Y26.695 Z11.020 A266.5952 
N1558 X-208.445 Y26.704 Z11.012 A265.3705 
N1559 X-208.446 Y26.713 Z11.005 A264.1390 
N1560 X-208.447 Y26.722 Z10.997 A262.9005 
N1561 X-208.448 Y26.731 Z10.990 A261.6541 
N1562 X-208.449 Y26.740 Z10.982 A260.3997 
N1563 X-208.450 Y26.749 Z10.973 A259.1364 
N1564 X-208.451 Y26.757 Z10.965 A257.8639 
N1565 X-208.452 Y26.766 Z10.956 A256.5816 
N1566 X-208.453 Y26.774 Z10.947 A255.2887 
N1567 X-208.454 Y26.782 Z10.938 A253.9845 
N1568 X-208.455 Y26.790 Z10.929 A252.6679 
N1569 X-208.456 Y26.798 Z10.919 A251.3378 
N1570 X-208.457 Y26.806 Z10.909 A249.9921 
N1571 X-208.458 Y26.814 Z10.899 A248.6291 
N1572 X-208.459 Y26.821 Z10.888 A247.2461 
N1573 X-208.460 Y26.828 Z10.878 A245.8392 
N1574 X-208.461 Y26.836 Z10.866 A244.4057 
N1575 X-208.462 Y26.843 Z10.854 A242.9113 
N1576 X-208.463 Y26.850 Z10.841 A241.3425 
N1577 X-208.465 Y26.858 Z10.828 A239.6938 
N1578 X-208.466 Y26.865 Z10.812 A237.8436 
N1579 X-208.467 Y26.873 Z10.794 A235.7834 
N1580 X-208.469 Y26.881 Z10.772 A233.4601 
N1581 X-208.471 Y26.888 Z10.747 A230.8602 
N1582 X-208.474 Y26.893 Z10.718 A228.0037 
N1583 X-208.477 Y26.894 Z10.683 A224.9511 
N1584 X-208.480 Y26.890 Z10.643 A221.7477 
N1585 X-208.482 Y26.877 Z10.597 A218.6709 
N1586 X-208.483 Y26.851 Z10.551 A216.5043 
N1587 X-208.484 Y26.813 Z10.508 A215.4178 
N1588 X-208.484 Y26.758 Z10.457 A214.9817 
N1589 X-208.484 Y26.682 Z10.393 A214.8194 
N1590 X-208.483 Y26.582 Z10.309 A214.7018 
N1591 X-208.482 Y26.449 Z10.199 A214.5933 
N1592 X-208.481 Y26.279 Z10.057 A214.4897 
N1593 X-208.480 Y26.064 Z9.879 A214.3863 
N1594 X-208.478 Y25.795 Z9.657 A214.2785 
N1595 X-208.475 Y25.467 Z9.386 A214.1620 
N1596 X-208.473 Y25.071 Z9.060 A214.0326 
N1597 X-208.469 Y24.605 Z8.677 A213.8860 
N1598 X-208.465 Y24.062 Z8.232 A213.7177 
N1599 X-208.460 Y23.442 Z7.726 A213.5231 
N1600 X-208.455 Y22.746 Z7.160 A213.2979 
N1601 X-208.449 Y21.976 Z6.539 A213.0383 
N1602 X-208.441 Y21.138 Z5.867 A212.7413 
N1603 X-208.433 Y20.240 Z5.155 A212.3654 
N1604 X-208.425 Y19.291 Z4.412 A211.9062 
N1605 X-208.415 Y18.302 Z3.651 A211.3602 
N1606 X-208.404 Y17.286 Z2.883 A210.7246 
N1607 X-208.393 Y16.256 Z2.123 A209.9976 
N1608 X-208.382 Y15.223 Z1.381 A209.1784 
N1609 X-208.369 Y14.199 Z0.668 A208.2674 
N1610 X-208.357 Y13.195 Z-0.007 A207.2655 
N1611 X-208.345 Y12.221 Z-0.638 A206.1745 
N1612 X-208.332 Y11.283 Z-1.219 A204.9968 
N1613 X-208.319 Y10.386 Z-1.749 A203.7775 
N1614 X-208.308 Y9.536 Z-2.227 A202.5207 
N1615 X-208.296 Y8.733 Z-2.654 A201.2316 
N1616 X-208.285 Y7.978 Z-3.033 A199.9154 
N1617 X-208.274 Y7.271 Z-3.368 A198.5775 
N1618 X-208.264 Y6.609 Z-3.662 A197.2227 
N1619 X-208.254 Y5.990 Z-3.920 A195.8553 
N1620 X-208.244 Y5.411 Z-4.145 A194.4794 
N1621 X-208.236 Y4.867 Z-4.342 A193.0982 
N1622 X-208.227 Y4.357 Z-4.513 A191.7142 
N1623 X-208.219 Y3.876 Z-4.662 A190.3297 
N1624 X-208.212 Y3.421 Z-4.791 A188.9461 
N1625 X-208.204 Y2.990 Z-4.903 A187.5644 
N1626 X-208.197 Y2.579 Z-4.999 A186.1855 
N1627 X-208.191 Y2.188 Z-5.082 A184.8097 
N1628 X-208.184 Y1.813 Z-5.152 A183.4372 
N1629 X-208.178 Y1.453 Z-5.211 A182.0680 
N1630 X-208.172 Y1.107 Z-5.260 A180.7021 
N1631 X-208.166 Y0.772 Z-5.299 A179.3392 
N1632 X-208.160 Y0.449 Z-5.329 A177.9793 
N1633 X-208.155 Y0.136 Z-5.352 A176.6222 
N1634 X-208.149 Y-0.168 Z-5.367 A175.2675 
N1635 X-208.144 Y-0.464 Z-5.375 A173.9151 
N1636 X-208.139 Y-0.752 Z-5.376 A172.5648 
N1637 X-208.134 Y-1.033 Z-5.370 A171.2164 
N1638 X-208.129 Y-1.308 Z-5.359 A169.8696 
N1639 X-208.124 Y-1.577 Z-5.341 A168.5245 
N1640 X-208.120 Y-1.841 Z-5.318 A167.1807 
N1641 X-208.115 Y-2.100 Z-5.289 A165.8383 
N1642 X-208.111 Y-2.355 Z-5.255 A164.4971 
N1643 X-208.106 Y-2.605 Z-5.216 A163.1570 
N1644 X-208.102 Y-2.852 Z-5.171 A161.8179 
N1645 X-208.098 Y-3.096 Z-5.121 A160.4798 
N1646 X-208.094 Y-3.337 Z-5.066 A159.1424 
N1647 X-208.090 Y-3.575 Z-5.006 A157.8057 
N1648 X-208.086 Y-3.811 Z-4.940 A156.4696 
N1649 X-208.082 Y-4.044 Z-4.869 A155.1342 
N1650 X-208.078 Y-4.276 Z-4.793 A153.7993 
N1651 X-208.074 Y-4.506 Z-4.711 A152.4649 
N1652 X-208.070 Y-4.735 Z-4.624 A151.1312 
N1653 X-208.066 Y-4.963 Z-4.531 A149.7981 
N1654 X-208.062 Y-5.189 Z-4.432 A148.4656 
N1655 X-208.059 Y-5.416 Z-4.327 A147.1339 
N1656 X-208.055 Y-5.641 Z-4.215 A145.8029 
N1657 X-208.051 Y-5.866 Z-4.097 A144.4728 
N1658 X-208.048 Y-6.091 Z-3.973 A143.1437 
N1659 X-208.044 Y-6.316 Z-3.841 A141.8156 
N1660 X-208.041 Y-6.542 Z-3.701 A140.4890 
N1661 X-208.037 Y-6.767 Z-3.554 A139.1639 
N1662 X-208.034 Y-6.993 Z-3.399 A137.8408 
N1663 X-208.030 Y-7.220 Z-3.235 A136.5199 
N1664 X-208.027 Y-7.447 Z-3.063 A135.2018 
N1665 X-208.023 Y-7.675 Z-2.881 A133.8869 
N1666 X-208.019 Y-7.903 Z-2.689 A132.5758 
N1667 X-208.016 Y-8.133 Z-2.488 A131.2691 
N1668 X-208.012 Y-8.363 Z-2.275 A129.9675 
N1669 X-208.009 Y-8.593 Z-2.052 A128.6717 
N1670 X-208.005 Y-8.824 Z-1.818 A127.3824 
N1671 X-208.002 Y-9.055 Z-1.571 A126.1007 
N1672 X-207.998 Y-9.287 Z-1.313 A124.8273 
N1673 X-207.995 Y-9.518 Z-1.043 A123.5632 
N1674 X-207.991 Y-9.748 Z-0.761 A122.3091 
N1675 X-207.987 Y-9.977 Z-0.467 A121.0658 
N1676 X-207.984 Y-10.205 Z-0.161 A119.8340 
N1677 X-207.980 Y-10.430 Z0.157 A118.6138 
N1678 X-207.977 Y-10.652 Z0.485 A117.4055 
N1679 X-207.973 Y-10.871 Z0.824 A116.2090 
N1680 X-207.970 Y-11.086 Z1.172 A115.0241 
N1681 X-207.966 Y-11.295 Z1.529 A113.8506 
N1682 X-207.963 Y-11.498 Z1.892 A112.6886 
N1683 X-207.960 Y-11.695 Z2.260 A111.5382 
N1684 X-207.956 Y-11.884 Z2.633 A110.3997 
N1685 X-207.953 Y-12.065 Z3.007 A109.2730 
N1686 X-207.950 Y-12.237 Z3.381 A108.1570 
N1687 X-207.947 Y-12.400 Z3.754 A107.0500 
N1688 X-207.944 Y-12.553 Z4.122 A105.9491 
N1689 X-207.941 Y-12.697 Z4.484 A104.8511 
N1690 X-207.938 Y-12.830 Z4.839 A103.7527 
N1691 X-207.936 Y-12.952 Z5.183 A102.6510 
N1692 X-207.933 Y-13.064 Z5.517 A101.5441 
N1693 X-207.931 Y-13.166 Z5.839 A100.4307 
N1694 X-207.929 Y-13.257 Z6.146 A99.3102 
N1695 X-207.927 Y-13.338 Z6.439 A98.1818 
N1696 X-207.925 Y-13.409 Z6.717 A97.0449 
N1697 X-207.923 Y-13.472 Z6.979 A95.8993 
N1698 X-207.922 Y-13.526 Z7.224 A94.7454 
N1699 X-207.920 Y-13.572 Z7.454 A93.5843 
N1700 X-207.919 Y-13.612 Z7.667 A92.4166 
N1701 X-207.918 Y-13.645 Z7.865 A91.2408 
N1702 X-207.917 Y-13.672 Z8.048 A90.0537 
N1703 X-207.916 Y-13.695 Z8.216 A88.8517 
N1704 X-207.915 Y-13.714 Z8.370 A87.6320 
N1705 X-207.915 Y-13.729 Z8.511 A86.3934 
N1706 X-207.914 Y-13.741 Z8.640 A85.1363 
N1707 X-207.914 Y-13.750 Z8.758 A83.8616 
N1708 X-207.913 Y-13.757 Z8.866 A82.5706 
N1709 X-207.913 Y-13.762 Z8.964 A81.2639 
N1710 X-207.913 Y-13.765 Z9.054 A79.9414 
N1711 X-207.913 Y-13.767 Z9.136 A78.6030 
N1712 X-207.913 Y-13.768 Z9.210 A77.2485 
N1713 X-207.913 Y-13.769 Z9.279 A75.8780 
N1714 X-207.913 Y-13.769 Z9.343 A74.4921 
N1715 X-207.913 Y-13.768 Z9.401 A73.0923 
N1716 X-207.913 Y-13.767 Z9.455 A71.6802 
N1717 X-207.913 Y-13.765 Z9.506 A70.2585 
N1718 X-207.913 Y-13.763 Z9.553 A68.8297 
N1719 X-207.913 Y-13.761 Z9.597 A67.3966 
N1720 X-207.914 Y-13.758 Z9.639 A65.9617 
N1721 X-207.914 Y-13.755 Z9.679 A64.5274 
N1722 X-207.914 Y-13.752 Z9.717 A63.0954 
N1723 X-207.914 Y-13.748 Z9.753 A61.6674 
N1724 X-207.914 Y-13.744 Z9.788 A60.2444 
N1725 X-207.915 Y-13.740 Z9.821 A58.8272 
N1726 X-207.915 Y-13.735 Z9.854 A57.4164 
N1727 X-207.915 Y-13.730 Z9.886 A56.0122 
N1728 X-207.915 Y-13.724 Z9.916 A54.6146 
N1729 X-207.915 Y-13.718 Z9.946 A53.2238 
N1730 X-207.915 Y-13.712 Z9.976 A51.8394 
N1731 X-207.915 Y-13.705 Z10.004 A50.4613 
N1732 X-207.916 Y-13.697 Z10.033 A49.0891 
N1733 X-207.916 Y-13.689 Z10.060 A47.7225 
N1734 X-207.916 Y-13.681 Z10.088 A46.3609 
N1735 X-207.916 Y-13.671 Z10.115 A45.0040 
N1736 X-207.916 Y-13.662 Z10.142 A43.6511 
N1737 X-207.916 Y-13.651 Z10.168 A42.3018 
N1738 X-207.916 Y-13.640 Z10.194 A40.9554 
N1739 X-207.916 Y-13.629 Z10.220 A39.6115 
N1740 X-207.916 Y-13.617 Z10.246 A38.2694 
N1741 X-207.916 Y-13.604 Z10.271 A36.9286 
N1742 X-207.916 Y-13.590 Z10.296 A35.5883 
N1743 X-207.916 Y-13.576 Z10.321 A34.2481 
N1744 X-207.916 Y-13.561 Z10.346 A32.9073 
N1745 X-207.916 Y-13.545 Z10.370 A31.5651 
N1746 X-207.916 Y-13.528 Z10.395 A30.2211 
N1747 X-207.916 Y-13.511 Z10.419 A28.8745 
N1748 X-207.916 Y-13.492 Z10.443 A27.5246 
N1749 X-207.916 Y-13.473 Z10.467 A26.1708 
N1750 X-207.916 Y-13.452 Z10.491 A24.8124 
N1751 X-207.915 Y-13.431 Z10.514 A23.4489 
N1752 X-207.915 Y-13.408 Z10.538 A22.0796 
N1753 X-207.915 Y-13.384 Z10.561 A20.7042 
N1754 X-207.915 Y-13.359 Z10.585 A19.3222 
N1755 X-207.915 Y-13.332 Z10.608 A17.9334 
N1756 X-207.914 Y-13.304 Z10.631 A16.5376 
N1757 X-207.914 Y-13.273 Z10.653 A15.1349 
N1758 X-207.914 Y-13.241 Z10.676 A13.7256 
N1759 X-207.913 Y-13.207 Z10.698 A12.3100 
N1760 X-207.913 Y-13.170 Z10.720 A10.8888 
N1761 X-207.913 Y-13.130 Z10.742 A9.4629 
N1762 X-207.912 Y-13.087 Z10.764 A8.0332 
N1763 X-207.912 Y-13.041 Z10.785 A6.6007 
N1764 X-207.911 Y-12.990 Z10.805 A5.1666 
N1765 X-207.910 Y-12.936 Z10.825 A3.7315 
N1766 X-207.910 Y-12.876 Z10.844 A2.2958 
N1767 X-207.909 Y-12.810 Z10.863 A0.8595 
N1768 X-207.908 Y-12.737 Z10.880 A359.4219 
N1769 X-207.908 Y-12.657 Z10.896 A357.9819 
N1770 X-207.907 Y-12.567 Z10.910 A356.5383 
N1771 X-207.905 Y-12.467 Z10.923 A355.0901 
N1772 X-207.904 Y-12.353 Z10.932 A353.6370 
N1773 X-207.902 Y-12.225 Z10.938 A352.1798 
N1774 X-207.901 Y-12.080 Z10.940 A350.7211 
N1775 X-207.899 Y-11.913 Z10.936 A349.2646 
N1776 X-207.896 Y-11.723 Z10.925 A347.8141 
N1777 X-207.893 Y-11.506 Z10.905 A346.3725 
N1778 X-207.890 Y-11.256 Z10.874 A344.9414 
N1779 X-207.887 Y-10.971 Z10.829 A343.5226 
N1780 X-207.883 Y-10.646 Z10.767 A342.1208 
N1781 X-207.878 Y-10.278 Z10.685 A340.7670 
N1782 X-207.873 Y-9.864 Z10.581 A339.4750 
N1783 X-207.867 Y-9.401 Z10.450 A338.2543 
N1784 X-207.860 Y-8.887 Z10.292 A337.1117 
N1785 X-207.852 Y-8.324 Z10.104 A336.1309 
N1786 X-207.844 Y-7.711 Z9.887 A335.3199 
N1787 X-207.835 Y-7.051 Z9.641 A334.6820 
N1788 X-207.825 Y-6.348 Z9.371 A334.2158 
N1789 X-207.815 Y-5.607 Z9.078 A333.9201 
N1790 X-207.804 Y-4.834 Z8.768 A333.7982 
N1791 X-207.793 Y-4.036 Z8.445 A333.8595 
N1792 X-207.782 Y-3.222 Z8.115 A334.1159 
N1793 X-207.770 Y-2.398 Z7.785 A334.5766 
N1794 X-207.759 Y-1.572 Z7.463 A335.2432 
N1795 X-207.747 Y-0.752 Z7.154 A336.1083 
N1796 X-207.736 Y0.058 Z6.865 A337.1545 
N1797 X-207.725 Y0.851 Z6.599 A338.3591 
N1798 X-207.714 Y1.624 Z6.359 A339.6997 
N1799 X-207.703 Y2.372 Z6.146 A341.1003 
N1800 X-207.692 Y3.095 Z5.961 A342.5507 
N1801 X-207.682 Y3.792 Z5.801 A344.0209 
N1802 X-207.673 Y4.464 Z5.666 A345.5050 
N1803 X-207.663 Y5.112 Z5.554 A346.9970 
N1804 X-207.654 Y5.738 Z5.463 A348.4915 
N1805 X-207.645 Y6.347 Z5.391 A349.9841 
N1806 X-207.636 Y6.941 Z5.337 A351.4711 
N1807 X-207.627 Y7.524 Z5.299 A352.9496 
N1808 X-207.618 Y8.100 Z5.277 A354.4177 
N1809 X-207.609 Y8.672 Z5.270 A355.8738 
N1810 X-207.600 Y9.244 Z5.278 A357.3169 
N1811 X-207.590 Y9.820 Z5.300 A358.7459 
N1812 X-207.580 Y10.402 Z5.338 A0.1599 
N1813 X-207.570 Y10.992 Z5.391 A1.5575 
N1814 X-207.560 Y11.593 Z5.461 A2.9375 
N1815 X-207.549 Y12.207 Z5.548 A4.2980 
N1816 X-207.537 Y12.835 Z5.652 A5.6368 
N1817 X-207.525 Y13.477 Z5.776 A6.9516 
N1818 X-207.512 Y14.135 Z5.919 A8.2397 
N1819 X-207.499 Y14.806 Z6.083 A9.4981 
N1820 X-207.485 Y15.490 Z6.266 A10.7241 
N1821 X-207.470 Y16.185 Z6.468 A11.9149 
N1822 X-207.455 Y16.887 Z6.690 A13.0684 
N1823 X-207.438 Y17.591 Z6.928 A14.1825 
N1824 X-207.422 Y18.294 Z7.182 A15.2563 
N1825 X-207.405 Y18.989 Z7.447 A16.2899 
N1826 X-207.388 Y19.670 Z7.721 A17.2451 
N1827 X-207.370 Y20.331 Z8.000 A18.1229 
N1828 X-207.353 Y20.967 Z8.279 A18.9227 
N1829 X-207.336 Y21.570 Z8.554 A19.6438 
N1830 X-207.320 Y22.136 Z8.821 A20.2869 
N1831 X-207.305 Y22.662 Z9.075 A20.8550 
N1832 X-207.290 Y23.142 Z9.312 A21.3535 
N1833 X-207.277 Y23.576 Z9.531 A21.7883 
N1834 X-207.264 Y23.962 Z9.728 A22.1650 
N1835 X-207.254 Y24.300 Z9.904 A22.4877 
N1836 X-207.244 Y24.593 Z10.058 A22.7597 
N1837 X-207.236 Y24.842 Z10.190 A22.9836 
N1838 X-207.229 Y25.051 Z10.302 A23.1614 
N1839 X-207.223 Y25.224 Z10.395 A23.2941 
N1840 X-207.218 Y25.364 Z10.471 A23.3798 
N1841 X-207.215 Y25.477 Z10.533 A23.4124 
N1842 X-207.212 Y25.565 Z10.583 A23.3215 
N1843 X-207.209 Y25.635 Z10.624 A23.0804 
N1844 X-207.206 Y25.688 Z10.658 A22.5021 
N1845 X-207.203 Y25.729 Z10.687 A21.5447 
N1846 X-207.200 Y25.760 Z10.714 A20.2027 
N1847 X-207.196 Y25.783 Z10.738 A18.5336 
N1848 X-207.192 Y25.802 Z10.761 A16.7568 
N1849 X-207.188 Y25.816 Z10.780 A14.9688 
N1850 X-207.184 Y25.828 Z10.798 A13.1987 
N1851 X-207.181 Y25.838 Z10.815 A11.4623 
N1852 X-207.178 Y25.847 Z10.830 A9.7696 
N1853 X-207.175 Y25.855 Z10.845 A8.1237 
N1854 X-207.173 Y25.863 Z10.859 A6.5244 
N1855 X-207.171 Y25.871 Z10.872 A4.9675 
N1856 X-207.169 Y25.878 Z10.884 A3.4464 
N1857 X-207.167 Y25.886 Z10.897 A1.9571 
N1858 X-207.165 Y25.894 Z10.908 A0.4936 
N1859 X-207.163 Y25.901 Z10.920 A359.0529 
N1860 X-207.161 Y25.909 Z10.931 A357.6311 
N1861 X-207.159 Y25.917 Z10.941 A356.2270 
N1862 X-207.157 Y25.925 Z10.952 A354.8391 
N1863 X-207.155 Y25.933 Z10.962 A353.4672 
N1864 X-207.154 Y25.942 Z10.972 A352.1115 
N1865 X-207.152 Y25.950 Z10.981 A350.7720 
N1866 X-207.151 Y25.959 Z10.990 A349.4498 
N1867 X-207.149 Y25.967 Z10.999 A348.1447 
N1868 X-207.148 Y25.976 Z11.007 A346.8574 
N1869 X-207.146 Y25.985 Z11.016 A345.5885 
N1870 X-207.145 Y25.994 Z11.023 A344.3375 
N1871 X-207.144 Y26.003 Z11.031 A343.1049 
N1872 X-207.142 Y26.012 Z11.038 A341.8899 
N1873 X-207.141 Y26.021 Z11.045 A340.6919 
N1874 X-207.140 Y26.029 Z11.052 A339.5107 
N1875 X-207.139 Y26.038 Z11.058 A338.3450 
N1876 X-207.138 Y26.048 Z11.064 A337.1936 
N1877 X-207.137 Y26.057 Z11.070 A336.0559 
N1878 X-207.136 Y26.066 Z11.076 A334.9304 
N1879 X-207.135 Y26.075 Z11.081 A333.8155 
N1880 X-207.135 Y26.084 Z11.086 A332.7104 
N1881 X-207.134 Y26.093 Z11.091 A331.6137 
N1882 X-207.133 Y26.103 Z11.096 A330.5239 
N1883 X-207.133 Y26.112 Z11.101 A329.4399 
N1884 X-207.132 Y26.122 Z11.105 A328.3607 
N1885 X-207.131 Y26.131 Z11.109 A327.2851 
N1886 X-207.131 Y26.141 Z11.113 A326.2118 
N1887 X-207.130 Y26.150 Z11.116 A325.1402 
N1888 X-207.130 Y26.160 Z11.120 A324.0696 
N1889 X-207.130 Y26.170 Z11.123 A322.9987 
N1890 X-207.129 Y26.180 Z11.126 A321.9274 
N1891 X-207.129 Y26.190 Z11.129 A320.8551 
N1892 X-207.129 Y26.200 Z11.132 A319.7811 
N1893 X-207.128 Y26.211 Z11.134 A318.7053 
N1894 X-207.128 Y26.221 Z11.137 A317.6273 
N1895 X-207.128 Y26.231 Z11.139 A316.5469 
N1896 X-207.128 Y26.242 Z11.140 A315.4640 
N1897 X-207.128 Y26.253 Z11.142 A314.3785 
N1898 X-207.128 Y26.263 Z11.144 A313.2904 
N1899 X-207.128 Y26.274 Z11.145 A312.1998 
N1900 X-207.128 Y26.285 Z11.146 A311.1062 
N1901 X-207.128 Y26.296 Z11.147 A310.0101 
N1902 X-207.128 Y26.306 Z11.147 A308.9114 
N1903 X-207.128 Y26.317 Z11.147 A307.8101 
N1904 X-207.128 Y26.328 Z11.148 A306.7063 
N1905 X-207.129 Y26.339 Z11.148 A305.5999 
N1906 X-207.129 Y26.350 Z11.147 A304.4910 
N1907 X-207.129 Y26.361 Z11.147 A303.3797 
N1908 X-207.130 Y26.372 Z11.146 A302.2658 
N1909 X-207.130 Y26.384 Z11.145 A301.1494 
N1910 X-207.131 Y26.395 Z11.144 A300.0305 
N1911 X-207.131 Y26.406 Z11.142 A298.9090 
N1912 X-207.132 Y26.417 Z11.141 A297.7851 
N1913 X-207.132 Y26.428 Z11.139 A296.6585 
N1914 X-207.133 Y26.439 Z11.137 A295.5294 
N1915 X-207.134 Y26.450 Z11.135 A294.3976 
N1916 X-207.134 Y26.461 Z11.132 A293.2633 
N1917 X-207.135 Y26.472 Z11.129 A292.1263 
N1918 X-207.136 Y26.483 Z11.126 A290.9867 
N1919 X-207.137 Y26.494 Z11.123 A289.8444 
N1920 X-207.138 Y26.505 Z11.120 A288.6994 
N1921 X-207.139 Y26.515 Z11.116 A287.5518 
N1922 X-207.140 Y26.526 Z11.113 A286.4014 
N1923 X-207.141 Y26.537 Z11.109 A285.2481 
N1924 X-207.142 Y26.547 Z11.104 A284.0919 
N1925 X-207.143 Y26.558 Z11.100 A282.9326 
N1926 X-207.144 Y26.568 Z11.095 A281.7700 
N1927 X-207.145 Y26.579 Z11.091 A280.6038 
N1928 X-207.147 Y26.589 Z11.086 A279.4336 
N1929 X-207.148 Y26.600 Z11.080 A278.2591 
N1930 X-207.149 Y26.610 Z11.075 A277.0799 
N1931 X-207.151 Y26.620 Z11.069 A275.8953 
N1932 X-207.152 Y26.630 Z11.064 A274.7046 
N1933 X-207.153 Y26.640 Z11.058 A273.5073 
N1934 X-207.155 Y26.650 Z11.051 A272.3023 
N1935 X-207.156 Y26.660 Z11.045 A271.0891 
N1936 X-207.158 Y26.669 Z11.038 A269.8667 
N1937 X-207.160 Y26.679 Z11.032 A268.6342 
N1938 X-207.161 Y26.689 Z11.025 A267.3909 
N1939 X-207.163 Y26.698 Z11.017 A266.1359 
N1940 X-207.165 Y26.708 Z11.010 A264.8686 
N1941 X-207.167 Y26.717 Z11.002 A263.5886 
N1942 X-207.168 Y26.727 Z10.994 A262.2951 
N1943 X-207.170 Y26.736 Z10.986 A260.9881 
N1944 X-207.172 Y26.745 Z10.977 A259.6674 
N1945 X-207.174 Y26.754 Z10.968 A258.3332 
N1946 X-207.177 Y26.763 Z10.959 A256.9858 
N1947 X-207.179 Y26.772 Z10.950 A255.6256 
N1948 X-207.181 Y26.780 Z10.940 A254.2537 
N1949 X-207.183 Y26.789 Z10.930 A252.8708 
N1950 X-207.185 Y26.797 Z10.920 A251.4785 
N1951 X-207.188 Y26.805 Z10.910 A250.0779 
N1952 X-207.190 Y26.813 Z10.899 A248.6703 
N1953 X-207.192 Y26.821 Z10.888 A247.2568 
N1954 X-207.194 Y26.828 Z10.877 A245.8381 
N1955 X-207.197 Y26.835 Z10.865 A244.4146 
N1956 X-207.199 Y26.842 Z10.854 A242.9857 
N1957 X-207.201 Y26.849 Z10.842 A241.5503 
N1958 X-207.203 Y26.855 Z10.830 A240.1057 
N1959 X-207.206 Y26.861 Z10.818 A238.6485 
N1960 X-207.208 Y26.867 Z10.805 A237.1732 
N1961 X-207.210 Y26.873 Z10.792 A235.6743 
N1962 X-207.212 Y26.878 Z10.778 A234.1436 
N1963 X-207.215 Y26.883 Z10.764 A232.5756 
N1964 X-207.217 Y26.887 Z10.748 A230.9163 
N1965 X-207.220 Y26.891 Z10.730 A229.1596 
N1966 X-207.224 Y26.894 Z10.710 A227.1970 
N1967 X-207.227 Y26.896 Z10.687 A225.1316 
N1968 X-207.232 Y26.894 Z10.660 A222.9845 
N1969 X-207.236 Y26.888 Z10.629 A220.6864 
N1970 X-207.240 Y26.875 Z10.592 A218.3387 
N1971 X-207.243 Y26.851 Z10.551 A216.5041 
N1972 X-207.245 Y26.817 Z10.512 A215.4876 
N1973 X-207.246 Y26.767 Z10.466 A215.0469 
N1974 X-207.247 Y26.699 Z10.407 A214.8740 
N1975 X-207.247 Y26.606 Z10.330 A214.7471 
N1976 X-207.248 Y26.485 Z10.228 A214.6304 
N1977 X-207.249 Y26.328 Z10.097 A214.5196 
N1978 X-207.250 Y26.127 Z9.931 A214.4103 
N1979 X-207.251 Y25.876 Z9.723 A214.2979 
N1980 X-207.252 Y25.566 Z9.468 A214.1781 
N1981 X-207.253 Y25.192 Z9.159 A214.0467 
N1982 X-207.255 Y24.747 Z8.793 A213.8995 
N1983 X-207.257 Y24.227 Z8.367 A213.7322 
N1984 X-207.258 Y23.629 Z7.878 A213.5403 
N1985 X-207.259 Y22.954 Z7.328 A213.3195 
N1986 X-207.260 Y22.202 Z6.720 A213.0660 
N1987 X-207.260 Y21.380 Z6.060 A212.7765 
N1988 X-207.259 Y20.493 Z5.355 A212.4106 
N1989 X-207.257 Y19.552 Z4.615 A211.9632 
N1990 X-207.254 Y18.566 Z3.852 A211.4298 
N1991 X-207.250 Y17.548 Z3.079 A210.8069 
N1992 X-207.244 Y16.510 Z2.308 A210.0920 
N1993 X-207.237 Y15.465 Z1.552 A209.2838 
N1994 X-207.229 Y14.424 Z0.822 A208.3822 
N1995 X-207.219 Y13.399 Z0.127 A207.3880 
N1996 X-207.209 Y12.400 Z-0.524 A206.3030 
N1997 X-207.198 Y11.436 Z-1.127 A205.1302 
N1998 X-207.186 Y10.511 Z-1.678 A203.8742 
N1999 X-207.175 Y9.631 Z-2.176 A202.5794 
N2000 X-207.163 Y8.799 Z-2.621 A201.2501 
N2001 X-207.151 Y8.015 Z-3.016 A199.8911 
N2002 X-207.139 Y7.280 Z-3.365 A198.5075 
N2003 X-207.128 Y6.591 Z-3.671 A197.1039 
N2004 X-207.117 Y5.947 Z-3.938 A195.6850 
N2005 X-207.106 Y5.345 Z-4.170 A194.2548 
N2006 X-207.095 Y4.780 Z-4.372 A192.8169 
N2007 X-207.085 Y4.250 Z-4.547 A191.3743 
N2008 X-207.076 Y3.752 Z-4.698 A189.9294 
N2009 X-207.067 Y3.281 Z-4.829 A188.4840 
N2010 X-207.058 Y2.835 Z-4.940 A187.0396 
N2011 X-207.049 Y2.412 Z-5.036 A185.5971 
N2012 X-207.041 Y2.008 Z-5.117 A184.1571 
N2013 X-207.033 Y1.622 Z-5.184 A182.7200 
N2014 X-207.025 Y1.252 Z-5.240 A181.2861 
N2015 X-207.018 Y0.896 Z-5.285 A179.8552 
N2016 X-207.011 Y0.553 Z-5.320 A178.4275 
N2017 X-207.003 Y0.221 Z-5.346 A177.0027 
N2018 X-206.997 Y-0.100 Z-5.364 A175.5807 
N2019 X-206.990 Y-0.412 Z-5.374 A174.1613 
N2020 X-206.983 Y-0.716 Z-5.376 A172.7443 
N2021 X-206.977 Y-1.012 Z-5.371 A171.3295 
N2022 X-206.971 Y-1.300 Z-5.359 A169.9167 
N2023 X-206.965 Y-1.582 Z-5.341 A168.5058 
N2024 X-206.959 Y-1.859 Z-5.316 A167.0966 
N2025 X-206.953 Y-2.130 Z-5.286 A165.6890 
N2026 X-206.948 Y-2.396 Z-5.249 A164.2829 
N2027 X-206.942 Y-2.658 Z-5.207 A162.8782 
N2028 X-206.937 Y-2.916 Z-5.159 A161.4746 
N2029 X-206.932 Y-3.171 Z-5.105 A160.0722 
N2030 X-206.926 Y-3.422 Z-5.045 A158.6708 
N2031 X-206.921 Y-3.671 Z-4.980 A157.2703 
N2032 X-206.916 Y-3.917 Z-4.909 A155.8706 
N2033 X-206.911 Y-4.160 Z-4.832 A154.4717 
N2034 X-206.907 Y-4.402 Z-4.749 A153.0736 
N2035 X-206.902 Y-4.643 Z-4.660 A151.6764 
N2036 X-206.897 Y-4.882 Z-4.565 A150.2800 
N2037 X-206.893 Y-5.119 Z-4.463 A148.8845 
N2038 X-206.889 Y-5.356 Z-4.355 A147.4900 
N2039 X-206.884 Y-5.593 Z-4.240 A146.0966 
N2040 X-206.880 Y-5.829 Z-4.118 A144.7044 
N2041 X-206.876 Y-6.064 Z-3.988 A143.3135 
N2042 X-206.872 Y-6.300 Z-3.850 A141.9242 
N2043 X-206.868 Y-6.536 Z-3.705 A140.5367 
N2044 X-206.864 Y-6.772 Z-3.551 A139.1513 
N2045 X-206.860 Y-7.008 Z-3.388 A137.7685 
N2046 X-206.857 Y-7.246 Z-3.216 A136.3887 
N2047 X-206.853 Y-7.483 Z-3.034 A135.0125 
N2048 X-206.849 Y-7.722 Z-2.842 A133.6405 
N2049 X-206.845 Y-7.961 Z-2.639 A132.2733 
N2050 X-206.841 Y-8.201 Z-2.425 A130.9117 
N2051 X-206.837 Y-8.441 Z-2.200 A129.5564 
N2052 X-206.834 Y-8.682 Z-1.963 A128.2084 
N2053 X-206.831 Y-8.923 Z-1.713 A126.8686 
N2054 X-206.828 Y-9.165 Z-1.451 A125.5380 
N2055 X-206.824 Y-9.406 Z-1.175 A124.2174 
N2056 X-206.821 Y-9.646 Z-0.887 A122.9079 
N2057 X-206.818 Y-9.885 Z-0.586 A121.6103 
N2058 X-206.815 Y-10.122 Z-0.273 A120.3253 
N2059 X-206.812 Y-10.357 Z0.053 A119.0532 
N2060 X-206.809 Y-10.589 Z0.391 A117.7944 
N2061 X-206.806 Y-10.817 Z0.740 A116.5488 
N2062 X-206.803 Y-11.041 Z1.099 A115.3161 
N2063 X-206.801 Y-11.259 Z1.466 A114.0961 
N2064 X-206.798 Y-11.470 Z1.841 A112.8887 
N2065 X-206.796 Y-11.675 Z2.222 A111.6940 
N2066 X-206.793 Y-11.871 Z2.607 A110.5120 
N2067 X-206.791 Y-12.058 Z2.993 A109.3424 
N2068 X-206.789 Y-12.236 Z3.380 A108.1841 
N2069 X-206.787 Y-12.404 Z3.764 A107.0351 
N2070 X-206.785 Y-12.562 Z4.144 A105.8925 
N2071 X-206.783 Y-12.709 Z4.517 A104.7529 
N2072 X-206.781 Y-12.846 Z4.882 A103.6128 
N2073 X-206.779 Y-12.970 Z5.236 A102.4693 
N2074 X-206.778 Y-13.084 Z5.579 A101.3204 
N2075 X-206.777 Y-13.187 Z5.908 A100.1647 
N2076 X-206.775 Y-13.278 Z6.222 A99.0013 
N2077 X-206.774 Y-13.359 Z6.520 A97.8294 
N2078 X-206.773 Y-13.431 Z6.802 A96.6481 
N2079 X-206.772 Y-13.492 Z7.067 A95.4572 
N2080 X-206.772 Y-13.545 Z7.315 A94.2572 
N2081 X-206.771 Y-13.590 Z7.545 A93.0489 
N2082 X-206.771 Y-13.628 Z7.759 A91.8318 
N2083 X-206.770 Y-13.659 Z7.957 A90.6036 
N2084 X-206.770 Y-13.686 Z8.138 A89.3606 
N2085 X-206.770 Y-13.707 Z8.305 A88.0993 
N2086 X-206.770 Y-13.724 Z8.457 A86.8178 
N2087 X-206.770 Y-13.737 Z8.596 A85.5157 
N2088 X-206.770 Y-13.748 Z8.722 A84.1935 
N2089 X-206.770 Y-13.756 Z8.838 A82.8525 
N2090 X-206.770 Y-13.761 Z8.942 A81.4931 
N2091 X-206.770 Y-13.765 Z9.038 A80.1157 
N2092 X-206.771 Y-13.767 Z9.125 A78.7200 
N2093 X-206.771 Y-13.769 Z9.204 A77.3059 
N2094 X-206.771 Y-13.769 Z9.277 A75.8736 
N2095 X-206.772 Y-13.769 Z9.343 A74.4239 
N2096 X-206.772 Y-13.768 Z9.404 A72.9582 
N2097 X-206.773 Y-13.767 Z9.461 A71.4788 
N2098 X-206.774 Y-13.765 Z9.514 A69.9884 
N2099 X-206.774 Y-13.763 Z9.563 A68.4899 
N2100 X-206.775 Y-13.760 Z9.609 A66.9865 
N2101 X-206.775 Y-13.757 Z9.653 A65.4811 
N2102 X-206.776 Y-13.754 Z9.694 A63.9761 
N2103 X-206.776 Y-13.750 Z9.733 A62.4737 
N2104 X-206.777 Y-13.746 Z9.770 A60.9756 
N2105 X-206.777 Y-13.742 Z9.806 A59.4830 
N2106 X-206.778 Y-13.737 Z9.841 A57.9967 
N2107 X-206.778 Y-13.732 Z9.875 A56.5175 
N2108 X-206.779 Y-13.726 Z9.907 A55.0456 
N2109 X-206.779 Y-13.720 Z9.939 A53.5811 
N2110 X-206.780 Y-13.713 Z9.970 A52.1239 
N2111 X-206.780 Y-13.706 Z10.000 A50.6738 
N2112 X-206.780 Y-13.698 Z10.030 A49.2306 
N2113 X-206.781 Y-13.689 Z10.059 A47.7938 
N2114 X-206.781 Y-13.680 Z10.088 A46.3628 
N2115 X-206.781 Y-13.671 Z10.116 A44.9372 
N2116 X-206.782 Y-13.660 Z10.144 A43.5163 
N2117 X-206.782 Y-13.650 Z10.172 A42.0995 
N2118 X-206.782 Y-13.638 Z10.199 A40.6861 
N2119 X-206.782 Y-13.626 Z10.226 A39.2753 
N2120 X-206.783 Y-13.613 Z10.253 A37.8665 
N2121 X-206.783 Y-13.599 Z10.280 A36.4590 
N2122 X-206.783 Y-13.584 Z10.306 A35.0518 
N2123 X-206.783 Y-13.569 Z10.332 A33.6444 
N2124 X-206.783 Y-13.553 Z10.358 A32.2359 
N2125 X-206.783 Y-13.536 Z10.384 A30.8255 
N2126 X-206.783 Y-13.518 Z10.409 A29.4124 
N2127 X-206.783 Y-13.499 Z10.435 A27.9958 
N2128 X-206.783 Y-13.479 Z10.460 A26.5750 
N2129 X-206.783 Y-13.458 Z10.485 A25.1491 
N2130 X-206.783 Y-13.436 Z10.510 A23.7174 
N2131 X-206.783 Y-13.412 Z10.534 A22.2794 
N2132 X-206.783 Y-13.387 Z10.559 A20.8344 
N2133 X-206.783 Y-13.361 Z10.583 A19.3821 
N2134 X-206.783 Y-13.332 Z10.608 A17.9221 
N2135 X-206.782 Y-13.302 Z10.632 A16.4544 
N2136 X-206.782 Y-13.270 Z10.656 A14.9790 
N2137 X-206.782 Y-13.236 Z10.679 A13.4963 
N2138 X-206.781 Y-13.199 Z10.703 A12.0068 
N2139 X-206.781 Y-13.160 Z10.726 A10.5113 
N2140 X-206.781 Y-13.117 Z10.749 A9.0107 
N2141 X-206.780 Y-13.071 Z10.771 A7.5062 
N2142 X-206.779 Y-13.020 Z10.793 A5.9990 
N2143 X-206.779 Y-12.965 Z10.815 A4.4901 
N2144 X-206.778 Y-12.905 Z10.835 A2.9803 
N2145 X-206.777 Y-12.838 Z10.855 A1.4700 
N2146 X-206.777 Y-12.765 Z10.874 A359.9589 
N2147 X-206.776 Y-12.683 Z10.891 A358.4463 
N2148 X-206.775 Y-12.591 Z10.907 A356.9314 
N2149 X-206.773 Y-12.488 Z10.920 A355.4134 
N2150 X-206.771 Y-12.372 Z10.931 A353.8922 
N2151 X-206.770 Y-12.239 Z10.938 A352.3688 
N2152 X-206.768 Y-12.088 Z10.940 A350.8459 
N2153 X-206.766 Y-11.915 Z10.936 A349.3272 
N2154 X-206.763 Y-11.716 Z10.924 A347.8168 
N2155 X-206.759 Y-11.488 Z10.903 A346.3175 
N2156 X-206.756 Y-11.226 Z10.869 A344.8309 
N2157 X-206.753 Y-10.926 Z10.821 A343.3585 
N2158 X-206.748 Y-10.584 Z10.754 A341.9047 
N2159 X-206.742 Y-10.197 Z10.666 A340.5000 
N2160 X-206.736 Y-9.762 Z10.553 A339.1540 
N2161 X-206.730 Y-9.276 Z10.413 A337.9338 
N2162 X-206.722 Y-8.739 Z10.244 A336.8525 
N2163 X-206.713 Y-8.151 Z10.044 A335.9253 
N2164 X-206.704 Y-7.513 Z9.814 A335.1637 
N2165 X-206.694 Y-6.828 Z9.556 A334.5714 
N2166 X-206.683 Y-6.100 Z9.273 A334.1469 
N2167 X-206.672 Y-5.335 Z8.969 A333.8883 
N2168 X-206.660 Y-4.539 Z8.648 A333.7970 
N2169 X-206.647 Y-3.719 Z8.316 A333.8760 
N2170 X-206.634 Y-2.884 Z7.980 A334.1240 
N2171 X-206.620 Y-2.042 Z7.646 A334.6830 
N2172 X-206.606 Y-1.200 Z7.322 A335.5494 
N2173 X-206.591 Y-0.364 Z7.014 A336.5777 
N2174 X-206.576 Y0.460 Z6.728 A337.7597 
N2175 X-206.561 Y1.267 Z6.467 A339.0784 
N2176 X-206.545 Y2.053 Z6.234 A340.5158 
N2177 X-206.530 Y2.814 Z6.030 A342.0053 
N2178 X-206.514 Y3.551 Z5.854 A343.5374 
N2179 X-206.498 Y4.262 Z5.704 A345.0856 
N2180 X-206.481 Y4.949 Z5.580 A346.6445 
N2181 X-206.465 Y5.614 Z5.479 A348.2081 
N2182 X-206.448 Y6.260 Z5.400 A349.7716 
N2183 X-206.430 Y6.890 Z5.341 A351.3305 
N2184 X-206.413 Y7.508 Z5.300 A352.8813 
N2185 X-206.395 Y8.118 Z5.277 A354.4211 
N2186 X-206.377 Y8.724 Z5.271 A355.9479 
N2187 X-206.359 Y9.330 Z5.281 A357.4597 
N2188 X-206.340 Y9.939 Z5.307 A358.9551 
N2189 X-206.321 Y10.554 Z5.351 A0.4323 
N2190 X-206.302 Y11.178 Z5.412 A1.8897 
N2191 X-206.283 Y11.813 Z5.491 A3.3256 
N2192 X-206.264 Y12.462 Z5.589 A4.7376 
N2193 X-206.245 Y13.124 Z5.707 A6.1234 
N2194 X-206.226 Y13.801 Z5.846 A7.4805 
N2195 X-206.208 Y14.492 Z6.005 A8.8062 
N2196 X-206.190 Y15.195 Z6.185 A10.0979 
N2197 X-206.173 Y15.909 Z6.387 A11.3533 
N2198 X-206.156 Y16.630 Z6.608 A12.5705 
N2199 X-206.140 Y17.354 Z6.847 A13.7484 
N2200 X-206.124 Y18.075 Z7.102 A14.8866 
N2201 X-206.108 Y18.789 Z7.370 A15.9471 
N2202 X-206.093 Y19.489 Z7.647 A16.9307 
N2203 X-206.077 Y20.168 Z7.930 A17.8369 
N2204 X-206.063 Y20.820 Z8.214 A18.6649 
N2205 X-206.048 Y21.440 Z8.495 A19.4135 
N2206 X-206.034 Y22.022 Z8.767 A20.0827 
N2207 X-206.021 Y22.561 Z9.026 A20.6750 
N2208 X-206.008 Y23.054 Z9.269 A21.1954 
N2209 X-205.996 Y23.500 Z9.493 A21.6498 
N2210 X-205.986 Y23.897 Z9.695 A22.0440 
N2211 X-205.976 Y24.244 Z9.875 A22.3825 
N2212 X-205.968 Y24.545 Z10.033 A22.6690 
N2213 X-205.960 Y24.801 Z10.169 A22.9065 
N2214 X-205.954 Y25.016 Z10.283 A23.0976 
N2215 X-205.949 Y25.193 Z10.379 A23.2441 
N2216 X-205.945 Y25.337 Z10.457 A23.3455 
N2217 X-205.942 Y25.453 Z10.520 A23.3979 
N2218 X-205.939 Y25.544 Z10.571 A23.3393 
N2219 X-205.936 Y25.615 Z10.612 A23.1465 
N2220 X-205.934 Y25.670 Z10.645 A22.7981 
N2221 X-205.931 Y25.712 Z10.673 A22.1335 
N2222 X-205.927 Y25.743 Z10.698 A21.1592 
N2223 X-205.923 Y25.767 Z10.720 A19.9130 
N2224 X-205.919 Y25.785 Z10.739 A18.5629 
N2225 X-205.914 Y25.799 Z10.756 A17.1866 
N2226 X-205.910 Y25.810 Z10.772 A15.8107 
N2227 X-205.906 Y25.820 Z10.786 A14.4462 
N2228 X-205.903 Y25.827 Z10.799 A13.0980 
N2229 X-205.900 Y25.834 Z10.811 A11.7661 
N2230 X-205.897 Y25.841 Z10.823 A10.4479 
N2231 X-205.894 Y25.847 Z10.835 A9.1392 
N2232 X-205.891 Y25.854 Z10.847 A7.8340 
N2233 X-205.888 Y25.860 Z10.858 A6.5281 
N2234 X-205.885 Y25.867 Z10.869 A5.2169 
N2235 X-205.882 Y25.874 Z10.880 A3.8975 
N2236 X-205.880 Y25.881 Z10.891 A2.5680 
N2237 X-205.877 Y25.888 Z10.902 A1.2282 
N2238 X-205.874 Y25.895 Z10.913 A359.8786 
N2239 X-205.871 Y25.903 Z10.924 A358.5210 
N2240 X-205.868 Y25.911 Z10.934 A357.1580 
N2241 X-205.865 Y25.919 Z10.945 A355.7929 
N2242 X-205.863 Y25.927 Z10.955 A354.4293 
N2243 X-205.860 Y25.936 Z10.965 A353.0710 
N2244 X-205.858 Y25.944 Z10.974 A351.7217 
N2245 X-205.855 Y25.953 Z10.984 A350.3850 
N2246 X-205.853 Y25.962 Z10.993 A349.0640 
N2247 X-205.851 Y25.970 Z11.001 A347.7619 
N2248 X-205.848 Y25.979 Z11.010 A346.4802 
N2249 X-205.847 Y25.988 Z11.018 A345.2221 
N2250 X-205.845 Y25.997 Z11.025 A343.9875 
N2251 X-205.843 Y26.005 Z11.033 A342.7775 
N2252 X-205.841 Y26.014 Z11.040 A341.5923 
N2253 X-205.839 Y26.023 Z11.047 A340.4310 
N2254 X-205.838 Y26.032 Z11.053 A339.2940 
N2255 X-205.837 Y26.040 Z11.059 A338.1795 
N2256 X-205.835 Y26.049 Z11.065 A337.0859 
N2257 X-205.834 Y26.057 Z11.070 A336.0128 
N2258 X-205.833 Y26.066 Z11.076 A334.9578 
N2259 X-205.832 Y26.074 Z11.081 A333.9190 
N2260 X-205.831 Y26.083 Z11.085 A332.8952 
N2261 X-205.830 Y26.091 Z11.090 A331.8844 
N2262 X-205.829 Y26.100 Z11.094 A330.8846 
N2263 X-205.828 Y26.108 Z11.099 A329.8944 
N2264 X-205.827 Y26.117 Z11.103 A328.9121 
N2265 X-205.827 Y26.125 Z11.106 A327.9362 
N2266 X-205.826 Y26.134 Z11.110 A326.9651 
N2267 X-205.825 Y26.143 Z11.114 A325.9975 
N2268 X-205.825 Y26.151 Z11.117 A325.0324 
N2269 X-205.824 Y26.160 Z11.120 A324.0686 
N2270 X-205.824 Y26.169 Z11.123 A323.1049 
N2271 X-205.823 Y26.178 Z11.126 A322.1408 
N2272 X-205.823 Y26.187 Z11.128 A321.1755 
N2273 X-205.823 Y26.196 Z11.131 A320.2082 
N2274 X-205.822 Y26.206 Z11.133 A319.2385 
N2275 X-205.822 Y26.215 Z11.135 A318.2661 
N2276 X-205.822 Y26.224 Z11.137 A317.2905 
N2277 X-205.822 Y26.234 Z11.139 A316.3115 
N2278 X-205.822 Y26.243 Z11.141 A315.3290 
N2279 X-205.822 Y26.253 Z11.142 A314.3426 
N2280 X-205.822 Y26.263 Z11.143 A313.3522 
N2281 X-205.822 Y26.272 Z11.145 A312.3580 
N2282 X-205.822 Y26.282 Z11.146 A311.3596 
N2283 X-205.822 Y26.292 Z11.146 A310.3570 
N2284 X-205.822 Y26.302 Z11.147 A309.3504 
N2285 X-205.822 Y26.312 Z11.147 A308.3392 
N2286 X-205.823 Y26.322 Z11.148 A307.3237 
N2287 X-205.823 Y26.332 Z11.148 A306.3039 
N2288 X-205.824 Y26.342 Z11.148 A305.2791 
N2289 X-205.824 Y26.353 Z11.147 A304.2497 
N2290 X-205.825 Y26.363 Z11.147 A303.2155 
N2291 X-205.825 Y26.373 Z11.146 A302.1761 
N2292 X-205.826 Y26.384 Z11.145 A301.1316 
N2293 X-205.827 Y26.394 Z11.144 A300.0817 
N2294 X-205.827 Y26.404 Z11.143 A299.0261 
N2295 X-205.828 Y26.415 Z11.141 A297.9649 
N2296 X-205.829 Y26.425 Z11.140 A296.8975 
N2297 X-205.830 Y26.436 Z11.138 A295.8241 
N2298 X-205.831 Y26.446 Z11.136 A294.7445 
N2299 X-205.832 Y26.457 Z11.133 A293.6584 
N2300 X-205.834 Y26.467 Z11.131 A292.5658 
N2301 X-205.835 Y26.478 Z11.128 A291.4664 
N2302 X-205.836 Y26.489 Z11.125 A290.3601 
N2303 X-205.838 Y26.499 Z11.122 A289.2468 
N2304 X-205.839 Y26.510 Z11.118 A288.1262 
N2305 X-205.841 Y26.520 Z11.115 A286.9984 
N2306 X-205.842 Y26.531 Z11.111 A285.8629 
N2307 X-205.844 Y26.542 Z11.107 A284.7195 
N2308 X-205.845 Y26.552 Z11.103 A283.5680 
N2309 X-205.847 Y26.563 Z11.098 A282.4079 
N2310 X-205.849 Y26.573 Z11.094 A281.2389 
N2311 X-205.851 Y26.584 Z11.089 A280.0603 
N2312 X-205.853 Y26.594 Z11.083 A278.8717 
N2313 X-205.855 Y26.605 Z11.078 A277.6722 
N2314 X-205.857 Y26.615 Z11.073 A276.4612 
N2315 X-205.859 Y26.625 Z11.067 A275.2375 
N2316 X-205.862 Y26.636 Z11.061 A274.0004 
N2317 X-205.864 Y26.646 Z11.054 A272.7486 
N2318 X-205.866 Y26.656 Z11.048 A271.4814 
N2319 X-205.869 Y26.667 Z11.041 A270.1974 
N2320 X-205.871 Y26.677 Z11.034 A268.8957 
N2321 X-205.874 Y26.687 Z11.026 A267.5754 
N2322 X-205.877 Y26.698 Z11.018 A266.2359 
N2323 X-205.880 Y26.708 Z11.010 A264.8765 
N2324 X-205.883 Y26.718 Z11.002 A263.4971 
N2325 X-205.886 Y26.728 Z10.993 A262.0976 
N2326 X-205.890 Y26.738 Z10.984 A260.6785 
N2327 X-205.893 Y26.748 Z10.975 A259.2403 
N2328 X-205.896 Y26.758 Z10.965 A257.7844 
N2329 X-205.900 Y26.767 Z10.955 A256.3123 
N2330 X-205.904 Y26.777 Z10.944 A254.8265 
N2331 X-205.908 Y26.786 Z10.933 A253.3293 
N2332 X-205.911 Y26.795 Z10.922 A251.8242 
N2333 X-205.915 Y26.804 Z10.911 A250.3147 
N2334 X-205.919 Y26.812 Z10.899 A248.8047 
N2335 X-205.923 Y26.820 Z10.888 A247.2983 
N2336 X-205.927 Y26.828 Z10.876 A245.7995 
N2337 X-205.931 Y26.836 Z10.864 A244.3122 
N2338 X-205.935 Y26.842 Z10.851 A242.8398 
N2339 X-205.938 Y26.849 Z10.839 A241.3851 
N2340 X-205.942 Y26.855 Z10.827 A239.9499 
N2341 X-205.945 Y26.861 Z10.815 A238.5353 
N2342 X-205.949 Y26.866 Z10.803 A237.1405 
N2343 X-205.952 Y26.871 Z10.790 A235.7637 
N2344 X-205.955 Y26.876 Z10.778 A234.4009 
N2345 X-205.958 Y26.880 Z10.766 A233.0469 
N2346 X-205.961 Y26.884 Z10.753 A231.6944 
N2347 X-205.965 Y26.888 Z10.740 A230.3343 
N2348 X-205.968 Y26.891 Z10.727 A228.9577 
N2349 X-205.971 Y26.893 Z10.713 A227.5536 
N2350 X-205.974 Y26.895 Z10.698 A226.1127 
N2351 X-205.978 Y26.896 Z10.682 A224.6297 
N2352 X-205.983 Y26.896 Z10.664 A223.1035 
N2353 X-205.988 Y26.892 Z10.643 A221.5403 
N2354 X-205.993 Y26.885 Z10.618 A219.8884 
N2355 X-205.998 Y26.872 Z10.587 A218.0747 
N2356 X-206.003 Y26.851 Z10.551 A216.5042 
N2357 X-206.006 Y26.818 Z10.513 A215.5096 
N2358 X-206.009 Y26.770 Z10.468 A215.0661 
N2359 X-206.012 Y26.703 Z10.411 A214.8904 
N2360 X-206.015 Y26.614 Z10.336 A214.7620 
N2361 X-206.019 Y26.496 Z10.238 A214.6441 
N2362 X-206.024 Y26.343 Z10.110 A214.5329 
N2363 X-206.031 Y26.147 Z9.948 A214.4237 
N2364 X-206.039 Y25.902 Z9.745 A214.3120 
N2365 X-206.048 Y25.600 Z9.495 A214.1934 
N2366 X-206.060 Y25.233 Z9.193 A214.0639 
N2367 X-206.073 Y24.797 Z8.834 A213.9192 
N2368 X-206.088 Y24.286 Z8.415 A213.7551 
N2369 X-206.104 Y23.697 Z7.934 A213.5671 
N2370 X-206.122 Y23.031 Z7.391 A213.3510 
N2371 X-206.141 Y22.288 Z6.790 A213.1029 
N2372 X-206.161 Y21.474 Z6.136 A212.8196 
N2373 X-206.180 Y20.596 Z5.436 A212.4615 
N2374 X-206.199 Y19.661 Z4.700 A212.0233 
N2375 X-206.217 Y18.680 Z3.940 A211.5003 
N2376 X-206.234 Y17.666 Z3.167 A210.8888 
N2377 X-206.248 Y16.630 Z2.396 A210.1866 
N2378 X-206.261 Y15.585 Z1.638 A209.3922 
N2379 X-206.271 Y14.544 Z0.905 A208.5055 
N2380 X-206.279 Y13.517 Z0.206 A207.5278 
N2381 X-206.285 Y12.515 Z-0.450 A206.4614 
