; PROGRAM NAME: B00000034T
; ORDER       : B000000
; OPER. NAME  : Spiral Finish Airfoil:147
; OPER. DESCR.: Spiral Finishing Airfoil/pioro wk-Tilt milling
; OPER. TYPE  : finAirfoil
; GEO. OPTION : 5
; MACHINE     : HSTM_500_SIM840D_Py
;             : HSTM500 - HAMUEL: 5-axis milling machine - SIM840D Traori PP_Script
; CONTROL     : SINUMERIK 840D
; created:   2021-11-15 10:00:18.221287
;-------DODATKOWE DANE-------------------
; PROGRAMISTA : Mariusz Malec
; PARTID      : 139T001534P1001_-
;  ae         : 2.2
;  lean_angle : 20.0
;  airf_offset: 0.025
;----------------------------------------
;RAPORT("TB000000","Spiral Finish Airfoil:147")
N10 TRAFOOF
N11 D0
N12 G90 G94
N13 G0 G53 D0 Z550 B0
N14 STOPRE
M9 ; chlodziwo wyl
; --- Spiral Finish Airfoil:147 - Spiral Finishing Airfoil/pioro wk-Tilt milling ---
N16 ;ToolChange : concat=None ,current_tdmid=None, PP.tdmId=957163
N17 TRAFOOF
N18 G0 G53 D0 X-200 Y150 Z550 B0
N19 T="7757163"
;RAPORT("TB000000","ToolChangeStart 7757163")
N20 M6
;RAPORT("TB000000","ToolChangeEnd")
N21 STOPRE
N22 MSG(" TLID=957163 D=1.0 R=1.0 Ang=75.0 Len=124.0 ")
N23 ; (Preloading tool)
N24 T="7757774"
N25 S11140 M03
N26 STOPRE
N27 CYCLE832(0.01,1,1)
N28 G0 G53 A221.5187 B-15.0000
N29 TRAORI
N30 G54 D1
N31 D1 
N32 TRANS  A=R25
STOPRE
E_ZDARZ=300001
;ACS_FINISH_AIRFOIL=7757163
STOPRE
N33 ; DELTA A > 40.1
N34 TRAFOOF
N35 D1
N36 STOPRE
N37 G00 G54 Z262.000
N38 G01 A221.5187 F10000
N39 TRAORI
N40 G54 D1
N41 STOPRE
N42 TRANS  A=R25
N43 G00 X-220.894 Y58.308 Z-40.710 A221.5187 B-15.0000 
N44 M340 ; chlodziwo centralne
N45 X-207.953 Y26.294 Z-4.548 
N46 G01 X-207.953 Y24.612 Z-1.910 F3119 
N47 X-207.953 Y23.828 Z1.119 
N48 X-207.953 Y24.018 Z4.242 
N49 X-207.953 Y25.164 Z7.153 
N50 X-207.953 Y27.153 Z9.568 
N51 X-207.953 Y27.215 Z9.628 A223.6926 
N52 X-207.952 Y27.291 Z9.709 A227.5338 
N53 X-207.951 Y27.370 Z9.807 A232.5638 
N54 X-207.951 Y27.438 Z9.909 A237.7398 
N55 X-207.950 Y27.494 Z10.013 A242.8680 
N56 X-207.949 Y27.538 Z10.115 A247.8383 
N57 X-207.949 Y27.570 Z10.213 A252.5608 
N58 X-207.948 Y27.592 Z10.303 A256.7741 
N59 X-207.947 Y27.605 Z10.382 A260.4767 
N60 X-207.947 Y27.612 Z10.456 A263.9257 
N61 X-207.946 Y27.615 Z10.526 A267.1429 
N62 X-207.945 Y27.614 Z10.591 A270.1584 
N63 X-207.945 Y27.609 Z10.653 A273.0040 
N64 X-207.944 Y27.602 Z10.711 A275.7131 
N65 X-207.943 Y27.593 Z10.767 A278.3137 
N66 X-207.943 Y27.581 Z10.821 A280.8294 
N67 X-207.942 Y27.567 Z10.872 A283.2798 
N68 X-207.941 Y27.552 Z10.923 A285.6810 
N69 X-207.941 Y27.534 Z10.971 A288.0451 
N70 X-207.940 Y27.515 Z11.019 A290.3821 
N71 X-207.939 Y27.494 Z11.065 A292.6998 
N72 X-207.939 Y27.471 Z11.111 A295.0045 
N73 X-207.938 Y27.447 Z11.155 A297.3004 
N74 X-207.937 Y27.421 Z11.198 A299.5907 
N75 X-207.937 Y27.393 Z11.239 A301.8783 
N76 X-207.936 Y27.364 Z11.280 A304.1654 
N77 X-207.935 Y27.333 Z11.319 A306.4537 
N78 X-207.935 Y27.300 Z11.357 A308.7451 
N79 X-207.934 Y27.266 Z11.393 A311.0414 
N80 X-207.933 Y27.231 Z11.429 A313.3449 
N81 X-207.933 Y27.194 Z11.462 A315.6582 
N82 X-207.932 Y27.156 Z11.495 A317.9848 
N83 X-207.931 Y27.117 Z11.526 A320.3296 
N84 X-207.931 Y27.076 Z11.555 A322.6994 
N85 X-207.930 Y27.033 Z11.583 A325.1028 
N86 X-207.929 Y26.989 Z11.610 A327.5507 
N87 X-207.929 Y26.943 Z11.635 A330.0576 
N88 X-207.928 Y26.895 Z11.658 A332.6417 
N89 X-207.927 Y26.844 Z11.680 A335.3255 
N90 X-207.927 Y26.790 Z11.701 A338.1363 
N91 X-207.926 Y26.732 Z11.720 A341.1073 
N92 X-207.925 Y26.670 Z11.737 A344.2734 
N93 X-207.924 Y26.603 Z11.751 A347.6698 
N94 X-207.924 Y26.530 Z11.763 A351.3290 
N95 X-207.923 Y26.451 Z11.770 A355.2724 
N96 X-207.922 Y26.365 Z11.772 A359.4990 
N97 X-207.922 Y26.272 Z11.767 A3.9768 
N98 X-207.921 Y26.175 Z11.754 A8.6100 
N99 X-207.920 Y26.075 Z11.732 A13.2731 
N100 X-207.920 Y25.978 Z11.701 A17.6780 
N101 X-207.919 Y25.885 Z11.664 A21.6069 
N102 X-207.918 Y25.804 Z11.625 A24.4570 
N103 X-207.918 Y25.733 Z11.587 A26.2811 
N104 X-207.917 Y25.666 Z11.549 A27.2295 
N105 X-207.916 Y25.594 Z11.506 A27.7990 
N106 X-207.915 Y25.513 Z11.459 A28.0697 
N107 X-207.914 Y25.419 Z11.404 A28.2230 
N108 X-207.914 Y25.310 Z11.341 A28.2883 
N109 X-207.913 Y25.183 Z11.269 A28.2887 
N110 X-207.912 Y25.038 Z11.186 A28.2396 
N111 X-207.911 Y24.874 Z11.094 A28.1509 
N112 X-207.910 Y24.689 Z10.992 A28.0286 
N113 X-207.909 Y24.484 Z10.879 A27.8766 
N114 X-207.908 Y24.260 Z10.757 A27.6980 
N115 X-207.907 Y24.016 Z10.626 A27.4949 
N116 X-207.906 Y23.755 Z10.487 A27.2691 
N117 X-207.905 Y23.476 Z10.340 A27.0214 
N118 X-207.904 Y23.183 Z10.187 A26.7522 
N119 X-207.903 Y22.876 Z10.030 A26.4612 
N120 X-207.901 Y22.558 Z9.869 A26.1476 
N121 X-207.900 Y22.231 Z9.705 A25.8110 
N122 X-207.899 Y21.896 Z9.540 A25.4510 
N123 X-207.898 Y21.554 Z9.375 A25.0677 
N124 X-207.897 Y21.208 Z9.210 A24.6622 
N125 X-207.896 Y20.858 Z9.047 A24.2359 
N126 X-207.895 Y20.506 Z8.887 A23.7904 
N127 X-207.893 Y20.153 Z8.729 A23.3276 
N128 X-207.892 Y19.798 Z8.574 A22.8489 
N129 X-207.891 Y19.443 Z8.423 A22.3556 
N130 X-207.890 Y19.089 Z8.275 A21.8484 
N131 X-207.889 Y18.735 Z8.132 A21.3277 
N132 X-207.888 Y18.381 Z7.992 A20.7939 
N133 X-207.886 Y18.029 Z7.857 A20.2470 
N134 X-207.885 Y17.678 Z7.726 A19.6871 
N135 X-207.884 Y17.328 Z7.599 A19.1143 
N136 X-207.883 Y16.980 Z7.477 A18.5286 
N137 X-207.882 Y16.632 Z7.359 A17.9299 
N138 X-207.881 Y16.286 Z7.246 A17.3182 
N139 X-207.880 Y15.942 Z7.137 A16.6934 
N140 X-207.879 Y15.599 Z7.033 A16.0557 
N141 X-207.878 Y15.257 Z6.934 A15.4049 
N142 X-207.876 Y14.917 Z6.839 A14.7411 
N143 X-207.875 Y14.578 Z6.749 A14.0644 
N144 X-207.874 Y14.241 Z6.663 A13.3748 
N145 X-207.873 Y13.905 Z6.582 A12.6726 
N146 X-207.872 Y13.570 Z6.506 A11.9581 
N147 X-207.871 Y13.237 Z6.434 A11.2313 
N148 X-207.870 Y12.906 Z6.368 A10.4928 
N149 X-207.869 Y12.575 Z6.306 A9.7428 
N150 X-207.868 Y12.246 Z6.248 A8.9817 
N151 X-207.867 Y11.919 Z6.196 A8.2101 
N152 X-207.866 Y11.592 Z6.148 A7.4285 
N153 X-207.865 Y11.267 Z6.105 A6.6374 
N154 X-207.864 Y10.942 Z6.066 A5.8375 
N155 X-207.863 Y10.619 Z6.033 A5.0293 
N156 X-207.862 Y10.297 Z6.004 A4.2137 
N157 X-207.861 Y9.975 Z5.980 A3.3913 
N158 X-207.860 Y9.654 Z5.960 A2.5629 
N159 X-207.859 Y9.334 Z5.945 A1.7293 
N160 X-207.858 Y9.014 Z5.935 A0.8915 
N161 X-207.857 Y8.694 Z5.930 A0.0504 
N162 X-207.856 Y8.375 Z5.930 A359.2069 
N163 X-207.855 Y8.056 Z5.934 A358.3620 
N164 X-207.854 Y7.737 Z5.943 A357.5168 
N165 X-207.853 Y7.417 Z5.957 A356.6723 
N166 X-207.852 Y7.098 Z5.975 A355.8296 
N167 X-207.851 Y6.777 Z5.998 A354.9898 
N168 X-207.850 Y6.456 Z6.027 A354.1543 
N169 X-207.849 Y6.135 Z6.060 A353.3240 
N170 X-207.848 Y5.812 Z6.098 A352.5003 
N171 X-207.847 Y5.488 Z6.140 A351.6844 
N172 X-207.847 Y5.163 Z6.188 A350.8774 
N173 X-207.846 Y4.836 Z6.241 A350.0808 
N174 X-207.845 Y4.508 Z6.299 A349.2956 
N175 X-207.844 Y4.177 Z6.362 A348.5232 
N176 X-207.843 Y3.845 Z6.430 A347.7648 
N177 X-207.842 Y3.509 Z6.503 A347.0217 
N178 X-207.841 Y3.172 Z6.581 A346.2951 
N179 X-207.840 Y2.831 Z6.665 A345.5864 
N180 X-207.839 Y2.487 Z6.754 A344.8969 
N181 X-207.838 Y2.140 Z6.848 A344.2281 
N182 X-207.838 Y1.788 Z6.948 A343.5818 
N183 X-207.837 Y1.433 Z7.054 A342.9600 
N184 X-207.836 Y1.074 Z7.165 A342.3653 
N185 X-207.835 Y0.711 Z7.282 A341.8003 
N186 X-207.834 Y0.343 Z7.404 A341.2682 
N187 X-207.833 Y-0.030 Z7.532 A340.7723 
N188 X-207.832 Y-0.408 Z7.665 A340.3159 
N189 X-207.831 Y-0.790 Z7.803 A339.9022 
N190 X-207.831 Y-1.176 Z7.946 A339.5339 
N191 X-207.830 Y-1.567 Z8.093 A339.2134 
N192 X-207.829 Y-1.962 Z8.245 A338.9423 
N193 X-207.828 Y-2.360 Z8.399 A338.7218 
N194 X-207.827 Y-2.760 Z8.557 A338.5523 
N195 X-207.826 Y-3.163 Z8.716 A338.4339 
N196 X-207.825 Y-3.567 Z8.876 A338.3659 
N197 X-207.824 Y-3.971 Z9.037 A338.3476 
N198 X-207.824 Y-4.374 Z9.197 A338.3779 
N199 X-207.823 Y-4.774 Z9.356 A338.4562 
N200 X-207.822 Y-5.172 Z9.513 A338.5822 
N201 X-207.821 Y-5.565 Z9.667 A338.7565 
N202 X-207.820 Y-5.953 Z9.817 A338.9804 
N203 X-207.819 Y-6.335 Z9.963 A339.2564 
N204 X-207.818 Y-6.709 Z10.104 A339.5875 
N205 X-207.818 Y-7.075 Z10.240 A339.9767 
N206 X-207.817 Y-7.432 Z10.369 A340.4272 
N207 X-207.816 Y-7.780 Z10.492 A340.9411 
N208 X-207.815 Y-8.117 Z10.607 A341.5197 
N209 X-207.814 Y-8.444 Z10.715 A342.1632 
N210 X-207.813 Y-8.760 Z10.814 A342.8710 
N211 X-207.812 Y-9.064 Z10.906 A343.6424 
N212 X-207.812 Y-9.357 Z10.990 A344.4773 
N213 X-207.811 Y-9.638 Z11.065 A345.3758 
N214 X-207.810 Y-9.906 Z11.133 A346.3380 
N215 X-207.809 Y-10.163 Z11.192 A347.3629 
N216 X-207.808 Y-10.407 Z11.244 A348.4477 
N217 X-207.807 Y-10.638 Z11.288 A349.5897 
N218 X-207.807 Y-10.858 Z11.325 A350.7890 
N219 X-207.806 Y-11.066 Z11.356 A352.0500 
N220 X-207.805 Y-11.262 Z11.380 A353.3800 
N221 X-207.804 Y-11.447 Z11.399 A354.7857 
N222 X-207.803 Y-11.621 Z11.412 A356.2708 
N223 X-207.803 Y-11.784 Z11.419 A357.8361 
N224 X-207.802 Y-11.937 Z11.422 A359.4810 
N225 X-207.801 Y-12.081 Z11.420 A1.2063 
N226 X-207.800 Y-12.216 Z11.414 A3.0152 
N227 X-207.799 Y-12.343 Z11.404 A4.9120 
N228 X-207.799 Y-12.461 Z11.390 A6.9006 
N229 X-207.798 Y-12.573 Z11.373 A8.9830 
N230 X-207.797 Y-12.679 Z11.353 A11.1574 
N231 X-207.796 Y-12.778 Z11.329 A13.4167 
N232 X-207.796 Y-12.872 Z11.303 A15.7504 
N233 X-207.795 Y-12.960 Z11.274 A18.1457 
N234 X-207.794 Y-13.043 Z11.243 A20.5888 
N235 X-207.793 Y-13.122 Z11.209 A23.0675 
N236 X-207.793 Y-13.196 Z11.173 A25.5706 
N237 X-207.792 Y-13.266 Z11.134 A28.0897 
N238 X-207.791 Y-13.332 Z11.094 A30.6186 
N239 X-207.790 Y-13.395 Z11.052 A33.1541 
N240 X-207.790 Y-13.455 Z11.008 A35.6950 
N241 X-207.789 Y-13.512 Z10.963 A38.2420 
N242 X-207.788 Y-13.566 Z10.915 A40.7973 
N243 X-207.788 Y-13.617 Z10.865 A43.3632 
N244 X-207.787 Y-13.666 Z10.813 A45.9425 
N245 X-207.786 Y-13.713 Z10.759 A48.5371 
N246 X-207.785 Y-13.757 Z10.703 A51.1480 
N247 X-207.785 Y-13.800 Z10.643 A53.7743 
N248 X-207.784 Y-13.840 Z10.581 A56.4126 
N249 X-207.783 Y-13.879 Z10.516 A59.0572 
N250 X-207.782 Y-13.915 Z10.447 A61.6986 
N251 X-207.782 Y-13.949 Z10.374 A64.3243 
N252 X-207.781 Y-13.980 Z10.298 A66.9186 
N253 X-207.780 Y-14.009 Z10.217 A69.4648 
N254 X-207.779 Y-14.036 Z10.132 A71.9444 
N255 X-207.779 Y-14.060 Z10.042 A74.3395 
N256 X-207.778 Y-14.081 Z9.946 A76.6348 
N257 X-207.777 Y-14.099 Z9.845 A78.8191 
N258 X-207.776 Y-14.114 Z9.737 A80.8875 
N259 X-207.776 Y-14.126 Z9.623 A82.8414 
N260 X-207.775 Y-14.136 Z9.501 A84.6862 
N261 X-207.774 Y-14.142 Z9.372 A86.4301 
N262 X-207.773 Y-14.144 Z9.233 A88.0816 
N263 X-207.772 Y-14.143 Z9.086 A89.6472 
N264 X-207.772 Y-14.138 Z8.929 A91.1315 
N265 X-207.771 Y-14.129 Z8.762 A92.5382 
N266 X-207.770 Y-14.115 Z8.585 A93.8724 
N267 X-207.769 Y-14.096 Z8.398 A95.1415 
N268 X-207.768 Y-14.072 Z8.202 A96.3560 
N269 X-207.767 Y-14.043 Z7.995 A97.5271 
N270 X-207.767 Y-14.009 Z7.779 A98.6631 
N271 X-207.766 Y-13.969 Z7.553 A99.7682 
N272 X-207.765 Y-13.923 Z7.318 A100.8432 
N273 X-207.764 Y-13.870 Z7.075 A101.8877 
N274 X-207.763 Y-13.812 Z6.825 A102.9025 
N275 X-207.762 Y-13.747 Z6.567 A103.8896 
N276 X-207.761 Y-13.676 Z6.303 A104.8513 
N277 X-207.760 Y-13.598 Z6.033 A105.7894 
N278 X-207.760 Y-13.515 Z5.759 A106.7055 
N279 X-207.759 Y-13.425 Z5.480 A107.6013 
N280 X-207.758 Y-13.330 Z5.197 A108.4785 
N281 X-207.757 Y-13.229 Z4.911 A109.3397 
N282 X-207.756 Y-13.122 Z4.624 A110.1880 
N283 X-207.755 Y-13.010 Z4.334 A111.0272 
N284 X-207.754 Y-12.894 Z4.044 A111.8615 
N285 X-207.753 Y-12.772 Z3.754 A112.6947 
N286 X-207.753 Y-12.645 Z3.463 A113.5302 
N287 X-207.752 Y-12.514 Z3.173 A114.3706 
N288 X-207.751 Y-12.378 Z2.885 A115.2176 
N289 X-207.750 Y-12.238 Z2.598 A116.0722 
N290 X-207.749 Y-12.094 Z2.314 A116.9348 
N291 X-207.748 Y-11.946 Z2.032 A117.8054 
N292 X-207.748 Y-11.794 Z1.754 A118.6843 
N293 X-207.747 Y-11.638 Z1.478 A119.5717 
N294 X-207.746 Y-11.479 Z1.207 A120.4683 
N295 X-207.745 Y-11.316 Z0.939 A121.3751 
N296 X-207.744 Y-11.150 Z0.676 A122.2932 
N297 X-207.743 Y-10.981 Z0.417 A123.2241 
N298 X-207.743 Y-10.809 Z0.163 A124.1687 
N299 X-207.742 Y-10.634 Z-0.087 A125.1282 
N300 X-207.741 Y-10.457 Z-0.331 A126.1034 
N301 X-207.740 Y-10.277 Z-0.571 A127.0948 
N302 X-207.740 Y-10.094 Z-0.805 A128.1030 
N303 X-207.739 Y-9.909 Z-1.034 A129.1282 
N304 X-207.738 Y-9.722 Z-1.257 A130.1704 
N305 X-207.737 Y-9.532 Z-1.474 A131.2296 
N306 X-207.737 Y-9.341 Z-1.686 A132.3058 
N307 X-207.736 Y-9.147 Z-1.892 A133.3987 
N308 X-207.735 Y-8.951 Z-2.093 A134.5081 
N309 X-207.735 Y-8.753 Z-2.287 A135.6337 
N310 X-207.734 Y-8.554 Z-2.476 A136.7752 
N311 X-207.733 Y-8.352 Z-2.659 A137.9322 
N312 X-207.733 Y-8.149 Z-2.836 A139.1042 
N313 X-207.732 Y-7.944 Z-3.007 A140.2908 
N314 X-207.731 Y-7.737 Z-3.173 A141.4914 
N315 X-207.731 Y-7.528 Z-3.333 A142.7052 
N316 X-207.730 Y-7.318 Z-3.487 A143.9317 
N317 X-207.729 Y-7.106 Z-3.635 A145.1701 
N318 X-207.729 Y-6.893 Z-3.777 A146.4196 
N319 X-207.728 Y-6.677 Z-3.914 A147.6793 
N320 X-207.727 Y-6.461 Z-4.046 A148.9484 
N321 X-207.727 Y-6.242 Z-4.171 A150.2261 
N322 X-207.726 Y-6.022 Z-4.291 A151.5113 
N323 X-207.726 Y-5.800 Z-4.406 A152.8033 
N324 X-207.725 Y-5.577 Z-4.515 A154.1011 
N325 X-207.724 Y-5.352 Z-4.618 A155.4036 
N326 X-207.724 Y-5.125 Z-4.717 A156.7099 
N327 X-207.723 Y-4.896 Z-4.809 A158.0189 
N328 X-207.723 Y-4.665 Z-4.897 A159.3295 
N329 X-207.722 Y-4.433 Z-4.979 A160.6407 
N330 X-207.722 Y-4.199 Z-5.055 A161.9512 
N331 X-207.721 Y-3.963 Z-5.126 A163.2601 
N332 X-207.720 Y-3.724 Z-5.192 A164.5662 
N333 X-207.720 Y-3.484 Z-5.253 A165.8686 
N334 X-207.719 Y-3.242 Z-5.308 A167.1663 
N335 X-207.719 Y-2.998 Z-5.358 A168.4581 
N336 X-207.718 Y-2.751 Z-5.403 A169.7431 
N337 X-207.718 Y-2.502 Z-5.442 A171.0203 
N338 X-207.717 Y-2.251 Z-5.476 A172.2886 
N339 X-207.717 Y-1.998 Z-5.505 A173.5471 
N340 X-207.716 Y-1.742 Z-5.528 A174.7947 
N341 X-207.716 Y-1.484 Z-5.546 A176.0305 
N342 X-207.716 Y-1.224 Z-5.558 A177.2536 
N343 X-207.715 Y-0.961 Z-5.565 A178.4630 
N344 X-207.715 Y-0.695 Z-5.566 A179.6580 
N345 X-207.714 Y-0.427 Z-5.562 A180.8377 
N346 X-207.714 Y-0.156 Z-5.552 A182.0015 
N347 X-207.713 Y0.117 Z-5.537 A183.1486 
N348 X-207.713 Y0.393 Z-5.516 A184.2785 
N349 X-207.712 Y0.672 Z-5.489 A185.3905 
N350 X-207.712 Y0.953 Z-5.456 A186.4840 
N351 X-207.712 Y1.237 Z-5.418 A187.5586 
N352 X-207.711 Y1.523 Z-5.374 A188.6137 
N353 X-207.711 Y1.812 Z-5.324 A189.6490 
N354 X-207.711 Y2.104 Z-5.269 A190.6641 
N355 X-207.710 Y2.398 Z-5.207 A191.6588 
N356 X-207.710 Y2.695 Z-5.140 A192.6328 
N357 X-207.710 Y2.995 Z-5.067 A193.5859 
N358 X-207.709 Y3.297 Z-4.987 A194.5179 
N359 X-207.709 Y3.601 Z-4.902 A195.4289 
N360 X-207.709 Y3.908 Z-4.812 A196.3186 
N361 X-207.708 Y4.218 Z-4.715 A197.1871 
N362 X-207.708 Y4.529 Z-4.612 A198.0345 
N363 X-207.708 Y4.843 Z-4.504 A198.8606 
N364 X-207.707 Y5.159 Z-4.390 A199.6658 
N365 X-207.707 Y5.478 Z-4.270 A200.4501 
N366 X-207.707 Y5.798 Z-4.144 A201.2138 
N367 X-207.707 Y6.121 Z-4.013 A201.9570 
N368 X-207.706 Y6.445 Z-3.876 A202.6800 
N369 X-207.706 Y6.772 Z-3.733 A203.3832 
N370 X-207.706 Y7.100 Z-3.585 A204.0668 
N371 X-207.706 Y7.430 Z-3.432 A204.7312 
N372 X-207.705 Y7.762 Z-3.273 A205.3769 
N373 X-207.705 Y8.095 Z-3.109 A206.0040 
N374 X-207.705 Y8.430 Z-2.939 A206.6131 
N375 X-207.705 Y8.766 Z-2.765 A207.2044 
N376 X-207.705 Y9.104 Z-2.585 A207.7781 
N377 X-207.704 Y9.444 Z-2.400 A208.3345 
N378 X-207.704 Y9.784 Z-2.210 A208.8738 
N379 X-207.704 Y10.127 Z-2.016 A209.3958 
N380 X-207.704 Y10.470 Z-1.816 A209.9008 
N381 X-207.704 Y10.814 Z-1.612 A210.3885 
N382 X-207.704 Y11.160 Z-1.404 A210.8590 
N383 X-207.703 Y11.507 Z-1.190 A211.3124 
N384 X-207.703 Y11.855 Z-0.973 A211.7490 
N385 X-207.703 Y12.205 Z-0.751 A212.1690 
N386 X-207.703 Y12.555 Z-0.525 A212.5730 
N387 X-207.703 Y12.906 Z-0.295 A212.9615 
N388 X-207.703 Y13.259 Z-0.060 A213.3351 
N389 X-207.703 Y13.612 Z0.178 A213.6943 
N390 X-207.703 Y13.966 Z0.419 A214.0397 
N391 X-207.703 Y14.321 Z0.665 A214.3718 
N392 X-207.702 Y14.678 Z0.914 A214.6908 
N393 X-207.702 Y15.034 Z1.166 A214.9973 
N394 X-207.702 Y15.392 Z1.422 A215.2915 
N395 X-207.702 Y15.751 Z1.681 A215.5737 
N396 X-207.702 Y16.110 Z1.944 A215.8441 
N397 X-207.702 Y16.470 Z2.209 A216.1031 
N398 X-207.702 Y16.831 Z2.477 A216.3509 
N399 X-207.702 Y17.193 Z2.749 A216.5875 
N400 X-207.702 Y17.555 Z3.023 A216.8133 
N401 X-207.702 Y17.918 Z3.299 A217.0282 
N402 X-207.702 Y18.282 Z3.579 A217.2325 
N403 X-207.702 Y18.646 Z3.861 A217.4262 
N404 X-207.702 Y19.011 Z4.145 A217.6094 
N405 X-207.701 Y19.376 Z4.431 A217.7821 
N406 X-207.701 Y19.741 Z4.719 A217.9443 
N407 X-207.701 Y20.107 Z5.008 A218.0962 
N408 X-207.701 Y20.472 Z5.299 A218.2379 
N409 X-207.701 Y20.836 Z5.591 A218.3697 
N410 X-207.701 Y21.199 Z5.883 A218.4919 
N411 X-207.701 Y21.559 Z6.174 A218.6050 
N412 X-207.701 Y21.917 Z6.464 A218.7093 
N413 X-207.701 Y22.271 Z6.752 A218.8052 
N414 X-207.701 Y22.619 Z7.037 A218.8930 
N415 X-207.701 Y22.961 Z7.316 A218.9730 
N416 X-207.701 Y23.294 Z7.590 A219.0454 
N417 X-207.701 Y23.617 Z7.856 A219.1107 
N418 X-207.701 Y23.929 Z8.113 A219.1695 
N419 X-207.700 Y24.226 Z8.360 A219.2224 
N420 X-207.700 Y24.509 Z8.594 A219.2702 
N421 X-207.700 Y24.774 Z8.815 A219.3135 
N422 X-207.700 Y25.021 Z9.020 A219.3532 
N423 X-207.699 Y25.248 Z9.210 A219.3900 
N424 X-207.699 Y25.455 Z9.384 A219.4250 
N425 X-207.699 Y25.642 Z9.540 A219.4591 
N426 X-207.698 Y25.808 Z9.680 A219.4938 
N427 X-207.698 Y25.953 Z9.803 A219.5313 
N428 X-207.698 Y26.080 Z9.911 A219.5744 
N429 X-207.697 Y26.188 Z10.003 A219.6267 
N430 X-207.697 Y26.280 Z10.082 A219.6926 
N431 X-207.696 Y26.356 Z10.148 A219.7757 
N432 X-207.695 Y26.419 Z10.204 A219.9260 
N433 X-207.695 Y26.470 Z10.251 A220.3827 
N434 X-207.694 Y26.513 Z10.291 A221.5187 
N435 X-207.694 Y26.550 Z10.325 A223.6926 
N436 X-207.694 Y26.582 Z10.357 A227.5338 
N437 X-207.694 Y26.609 Z10.389 A232.5638 
N438 X-207.694 Y26.630 Z10.419 A237.7398 
N439 X-207.695 Y26.646 Z10.447 A242.8680 
N440 X-207.695 Y26.657 Z10.474 A247.8383 
N441 X-207.695 Y26.665 Z10.497 A252.5608 
N442 X-207.695 Y26.671 Z10.519 A256.7741 
N443 X-207.695 Y26.674 Z10.538 A260.4767 
N444 X-207.695 Y26.677 Z10.556 A263.9257 
N445 X-207.695 Y26.678 Z10.573 A267.1429 
N446 X-207.695 Y26.678 Z10.589 A270.1584 
N447 X-207.695 Y26.677 Z10.604 A273.0040 
N448 X-207.695 Y26.676 Z10.618 A275.7131 
N449 X-207.695 Y26.674 Z10.633 A278.3137 
N450 X-207.695 Y26.672 Z10.647 A280.8294 
N451 X-207.695 Y26.669 Z10.660 A283.2798 
N452 X-207.695 Y26.665 Z10.674 A285.6810 
N453 X-207.695 Y26.661 Z10.687 A288.0451 
N454 X-207.695 Y26.657 Z10.700 A290.3821 
N455 X-207.695 Y26.651 Z10.713 A292.6998 
N456 X-207.695 Y26.646 Z10.726 A295.0045 
N457 X-207.695 Y26.640 Z10.738 A297.3004 
N458 X-207.695 Y26.633 Z10.750 A299.5907 
N459 X-207.695 Y26.626 Z10.762 A301.8783 
N460 X-207.695 Y26.618 Z10.774 A304.1654 
N461 X-207.695 Y26.610 Z10.785 A306.4537 
N462 X-207.695 Y26.602 Z10.796 A308.7451 
N463 X-207.695 Y26.593 Z10.807 A311.0414 
N464 X-207.695 Y26.584 Z10.817 A313.3449 
N465 X-207.695 Y26.574 Z10.827 A315.6582 
N466 X-207.695 Y26.564 Z10.837 A317.9848 
N467 X-207.695 Y26.553 Z10.846 A320.3296 
N468 X-207.695 Y26.542 Z10.855 A322.6994 
N469 X-207.695 Y26.531 Z10.863 A325.1028 
N470 X-207.695 Y26.519 Z10.871 A327.5507 
N471 X-207.695 Y26.507 Z10.878 A330.0576 
N472 X-207.695 Y26.495 Z10.885 A332.6417 
N473 X-207.695 Y26.482 Z10.892 A335.3255 
N474 X-207.695 Y26.468 Z10.898 A338.1363 
N475 X-207.695 Y26.453 Z10.903 A341.1073 
N476 X-207.695 Y26.437 Z10.909 A344.2734 
N477 X-207.695 Y26.420 Z10.913 A347.6698 
N478 X-207.695 Y26.401 Z10.917 A351.3290 
N479 X-207.695 Y26.380 Z10.920 A355.2724 
N480 X-207.695 Y26.357 Z10.921 A359.4990 
N481 X-207.695 Y26.331 Z10.921 A3.9768 
N482 X-207.695 Y26.302 Z10.918 A8.6100 
N483 X-207.695 Y26.269 Z10.911 A13.2731 
N484 X-207.695 Y26.233 Z10.901 A17.6780 
N485 X-207.695 Y26.193 Z10.885 A21.6069 
N486 X-207.694 Y26.150 Z10.865 A24.4570 
N487 X-207.694 Y26.102 Z10.840 A26.2811 
N488 X-207.694 Y26.046 Z10.811 A27.2295 
N489 X-207.694 Y25.980 Z10.774 A27.7990 
N490 X-207.694 Y25.902 Z10.731 A28.0697 
N491 X-207.694 Y25.808 Z10.679 A28.2230 
N492 X-207.694 Y25.699 Z10.619 A28.2883 
N493 X-207.694 Y25.571 Z10.549 A28.2887 
N494 X-207.693 Y25.424 Z10.468 A28.2396 
N495 X-207.693 Y25.257 Z10.378 A28.1509 
N496 X-207.693 Y25.070 Z10.277 A28.0286 
N497 X-207.693 Y24.862 Z10.166 A27.8766 
N498 X-207.692 Y24.634 Z10.045 A27.6980 
N499 X-207.692 Y24.387 Z9.914 A27.4949 
N500 X-207.692 Y24.121 Z9.776 A27.2691 
N501 X-207.691 Y23.838 Z9.630 A27.0214 
N502 X-207.691 Y23.541 Z9.478 A26.7522 
N503 X-207.690 Y23.229 Z9.320 A26.4612 
N504 X-207.690 Y22.906 Z9.160 A26.1476 
N505 X-207.689 Y22.574 Z8.996 A25.8110 
N506 X-207.689 Y22.233 Z8.831 A25.4510 
N507 X-207.688 Y21.886 Z8.666 A25.0677 
N508 X-207.688 Y21.533 Z8.502 A24.6622 
N509 X-207.687 Y21.177 Z8.339 A24.2359 
N510 X-207.687 Y20.819 Z8.178 A23.7904 
N511 X-207.686 Y20.458 Z8.020 A23.3276 
N512 X-207.686 Y20.097 Z7.865 A22.8489 
N513 X-207.685 Y19.735 Z7.713 A22.3556 
N514 X-207.685 Y19.373 Z7.565 A21.8484 
N515 X-207.685 Y19.012 Z7.422 A21.3277 
N516 X-207.684 Y18.651 Z7.282 A20.7939 
N517 X-207.684 Y18.291 Z7.146 A20.2470 
N518 X-207.683 Y17.932 Z7.015 A19.6871 
N519 X-207.683 Y17.574 Z6.889 A19.1143 
N520 X-207.682 Y17.218 Z6.766 A18.5286 
N521 X-207.682 Y16.862 Z6.649 A17.9299 
N522 X-207.681 Y16.508 Z6.535 A17.3182 
N523 X-207.681 Y16.155 Z6.427 A16.6934 
N524 X-207.680 Y15.803 Z6.323 A16.0557 
N525 X-207.680 Y15.453 Z6.223 A15.4049 
N526 X-207.680 Y15.104 Z6.129 A14.7411 
N527 X-207.679 Y14.756 Z6.039 A14.0644 
N528 X-207.679 Y14.409 Z5.953 A13.3748 
N529 X-207.678 Y14.064 Z5.873 A12.6726 
N530 X-207.678 Y13.720 Z5.797 A11.9581 
N531 X-207.678 Y13.378 Z5.726 A11.2313 
N532 X-207.677 Y13.037 Z5.660 A10.4928 
N533 X-207.677 Y12.697 Z5.599 A9.7428 
N534 X-207.677 Y12.358 Z5.543 A8.9817 
N535 X-207.676 Y12.020 Z5.491 A8.2101 
N536 X-207.676 Y11.684 Z5.444 A7.4285 
N537 X-207.676 Y11.348 Z5.403 A6.6374 
N538 X-207.675 Y11.014 Z5.366 A5.8375 
N539 X-207.675 Y10.680 Z5.334 A5.0293 
N540 X-207.675 Y10.348 Z5.306 A4.2137 
N541 X-207.674 Y10.016 Z5.284 A3.3913 
N542 X-207.674 Y9.685 Z5.267 A2.5629 
N543 X-207.674 Y9.354 Z5.254 A1.7293 
N544 X-207.673 Y9.024 Z5.246 A0.8915 
N545 X-207.673 Y8.695 Z5.243 A0.0504 
N546 X-207.673 Y8.365 Z5.245 A359.2069 
N547 X-207.672 Y8.036 Z5.252 A358.3620 
N548 X-207.672 Y7.707 Z5.264 A357.5168 
N549 X-207.672 Y7.378 Z5.281 A356.6723 
N550 X-207.672 Y7.049 Z5.303 A355.8296 
N551 X-207.671 Y6.719 Z5.329 A354.9898 
N552 X-207.671 Y6.388 Z5.361 A354.1543 
N553 X-207.671 Y6.057 Z5.398 A353.3240 
N554 X-207.670 Y5.725 Z5.439 A352.5003 
N555 X-207.670 Y5.393 Z5.486 A351.6844 
N556 X-207.670 Y5.059 Z5.537 A350.8774 
N557 X-207.670 Y4.723 Z5.594 A350.0808 
N558 X-207.669 Y4.386 Z5.656 A349.2956 
N559 X-207.669 Y4.048 Z5.723 A348.5232 
N560 X-207.669 Y3.707 Z5.795 A347.7648 
N561 X-207.669 Y3.364 Z5.873 A347.0217 
N562 X-207.669 Y3.019 Z5.956 A346.2951 
N563 X-207.668 Y2.671 Z6.044 A345.5864 
N564 X-207.668 Y2.320 Z6.137 A344.8969 
N565 X-207.668 Y1.967 Z6.236 A344.2281 
N566 X-207.668 Y1.609 Z6.340 A343.5818 
N567 X-207.667 Y1.248 Z6.450 A342.9600 
N568 X-207.667 Y0.884 Z6.566 A342.3653 
N569 X-207.667 Y0.515 Z6.687 A341.8003 
N570 X-207.667 Y0.142 Z6.813 A341.2682 
N571 X-207.667 Y-0.235 Z6.945 A340.7723 
N572 X-207.666 Y-0.616 Z7.082 A340.3159 
N573 X-207.666 Y-1.001 Z7.224 A339.9022 
N574 X-207.666 Y-1.391 Z7.371 A339.5339 
N575 X-207.666 Y-1.784 Z7.522 A339.2134 
N576 X-207.666 Y-2.180 Z7.677 A338.9423 
N577 X-207.665 Y-2.580 Z7.834 A338.7218 
N578 X-207.665 Y-2.981 Z7.995 A338.5523 
N579 X-207.665 Y-3.384 Z8.157 A338.4339 
N580 X-207.665 Y-3.788 Z8.320 A338.3659 
N581 X-207.665 Y-4.191 Z8.483 A338.3476 
N582 X-207.665 Y-4.592 Z8.645 A338.3779 
N583 X-207.664 Y-4.992 Z8.806 A338.4562 
N584 X-207.664 Y-5.387 Z8.965 A338.5822 
N585 X-207.664 Y-5.778 Z9.120 A338.7565 
N586 X-207.664 Y-6.163 Z9.272 A338.9804 
N587 X-207.664 Y-6.541 Z9.420 A339.2564 
N588 X-207.663 Y-6.911 Z9.562 A339.5875 
N589 X-207.663 Y-7.272 Z9.698 A339.9767 
N590 X-207.663 Y-7.624 Z9.829 A340.4272 
N591 X-207.663 Y-7.966 Z9.952 A340.9411 
N592 X-207.663 Y-8.297 Z10.068 A341.5197 
N593 X-207.662 Y-8.617 Z10.176 A342.1632 
N594 X-207.662 Y-8.926 Z10.276 A342.8710 
N595 X-207.662 Y-9.222 Z10.368 A343.6424 
N596 X-207.662 Y-9.506 Z10.452 A344.4773 
N597 X-207.662 Y-9.778 Z10.527 A345.3758 
N598 X-207.662 Y-10.037 Z10.595 A346.3380 
N599 X-207.661 Y-10.283 Z10.655 A347.3629 
N600 X-207.661 Y-10.516 Z10.707 A348.4477 
N601 X-207.661 Y-10.737 Z10.751 A349.5897 
N602 X-207.661 Y-10.945 Z10.789 A350.7890 
N603 X-207.661 Y-11.141 Z10.820 A352.0500 
N604 X-207.661 Y-11.324 Z10.846 A353.3800 
N605 X-207.661 Y-11.495 Z10.865 A354.7857 
N606 X-207.661 Y-11.655 Z10.879 A356.2708 
N607 X-207.660 Y-11.804 Z10.889 A357.8361 
N608 X-207.660 Y-11.942 Z10.893 A359.4810 
N609 X-207.660 Y-12.070 Z10.894 A1.2063 
N610 X-207.660 Y-12.188 Z10.891 A3.0152 
N611 X-207.660 Y-12.298 Z10.885 A4.9120 
N612 X-207.660 Y-12.399 Z10.876 A6.9006 
N613 X-207.660 Y-12.493 Z10.864 A8.9830 
N614 X-207.660 Y-12.580 Z10.849 A11.1574 
N615 X-207.660 Y-12.660 Z10.833 A13.4167 
N616 X-207.660 Y-12.734 Z10.814 A15.7504 
N617 X-207.659 Y-12.802 Z10.794 A18.1457 
N618 X-207.659 Y-12.866 Z10.772 A20.5888 
N619 X-207.659 Y-12.926 Z10.748 A23.0675 
N620 X-207.659 Y-12.981 Z10.723 A25.5706 
N621 X-207.659 Y-13.033 Z10.697 A28.0897 
N622 X-207.659 Y-13.081 Z10.670 A30.6186 
N623 X-207.659 Y-13.127 Z10.642 A33.1541 
N624 X-207.659 Y-13.170 Z10.612 A35.6950 
N625 X-207.659 Y-13.211 Z10.581 A38.2420 
N626 X-207.659 Y-13.250 Z10.549 A40.7973 
N627 X-207.659 Y-13.287 Z10.516 A43.3632 
N628 X-207.659 Y-13.322 Z10.481 A45.9425 
N629 X-207.659 Y-13.356 Z10.445 A48.5371 
N630 X-207.659 Y-13.389 Z10.406 A51.1480 
N631 X-207.659 Y-13.420 Z10.365 A53.7743 
N632 X-207.659 Y-13.450 Z10.322 A56.4126 
N633 X-207.658 Y-13.479 Z10.276 A59.0572 
N634 X-207.658 Y-13.507 Z10.227 A61.6986 
N635 X-207.658 Y-13.534 Z10.175 A64.3243 
N636 X-207.658 Y-13.559 Z10.118 A66.9186 
N637 X-207.658 Y-13.583 Z10.057 A69.4648 
N638 X-207.658 Y-13.605 Z9.991 A71.9444 
N639 X-207.658 Y-13.626 Z9.920 A74.3395 
N640 X-207.658 Y-13.645 Z9.842 A76.6348 
N641 X-207.658 Y-13.662 Z9.758 A78.8191 
N642 X-207.658 Y-13.677 Z9.667 A80.8875 
N643 X-207.658 Y-13.690 Z9.568 A82.8414 
N644 X-207.658 Y-13.700 Z9.461 A84.6862 
N645 X-207.657 Y-13.707 Z9.344 A86.4301 
N646 X-207.657 Y-13.712 Z9.219 A88.0816 
N647 X-207.657 Y-13.713 Z9.083 A89.6472 
N648 X-207.657 Y-13.710 Z8.937 A91.1315 
N649 X-207.657 Y-13.704 Z8.781 A92.5382 
N650 X-207.657 Y-13.693 Z8.614 A93.8724 
N651 X-207.657 Y-13.677 Z8.436 A95.1415 
N652 X-207.656 Y-13.657 Z8.248 A96.3560 
N653 X-207.656 Y-13.632 Z8.049 A97.5271 
N654 X-207.656 Y-13.601 Z7.841 A98.6631 
N655 X-207.656 Y-13.565 Z7.622 A99.7682 
N656 X-207.656 Y-13.523 Z7.395 A100.8432 
N657 X-207.655 Y-13.474 Z7.159 A101.8877 
N658 X-207.655 Y-13.419 Z6.915 A102.9025 
N659 X-207.655 Y-13.359 Z6.663 A103.8896 
N660 X-207.655 Y-13.292 Z6.405 A104.8513 
N661 X-207.655 Y-13.218 Z6.141 A105.7894 
N662 X-207.654 Y-13.139 Z5.871 A106.7055 
N663 X-207.654 Y-13.054 Z5.597 A107.6013 
N664 X-207.654 Y-12.962 Z5.320 A108.4785 
N665 X-207.654 Y-12.866 Z5.039 A109.3397 
N666 X-207.654 Y-12.763 Z4.756 A110.1880 
N667 X-207.653 Y-12.656 Z4.471 A111.0272 
N668 X-207.653 Y-12.543 Z4.185 A111.8615 
N669 X-207.653 Y-12.426 Z3.898 A112.6947 
N670 X-207.653 Y-12.304 Z3.612 A113.5302 
N671 X-207.653 Y-12.177 Z3.326 A114.3706 
N672 X-207.652 Y-12.046 Z3.041 A115.2176 
N673 X-207.652 Y-11.911 Z2.759 A116.0722 
N674 X-207.652 Y-11.771 Z2.478 A116.9348 
N675 X-207.652 Y-11.628 Z2.200 A117.8054 
N676 X-207.652 Y-11.480 Z1.925 A118.6843 
N677 X-207.652 Y-11.329 Z1.653 A119.5717 
N678 X-207.652 Y-11.175 Z1.385 A120.4683 
N679 X-207.651 Y-11.017 Z1.121 A121.3751 
N680 X-207.651 Y-10.857 Z0.861 A122.2932 
N681 X-207.651 Y-10.693 Z0.606 A123.2241 
N682 X-207.651 Y-10.526 Z0.355 A124.1687 
N683 X-207.651 Y-10.357 Z0.108 A125.1282 
N684 X-207.651 Y-10.185 Z-0.133 A126.1034 
N685 X-207.651 Y-10.010 Z-0.369 A127.0948 
N686 X-207.651 Y-9.833 Z-0.600 A128.1030 
N687 X-207.651 Y-9.654 Z-0.826 A129.1282 
N688 X-207.651 Y-9.472 Z-1.046 A130.1704 
N689 X-207.650 Y-9.288 Z-1.260 A131.2296 
N690 X-207.650 Y-9.103 Z-1.469 A132.3058 
N691 X-207.650 Y-8.915 Z-1.673 A133.3987 
N692 X-207.650 Y-8.725 Z-1.870 A134.5081 
N693 X-207.650 Y-8.533 Z-2.062 A135.6337 
N694 X-207.650 Y-8.340 Z-2.249 A136.7752 
N695 X-207.650 Y-8.145 Z-2.429 A137.9322 
N696 X-207.650 Y-7.948 Z-2.604 A139.1042 
N697 X-207.650 Y-7.749 Z-2.773 A140.2908 
N698 X-207.650 Y-7.549 Z-2.937 A141.4914 
N699 X-207.650 Y-7.347 Z-3.095 A142.7052 
N700 X-207.650 Y-7.143 Z-3.247 A143.9317 
N701 X-207.650 Y-6.938 Z-3.393 A145.1701 
N702 X-207.650 Y-6.731 Z-3.534 A146.4196 
N703 X-207.650 Y-6.523 Z-3.670 A147.6793 
N704 X-207.651 Y-6.313 Z-3.800 A148.9484 
N705 X-207.651 Y-6.101 Z-3.924 A150.2261 
N706 X-207.651 Y-5.888 Z-4.044 A151.5113 
N707 X-207.651 Y-5.673 Z-4.157 A152.8033 
N708 X-207.651 Y-5.456 Z-4.266 A154.1011 
N709 X-207.651 Y-5.237 Z-4.369 A155.4036 
N710 X-207.651 Y-5.017 Z-4.467 A156.7099 
N711 X-207.651 Y-4.795 Z-4.560 A158.0189 
N712 X-207.651 Y-4.571 Z-4.647 A159.3295 
N713 X-207.651 Y-4.345 Z-4.729 A160.6407 
N714 X-207.651 Y-4.118 Z-4.806 A161.9512 
N715 X-207.652 Y-3.888 Z-4.878 A163.2601 
N716 X-207.652 Y-3.656 Z-4.945 A164.5662 
N717 X-207.652 Y-3.422 Z-5.007 A165.8686 
N718 X-207.652 Y-3.186 Z-5.063 A167.1663 
N719 X-207.652 Y-2.948 Z-5.114 A168.4581 
N720 X-207.652 Y-2.707 Z-5.160 A169.7431 
N721 X-207.653 Y-2.464 Z-5.201 A171.0203 
N722 X-207.653 Y-2.219 Z-5.237 A172.2886 
N723 X-207.653 Y-1.971 Z-5.267 A173.5471 
N724 X-207.653 Y-1.721 Z-5.293 A174.7947 
N725 X-207.653 Y-1.468 Z-5.312 A176.0305 
N726 X-207.654 Y-1.213 Z-5.327 A177.2536 
N727 X-207.654 Y-0.954 Z-5.336 A178.4630 
N728 X-207.654 Y-0.694 Z-5.340 A179.6580 
N729 X-207.654 Y-0.430 Z-5.338 A180.8377 
N730 X-207.654 Y-0.164 Z-5.331 A182.0015 
N731 X-207.655 Y0.105 Z-5.318 A183.1486 
N732 X-207.655 Y0.377 Z-5.300 A184.2785 
N733 X-207.655 Y0.651 Z-5.276 A185.3905 
N734 X-207.655 Y0.929 Z-5.246 A186.4840 
N735 X-207.656 Y1.209 Z-5.211 A187.5586 
N736 X-207.656 Y1.492 Z-5.170 A188.6137 
N737 X-207.656 Y1.778 Z-5.123 A189.6490 
N738 X-207.657 Y2.067 Z-5.071 A190.6641 
N739 X-207.657 Y2.358 Z-5.013 A191.6588 
N740 X-207.657 Y2.652 Z-4.948 A192.6328 
N741 X-207.658 Y2.949 Z-4.878 A193.5859 
N742 X-207.658 Y3.249 Z-4.802 A194.5179 
N743 X-207.658 Y3.551 Z-4.721 A195.4289 
N744 X-207.659 Y3.856 Z-4.633 A196.3186 
N745 X-207.659 Y4.163 Z-4.539 A197.1871 
N746 X-207.659 Y4.473 Z-4.440 A198.0345 
N747 X-207.660 Y4.785 Z-4.335 A198.8606 
N748 X-207.660 Y5.100 Z-4.224 A199.6658 
N749 X-207.661 Y5.417 Z-4.107 A200.4501 
N750 X-207.661 Y5.736 Z-3.985 A201.2138 
N751 X-207.661 Y6.058 Z-3.857 A201.9570 
N752 X-207.662 Y6.381 Z-3.723 A202.6800 
N753 X-207.662 Y6.707 Z-3.583 A203.3832 
N754 X-207.663 Y7.034 Z-3.438 A204.0668 
N755 X-207.663 Y7.363 Z-3.288 A204.7312 
N756 X-207.664 Y7.695 Z-3.132 A205.3769 
N757 X-207.664 Y8.028 Z-2.971 A206.0040 
N758 X-207.665 Y8.362 Z-2.804 A206.6131 
N759 X-207.665 Y8.698 Z-2.633 A207.2044 
N760 X-207.666 Y9.036 Z-2.456 A207.7781 
N761 X-207.666 Y9.376 Z-2.274 A208.3345 
N762 X-207.667 Y9.716 Z-2.087 A208.8738 
N763 X-207.667 Y10.059 Z-1.895 A209.3958 
N764 X-207.668 Y10.402 Z-1.699 A209.9008 
N765 X-207.668 Y10.747 Z-1.497 A210.3885 
N766 X-207.669 Y11.093 Z-1.291 A210.8590 
N767 X-207.669 Y11.441 Z-1.081 A211.3124 
N768 X-207.670 Y11.789 Z-0.866 A211.7490 
N769 X-207.670 Y12.139 Z-0.647 A212.1690 
N770 X-207.671 Y12.490 Z-0.423 A212.5730 
N771 X-207.671 Y12.842 Z-0.195 A212.9615 
N772 X-207.672 Y13.195 Z0.036 A213.3351 
N773 X-207.672 Y13.549 Z0.272 A213.6943 
N774 X-207.673 Y13.904 Z0.511 A214.0397 
N775 X-207.674 Y14.260 Z0.754 A214.3718 
N776 X-207.674 Y14.617 Z1.001 A214.6908 
N777 X-207.675 Y14.975 Z1.251 A214.9973 
N778 X-207.675 Y15.334 Z1.504 A215.2915 
N779 X-207.676 Y15.694 Z1.761 A215.5737 
N780 X-207.676 Y16.054 Z2.021 A215.8441 
N781 X-207.677 Y16.416 Z2.284 A216.1031 
N782 X-207.678 Y16.778 Z2.550 A216.3509 
N783 X-207.678 Y17.140 Z2.819 A216.5875 
N784 X-207.679 Y17.504 Z3.091 A216.8133 
N785 X-207.679 Y17.868 Z3.366 A217.0282 
N786 X-207.680 Y18.233 Z3.643 A217.2325 
N787 X-207.681 Y18.599 Z3.922 A217.4262 
N788 X-207.681 Y18.965 Z4.204 A217.6094 
N789 X-207.682 Y19.331 Z4.488 A217.7821 
N790 X-207.683 Y19.698 Z4.774 A217.9443 
N791 X-207.683 Y20.065 Z5.062 A218.0962 
N792 X-207.684 Y20.431 Z5.351 A218.2379 
N793 X-207.684 Y20.797 Z5.640 A218.3697 
N794 X-207.685 Y21.161 Z5.930 A218.4919 
N795 X-207.686 Y21.523 Z6.219 A218.6050 
N796 X-207.686 Y21.882 Z6.507 A218.7093 
N797 X-207.687 Y22.238 Z6.793 A218.8052 
N798 X-207.687 Y22.588 Z7.076 A218.8930 
N799 X-207.688 Y22.931 Z7.354 A218.9730 
N800 X-207.689 Y23.266 Z7.625 A219.0454 
N801 X-207.689 Y23.590 Z7.890 A219.1107 
N802 X-207.690 Y23.903 Z8.145 A219.1695 
N803 X-207.690 Y24.203 Z8.389 A219.2224 
N804 X-207.691 Y24.486 Z8.621 A219.2702 
N805 X-207.691 Y24.753 Z8.840 A219.3135 
N806 X-207.692 Y25.002 Z9.044 A219.3532 
N807 X-207.692 Y25.231 Z9.232 A219.3900 
N808 X-207.692 Y25.439 Z9.403 A219.4250 
N809 X-207.693 Y25.627 Z9.558 A219.4591 
N810 X-207.693 Y25.795 Z9.696 A219.4938 
N811 X-207.693 Y25.942 Z9.817 A219.5313 
N812 X-207.694 Y26.070 Z9.923 A219.5744 
N813 X-207.694 Y26.180 Z10.013 A219.6267 
N814 X-207.694 Y26.273 Z10.090 A219.6926 
N815 X-207.694 Y26.351 Z10.154 A219.7757 
N816 X-207.694 Y26.415 Z10.208 A219.9260 
N817 X-207.694 Y26.468 Z10.253 A220.3827 
N818 X-207.694 Y26.513 Z10.291 A221.5187 
N819 X-207.694 Y26.550 Z10.325 A223.6930 
N820 X-207.694 Y26.582 Z10.357 A227.5361 
N821 X-207.694 Y26.609 Z10.389 A232.5686 
N822 X-207.694 Y26.630 Z10.419 A237.7471 
N823 X-207.695 Y26.646 Z10.447 A242.8777 
N824 X-207.695 Y26.657 Z10.474 A247.8502 
N825 X-207.695 Y26.665 Z10.497 A252.5745 
N826 X-207.695 Y26.671 Z10.519 A256.7892 
N827 X-207.695 Y26.674 Z10.538 A260.4928 
N828 X-207.695 Y26.677 Z10.556 A263.9427 
N829 X-207.695 Y26.678 Z10.573 A267.1606 
N830 X-207.695 Y26.678 Z10.589 A270.1767 
N831 X-207.695 Y26.677 Z10.604 A273.0229 
N832 X-207.695 Y26.676 Z10.619 A275.7325 
N833 X-207.695 Y26.674 Z10.633 A278.3336 
N834 X-207.695 Y26.672 Z10.647 A280.8499 
N835 X-207.695 Y26.669 Z10.660 A283.3009 
N836 X-207.695 Y26.665 Z10.674 A285.7026 
N837 X-207.695 Y26.661 Z10.687 A288.0673 
N838 X-207.695 Y26.657 Z10.700 A290.4049 
N839 X-207.695 Y26.651 Z10.713 A292.7232 
N840 X-207.695 Y26.646 Z10.726 A295.0286 
N841 X-207.695 Y26.640 Z10.738 A297.3251 
N842 X-207.695 Y26.633 Z10.751 A299.6161 
N843 X-207.695 Y26.626 Z10.762 A301.9044 
N844 X-207.695 Y26.618 Z10.774 A304.1922 
N845 X-207.695 Y26.610 Z10.786 A306.4812 
N846 X-207.695 Y26.602 Z10.797 A308.7734 
N847 X-207.695 Y26.593 Z10.807 A311.0705 
N848 X-207.695 Y26.583 Z10.818 A313.3748 
N849 X-207.695 Y26.574 Z10.828 A315.6890 
N850 X-207.695 Y26.564 Z10.837 A318.0165 
N851 X-207.695 Y26.553 Z10.846 A320.3625 
N852 X-207.695 Y26.542 Z10.855 A322.7335 
N853 X-207.695 Y26.531 Z10.863 A325.1384 
N854 X-207.695 Y26.519 Z10.871 A327.5881 
N855 X-207.695 Y26.507 Z10.878 A330.0970 
N856 X-207.695 Y26.495 Z10.885 A332.6837 
N857 X-207.695 Y26.481 Z10.892 A335.3707 
N858 X-207.695 Y26.468 Z10.898 A338.1853 
N859 X-207.695 Y26.453 Z10.904 A341.1610 
N860 X-207.695 Y26.437 Z10.909 A344.3326 
N861 X-207.695 Y26.420 Z10.913 A347.7354 
N862 X-207.695 Y26.401 Z10.917 A351.4018 
N863 X-207.695 Y26.380 Z10.920 A355.3529 
N864 X-207.695 Y26.357 Z10.921 A359.5868 
N865 X-207.695 Y26.330 Z10.921 A4.0714 
N866 X-207.695 Y26.301 Z10.918 A8.7082 
N867 X-207.695 Y26.268 Z10.911 A13.3696 
N868 X-207.695 Y26.232 Z10.901 A17.7634 
N869 X-207.695 Y26.192 Z10.885 A21.6789 
N870 X-207.694 Y26.149 Z10.865 A24.5095 
N871 X-207.694 Y26.100 Z10.840 A26.3162 
N872 X-207.694 Y26.045 Z10.810 A27.2528 
N873 X-207.694 Y25.978 Z10.773 A27.8140 
N874 X-207.694 Y25.900 Z10.730 A28.0796 
N875 X-207.694 Y25.806 Z10.678 A28.2290 
N876 X-207.694 Y25.696 Z10.617 A28.2916 
N877 X-207.694 Y25.568 Z10.547 A28.2898 
N878 X-207.694 Y25.420 Z10.466 A28.2391 
N879 X-207.693 Y25.253 Z10.376 A28.1492 
N880 X-207.693 Y25.065 Z10.274 A28.0259 
N881 X-207.693 Y24.857 Z10.163 A27.8731 
N882 X-207.693 Y24.628 Z10.042 A27.6937 
N883 X-207.692 Y24.380 Z9.911 A27.4900 
N884 X-207.692 Y24.114 Z9.772 A27.2636 
N885 X-207.692 Y23.831 Z9.626 A27.0153 
N886 X-207.692 Y23.533 Z9.474 A26.7456 
N887 X-207.692 Y23.222 Z9.317 A26.4540 
N888 X-207.692 Y22.898 Z9.156 A26.1399 
N889 X-207.692 Y22.566 Z8.992 A25.8028 
N890 X-207.692 Y22.225 Z8.827 A25.4423 
N891 X-207.692 Y21.877 Z8.662 A25.0586 
N892 X-207.693 Y21.525 Z8.498 A24.6527 
N893 X-207.693 Y21.169 Z8.335 A24.2260 
N894 X-207.694 Y20.810 Z8.174 A23.7803 
N895 X-207.695 Y20.450 Z8.016 A23.3174 
N896 X-207.696 Y20.089 Z7.861 A22.8388 
N897 X-207.697 Y19.727 Z7.710 A22.3456 
N898 X-207.699 Y19.366 Z7.562 A21.8385 
N899 X-207.701 Y19.005 Z7.419 A21.3181 
N900 X-207.703 Y18.644 Z7.279 A20.7847 
N901 X-207.706 Y18.285 Z7.144 A20.2383 
N902 X-207.709 Y17.927 Z7.013 A19.6790 
N903 X-207.713 Y17.569 Z6.887 A19.1069 
N904 X-207.717 Y17.213 Z6.765 A18.5219 
N905 X-207.722 Y16.858 Z6.647 A17.9241 
N906 X-207.727 Y16.505 Z6.534 A17.3134 
N907 X-207.733 Y16.152 Z6.426 A16.6898 
N908 X-207.739 Y15.802 Z6.322 A16.0532 
N909 X-207.746 Y15.452 Z6.223 A15.4037 
N910 X-207.753 Y15.104 Z6.128 A14.7413 
N911 X-207.762 Y14.757 Z6.039 A14.0660 
N912 X-207.770 Y14.411 Z5.954 A13.3779 
N913 X-207.780 Y14.066 Z5.873 A12.6772 
N914 X-207.790 Y13.723 Z5.798 A11.9641 
N915 X-207.800 Y13.382 Z5.727 A11.2389 
N916 X-207.812 Y13.041 Z5.661 A10.5019 
N917 X-207.823 Y12.702 Z5.600 A9.7534 
N918 X-207.835 Y12.363 Z5.544 A8.9938 
N919 X-207.848 Y12.026 Z5.492 A8.2236 
N920 X-207.861 Y11.690 Z5.445 A7.4433 
N921 X-207.874 Y11.355 Z5.403 A6.6535 
N922 X-207.887 Y11.021 Z5.366 A5.8547 
N923 X-207.901 Y10.688 Z5.334 A5.0476 
N924 X-207.915 Y10.356 Z5.307 A4.2330 
N925 X-207.929 Y10.024 Z5.285 A3.4115 
N926 X-207.943 Y9.694 Z5.267 A2.5840 
N927 X-207.957 Y9.363 Z5.254 A1.7512 
N928 X-207.971 Y9.033 Z5.246 A0.9141 
N929 X-207.985 Y8.704 Z5.243 A0.0736 
N930 X-207.999 Y8.375 Z5.245 A359.2306 
N931 X-208.013 Y8.046 Z5.252 A358.3862 
N932 X-208.026 Y7.717 Z5.264 A357.5414 
N933 X-208.040 Y7.388 Z5.280 A356.6972 
N934 X-208.053 Y7.058 Z5.302 A355.8549 
N935 X-208.066 Y6.729 Z5.328 A355.0154 
N936 X-208.078 Y6.399 Z5.360 A354.1800 
N937 X-208.091 Y6.068 Z5.396 A353.3499 
N938 X-208.103 Y5.736 Z5.438 A352.5263 
N939 X-208.115 Y5.403 Z5.484 A351.7104 
N940 X-208.127 Y5.070 Z5.536 A350.9035 
N941 X-208.138 Y4.734 Z5.592 A350.1068 
N942 X-208.150 Y4.398 Z5.654 A349.3215 
N943 X-208.161 Y4.059 Z5.721 A348.5489 
N944 X-208.172 Y3.719 Z5.793 A347.7903 
N945 X-208.182 Y3.376 Z5.870 A347.0470 
N946 X-208.193 Y3.031 Z5.953 A346.3200 
N947 X-208.203 Y2.684 Z6.040 A345.6109 
N948 X-208.213 Y2.333 Z6.134 A344.9209 
N949 X-208.223 Y1.979 Z6.232 A344.2516 
N950 X-208.233 Y1.622 Z6.336 A343.6047 
N951 X-208.243 Y1.262 Z6.446 A342.9823 
N952 X-208.253 Y0.897 Z6.561 A342.3868 
N953 X-208.262 Y0.529 Z6.682 A341.8208 
N954 X-208.272 Y0.157 Z6.808 A341.2877 
N955 X-208.282 Y-0.220 Z6.940 A340.7906 
N956 X-208.291 Y-0.601 Z7.076 A340.3328 
N957 X-208.300 Y-0.986 Z7.218 A339.9175 
N958 X-208.310 Y-1.375 Z7.365 A339.5476 
N959 X-208.319 Y-1.767 Z7.515 A339.2252 
N960 X-208.328 Y-2.163 Z7.670 A338.9522 
N961 X-208.338 Y-2.562 Z7.827 A338.7297 
N962 X-208.347 Y-2.963 Z7.987 A338.5581 
N963 X-208.356 Y-3.366 Z8.149 A338.4374 
N964 X-208.365 Y-3.769 Z8.312 A338.3672 
N965 X-208.373 Y-4.171 Z8.475 A338.3466 
N966 X-208.382 Y-4.573 Z8.637 A338.3746 
N967 X-208.390 Y-4.972 Z8.798 A338.4505 
N968 X-208.398 Y-5.367 Z8.957 A338.5740 
N969 X-208.405 Y-5.758 Z9.112 A338.7457 
N970 X-208.413 Y-6.143 Z9.264 A338.9669 
N971 X-208.421 Y-6.521 Z9.412 A339.2400 
N972 X-208.428 Y-6.891 Z9.554 A339.5680 
N973 X-208.435 Y-7.253 Z9.691 A339.9539 
N974 X-208.442 Y-7.606 Z9.822 A340.4009 
N975 X-208.448 Y-7.948 Z9.945 A340.9112 
N976 X-208.455 Y-8.280 Z10.062 A341.4863 
N977 X-208.461 Y-8.600 Z10.170 A342.1262 
N978 X-208.467 Y-8.909 Z10.271 A342.8304 
N979 X-208.472 Y-9.206 Z10.363 A343.5985 
N980 X-208.478 Y-9.491 Z10.447 A344.4299 
N981 X-208.483 Y-9.763 Z10.523 A345.3250 
N982 X-208.487 Y-10.023 Z10.592 A346.2838 
N983 X-208.492 Y-10.270 Z10.652 A347.3056 
N984 X-208.496 Y-10.504 Z10.704 A348.3875 
N985 X-208.500 Y-10.726 Z10.749 A349.5267 
N986 X-208.504 Y-10.934 Z10.787 A350.7232 
N987 X-208.507 Y-11.130 Z10.819 A351.9811 
N988 X-208.510 Y-11.314 Z10.844 A353.3076 
N989 X-208.513 Y-11.486 Z10.864 A354.7095 
N990 X-208.516 Y-11.647 Z10.879 A356.1909 
N991 X-208.519 Y-11.796 Z10.888 A357.7525 
N992 X-208.521 Y-11.935 Z10.893 A359.3939 
N993 X-208.523 Y-12.064 Z10.894 A1.1158 
N994 X-208.525 Y-12.183 Z10.891 A2.9209 
N995 X-208.527 Y-12.293 Z10.885 A4.8136 
N996 X-208.529 Y-12.394 Z10.876 A6.7982 
N997 X-208.531 Y-12.488 Z10.864 A8.8766 
N998 X-208.532 Y-12.575 Z10.850 A11.0467 
N999 X-208.534 Y-12.656 Z10.834 A13.3027 
N1000 X-208.535 Y-12.730 Z10.815 A15.6341 
N1001 X-208.536 Y-12.799 Z10.795 A18.0278 
N1002 X-208.537 Y-12.863 Z10.773 A20.4706 
N1003 X-208.538 Y-12.923 Z10.749 A22.9492 
N1004 X-208.539 Y-12.978 Z10.725 A25.4527 
N1005 X-208.540 Y-13.030 Z10.699 A27.9727 
N1006 X-208.541 Y-13.079 Z10.671 A30.5029 
N1007 X-208.542 Y-13.125 Z10.643 A33.0397 
N1008 X-208.543 Y-13.168 Z10.613 A35.5821 
N1009 X-208.544 Y-13.209 Z10.583 A38.1308 
N1010 X-208.544 Y-13.248 Z10.551 A40.6873 
N1011 X-208.545 Y-13.286 Z10.517 A43.2545 
N1012 X-208.546 Y-13.321 Z10.483 A45.8348 
N1013 X-208.547 Y-13.355 Z10.446 A48.4304 
N1014 X-208.548 Y-13.388 Z10.408 A51.0424 
N1015 X-208.549 Y-13.419 Z10.367 A53.6699 
N1016 X-208.550 Y-13.449 Z10.324 A56.3101 
N1017 X-208.551 Y-13.478 Z10.278 A58.9564 
N1018 X-208.552 Y-13.506 Z10.229 A61.5995 
N1019 X-208.553 Y-13.533 Z10.177 A64.2270 
N1020 X-208.554 Y-13.558 Z10.120 A66.8243 
N1021 X-208.555 Y-13.582 Z10.060 A69.3738 
N1022 X-208.556 Y-13.605 Z9.994 A71.8574 
N1023 X-208.558 Y-13.625 Z9.923 A74.2568 
N1024 X-208.559 Y-13.644 Z9.845 A76.5565 
N1025 X-208.561 Y-13.661 Z9.761 A78.7459 
N1026 X-208.563 Y-13.676 Z9.670 A80.8192 
N1027 X-208.565 Y-13.689 Z9.572 A82.7776 
N1028 X-208.567 Y-13.699 Z9.464 A84.6268 
N1029 X-208.570 Y-13.707 Z9.348 A86.3748 
N1030 X-208.572 Y-13.712 Z9.223 A88.0297 
N1031 X-208.575 Y-13.713 Z9.087 A89.5987 
N1032 X-208.578 Y-13.711 Z8.942 A91.0860 
N1033 X-208.582 Y-13.704 Z8.786 A92.4955 
N1034 X-208.585 Y-13.693 Z8.619 A93.8321 
N1035 X-208.589 Y-13.678 Z8.442 A95.1035 
N1036 X-208.594 Y-13.658 Z8.254 A96.3200 
N1037 X-208.598 Y-13.633 Z8.055 A97.4925 
N1038 X-208.603 Y-13.602 Z7.847 A98.6298 
N1039 X-208.608 Y-13.566 Z7.629 A99.7361 
N1040 X-208.613 Y-13.524 Z7.402 A100.8123 
N1041 X-208.619 Y-13.476 Z7.166 A101.8579 
N1042 X-208.624 Y-13.421 Z6.922 A102.8739 
N1043 X-208.630 Y-13.360 Z6.670 A103.8620 
N1044 X-208.637 Y-13.293 Z6.412 A104.8246 
N1045 X-208.643 Y-13.220 Z6.148 A105.7635 
N1046 X-208.650 Y-13.141 Z5.879 A106.6805 
N1047 X-208.656 Y-13.056 Z5.605 A107.5769 
N1048 X-208.663 Y-12.965 Z5.327 A108.4548 
N1049 X-208.670 Y-12.868 Z5.047 A109.3166 
N1050 X-208.677 Y-12.766 Z4.763 A110.1654 
N1051 X-208.685 Y-12.659 Z4.478 A111.0050 
N1052 X-208.692 Y-12.546 Z4.192 A111.8396 
N1053 X-208.699 Y-12.429 Z3.906 A112.6730 
N1054 X-208.707 Y-12.307 Z3.619 A113.5085 
N1055 X-208.714 Y-12.181 Z3.333 A114.3490 
N1056 X-208.722 Y-12.050 Z3.049 A115.1960 
N1057 X-208.730 Y-11.914 Z2.766 A116.0506 
N1058 X-208.737 Y-11.775 Z2.485 A116.9131 
N1059 X-208.745 Y-11.631 Z2.207 A117.7837 
N1060 X-208.753 Y-11.484 Z1.932 A118.6626 
N1061 X-208.760 Y-11.333 Z1.660 A119.5500 
N1062 X-208.768 Y-11.179 Z1.392 A120.4466 
N1063 X-208.776 Y-11.021 Z1.128 A121.3533 
N1064 X-208.783 Y-10.860 Z0.867 A122.2714 
N1065 X-208.791 Y-10.697 Z0.612 A123.2022 
N1066 X-208.799 Y-10.530 Z0.360 A124.1467 
N1067 X-208.806 Y-10.361 Z0.114 A125.1061 
N1068 X-208.814 Y-10.189 Z-0.127 A126.0811 
N1069 X-208.821 Y-10.014 Z-0.364 A127.0725 
N1070 X-208.828 Y-9.837 Z-0.595 A128.0805 
N1071 X-208.836 Y-9.658 Z-0.821 A129.1056 
N1072 X-208.843 Y-9.476 Z-1.041 A130.1477 
N1073 X-208.850 Y-9.292 Z-1.256 A131.2069 
N1074 X-208.857 Y-9.107 Z-1.465 A132.2830 
N1075 X-208.865 Y-8.919 Z-1.669 A133.3758 
N1076 X-208.872 Y-8.729 Z-1.866 A134.4852 
N1077 X-208.879 Y-8.537 Z-2.059 A135.6108 
N1078 X-208.886 Y-8.344 Z-2.245 A136.7524 
N1079 X-208.893 Y-8.149 Z-2.426 A137.9094 
N1080 X-208.900 Y-7.952 Z-2.601 A139.0815 
N1081 X-208.906 Y-7.753 Z-2.770 A140.2681 
N1082 X-208.913 Y-7.552 Z-2.934 A141.4688 
N1083 X-208.920 Y-7.351 Z-3.092 A142.6828 
N1084 X-208.927 Y-7.147 Z-3.244 A143.9095 
N1085 X-208.933 Y-6.942 Z-3.391 A145.1480 
N1086 X-208.940 Y-6.735 Z-3.532 A146.3977 
N1087 X-208.947 Y-6.526 Z-3.668 A147.6577 
N1088 X-208.953 Y-6.316 Z-3.798 A148.9271 
N1089 X-208.960 Y-6.104 Z-3.922 A150.2050 
N1090 X-208.966 Y-5.891 Z-4.042 A151.4906 
N1091 X-208.973 Y-5.676 Z-4.156 A152.7829 
N1092 X-208.979 Y-5.459 Z-4.264 A154.0810 
N1093 X-208.986 Y-5.241 Z-4.368 A155.3839 
N1094 X-208.992 Y-5.020 Z-4.466 A156.6906 
N1095 X-208.999 Y-4.798 Z-4.558 A158.0000 
N1096 X-209.005 Y-4.574 Z-4.646 A159.3111 
N1097 X-209.011 Y-4.349 Z-4.728 A160.6227 
N1098 X-209.018 Y-4.121 Z-4.805 A161.9337 
N1099 X-209.024 Y-3.891 Z-4.877 A163.2430 
N1100 X-209.031 Y-3.659 Z-4.944 A164.5497 
N1101 X-209.037 Y-3.425 Z-5.006 A165.8526 
N1102 X-209.044 Y-3.189 Z-5.062 A167.1507 
N1103 X-209.051 Y-2.951 Z-5.114 A168.4430 
N1104 X-209.057 Y-2.710 Z-5.160 A169.7285 
N1105 X-209.064 Y-2.467 Z-5.201 A171.0063 
N1106 X-209.071 Y-2.222 Z-5.237 A172.2751 
N1107 X-209.077 Y-1.974 Z-5.267 A173.5341 
N1108 X-209.084 Y-1.723 Z-5.292 A174.7823 
N1109 X-209.091 Y-1.470 Z-5.312 A176.0186 
N1110 X-209.098 Y-1.215 Z-5.327 A177.2421 
N1111 X-209.105 Y-0.957 Z-5.336 A178.4521 
N1112 X-209.112 Y-0.696 Z-5.340 A179.6475 
N1113 X-209.119 Y-0.432 Z-5.338 A180.8278 
N1114 X-209.126 Y-0.166 Z-5.331 A181.9920 
N1115 X-209.133 Y0.103 Z-5.318 A183.1396 
N1116 X-209.141 Y0.375 Z-5.300 A184.2700 
N1117 X-209.148 Y0.649 Z-5.276 A185.3824 
N1118 X-209.156 Y0.927 Z-5.247 A186.4764 
N1119 X-209.163 Y1.207 Z-5.211 A187.5514 
N1120 X-209.171 Y1.490 Z-5.170 A188.6069 
N1121 X-209.179 Y1.776 Z-5.124 A189.6426 
N1122 X-209.187 Y2.065 Z-5.071 A190.6581 
N1123 X-209.195 Y2.356 Z-5.013 A191.6531 
N1124 X-209.203 Y2.651 Z-4.949 A192.6275 
N1125 X-209.211 Y2.948 Z-4.879 A193.5809 
N1126 X-209.219 Y3.247 Z-4.803 A194.5133 
N1127 X-209.228 Y3.550 Z-4.721 A195.4245 
N1128 X-209.236 Y3.854 Z-4.633 A196.3146 
N1129 X-209.245 Y4.162 Z-4.540 A197.1834 
N1130 X-209.253 Y4.472 Z-4.441 A198.0310 
N1131 X-209.262 Y4.784 Z-4.335 A198.8574 
N1132 X-209.271 Y5.099 Z-4.224 A199.6628 
N1133 X-209.280 Y5.416 Z-4.108 A200.4474 
N1134 X-209.289 Y5.735 Z-3.985 A201.2112 
N1135 X-209.298 Y6.057 Z-3.857 A201.9546 
N1136 X-209.308 Y6.380 Z-3.723 A202.6778 
N1137 X-209.317 Y6.706 Z-3.584 A203.3812 
N1138 X-209.327 Y7.033 Z-3.439 A204.0650 
N1139 X-209.336 Y7.363 Z-3.288 A204.7296 
N1140 X-209.346 Y7.694 Z-3.132 A205.3754 
N1141 X-209.356 Y8.027 Z-2.971 A206.0026 
N1142 X-209.366 Y8.362 Z-2.805 A206.6118 
N1143 X-209.376 Y8.698 Z-2.633 A207.2032 
N1144 X-209.386 Y9.036 Z-2.456 A207.7771 
N1145 X-209.396 Y9.375 Z-2.274 A208.3336 
N1146 X-209.406 Y9.716 Z-2.087 A208.8729 
N1147 X-209.416 Y10.058 Z-1.896 A209.3951 
N1148 X-209.427 Y10.402 Z-1.699 A209.9001 
N1149 X-209.437 Y10.747 Z-1.498 A210.3879 
N1150 X-209.448 Y11.093 Z-1.292 A210.8585 
N1151 X-209.458 Y11.440 Z-1.081 A211.3120 
N1152 X-209.469 Y11.789 Z-0.866 A211.7486 
N1153 X-209.480 Y12.139 Z-0.647 A212.1687 
N1154 X-209.491 Y12.490 Z-0.423 A212.5727 
N1155 X-209.502 Y12.842 Z-0.196 A212.9613 
N1156 X-209.513 Y13.195 Z0.036 A213.3349 
N1157 X-209.524 Y13.549 Z0.272 A213.6942 
N1158 X-209.535 Y13.904 Z0.511 A214.0396 
N1159 X-209.547 Y14.260 Z0.754 A214.3717 
N1160 X-209.558 Y14.617 Z1.001 A214.6907 
N1161 X-209.569 Y14.975 Z1.251 A214.9972 
N1162 X-209.581 Y15.334 Z1.504 A215.2914 
N1163 X-209.592 Y15.694 Z1.761 A215.5736 
N1164 X-209.604 Y16.054 Z2.021 A215.8441 
N1165 X-209.615 Y16.416 Z2.284 A216.1031 
N1166 X-209.627 Y16.778 Z2.550 A216.3509 
N1167 X-209.639 Y17.140 Z2.819 A216.5876 
N1168 X-209.651 Y17.504 Z3.091 A216.8133 
N1169 X-209.663 Y17.868 Z3.366 A217.0283 
N1170 X-209.674 Y18.233 Z3.643 A217.2326 
N1171 X-209.686 Y18.599 Z3.922 A217.4263 
N1172 X-209.698 Y18.965 Z4.204 A217.6095 
N1173 X-209.711 Y19.332 Z4.488 A217.7821 
N1174 X-209.723 Y19.698 Z4.774 A217.9444 
N1175 X-209.735 Y20.065 Z5.062 A218.0962 
N1176 X-209.747 Y20.431 Z5.351 A218.2379 
N1177 X-209.759 Y20.797 Z5.640 A218.3697 
N1178 X-209.771 Y21.161 Z5.930 A218.4920 
N1179 X-209.783 Y21.523 Z6.219 A218.6050 
N1180 X-209.795 Y21.883 Z6.508 A218.7094 
N1181 X-209.807 Y22.238 Z6.793 A218.8053 
N1182 X-209.819 Y22.588 Z7.076 A218.8931 
N1183 X-209.830 Y22.931 Z7.354 A218.9730 
N1184 X-209.841 Y23.266 Z7.625 A219.0454 
N1185 X-209.852 Y23.590 Z7.890 A219.1108 
N1186 X-209.863 Y23.903 Z8.145 A219.1695 
N1187 X-209.873 Y24.203 Z8.389 A219.2224 
N1188 X-209.882 Y24.487 Z8.621 A219.2702 
N1189 X-209.891 Y24.753 Z8.840 A219.3135 
N1190 X-209.900 Y25.002 Z9.044 A219.3532 
N1191 X-209.907 Y25.231 Z9.232 A219.3901 
N1192 X-209.915 Y25.440 Z9.403 A219.4250 
N1193 X-209.921 Y25.627 Z9.558 A219.4591 
N1194 X-209.927 Y25.795 Z9.696 A219.4938 
N1195 X-209.931 Y25.942 Z9.817 A219.5313 
N1196 X-209.936 Y26.070 Z9.923 A219.5744 
N1197 X-209.940 Y26.180 Z10.013 A219.6267 
N1198 X-209.943 Y26.273 Z10.090 A219.6926 
N1199 X-209.945 Y26.351 Z10.154 A219.7757 
N1200 X-209.947 Y26.415 Z10.208 A219.9260 
N1201 X-209.949 Y26.468 Z10.253 A220.3827 
N1202 X-209.951 Y26.513 Z10.291 A221.5187 
N1203 X-209.952 Y26.550 Z10.325 A223.6926 
N1204 X-209.953 Y26.582 Z10.357 A227.5335 
N1205 X-209.953 Y26.609 Z10.389 A232.5633 
N1206 X-209.954 Y26.630 Z10.419 A237.7392 
N1207 X-209.954 Y26.646 Z10.447 A242.8673 
N1208 X-209.955 Y26.657 Z10.474 A247.8375 
N1209 X-209.955 Y26.665 Z10.497 A252.5599 
N1210 X-209.955 Y26.671 Z10.519 A256.7731 
N1211 X-209.955 Y26.674 Z10.538 A260.4757 
N1212 X-209.956 Y26.677 Z10.556 A263.9247 
N1213 X-209.956 Y26.678 Z10.573 A267.1418 
N1214 X-209.956 Y26.678 Z10.589 A270.1572 
N1215 X-209.956 Y26.677 Z10.604 A273.0027 
N1216 X-209.956 Y26.676 Z10.618 A275.7117 
N1217 X-209.956 Y26.674 Z10.633 A278.3122 
N1218 X-209.956 Y26.672 Z10.647 A280.8278 
N1219 X-209.957 Y26.669 Z10.660 A283.2781 
N1220 X-209.957 Y26.665 Z10.674 A285.6791 
N1221 X-209.957 Y26.661 Z10.687 A288.0431 
N1222 X-209.957 Y26.657 Z10.700 A290.3799 
N1223 X-209.957 Y26.651 Z10.713 A292.6975 
N1224 X-209.957 Y26.646 Z10.726 A295.0021 
N1225 X-209.957 Y26.640 Z10.738 A297.2977 
N1226 X-209.958 Y26.633 Z10.750 A299.5879 
N1227 X-209.958 Y26.626 Z10.762 A301.8753 
N1228 X-209.958 Y26.618 Z10.774 A304.1622 
N1229 X-209.958 Y26.610 Z10.785 A306.4504 
N1230 X-209.958 Y26.602 Z10.796 A308.7416 
N1231 X-209.958 Y26.593 Z10.807 A311.0377 
N1232 X-209.958 Y26.584 Z10.817 A313.3409 
N1233 X-209.958 Y26.574 Z10.827 A315.6540 
N1234 X-209.959 Y26.564 Z10.837 A317.9803 
N1235 X-209.959 Y26.553 Z10.846 A320.3248 
N1236 X-209.959 Y26.542 Z10.855 A322.6943 
N1237 X-209.959 Y26.531 Z10.863 A325.0974 
N1238 X-209.959 Y26.519 Z10.871 A327.5449 
N1239 X-209.959 Y26.507 Z10.878 A330.0513 
N1240 X-209.959 Y26.495 Z10.885 A332.6348 
N1241 X-209.959 Y26.482 Z10.892 A335.3180 
N1242 X-209.959 Y26.468 Z10.898 A338.1280 
N1243 X-209.960 Y26.453 Z10.903 A341.0982 
N1244 X-209.960 Y26.437 Z10.909 A344.2632 
N1245 X-209.960 Y26.420 Z10.913 A347.6583 
N1246 X-209.960 Y26.401 Z10.917 A351.3160 
N1247 X-209.960 Y26.381 Z10.920 A355.2579 
N1248 X-209.960 Y26.357 Z10.921 A359.4829 
N1249 X-209.961 Y26.331 Z10.921 A3.9589 
N1250 X-209.961 Y26.302 Z10.918 A8.5909 
N1251 X-209.961 Y26.269 Z10.911 A13.2544 
N1252 X-209.962 Y26.233 Z10.901 A17.6619 
N1253 X-209.962 Y26.193 Z10.885 A21.5930 
N1254 X-209.963 Y26.150 Z10.865 A24.4468 
N1255 X-209.964 Y26.102 Z10.841 A26.2743 
N1256 X-209.965 Y26.046 Z10.811 A27.2250 
N1257 X-209.967 Y25.980 Z10.774 A27.7961 
N1258 X-209.968 Y25.902 Z10.731 A28.0678 
N1259 X-209.970 Y25.809 Z10.679 A28.2218 
N1260 X-209.973 Y25.699 Z10.619 A28.2877 
N1261 X-209.976 Y25.571 Z10.549 A28.2884 
N1262 X-209.979 Y25.425 Z10.469 A28.2396 
N1263 X-209.983 Y25.258 Z10.378 A28.1511 
N1264 X-209.987 Y25.071 Z10.277 A28.0290 
N1265 X-209.991 Y24.863 Z10.166 A27.8772 
N1266 X-209.996 Y24.635 Z10.045 A27.6987 
N1267 X-210.002 Y24.388 Z9.915 A27.4957 
N1268 X-210.007 Y24.122 Z9.776 A27.2700 
N1269 X-210.013 Y23.840 Z9.630 A27.0224 
N1270 X-210.020 Y23.542 Z9.478 A26.7533 
N1271 X-210.026 Y23.231 Z9.321 A26.4623 
N1272 X-210.033 Y22.908 Z9.160 A26.1489 
N1273 X-210.040 Y22.575 Z8.997 A25.8123 
N1274 X-210.047 Y22.234 Z8.832 A25.4523 
N1275 X-210.055 Y21.887 Z8.667 A25.0691 
N1276 X-210.062 Y21.535 Z8.502 A24.6637 
N1277 X-210.069 Y21.179 Z8.339 A24.2374 
N1278 X-210.077 Y20.820 Z8.178 A23.7919 
N1279 X-210.084 Y20.460 Z8.020 A23.3291 
N1280 X-210.091 Y20.098 Z7.865 A22.8505 
N1281 X-210.098 Y19.736 Z7.714 A22.3572 
N1282 X-210.105 Y19.374 Z7.566 A21.8500 
N1283 X-210.112 Y19.013 Z7.422 A21.3293 
N1284 X-210.119 Y18.652 Z7.282 A20.7955 
N1285 X-210.126 Y18.292 Z7.147 A20.2486 
N1286 X-210.133 Y17.933 Z7.016 A19.6887 
N1287 X-210.140 Y17.575 Z6.889 A19.1159 
N1288 X-210.147 Y17.219 Z6.767 A18.5301 
N1289 X-210.153 Y16.863 Z6.649 A17.9314 
N1290 X-210.160 Y16.509 Z6.536 A17.3197 
N1291 X-210.166 Y16.156 Z6.427 A16.6949 
N1292 X-210.172 Y15.804 Z6.323 A16.0571 
N1293 X-210.179 Y15.454 Z6.223 A15.4063 
N1294 X-210.185 Y15.104 Z6.129 A14.7425 
N1295 X-210.191 Y14.757 Z6.039 A14.0657 
N1296 X-210.197 Y14.410 Z5.953 A13.3762 
N1297 X-210.203 Y14.065 Z5.873 A12.6740 
N1298 X-210.209 Y13.721 Z5.797 A11.9593 
N1299 X-210.215 Y13.379 Z5.726 A11.2326 
N1300 X-210.220 Y13.037 Z5.660 A10.4940 
N1301 X-210.226 Y12.697 Z5.599 A9.7439 
N1302 X-210.232 Y12.358 Z5.543 A8.9829 
N1303 X-210.237 Y12.021 Z5.491 A8.2112 
N1304 X-210.243 Y11.684 Z5.445 A7.4296 
N1305 X-210.248 Y11.349 Z5.403 A6.6384 
N1306 X-210.253 Y11.014 Z5.366 A5.8384 
N1307 X-210.259 Y10.681 Z5.334 A5.0302 
N1308 X-210.264 Y10.348 Z5.306 A4.2145 
N1309 X-210.269 Y10.016 Z5.284 A3.3920 
N1310 X-210.274 Y9.685 Z5.267 A2.5636 
N1311 X-210.279 Y9.355 Z5.254 A1.7300 
N1312 X-210.284 Y9.025 Z5.246 A0.8921 
N1313 X-210.289 Y8.695 Z5.243 A0.0509 
N1314 X-210.294 Y8.366 Z5.245 A359.2074 
N1315 X-210.299 Y8.036 Z5.252 A358.3624 
N1316 X-210.304 Y7.707 Z5.264 A357.5171 
N1317 X-210.308 Y7.378 Z5.281 A356.6725 
N1318 X-210.313 Y7.049 Z5.303 A355.8297 
N1319 X-210.318 Y6.719 Z5.329 A354.9899 
N1320 X-210.323 Y6.388 Z5.361 A354.1543 
N1321 X-210.327 Y6.057 Z5.398 A353.3240 
N1322 X-210.332 Y5.725 Z5.439 A352.5002 
N1323 X-210.337 Y5.393 Z5.486 A351.6842 
N1324 X-210.341 Y5.059 Z5.537 A350.8772 
N1325 X-210.346 Y4.723 Z5.594 A350.0804 
N1326 X-210.351 Y4.386 Z5.656 A349.2952 
N1327 X-210.355 Y4.047 Z5.723 A348.5227 
N1328 X-210.360 Y3.707 Z5.795 A347.7643 
N1329 X-210.365 Y3.364 Z5.873 A347.0211 
N1330 X-210.369 Y3.019 Z5.956 A346.2945 
N1331 X-210.374 Y2.671 Z6.044 A345.5857 
N1332 X-210.379 Y2.320 Z6.137 A344.8961 
N1333 X-210.384 Y1.966 Z6.236 A344.2273 
N1334 X-210.388 Y1.609 Z6.340 A343.5809 
N1335 X-210.393 Y1.248 Z6.450 A342.9591 
N1336 X-210.398 Y0.883 Z6.566 A342.3644 
N1337 X-210.403 Y0.514 Z6.687 A341.7994 
N1338 X-210.408 Y0.142 Z6.813 A341.2673 
N1339 X-210.413 Y-0.236 Z6.945 A340.7714 
N1340 X-210.418 Y-0.617 Z7.082 A340.3150 
N1341 X-210.423 Y-1.002 Z7.224 A339.9014 
N1342 X-210.428 Y-1.392 Z7.371 A339.5332 
N1343 X-210.433 Y-1.785 Z7.522 A339.2127 
N1344 X-210.438 Y-2.181 Z7.677 A338.9418 
N1345 X-210.443 Y-2.581 Z7.835 A338.7214 
N1346 X-210.449 Y-2.982 Z7.995 A338.5520 
N1347 X-210.454 Y-3.385 Z8.157 A338.4337 
N1348 X-210.459 Y-3.789 Z8.320 A338.3659 
N1349 X-210.464 Y-4.192 Z8.483 A338.3477 
N1350 X-210.469 Y-4.594 Z8.646 A338.3782 
N1351 X-210.474 Y-4.993 Z8.807 A338.4567 
N1352 X-210.479 Y-5.389 Z8.965 A338.5829 
N1353 X-210.484 Y-5.779 Z9.121 A338.7573 
N1354 X-210.488 Y-6.164 Z9.273 A338.9815 
N1355 X-210.493 Y-6.542 Z9.420 A339.2578 
N1356 X-210.497 Y-6.912 Z9.563 A339.5891 
N1357 X-210.502 Y-7.274 Z9.699 A339.9787 
N1358 X-210.506 Y-7.626 Z9.829 A340.4295 
N1359 X-210.510 Y-7.968 Z9.952 A340.9437 
N1360 X-210.514 Y-8.299 Z10.068 A341.5227 
N1361 X-210.518 Y-8.619 Z10.176 A342.1665 
N1362 X-210.521 Y-8.927 Z10.276 A342.8747 
N1363 X-210.525 Y-9.224 Z10.368 A343.6465 
N1364 X-210.528 Y-9.508 Z10.452 A344.4818 
N1365 X-210.531 Y-9.779 Z10.528 A345.3806 
N1366 X-210.534 Y-10.038 Z10.595 A346.3432 
N1367 X-210.537 Y-10.284 Z10.655 A347.3684 
N1368 X-210.539 Y-10.518 Z10.707 A348.4536 
N1369 X-210.542 Y-10.738 Z10.752 A349.5959 
N1370 X-210.544 Y-10.946 Z10.789 A350.7955 
N1371 X-210.546 Y-11.142 Z10.820 A352.0569 
N1372 X-210.548 Y-11.325 Z10.846 A353.3873 
N1373 X-210.550 Y-11.496 Z10.865 A354.7934 
N1374 X-210.552 Y-11.656 Z10.879 A356.2789 
N1375 X-210.554 Y-11.805 Z10.889 A357.8445 
N1376 X-210.555 Y-11.943 Z10.893 A359.4899 
N1377 X-210.557 Y-12.071 Z10.894 A1.2158 
N1378 X-210.558 Y-12.189 Z10.891 A3.0249 
N1379 X-210.560 Y-12.298 Z10.885 A4.9218 
N1380 X-210.561 Y-12.400 Z10.876 A6.9107 
N1381 X-210.562 Y-12.493 Z10.864 A8.9933 
N1382 X-210.563 Y-12.580 Z10.849 A11.1677 
N1383 X-210.564 Y-12.660 Z10.833 A13.4272 
N1384 X-210.565 Y-12.734 Z10.814 A15.7609 
N1385 X-210.566 Y-12.803 Z10.794 A18.1562 
N1386 X-210.567 Y-12.866 Z10.772 A20.5993 
N1387 X-210.568 Y-12.926 Z10.748 A23.0779 
N1388 X-210.568 Y-12.981 Z10.723 A25.5812 
N1389 X-210.569 Y-13.033 Z10.697 A28.0998 
N1390 X-210.570 Y-13.081 Z10.670 A30.6284 
N1391 X-210.571 Y-13.127 Z10.642 A33.1638 
N1392 X-210.572 Y-13.170 Z10.612 A35.7047 
N1393 X-210.572 Y-13.211 Z10.581 A38.2516 
N1394 X-210.573 Y-13.250 Z10.549 A40.8068 
N1395 X-210.574 Y-13.287 Z10.516 A43.3725 
N1396 X-210.575 Y-13.323 Z10.481 A45.9516 
N1397 X-210.576 Y-13.357 Z10.444 A48.5462 
N1398 X-210.576 Y-13.389 Z10.406 A51.1570 
N1399 X-210.577 Y-13.420 Z10.365 A53.7834 
N1400 X-210.578 Y-13.451 Z10.322 A56.4219 
N1401 X-210.579 Y-13.480 Z10.276 A59.0664 
N1402 X-210.580 Y-13.507 Z10.227 A61.7077 
N1403 X-210.581 Y-13.534 Z10.175 A64.3330 
N1404 X-210.583 Y-13.559 Z10.118 A66.9269 
N1405 X-210.584 Y-13.583 Z10.057 A69.4724 
N1406 X-210.586 Y-13.605 Z9.991 A71.9510 
N1407 X-210.587 Y-13.626 Z9.920 A74.3455 
N1408 X-210.589 Y-13.645 Z9.842 A76.6405 
N1409 X-210.591 Y-13.662 Z9.758 A78.8243 
N1410 X-210.593 Y-13.677 Z9.667 A80.8924 
N1411 X-210.596 Y-13.690 Z9.568 A82.8462 
N1412 X-210.598 Y-13.700 Z9.460 A84.6909 
N1413 X-210.601 Y-13.707 Z9.344 A86.4347 
N1414 X-210.605 Y-13.712 Z9.218 A88.0860 
N1415 X-210.608 Y-13.713 Z9.082 A89.6515 
N1416 X-210.612 Y-13.710 Z8.937 A91.1355 
N1417 X-210.616 Y-13.704 Z8.780 A92.5420 
N1418 X-210.621 Y-13.693 Z8.613 A93.8760 
N1419 X-210.626 Y-13.677 Z8.436 A95.1450 
N1420 X-210.631 Y-13.657 Z8.247 A96.3595 
N1421 X-210.637 Y-13.632 Z8.049 A97.5304 
N1422 X-210.643 Y-13.601 Z7.840 A98.6664 
N1423 X-210.649 Y-13.565 Z7.622 A99.7715 
N1424 X-210.655 Y-13.522 Z7.394 A100.8463 
N1425 X-210.662 Y-13.474 Z7.158 A101.8908 
N1426 X-210.670 Y-13.419 Z6.914 A102.9055 
N1427 X-210.677 Y-13.358 Z6.662 A103.8926 
N1428 X-210.685 Y-13.291 Z6.404 A104.8541 
N1429 X-210.693 Y-13.218 Z6.140 A105.7922 
N1430 X-210.701 Y-13.139 Z5.871 A106.7082 
N1431 X-210.710 Y-13.053 Z5.597 A107.6039 
N1432 X-210.719 Y-12.962 Z5.319 A108.4810 
N1433 X-210.728 Y-12.865 Z5.038 A109.3421 
N1434 X-210.737 Y-12.763 Z4.755 A110.1904 
N1435 X-210.746 Y-12.656 Z4.470 A111.0296 
N1436 X-210.755 Y-12.543 Z4.184 A111.8639 
N1437 X-210.765 Y-12.426 Z3.897 A112.6971 
N1438 X-210.774 Y-12.304 Z3.611 A113.5326 
N1439 X-210.784 Y-12.177 Z3.325 A114.3729 
N1440 X-210.794 Y-12.046 Z3.041 A115.2200 
N1441 X-210.804 Y-11.910 Z2.758 A116.0745 
N1442 X-210.813 Y-11.771 Z2.477 A116.9371 
N1443 X-210.823 Y-11.627 Z2.199 A117.8077 
N1444 X-210.833 Y-11.480 Z1.924 A118.6866 
N1445 X-210.843 Y-11.329 Z1.653 A119.5740 
N1446 X-210.853 Y-11.175 Z1.385 A120.4706 
N1447 X-210.863 Y-11.017 Z1.121 A121.3774 
N1448 X-210.873 Y-10.856 Z0.861 A122.2956 
N1449 X-210.882 Y-10.692 Z0.605 A123.2264 
N1450 X-210.892 Y-10.526 Z0.354 A124.1710 
N1451 X-210.902 Y-10.356 Z0.108 A125.1306 
N1452 X-210.911 Y-10.184 Z-0.133 A126.1058 
N1453 X-210.921 Y-10.010 Z-0.370 A127.0973 
N1454 X-210.930 Y-9.833 Z-0.601 A128.1055 
N1455 X-210.940 Y-9.653 Z-0.826 A129.1307 
N1456 X-210.949 Y-9.472 Z-1.046 A130.1729 
N1457 X-210.959 Y-9.288 Z-1.261 A131.2322 
N1458 X-210.968 Y-9.102 Z-1.470 A132.3084 
N1459 X-210.977 Y-8.914 Z-1.673 A133.4014 
N1460 X-210.986 Y-8.725 Z-1.871 A134.5108 
N1461 X-210.995 Y-8.533 Z-2.063 A135.6365 
N1462 X-211.004 Y-8.339 Z-2.249 A136.7780 
N1463 X-211.013 Y-8.144 Z-2.430 A137.9351 
N1464 X-211.022 Y-7.947 Z-2.605 A139.1071 
N1465 X-211.031 Y-7.749 Z-2.774 A140.2938 
N1466 X-211.039 Y-7.548 Z-2.937 A141.4944 
N1467 X-211.048 Y-7.346 Z-3.095 A142.7083 
N1468 X-211.057 Y-7.143 Z-3.247 A143.9349 
N1469 X-211.065 Y-6.937 Z-3.394 A145.1733 
N1470 X-211.074 Y-6.731 Z-3.535 A146.4229 
N1471 X-211.082 Y-6.522 Z-3.670 A147.6827 
N1472 X-211.091 Y-6.312 Z-3.800 A148.9519 
N1473 X-211.099 Y-6.100 Z-3.925 A150.2296 
N1474 X-211.107 Y-5.887 Z-4.044 A151.5149 
N1475 X-211.115 Y-5.672 Z-4.158 A152.8070 
N1476 X-211.124 Y-5.455 Z-4.266 A154.1048 
N1477 X-211.132 Y-5.237 Z-4.369 A155.4074 
N1478 X-211.140 Y-5.017 Z-4.467 A156.7138 
N1479 X-211.148 Y-4.795 Z-4.560 A158.0228 
N1480 X-211.156 Y-4.571 Z-4.647 A159.3335 
N1481 X-211.164 Y-4.345 Z-4.730 A160.6447 
N1482 X-211.173 Y-4.117 Z-4.807 A161.9553 
N1483 X-211.181 Y-3.887 Z-4.879 A163.2643 
N1484 X-211.189 Y-3.655 Z-4.945 A164.5705 
N1485 X-211.197 Y-3.421 Z-5.007 A165.8729 
N1486 X-211.205 Y-3.185 Z-5.063 A167.1706 
N1487 X-211.213 Y-2.947 Z-5.115 A168.4624 
N1488 X-211.222 Y-2.706 Z-5.161 A169.7475 
N1489 X-211.230 Y-2.463 Z-5.201 A171.0247 
N1490 X-211.238 Y-2.218 Z-5.237 A172.2930 
N1491 X-211.246 Y-1.970 Z-5.268 A173.5515 
N1492 X-211.255 Y-1.720 Z-5.293 A174.7992 
N1493 X-211.263 Y-1.467 Z-5.312 A176.0349 
N1494 X-211.272 Y-1.212 Z-5.327 A177.2580 
N1495 X-211.280 Y-0.953 Z-5.336 A178.4674 
N1496 X-211.289 Y-0.693 Z-5.340 A179.6623 
N1497 X-211.297 Y-0.429 Z-5.338 A180.8420 
N1498 X-211.306 Y-0.163 Z-5.331 A182.0058 
N1499 X-211.315 Y0.106 Z-5.318 A183.1529 
N1500 X-211.323 Y0.378 Z-5.300 A184.2827 
N1501 X-211.332 Y0.652 Z-5.276 A185.3946 
N1502 X-211.341 Y0.930 Z-5.246 A186.4881 
N1503 X-211.350 Y1.210 Z-5.211 A187.5626 
N1504 X-211.359 Y1.493 Z-5.170 A188.6176 
N1505 X-211.369 Y1.779 Z-5.123 A189.6528 
N1506 X-211.378 Y2.068 Z-5.071 A190.6679 
N1507 X-211.387 Y2.359 Z-5.012 A191.6624 
N1508 X-211.397 Y2.653 Z-4.948 A192.6363 
N1509 X-211.406 Y2.950 Z-4.878 A193.5893 
N1510 X-211.416 Y3.250 Z-4.802 A194.5213 
N1511 X-211.426 Y3.552 Z-4.720 A195.4321 
N1512 X-211.435 Y3.857 Z-4.633 A196.3218 
N1513 X-211.445 Y4.164 Z-4.539 A197.1902 
N1514 X-211.455 Y4.474 Z-4.440 A198.0374 
N1515 X-211.465 Y4.787 Z-4.335 A198.8635 
N1516 X-211.475 Y5.101 Z-4.224 A199.6686 
N1517 X-211.486 Y5.418 Z-4.107 A200.4528 
N1518 X-211.496 Y5.737 Z-3.984 A201.2163 
N1519 X-211.506 Y6.059 Z-3.856 A201.9594 
N1520 X-211.517 Y6.382 Z-3.722 A202.6824 
N1521 X-211.528 Y6.708 Z-3.583 A203.3854 
N1522 X-211.538 Y7.035 Z-3.438 A204.0690 
N1523 X-211.549 Y7.365 Z-3.287 A204.7333 
N1524 X-211.560 Y7.696 Z-3.132 A205.3789 
N1525 X-211.571 Y8.029 Z-2.970 A206.0059 
N1526 X-211.582 Y8.363 Z-2.804 A206.6149 
N1527 X-211.593 Y8.699 Z-2.632 A207.2061 
N1528 X-211.604 Y9.037 Z-2.455 A207.7798 
N1529 X-211.615 Y9.377 Z-2.273 A208.3361 
N1530 X-211.626 Y9.717 Z-2.087 A208.8753 
N1531 X-211.638 Y10.060 Z-1.895 A209.3973 
N1532 X-211.649 Y10.403 Z-1.698 A209.9021 
N1533 X-211.661 Y10.748 Z-1.497 A210.3898 
N1534 X-211.672 Y11.094 Z-1.291 A210.8602 
N1535 X-211.684 Y11.441 Z-1.080 A211.3136 
N1536 X-211.695 Y11.790 Z-0.865 A211.7501 
N1537 X-211.707 Y12.140 Z-0.646 A212.1701 
N1538 X-211.719 Y12.491 Z-0.422 A212.5740 
N1539 X-211.731 Y12.843 Z-0.195 A212.9624 
N1540 X-211.743 Y13.196 Z0.037 A213.3359 
N1541 X-211.755 Y13.550 Z0.272 A213.6951 
N1542 X-211.767 Y13.905 Z0.512 A214.0405 
N1543 X-211.779 Y14.261 Z0.755 A214.3724 
N1544 X-211.791 Y14.618 Z1.001 A214.6915 
N1545 X-211.803 Y14.976 Z1.251 A214.9979 
N1546 X-211.816 Y15.335 Z1.505 A215.2920 
N1547 X-211.828 Y15.694 Z1.761 A215.5742 
N1548 X-211.840 Y16.055 Z2.021 A215.8446 
N1549 X-211.853 Y16.416 Z2.285 A216.1036 
N1550 X-211.865 Y16.778 Z2.551 A216.3513 
N1551 X-211.878 Y17.141 Z2.820 A216.5879 
N1552 X-211.890 Y17.505 Z3.092 A216.8136 
N1553 X-211.903 Y17.869 Z3.366 A217.0286 
N1554 X-211.916 Y18.234 Z3.643 A217.2328 
N1555 X-211.928 Y18.599 Z3.923 A217.4265 
N1556 X-211.941 Y18.965 Z4.205 A217.6096 
N1557 X-211.954 Y19.332 Z4.489 A217.7823 
N1558 X-211.967 Y19.699 Z4.775 A217.9445 
N1559 X-211.980 Y20.065 Z5.062 A218.0963 
N1560 X-211.992 Y20.432 Z5.351 A218.2380 
N1561 X-212.005 Y20.797 Z5.641 A218.3698 
N1562 X-212.018 Y21.161 Z5.930 A218.4920 
N1563 X-212.031 Y21.524 Z6.220 A218.6051 
N1564 X-212.043 Y21.883 Z6.508 A218.7094 
N1565 X-212.056 Y22.238 Z6.793 A218.8053 
N1566 X-212.068 Y22.588 Z7.076 A218.8931 
N1567 X-212.080 Y22.931 Z7.354 A218.9730 
N1568 X-212.092 Y23.266 Z7.625 A219.0454 
N1569 X-212.104 Y23.591 Z7.890 A219.1108 
N1570 X-212.115 Y23.903 Z8.145 A219.1695 
N1571 X-212.125 Y24.203 Z8.389 A219.2224 
N1572 X-212.135 Y24.487 Z8.621 A219.2702 
N1573 X-212.145 Y24.753 Z8.840 A219.3135 
N1574 X-212.154 Y25.002 Z9.044 A219.3532 
N1575 X-212.162 Y25.231 Z9.232 A219.3901 
N1576 X-212.169 Y25.440 Z9.403 A219.4250 
N1577 X-212.176 Y25.627 Z9.558 A219.4591 
N1578 X-212.182 Y25.795 Z9.696 A219.4939 
N1579 X-212.187 Y25.942 Z9.817 A219.5314 
N1580 X-212.191 Y26.070 Z9.923 A219.5744 
N1581 X-212.195 Y26.180 Z10.013 A219.6267 
N1582 X-212.199 Y26.273 Z10.090 A219.6926 
N1583 X-212.201 Y26.351 Z10.154 A219.7757 
N1584 X-212.204 Y26.415 Z10.208 A219.9260 
N1585 X-212.206 Y26.468 Z10.253 A220.3827 
N1586 X-212.207 Y26.513 Z10.291 A221.5187 
N1587 X-212.208 Y26.550 Z10.325 A223.6923 
N1588 X-212.209 Y26.582 Z10.357 A227.5329 
N1589 X-212.210 Y26.609 Z10.389 A232.5622 
N1590 X-212.210 Y26.630 Z10.419 A237.7375 
N1591 X-212.211 Y26.646 Z10.447 A242.8651 
N1592 X-212.211 Y26.657 Z10.474 A247.8349 
N1593 X-212.211 Y26.665 Z10.497 A252.5569 
N1594 X-212.212 Y26.671 Z10.519 A256.7698 
N1595 X-212.212 Y26.674 Z10.538 A260.4721 
N1596 X-212.212 Y26.677 Z10.556 A263.9209 
N1597 X-212.212 Y26.678 Z10.573 A267.1378 
N1598 X-212.212 Y26.678 Z10.589 A270.1530 
N1599 X-212.212 Y26.677 Z10.604 A272.9983 
N1600 X-212.212 Y26.676 Z10.618 A275.7071 
N1601 X-212.212 Y26.674 Z10.633 A278.3075 
N1602 X-212.212 Y26.672 Z10.647 A280.8229 
N1603 X-212.213 Y26.669 Z10.660 A283.2730 
N1604 X-212.213 Y26.665 Z10.674 A285.6739 
N1605 X-212.213 Y26.661 Z10.687 A288.0377 
N1606 X-212.213 Y26.657 Z10.700 A290.3743 
N1607 X-212.213 Y26.652 Z10.713 A292.6918 
N1608 X-212.213 Y26.646 Z10.726 A294.9961 
N1609 X-212.213 Y26.640 Z10.738 A297.2916 
N1610 X-212.213 Y26.633 Z10.750 A299.5817 
N1611 X-212.213 Y26.626 Z10.762 A301.8689 
N1612 X-212.213 Y26.618 Z10.774 A304.1556 
N1613 X-212.213 Y26.610 Z10.785 A306.4436 
N1614 X-212.213 Y26.602 Z10.796 A308.7346 
N1615 X-212.213 Y26.593 Z10.807 A311.0305 
N1616 X-212.214 Y26.584 Z10.817 A313.3336 
N1617 X-212.214 Y26.574 Z10.827 A315.6465 
N1618 X-212.214 Y26.564 Z10.837 A317.9725 
N1619 X-212.214 Y26.553 Z10.846 A320.3168 
N1620 X-212.214 Y26.542 Z10.855 A322.6861 
N1621 X-212.214 Y26.531 Z10.863 A325.0888 
N1622 X-212.214 Y26.519 Z10.871 A327.5359 
N1623 X-212.214 Y26.507 Z10.878 A330.0418 
N1624 X-212.214 Y26.495 Z10.885 A332.6248 
N1625 X-212.214 Y26.482 Z10.892 A335.3072 
N1626 X-212.214 Y26.468 Z10.898 A338.1163 
N1627 X-212.214 Y26.453 Z10.903 A341.0856 
N1628 X-212.214 Y26.437 Z10.909 A344.2493 
N1629 X-212.214 Y26.420 Z10.913 A347.6430 
N1630 X-212.214 Y26.401 Z10.917 A351.2991 
N1631 X-212.215 Y26.381 Z10.920 A355.2392 
N1632 X-212.215 Y26.357 Z10.921 A359.4622 
N1633 X-212.215 Y26.331 Z10.921 A3.9361 
N1634 X-212.215 Y26.302 Z10.918 A8.5669 
N1635 X-212.215 Y26.269 Z10.912 A13.2309 
N1636 X-212.216 Y26.233 Z10.901 A17.6416 
N1637 X-212.216 Y26.193 Z10.885 A21.5756 
N1638 X-212.217 Y26.150 Z10.865 A24.4342 
N1639 X-212.218 Y26.102 Z10.841 A26.2659 
N1640 X-212.219 Y26.047 Z10.811 A27.2195 
N1641 X-212.220 Y25.981 Z10.775 A27.7925 
N1642 X-212.221 Y25.902 Z10.731 A28.0655 
N1643 X-212.223 Y25.809 Z10.680 A28.2203 
N1644 X-212.225 Y25.700 Z10.619 A28.2869 
N1645 X-212.228 Y25.572 Z10.549 A28.2881 
N1646 X-212.230 Y25.426 Z10.469 A28.2396 
N1647 X-212.234 Y25.259 Z10.379 A28.1514 
N1648 X-212.237 Y25.072 Z10.278 A28.0295 
N1649 X-212.241 Y24.864 Z10.167 A27.8779 
N1650 X-212.245 Y24.636 Z10.046 A27.6996 
N1651 X-212.250 Y24.389 Z9.915 A27.4968 
N1652 X-212.255 Y24.123 Z9.777 A27.2711 
N1653 X-212.260 Y23.841 Z9.631 A27.0236 
N1654 X-212.265 Y23.543 Z9.479 A26.7546 
N1655 X-212.271 Y23.232 Z9.322 A26.4637 
N1656 X-212.277 Y22.909 Z9.161 A26.1504 
N1657 X-212.283 Y22.577 Z8.998 A25.8140 
N1658 X-212.288 Y22.236 Z8.833 A25.4541 
N1659 X-212.295 Y21.889 Z8.668 A25.0710 
N1660 X-212.301 Y21.536 Z8.503 A24.6656 
N1661 X-212.307 Y21.180 Z8.340 A24.2394 
N1662 X-212.313 Y20.822 Z8.179 A23.7940 
N1663 X-212.319 Y20.461 Z8.021 A23.3312 
N1664 X-212.325 Y20.100 Z7.866 A22.8526 
N1665 X-212.330 Y19.738 Z7.714 A22.3594 
N1666 X-212.336 Y19.376 Z7.566 A21.8522 
N1667 X-212.342 Y19.015 Z7.423 A21.3316 
N1668 X-212.347 Y18.654 Z7.283 A20.7977 
N1669 X-212.353 Y18.294 Z7.147 A20.2509 
N1670 X-212.358 Y17.935 Z7.016 A19.6910 
N1671 X-212.364 Y17.577 Z6.889 A19.1182 
N1672 X-212.369 Y17.220 Z6.767 A18.5325 
N1673 X-212.374 Y16.865 Z6.649 A17.9338 
N1674 X-212.379 Y16.510 Z6.536 A17.3221 
N1675 X-212.384 Y16.157 Z6.427 A16.6973 
N1676 X-212.389 Y15.805 Z6.323 A16.0596 
N1677 X-212.393 Y15.455 Z6.224 A15.4088 
N1678 X-212.398 Y15.106 Z6.129 A14.7450 
N1679 X-212.403 Y14.758 Z6.039 A14.0682 
N1680 X-212.407 Y14.411 Z5.954 A13.3786 
N1681 X-212.411 Y14.066 Z5.873 A12.6764 
N1682 X-212.416 Y13.722 Z5.798 A11.9618 
N1683 X-212.420 Y13.380 Z5.727 A11.2351 
N1684 X-212.424 Y13.038 Z5.661 A10.4965 
N1685 X-212.428 Y12.698 Z5.599 A9.7464 
N1686 X-212.432 Y12.360 Z5.543 A8.9853 
N1687 X-212.436 Y12.022 Z5.491 A8.2137 
N1688 X-212.439 Y11.685 Z5.445 A7.4320 
N1689 X-212.443 Y11.350 Z5.403 A6.6409 
N1690 X-212.447 Y11.015 Z5.366 A5.8409 
N1691 X-212.450 Y10.682 Z5.334 A5.0326 
N1692 X-212.453 Y10.349 Z5.306 A4.2169 
N1693 X-212.457 Y10.017 Z5.284 A3.3944 
N1694 X-212.460 Y9.686 Z5.267 A2.5659 
N1695 X-212.463 Y9.356 Z5.254 A1.7323 
N1696 X-212.466 Y9.026 Z5.246 A0.8944 
N1697 X-212.469 Y8.696 Z5.243 A0.0532 
N1698 X-212.472 Y8.367 Z5.245 A359.2096 
N1699 X-212.475 Y8.037 Z5.252 A358.3646 
N1700 X-212.478 Y7.708 Z5.264 A357.5192 
N1701 X-212.481 Y7.379 Z5.281 A356.6746 
N1702 X-212.484 Y7.049 Z5.303 A355.8318 
N1703 X-212.486 Y6.720 Z5.329 A354.9919 
N1704 X-212.489 Y6.389 Z5.361 A354.1562 
N1705 X-212.492 Y6.058 Z5.397 A353.3258 
N1706 X-212.494 Y5.726 Z5.439 A352.5020 
N1707 X-212.497 Y5.393 Z5.486 A351.6859 
N1708 X-212.499 Y5.059 Z5.537 A350.8789 
N1709 X-212.502 Y4.724 Z5.594 A350.0820 
N1710 X-212.504 Y4.387 Z5.656 A349.2967 
N1711 X-212.506 Y4.048 Z5.723 A348.5242 
N1712 X-212.509 Y3.707 Z5.795 A347.7657 
N1713 X-212.511 Y3.365 Z5.873 A347.0224 
N1714 X-212.513 Y3.019 Z5.956 A346.2957 
N1715 X-212.516 Y2.671 Z6.044 A345.5868 
N1716 X-212.518 Y2.321 Z6.137 A344.8972 
N1717 X-212.520 Y1.967 Z6.236 A344.2283 
N1718 X-212.522 Y1.609 Z6.340 A343.5818 
N1719 X-212.525 Y1.248 Z6.450 A342.9600 
N1720 X-212.527 Y0.884 Z6.566 A342.3651 
N1721 X-212.529 Y0.515 Z6.687 A341.8001 
N1722 X-212.531 Y0.142 Z6.813 A341.2679 
N1723 X-212.533 Y-0.235 Z6.945 A340.7719 
N1724 X-212.535 Y-0.617 Z7.082 A340.3155 
N1725 X-212.538 Y-1.002 Z7.224 A339.9018 
N1726 X-212.540 Y-1.391 Z7.371 A339.5335 
N1727 X-212.542 Y-1.785 Z7.522 A339.2130 
N1728 X-212.544 Y-2.181 Z7.677 A338.9420 
N1729 X-212.546 Y-2.581 Z7.835 A338.7215 
N1730 X-212.548 Y-2.982 Z7.995 A338.5522 
N1731 X-212.550 Y-3.385 Z8.157 A338.4338 
N1732 X-212.552 Y-3.789 Z8.320 A338.3660 
N1733 X-212.554 Y-4.192 Z8.483 A338.3478 
N1734 X-212.556 Y-4.594 Z8.646 A338.3783 
N1735 X-212.558 Y-4.993 Z8.807 A338.4568 
N1736 X-212.560 Y-5.389 Z8.965 A338.5830 
N1737 X-212.562 Y-5.779 Z9.121 A338.7575 
N1738 X-212.563 Y-6.164 Z9.273 A338.9817 
N1739 X-212.565 Y-6.542 Z9.420 A339.2579 
N1740 X-212.567 Y-6.913 Z9.563 A339.5893 
N1741 X-212.568 Y-7.274 Z9.699 A339.9789 
N1742 X-212.570 Y-7.626 Z9.829 A340.4298 
N1743 X-212.571 Y-7.968 Z9.952 A340.9441 
N1744 X-212.573 Y-8.299 Z10.068 A341.5231 
N1745 X-212.574 Y-8.619 Z10.176 A342.1670 
N1746 X-212.575 Y-8.928 Z10.276 A342.8753 
N1747 X-212.577 Y-9.224 Z10.368 A343.6472 
N1748 X-212.578 Y-9.508 Z10.452 A344.4825 
N1749 X-212.579 Y-9.779 Z10.528 A345.3814 
N1750 X-212.580 Y-10.038 Z10.595 A346.3441 
N1751 X-212.581 Y-10.285 Z10.655 A347.3695 
N1752 X-212.582 Y-10.518 Z10.707 A348.4547 
N1753 X-212.583 Y-10.738 Z10.752 A349.5971 
N1754 X-212.584 Y-10.947 Z10.789 A350.7969 
N1755 X-212.585 Y-11.142 Z10.820 A352.0583 
N1756 X-212.586 Y-11.325 Z10.846 A353.3888 
N1757 X-212.587 Y-11.496 Z10.865 A354.7948 
N1758 X-212.588 Y-11.656 Z10.879 A356.2804 
N1759 X-212.589 Y-11.805 Z10.889 A357.8461 
N1760 X-212.590 Y-11.943 Z10.893 A359.4915 
N1761 X-212.590 Y-12.071 Z10.894 A1.2175 
N1762 X-212.591 Y-12.189 Z10.891 A3.0271 
N1763 X-212.592 Y-12.299 Z10.885 A4.9244 
N1764 X-212.593 Y-12.400 Z10.875 A6.9133 
N1765 X-212.593 Y-12.493 Z10.864 A8.9957 
N1766 X-212.594 Y-12.580 Z10.849 A11.1698 
N1767 X-212.595 Y-12.660 Z10.833 A13.4291 
N1768 X-212.595 Y-12.734 Z10.814 A15.7629 
N1769 X-212.596 Y-12.803 Z10.794 A18.1581 
N1770 X-212.596 Y-12.867 Z10.772 A20.6015 
N1771 X-212.597 Y-12.926 Z10.748 A23.0799 
N1772 X-212.598 Y-12.981 Z10.723 A25.5824 
N1773 X-212.598 Y-13.033 Z10.697 A28.1010 
N1774 X-212.599 Y-13.082 Z10.670 A30.6295 
N1775 X-212.600 Y-13.127 Z10.642 A33.1645 
N1776 X-212.600 Y-13.170 Z10.612 A35.7051 
N1777 X-212.601 Y-13.211 Z10.581 A38.2520 
N1778 X-212.602 Y-13.250 Z10.549 A40.8069 
N1779 X-212.603 Y-13.287 Z10.516 A43.3725 
N1780 X-212.603 Y-13.323 Z10.481 A45.9514 
N1781 X-212.604 Y-13.357 Z10.444 A48.5457 
N1782 X-212.605 Y-13.389 Z10.406 A51.1564 
N1783 X-212.606 Y-13.420 Z10.365 A53.7825 
N1784 X-212.607 Y-13.451 Z10.322 A56.4211 
N1785 X-212.608 Y-13.480 Z10.276 A59.0656 
N1786 X-212.609 Y-13.507 Z10.227 A61.7065 
N1787 X-212.610 Y-13.534 Z10.175 A64.3314 
N1788 X-212.612 Y-13.559 Z10.118 A66.9255 
N1789 X-212.613 Y-13.583 Z10.057 A69.4712 
N1790 X-212.615 Y-13.605 Z9.991 A71.9506 
N1791 X-212.617 Y-13.626 Z9.920 A74.3454 
N1792 X-212.619 Y-13.645 Z9.842 A76.6401 
N1793 X-212.621 Y-13.662 Z9.758 A78.8242 
N1794 X-212.624 Y-13.677 Z9.667 A80.8923 
N1795 X-212.626 Y-13.690 Z9.568 A82.8458 
N1796 X-212.630 Y-13.700 Z9.461 A84.6903 
N1797 X-212.633 Y-13.707 Z9.344 A86.4342 
N1798 X-212.637 Y-13.712 Z9.218 A88.0855 
N1799 X-212.641 Y-13.713 Z9.083 A89.6510 
N1800 X-212.646 Y-13.710 Z8.937 A91.1352 
N1801 X-212.651 Y-13.704 Z8.780 A92.5418 
N1802 X-212.656 Y-13.693 Z8.613 A93.8758 
N1803 X-212.662 Y-13.677 Z8.436 A95.1447 
N1804 X-212.668 Y-13.657 Z8.247 A96.3591 
N1805 X-212.675 Y-13.632 Z8.049 A97.5301 
N1806 X-212.682 Y-13.601 Z7.840 A98.6660 
N1807 X-212.690 Y-13.565 Z7.622 A99.7710 
N1808 X-212.698 Y-13.523 Z7.394 A100.8459 
N1809 X-212.706 Y-13.474 Z7.158 A101.8903 
N1810 X-212.715 Y-13.419 Z6.914 A102.9051 
N1811 X-212.724 Y-13.358 Z6.662 A103.8921 
N1812 X-212.733 Y-13.291 Z6.404 A104.8537 
N1813 X-212.743 Y-13.218 Z6.140 A105.7917 
N1814 X-212.753 Y-13.139 Z5.871 A106.7077 
N1815 X-212.763 Y-13.053 Z5.597 A107.6034 
N1816 X-212.774 Y-12.962 Z5.319 A108.4806 
N1817 X-212.785 Y-12.865 Z5.038 A109.3417 
N1818 X-212.796 Y-12.763 Z4.755 A110.1899 
N1819 X-212.807 Y-12.656 Z4.470 A111.0291 
N1820 X-212.819 Y-12.543 Z4.184 A111.8634 
N1821 X-212.830 Y-12.426 Z3.898 A112.6965 
N1822 X-212.842 Y-12.304 Z3.611 A113.5320 
N1823 X-212.854 Y-12.177 Z3.325 A114.3724 
N1824 X-212.865 Y-12.046 Z3.041 A115.2194 
N1825 X-212.877 Y-11.910 Z2.758 A116.0739 
N1826 X-212.889 Y-11.771 Z2.477 A116.9364 
N1827 X-212.901 Y-11.627 Z2.200 A117.8070 
N1828 X-212.913 Y-11.480 Z1.925 A118.6859 
N1829 X-212.925 Y-11.329 Z1.653 A119.5733 
N1830 X-212.937 Y-11.175 Z1.385 A120.4699 
N1831 X-212.949 Y-11.017 Z1.121 A121.3766 
N1832 X-212.961 Y-10.856 Z0.861 A122.2948 
N1833 X-212.973 Y-10.692 Z0.605 A123.2256 
N1834 X-212.985 Y-10.526 Z0.354 A124.1702 
N1835 X-212.997 Y-10.356 Z0.108 A125.1297 
N1836 X-213.009 Y-10.184 Z-0.133 A126.1048 
N1837 X-213.021 Y-10.010 Z-0.369 A127.0963 
N1838 X-213.032 Y-9.833 Z-0.600 A128.1045 
N1839 X-213.044 Y-9.653 Z-0.826 A129.1297 
N1840 X-213.055 Y-9.472 Z-1.046 A130.1719 
N1841 X-213.067 Y-9.288 Z-1.261 A131.2312 
N1842 X-213.078 Y-9.102 Z-1.470 A132.3074 
N1843 X-213.089 Y-8.914 Z-1.673 A133.4003 
N1844 X-213.101 Y-8.725 Z-1.871 A134.5098 
N1845 X-213.112 Y-8.533 Z-2.063 A135.6354 
N1846 X-213.123 Y-8.340 Z-2.249 A136.7770 
N1847 X-213.133 Y-8.144 Z-2.430 A137.9340 
N1848 X-213.144 Y-7.947 Z-2.604 A139.1062 
N1849 X-213.155 Y-7.749 Z-2.774 A140.2928 
N1850 X-213.166 Y-7.548 Z-2.937 A141.4935 
N1851 X-213.176 Y-7.346 Z-3.095 A142.7074 
N1852 X-213.187 Y-7.143 Z-3.247 A143.9340 
N1853 X-213.197 Y-6.938 Z-3.394 A145.1725 
N1854 X-213.207 Y-6.731 Z-3.535 A146.4221 
N1855 X-213.218 Y-6.522 Z-3.670 A147.6819 
N1856 X-213.228 Y-6.312 Z-3.800 A148.9511 
N1857 X-213.238 Y-6.101 Z-3.925 A150.2289 
N1858 X-213.248 Y-5.887 Z-4.044 A151.5143 
N1859 X-213.258 Y-5.672 Z-4.158 A152.8064 
N1860 X-213.268 Y-5.455 Z-4.266 A154.1043 
N1861 X-213.278 Y-5.237 Z-4.369 A155.4070 
N1862 X-213.288 Y-5.017 Z-4.467 A156.7134 
N1863 X-213.298 Y-4.795 Z-4.560 A158.0225 
N1864 X-213.308 Y-4.571 Z-4.647 A159.3333 
N1865 X-213.317 Y-4.345 Z-4.730 A160.6445 
N1866 X-213.327 Y-4.117 Z-4.807 A161.9552 
N1867 X-213.337 Y-3.887 Z-4.879 A163.2642 
N1868 X-213.347 Y-3.655 Z-4.945 A164.5704 
N1869 X-213.357 Y-3.421 Z-5.007 A165.8729 
N1870 X-213.366 Y-3.185 Z-5.063 A167.1706 
N1871 X-213.376 Y-2.947 Z-5.115 A168.4625 
N1872 X-213.386 Y-2.706 Z-5.161 A169.7476 
N1873 X-213.396 Y-2.463 Z-5.201 A171.0249 
N1874 X-213.406 Y-2.218 Z-5.237 A172.2933 
N1875 X-213.415 Y-1.970 Z-5.268 A173.5518 
N1876 X-213.425 Y-1.720 Z-5.293 A174.7994 
N1877 X-213.435 Y-1.467 Z-5.312 A176.0353 
N1878 X-213.445 Y-1.212 Z-5.327 A177.2583 
N1879 X-213.455 Y-0.953 Z-5.336 A178.4677 
N1880 X-213.465 Y-0.693 Z-5.340 A179.6627 
N1881 X-213.475 Y-0.429 Z-5.338 A180.8424 
N1882 X-213.485 Y-0.163 Z-5.331 A182.0062 
N1883 X-213.496 Y0.106 Z-5.318 A183.1533 
N1884 X-213.506 Y0.378 Z-5.300 A184.2831 
N1885 X-213.516 Y0.653 Z-5.276 A185.3950 
N1886 X-213.527 Y0.930 Z-5.246 A186.4885 
N1887 X-213.537 Y1.210 Z-5.211 A187.5630 
N1888 X-213.548 Y1.493 Z-5.170 A188.6180 
N1889 X-213.558 Y1.779 Z-5.123 A189.6532 
N1890 X-213.569 Y2.068 Z-5.071 A190.6682 
N1891 X-213.580 Y2.359 Z-5.012 A191.6628 
N1892 X-213.590 Y2.653 Z-4.948 A192.6367 
N1893 X-213.601 Y2.950 Z-4.878 A193.5896 
N1894 X-213.612 Y3.250 Z-4.802 A194.5216 
N1895 X-213.623 Y3.552 Z-4.720 A195.4324 
N1896 X-213.635 Y3.857 Z-4.633 A196.3221 
N1897 X-213.646 Y4.164 Z-4.539 A197.1905 
N1898 X-213.657 Y4.474 Z-4.440 A198.0377 
N1899 X-213.668 Y4.787 Z-4.335 A198.8637 
N1900 X-213.680 Y5.101 Z-4.224 A199.6688 
N1901 X-213.691 Y5.418 Z-4.107 A200.4530 
N1902 X-213.703 Y5.737 Z-3.984 A201.2165 
N1903 X-213.714 Y6.059 Z-3.856 A201.9596 
N1904 X-213.726 Y6.382 Z-3.722 A202.6825 
N1905 X-213.738 Y6.708 Z-3.583 A203.3856 
N1906 X-213.750 Y7.035 Z-3.438 A204.0691 
N1907 X-213.762 Y7.365 Z-3.287 A204.7334 
N1908 X-213.774 Y7.696 Z-3.132 A205.3789 
N1909 X-213.786 Y8.029 Z-2.970 A206.0060 
N1910 X-213.798 Y8.363 Z-2.804 A206.6150 
N1911 X-213.810 Y8.699 Z-2.632 A207.2061 
N1912 X-213.822 Y9.037 Z-2.455 A207.7798 
N1913 X-213.834 Y9.377 Z-2.273 A208.3361 
N1914 X-213.847 Y9.717 Z-2.087 A208.8753 
N1915 X-213.859 Y10.060 Z-1.895 A209.3973 
N1916 X-213.871 Y10.403 Z-1.698 A209.9021 
N1917 X-213.884 Y10.748 Z-1.497 A210.3898 
N1918 X-213.896 Y11.094 Z-1.291 A210.8602 
N1919 X-213.909 Y11.441 Z-1.080 A211.3136 
N1920 X-213.922 Y11.790 Z-0.865 A211.7501 
N1921 X-213.934 Y12.140 Z-0.646 A212.1700 
N1922 X-213.947 Y12.491 Z-0.422 A212.5740 
N1923 X-213.960 Y12.843 Z-0.195 A212.9624 
N1924 X-213.973 Y13.196 Z0.037 A213.3359 
N1925 X-213.986 Y13.550 Z0.272 A213.6951 
N1926 X-213.999 Y13.905 Z0.512 A214.0404 
N1927 X-214.012 Y14.261 Z0.755 A214.3724 
N1928 X-214.025 Y14.618 Z1.001 A214.6914 
N1929 X-214.038 Y14.976 Z1.251 A214.9979 
N1930 X-214.051 Y15.335 Z1.505 A215.2920 
N1931 X-214.064 Y15.694 Z1.761 A215.5742 
N1932 X-214.077 Y16.055 Z2.021 A215.8446 
N1933 X-214.090 Y16.416 Z2.285 A216.1036 
N1934 X-214.104 Y16.778 Z2.551 A216.3513 
N1935 X-214.117 Y17.141 Z2.820 A216.5879 
N1936 X-214.130 Y17.505 Z3.092 A216.8136 
N1937 X-214.144 Y17.869 Z3.366 A217.0285 
N1938 X-214.157 Y18.234 Z3.643 A217.2328 
N1939 X-214.170 Y18.599 Z3.923 A217.4265 
N1940 X-214.184 Y18.965 Z4.205 A217.6096 
N1941 X-214.197 Y19.332 Z4.489 A217.7823 
N1942 X-214.211 Y19.699 Z4.775 A217.9445 
N1943 X-214.224 Y20.065 Z5.062 A218.0963 
N1944 X-214.238 Y20.432 Z5.351 A218.2380 
N1945 X-214.251 Y20.797 Z5.641 A218.3698 
N1946 X-214.265 Y21.161 Z5.930 A218.4920 
N1947 X-214.278 Y21.524 Z6.220 A218.6051 
N1948 X-214.292 Y21.883 Z6.508 A218.7094 
N1949 X-214.305 Y22.238 Z6.793 A218.8053 
N1950 X-214.318 Y22.588 Z7.076 A218.8931 
N1951 X-214.330 Y22.931 Z7.354 A218.9730 
N1952 X-214.343 Y23.266 Z7.625 A219.0454 
N1953 X-214.355 Y23.591 Z7.890 A219.1108 
N1954 X-214.366 Y23.904 Z8.145 A219.1695 
N1955 X-214.378 Y24.203 Z8.389 A219.2224 
N1956 X-214.388 Y24.487 Z8.621 A219.2702 
N1957 X-214.398 Y24.754 Z8.840 A219.3135 
N1958 X-214.407 Y25.002 Z9.044 A219.3532 
N1959 X-214.416 Y25.231 Z9.232 A219.3901 
N1960 X-214.424 Y25.440 Z9.403 A219.4250 
N1961 X-214.431 Y25.627 Z9.558 A219.4591 
N1962 X-214.437 Y25.795 Z9.696 A219.4939 
N1963 X-214.442 Y25.942 Z9.817 A219.5314 
N1964 X-214.447 Y26.070 Z9.923 A219.5744 
N1965 X-214.451 Y26.180 Z10.013 A219.6268 
N1966 X-214.455 Y26.273 Z10.090 A219.6926 
N1967 X-214.457 Y26.351 Z10.154 A219.7758 
N1968 X-214.460 Y26.415 Z10.208 A219.9260 
N1969 X-214.462 Y26.468 Z10.253 A220.3828 
N1970 X-214.463 Y26.513 Z10.291 A221.5187 
N1971 X-214.465 Y26.550 Z10.325 A223.6920 
N1972 X-214.466 Y26.582 Z10.357 A227.5322 
N1973 X-214.466 Y26.609 Z10.389 A232.5608 
N1974 X-214.467 Y26.630 Z10.419 A237.7353 
N1975 X-214.467 Y26.646 Z10.447 A242.8623 
N1976 X-214.467 Y26.657 Z10.474 A247.8315 
N1977 X-214.468 Y26.665 Z10.497 A252.5528 
N1978 X-214.468 Y26.671 Z10.519 A256.7652 
N1979 X-214.468 Y26.674 Z10.538 A260.4672 
N1980 X-214.468 Y26.677 Z10.556 A263.9157 
N1981 X-214.468 Y26.678 Z10.573 A267.1325 
N1982 X-214.468 Y26.678 Z10.589 A270.1474 
N1983 X-214.468 Y26.677 Z10.604 A272.9925 
N1984 X-214.468 Y26.676 Z10.618 A275.7011 
N1985 X-214.468 Y26.674 Z10.633 A278.3013 
N1986 X-214.468 Y26.672 Z10.647 A280.8166 
N1987 X-214.468 Y26.669 Z10.660 A283.2666 
N1988 X-214.468 Y26.665 Z10.674 A285.6673 
N1989 X-214.469 Y26.661 Z10.687 A288.0310 
N1990 X-214.469 Y26.657 Z10.700 A290.3675 
N1991 X-214.469 Y26.652 Z10.713 A292.6848 
N1992 X-214.469 Y26.646 Z10.726 A294.9891 
N1993 X-214.469 Y26.640 Z10.738 A297.2845 
N1994 X-214.469 Y26.633 Z10.750 A299.5744 
N1995 X-214.469 Y26.626 Z10.762 A301.8615 
N1996 X-214.469 Y26.618 Z10.774 A304.1481 
N1997 X-214.469 Y26.610 Z10.785 A306.4361 
N1998 X-214.469 Y26.602 Z10.796 A308.7270 
N1999 X-214.469 Y26.593 Z10.807 A311.0228 
N2000 X-214.469 Y26.584 Z10.817 A313.3258 
N2001 X-214.469 Y26.574 Z10.827 A315.6386 
N2002 X-214.469 Y26.564 Z10.837 A317.9644 
N2003 X-214.469 Y26.553 Z10.846 A320.3086 
N2004 X-214.469 Y26.542 Z10.855 A322.6776 
N2005 X-214.469 Y26.531 Z10.863 A325.0801 
N2006 X-214.469 Y26.519 Z10.871 A327.5269 
N2007 X-214.469 Y26.507 Z10.878 A330.0324 
N2008 X-214.469 Y26.495 Z10.885 A332.6149 
N2009 X-214.469 Y26.482 Z10.892 A335.2968 
N2010 X-214.469 Y26.468 Z10.898 A338.1052 
N2011 X-214.469 Y26.453 Z10.903 A341.0736 
N2012 X-214.469 Y26.437 Z10.909 A344.2363 
N2013 X-214.469 Y26.420 Z10.913 A347.6285 
N2014 X-214.469 Y26.402 Z10.917 A351.2831 
N2015 X-214.469 Y26.381 Z10.920 A355.2215 
N2016 X-214.469 Y26.358 Z10.921 A359.4428 
N2017 X-214.469 Y26.331 Z10.921 A3.9145 
N2018 X-214.469 Y26.302 Z10.918 A8.5441 
N2019 X-214.469 Y26.269 Z10.912 A13.2086 
N2020 X-214.470 Y26.233 Z10.901 A17.6224 
N2021 X-214.470 Y26.194 Z10.886 A21.5591 
N2022 X-214.470 Y26.151 Z10.866 A24.4221 
N2023 X-214.471 Y26.102 Z10.841 A26.2578 
N2024 X-214.472 Y26.047 Z10.811 A27.2141 
N2025 X-214.473 Y25.981 Z10.775 A27.7890 
N2026 X-214.474 Y25.903 Z10.731 A28.0632 
N2027 X-214.476 Y25.810 Z10.680 A28.2189 
N2028 X-214.477 Y25.700 Z10.620 A28.2860 
N2029 X-214.480 Y25.573 Z10.550 A28.2877 
N2030 X-214.482 Y25.426 Z10.470 A28.2396 
N2031 X-214.484 Y25.260 Z10.379 A28.1516 
N2032 X-214.487 Y25.073 Z10.278 A28.0300 
N2033 X-214.491 Y24.865 Z10.167 A27.8786 
N2034 X-214.494 Y24.637 Z10.046 A27.7004 
N2035 X-214.498 Y24.390 Z9.916 A27.4977 
N2036 X-214.502 Y24.125 Z9.778 A27.2722 
N2037 X-214.506 Y23.842 Z9.632 A27.0248 
N2038 X-214.511 Y23.545 Z9.480 A26.7558 
N2039 X-214.515 Y23.234 Z9.323 A26.4651 
N2040 X-214.520 Y22.911 Z9.162 A26.1518 
N2041 X-214.525 Y22.578 Z8.998 A25.8155 
N2042 X-214.530 Y22.237 Z8.833 A25.4557 
N2043 X-214.534 Y21.890 Z8.668 A25.0727 
N2044 X-214.539 Y21.538 Z8.504 A24.6673 
N2045 X-214.544 Y21.182 Z8.341 A24.2412 
N2046 X-214.549 Y20.823 Z8.180 A23.7958 
N2047 X-214.553 Y20.463 Z8.021 A23.3331 
N2048 X-214.558 Y20.101 Z7.866 A22.8546 
N2049 X-214.563 Y19.739 Z7.715 A22.3613 
N2050 X-214.567 Y19.377 Z7.567 A21.8542 
N2051 X-214.571 Y19.016 Z7.423 A21.3336 
N2052 X-214.575 Y18.655 Z7.283 A20.7998 
N2053 X-214.579 Y18.295 Z7.148 A20.2529 
N2054 X-214.583 Y17.936 Z7.017 A19.6931 
N2055 X-214.587 Y17.578 Z6.890 A19.1203 
N2056 X-214.591 Y17.221 Z6.768 A18.5346 
N2057 X-214.595 Y16.866 Z6.650 A17.9359 
N2058 X-214.598 Y16.511 Z6.536 A17.3242 
N2059 X-214.602 Y16.158 Z6.428 A16.6994 
N2060 X-214.605 Y15.807 Z6.324 A16.0617 
N2061 X-214.608 Y15.456 Z6.224 A15.4109 
N2062 X-214.611 Y15.107 Z6.129 A14.7471 
N2063 X-214.614 Y14.759 Z6.039 A14.0703 
N2064 X-214.617 Y14.412 Z5.954 A13.3808 
N2065 X-214.620 Y14.067 Z5.874 A12.6786 
N2066 X-214.622 Y13.723 Z5.798 A11.9640 
N2067 X-214.625 Y13.381 Z5.727 A11.2372 
N2068 X-214.627 Y13.039 Z5.661 A10.4986 
N2069 X-214.630 Y12.699 Z5.599 A9.7485 
N2070 X-214.632 Y12.360 Z5.543 A8.9874 
N2071 X-214.634 Y12.023 Z5.491 A8.2158 
N2072 X-214.636 Y11.686 Z5.445 A7.4341 
N2073 X-214.638 Y11.351 Z5.403 A6.6429 
N2074 X-214.640 Y11.016 Z5.366 A5.8429 
N2075 X-214.641 Y10.683 Z5.334 A5.0347 
N2076 X-214.643 Y10.350 Z5.307 A4.2189 
N2077 X-214.645 Y10.018 Z5.284 A3.3964 
N2078 X-214.646 Y9.687 Z5.267 A2.5679 
N2079 X-214.647 Y9.356 Z5.254 A1.7342 
N2080 X-214.649 Y9.026 Z5.246 A0.8963 
N2081 X-214.650 Y8.697 Z5.243 A0.0550 
N2082 X-214.651 Y8.367 Z5.245 A359.2114 
N2083 X-214.652 Y8.038 Z5.252 A358.3663 
N2084 X-214.653 Y7.709 Z5.264 A357.5209 
N2085 X-214.654 Y7.380 Z5.281 A356.6763 
N2086 X-214.654 Y7.050 Z5.303 A355.8334 
N2087 X-214.655 Y6.720 Z5.329 A354.9935 
N2088 X-214.656 Y6.390 Z5.361 A354.1577 
N2089 X-214.656 Y6.059 Z5.397 A353.3273 
N2090 X-214.656 Y5.727 Z5.439 A352.5034 
N2091 X-214.657 Y5.394 Z5.486 A351.6873 
N2092 X-214.657 Y5.060 Z5.537 A350.8801 
N2093 X-214.657 Y4.724 Z5.594 A350.0833 
N2094 X-214.658 Y4.387 Z5.656 A349.2979 
N2095 X-214.658 Y4.049 Z5.723 A348.5253 
N2096 X-214.658 Y3.708 Z5.795 A347.7667 
N2097 X-214.658 Y3.365 Z5.873 A347.0234 
N2098 X-214.658 Y3.020 Z5.955 A346.2966 
N2099 X-214.657 Y2.672 Z6.043 A345.5877 
N2100 X-214.657 Y2.321 Z6.137 A344.8980 
N2101 X-214.657 Y1.967 Z6.236 A344.2290 
N2102 X-214.656 Y1.610 Z6.340 A343.5825 
N2103 X-214.656 Y1.249 Z6.450 A342.9606 
N2104 X-214.656 Y0.884 Z6.566 A342.3657 
N2105 X-214.655 Y0.515 Z6.687 A341.8006 
N2106 X-214.654 Y0.142 Z6.813 A341.2683 
N2107 X-214.654 Y-0.235 Z6.945 A340.7723 
N2108 X-214.653 Y-0.616 Z7.082 A340.3158 
N2109 X-214.652 Y-1.002 Z7.224 A339.9021 
N2110 X-214.651 Y-1.391 Z7.371 A339.5337 
N2111 X-214.650 Y-1.785 Z7.522 A339.2132 
N2112 X-214.650 Y-2.181 Z7.677 A338.9422 
N2113 X-214.649 Y-2.581 Z7.835 A338.7217 
N2114 X-214.647 Y-2.982 Z7.995 A338.5523 
N2115 X-214.646 Y-3.385 Z8.157 A338.4339 
N2116 X-214.645 Y-3.789 Z8.320 A338.3661 
N2117 X-214.644 Y-4.192 Z8.483 A338.3479 
N2118 X-214.643 Y-4.594 Z8.646 A338.3784 
N2119 X-214.642 Y-4.993 Z8.807 A338.4569 
N2120 X-214.641 Y-5.389 Z8.965 A338.5831 
N2121 X-214.639 Y-5.779 Z9.121 A338.7576 
N2122 X-214.638 Y-6.164 Z9.273 A338.9818 
N2123 X-214.637 Y-6.543 Z9.420 A339.2582 
N2124 X-214.636 Y-6.913 Z9.563 A339.5896 
N2125 X-214.635 Y-7.274 Z9.699 A339.9793 
N2126 X-214.634 Y-7.626 Z9.829 A340.4301 
N2127 X-214.632 Y-7.968 Z9.953 A340.9445 
N2128 X-214.631 Y-8.299 Z10.068 A341.5237 
N2129 X-214.630 Y-8.619 Z10.176 A342.1676 
N2130 X-214.630 Y-8.928 Z10.276 A342.8759 
N2131 X-214.629 Y-9.224 Z10.368 A343.6480 
N2132 X-214.628 Y-9.508 Z10.452 A344.4834 
N2133 X-214.627 Y-9.780 Z10.528 A345.3824 
N2134 X-214.627 Y-10.039 Z10.595 A346.3452 
N2135 X-214.626 Y-10.285 Z10.655 A347.3706 
N2136 X-214.625 Y-10.518 Z10.707 A348.4560 
N2137 X-214.625 Y-10.739 Z10.752 A349.5985 
N2138 X-214.625 Y-10.947 Z10.789 A350.7982 
N2139 X-214.624 Y-11.142 Z10.821 A352.0598 
N2140 X-214.624 Y-11.325 Z10.846 A353.3903 
N2141 X-214.624 Y-11.497 Z10.865 A354.7966 
N2142 X-214.624 Y-11.656 Z10.880 A356.2822 
N2143 X-214.624 Y-11.805 Z10.889 A357.8480 
N2144 X-214.624 Y-11.943 Z10.893 A359.4936 
N2145 X-214.624 Y-12.071 Z10.894 A1.2196 
N2146 X-214.624 Y-12.189 Z10.891 A3.0289 
N2147 X-214.624 Y-12.299 Z10.885 A4.9259 
N2148 X-214.624 Y-12.400 Z10.875 A6.9148 
N2149 X-214.624 Y-12.494 Z10.864 A8.9974 
N2150 X-214.625 Y-12.580 Z10.849 A11.1716 
N2151 X-214.625 Y-12.660 Z10.833 A13.4309 
N2152 X-214.625 Y-12.734 Z10.814 A15.7643 
N2153 X-214.626 Y-12.803 Z10.794 A18.1594 
N2154 X-214.626 Y-12.866 Z10.772 A20.6023 
N2155 X-214.627 Y-12.926 Z10.748 A23.0806 
N2156 X-214.627 Y-12.981 Z10.723 A25.5835 
N2157 X-214.628 Y-13.033 Z10.697 A28.1016 
N2158 X-214.628 Y-13.081 Z10.670 A30.6298 
N2159 X-214.629 Y-13.127 Z10.641 A33.1647 
N2160 X-214.629 Y-13.170 Z10.612 A35.7052 
N2161 X-214.630 Y-13.211 Z10.581 A38.2516 
N2162 X-214.630 Y-13.250 Z10.549 A40.8062 
N2163 X-214.631 Y-13.287 Z10.516 A43.3715 
N2164 X-214.632 Y-13.323 Z10.481 A45.9501 
N2165 X-214.633 Y-13.357 Z10.444 A48.5442 
N2166 X-214.634 Y-13.389 Z10.406 A51.1545 
N2167 X-214.634 Y-13.420 Z10.365 A53.7806 
N2168 X-214.635 Y-13.451 Z10.322 A56.4187 
N2169 X-214.637 Y-13.480 Z10.276 A59.0628 
N2170 X-214.638 Y-13.507 Z10.227 A61.7038 
N2171 X-214.639 Y-13.534 Z10.175 A64.3288 
N2172 X-214.641 Y-13.559 Z10.118 A66.9226 
N2173 X-214.642 Y-13.583 Z10.057 A69.4680 
N2174 X-214.644 Y-13.605 Z9.991 A71.9465 
N2175 X-214.646 Y-13.626 Z9.920 A74.3410 
N2176 X-214.649 Y-13.645 Z9.842 A76.6361 
N2177 X-214.651 Y-13.662 Z9.758 A78.8201 
N2178 X-214.654 Y-13.677 Z9.667 A80.8884 
N2179 X-214.657 Y-13.690 Z9.568 A82.8423 
N2180 X-214.661 Y-13.700 Z9.461 A84.6873 
N2181 X-214.665 Y-13.707 Z9.344 A86.4312 
N2182 X-214.669 Y-13.712 Z9.218 A88.0827 
N2183 X-214.674 Y-13.713 Z9.083 A89.6483 
N2184 X-214.679 Y-13.710 Z8.937 A91.1325 
N2185 X-214.685 Y-13.704 Z8.780 A92.5392 
N2186 X-214.691 Y-13.693 Z8.614 A93.8733 
N2187 X-214.698 Y-13.677 Z8.436 A95.1424 
N2188 X-214.705 Y-13.657 Z8.248 A96.3571 
N2189 X-214.713 Y-13.632 Z8.049 A97.5281 
N2190 X-214.721 Y-13.601 Z7.840 A98.6642 
N2191 X-214.730 Y-13.565 Z7.622 A99.7693 
N2192 X-214.740 Y-13.523 Z7.395 A100.8442 
N2193 X-214.749 Y-13.474 Z7.159 A101.8887 
N2194 X-214.760 Y-13.419 Z6.914 A102.9035 
N2195 X-214.770 Y-13.359 Z6.663 A103.8906 
N2196 X-214.781 Y-13.291 Z6.405 A104.8522 
N2197 X-214.793 Y-13.218 Z6.140 A105.7902 
N2198 X-214.805 Y-13.139 Z5.871 A106.7063 
N2199 X-214.817 Y-13.053 Z5.597 A107.6020 
N2200 X-214.829 Y-12.962 Z5.320 A108.4791 
N2201 X-214.842 Y-12.865 Z5.039 A109.3402 
N2202 X-214.855 Y-12.763 Z4.756 A110.1885 
N2203 X-214.868 Y-12.656 Z4.471 A111.0277 
N2204 X-214.882 Y-12.543 Z4.185 A111.8619 
N2205 X-214.895 Y-12.426 Z3.898 A112.6951 
N2206 X-214.909 Y-12.304 Z3.612 A113.5305 
N2207 X-214.923 Y-12.177 Z3.326 A114.3709 
N2208 X-214.937 Y-12.046 Z3.041 A115.2178 
N2209 X-214.951 Y-11.911 Z2.759 A116.0723 
N2210 X-214.965 Y-11.771 Z2.478 A116.9348 
N2211 X-214.979 Y-11.628 Z2.200 A117.8054 
N2212 X-214.994 Y-11.480 Z1.925 A118.6842 
N2213 X-215.008 Y-11.329 Z1.653 A119.5716 
N2214 X-215.022 Y-11.175 Z1.385 A120.4681 
N2215 X-215.036 Y-11.017 Z1.121 A121.3748 
N2216 X-215.050 Y-10.857 Z0.861 A122.2929 
N2217 X-215.065 Y-10.693 Z0.606 A123.2237 
N2218 X-215.079 Y-10.526 Z0.355 A124.1683 
N2219 X-215.093 Y-10.357 Z0.109 A125.1278 
N2220 X-215.107 Y-10.185 Z-0.133 A126.1029 
N2221 X-215.120 Y-10.010 Z-0.369 A127.0943 
N2222 X-215.134 Y-9.833 Z-0.600 A128.1025 
N2223 X-215.148 Y-9.654 Z-0.825 A129.1276 
N2224 X-215.161 Y-9.472 Z-1.046 A130.1698 
N2225 X-215.175 Y-9.288 Z-1.260 A131.2291 
N2226 X-215.188 Y-9.103 Z-1.469 A132.3053 
N2227 X-215.202 Y-8.915 Z-1.673 A133.3982 
N2228 X-215.215 Y-8.725 Z-1.870 A134.5076 
N2229 X-215.228 Y-8.533 Z-2.062 A135.6333 
N2230 X-215.241 Y-8.340 Z-2.249 A136.7749 
N2231 X-215.254 Y-8.145 Z-2.429 A137.9319 
N2232 X-215.267 Y-7.948 Z-2.604 A139.1040 
N2233 X-215.279 Y-7.749 Z-2.773 A140.2907 
N2234 X-215.292 Y-7.549 Z-2.937 A141.4914 
N2235 X-215.304 Y-7.347 Z-3.095 A142.7054 
N2236 X-215.317 Y-7.143 Z-3.247 A143.9320 
N2237 X-215.329 Y-6.938 Z-3.393 A145.1705 
N2238 X-215.341 Y-6.731 Z-3.534 A146.4202 
N2239 X-215.353 Y-6.523 Z-3.670 A147.6800 
N2240 X-215.365 Y-6.313 Z-3.800 A148.9493 
N2241 X-215.377 Y-6.101 Z-3.925 A150.2271 
N2242 X-215.389 Y-5.887 Z-4.044 A151.5126 
N2243 X-215.401 Y-5.672 Z-4.158 A152.8048 
N2244 X-215.413 Y-5.456 Z-4.266 A154.1027 
N2245 X-215.424 Y-5.237 Z-4.369 A155.4054 
N2246 X-215.436 Y-5.017 Z-4.467 A156.7119 
N2247 X-215.447 Y-4.795 Z-4.560 A158.0211 
N2248 X-215.459 Y-4.571 Z-4.647 A159.3319 
N2249 X-215.470 Y-4.345 Z-4.730 A160.6433 
N2250 X-215.482 Y-4.117 Z-4.807 A161.9540 
N2251 X-215.493 Y-3.887 Z-4.878 A163.2631 
N2252 X-215.505 Y-3.656 Z-4.945 A164.5694 
N2253 X-215.516 Y-3.422 Z-5.007 A165.8719 
N2254 X-215.527 Y-3.185 Z-5.063 A167.1697 
N2255 X-215.539 Y-2.947 Z-5.114 A168.4617 
N2256 X-215.550 Y-2.706 Z-5.161 A169.7468 
N2257 X-215.562 Y-2.463 Z-5.201 A171.0241 
N2258 X-215.573 Y-2.218 Z-5.237 A172.2926 
N2259 X-215.584 Y-1.970 Z-5.267 A173.5511 
N2260 X-215.596 Y-1.720 Z-5.293 A174.7988 
N2261 X-215.607 Y-1.467 Z-5.312 A176.0347 
N2262 X-215.619 Y-1.212 Z-5.327 A177.2578 
N2263 X-215.630 Y-0.954 Z-5.336 A178.4673 
N2264 X-215.642 Y-0.693 Z-5.340 A179.6623 
N2265 X-215.653 Y-0.429 Z-5.338 A180.8420 
N2266 X-215.665 Y-0.163 Z-5.331 A182.0058 
N2267 X-215.677 Y0.106 Z-5.318 A183.1529 
N2268 X-215.688 Y0.378 Z-5.300 A184.2827 
N2269 X-215.700 Y0.652 Z-5.276 A185.3946 
N2270 X-215.712 Y0.930 Z-5.246 A186.4881 
N2271 X-215.724 Y1.210 Z-5.211 A187.5626 
N2272 X-215.736 Y1.493 Z-5.170 A188.6177 
N2273 X-215.748 Y1.779 Z-5.123 A189.6529 
N2274 X-215.760 Y2.068 Z-5.071 A190.6679 
N2275 X-215.772 Y2.359 Z-5.012 A191.6625 
N2276 X-215.784 Y2.653 Z-4.948 A192.6363 
N2277 X-215.797 Y2.950 Z-4.878 A193.5893 
N2278 X-215.809 Y3.250 Z-4.802 A194.5213 
N2279 X-215.821 Y3.552 Z-4.720 A195.4321 
N2280 X-215.834 Y3.857 Z-4.633 A196.3217 
N2281 X-215.846 Y4.164 Z-4.539 A197.1901 
N2282 X-215.859 Y4.474 Z-4.440 A198.0373 
N2283 X-215.871 Y4.787 Z-4.335 A198.8634 
N2284 X-215.884 Y5.101 Z-4.224 A199.6684 
N2285 X-215.897 Y5.418 Z-4.107 A200.4526 
N2286 X-215.909 Y5.737 Z-3.984 A201.2162 
N2287 X-215.922 Y6.059 Z-3.856 A201.9592 
N2288 X-215.935 Y6.382 Z-3.722 A202.6822 
N2289 X-215.948 Y6.708 Z-3.583 A203.3852 
N2290 X-215.961 Y7.035 Z-3.438 A204.0687 
N2291 X-215.974 Y7.364 Z-3.287 A204.7331 
N2292 X-215.987 Y7.696 Z-3.132 A205.3786 
N2293 X-216.000 Y8.028 Z-2.970 A206.0057 
N2294 X-216.014 Y8.363 Z-2.804 A206.6146 
N2295 X-216.027 Y8.699 Z-2.632 A207.2058 
N2296 X-216.040 Y9.037 Z-2.455 A207.7794 
N2297 X-216.054 Y9.376 Z-2.274 A208.3358 
N2298 X-216.067 Y9.717 Z-2.087 A208.8749 
N2299 X-216.080 Y10.059 Z-1.895 A209.3969 
N2300 X-216.094 Y10.403 Z-1.698 A209.9018 
N2301 X-216.107 Y10.748 Z-1.497 A210.3894 
N2302 X-216.121 Y11.094 Z-1.291 A210.8599 
N2303 X-216.134 Y11.441 Z-1.080 A211.3133 
N2304 X-216.148 Y11.790 Z-0.865 A211.7498 
N2305 X-216.162 Y12.140 Z-0.646 A212.1698 
N2306 X-216.175 Y12.490 Z-0.423 A212.5737 
N2307 X-216.189 Y12.842 Z-0.195 A212.9621 
N2308 X-216.203 Y13.196 Z0.037 A213.3357 
N2309 X-216.216 Y13.550 Z0.272 A213.6949 
N2310 X-216.230 Y13.905 Z0.511 A214.0402 
N2311 X-216.244 Y14.261 Z0.754 A214.3722 
N2312 X-216.258 Y14.618 Z1.001 A214.6913 
N2313 X-216.272 Y14.976 Z1.251 A214.9977 
N2314 X-216.286 Y15.335 Z1.505 A215.2918 
N2315 X-216.300 Y15.694 Z1.761 A215.5740 
N2316 X-216.314 Y16.055 Z2.021 A215.8444 
N2317 X-216.328 Y16.416 Z2.284 A216.1034 
N2318 X-216.342 Y16.778 Z2.551 A216.3511 
N2319 X-216.356 Y17.141 Z2.820 A216.5878 
N2320 X-216.370 Y17.504 Z3.091 A216.8135 
N2321 X-216.384 Y17.869 Z3.366 A217.0284 
N2322 X-216.398 Y18.234 Z3.643 A217.2327 
N2323 X-216.412 Y18.599 Z3.923 A217.4264 
N2324 X-216.427 Y18.965 Z4.205 A217.6096 
N2325 X-216.441 Y19.332 Z4.489 A217.7822 
N2326 X-216.455 Y19.698 Z4.775 A217.9444 
N2327 X-216.469 Y20.065 Z5.062 A218.0963 
N2328 X-216.483 Y20.432 Z5.351 A218.2380 
N2329 X-216.498 Y20.797 Z5.640 A218.3698 
N2330 X-216.512 Y21.161 Z5.930 A218.4920 
N2331 X-216.526 Y21.524 Z6.220 A218.6051 
N2332 X-216.540 Y21.883 Z6.508 A218.7094 
N2333 X-216.554 Y22.238 Z6.793 A218.8053 
N2334 X-216.567 Y22.588 Z7.076 A218.8931 
N2335 X-216.581 Y22.931 Z7.354 A218.9730 
N2336 X-216.594 Y23.266 Z7.625 A219.0454 
N2337 X-216.606 Y23.591 Z7.890 A219.1108 
N2338 X-216.618 Y23.904 Z8.145 A219.1695 
N2339 X-216.630 Y24.203 Z8.389 A219.2224 
N2340 X-216.641 Y24.487 Z8.621 A219.2702 
N2341 X-216.651 Y24.754 Z8.840 A219.3135 
N2342 X-216.661 Y25.002 Z9.044 A219.3532 
N2343 X-216.670 Y25.231 Z9.232 A219.3901 
N2344 X-216.678 Y25.440 Z9.403 A219.4250 
N2345 X-216.685 Y25.627 Z9.558 A219.4591 
N2346 X-216.692 Y25.795 Z9.696 A219.4939 
N2347 X-216.698 Y25.942 Z9.817 A219.5314 
N2348 X-216.703 Y26.070 Z9.923 A219.5744 
N2349 X-216.707 Y26.180 Z10.013 A219.6268 
N2350 X-216.711 Y26.273 Z10.090 A219.6927 
N2351 X-216.714 Y26.351 Z10.154 A219.7758 
N2352 X-216.716 Y26.415 Z10.208 A219.9261 
N2353 X-216.718 Y26.468 Z10.253 A220.3828 
N2354 X-216.720 Y26.513 Z10.291 A221.5188 
N2355 X-216.721 Y26.549 Z10.324 A223.6876 
N2356 X-216.722 Y26.582 Z10.357 A227.5152 
N2357 X-216.723 Y26.609 Z10.389 A232.5234 
N2358 X-216.723 Y26.630 Z10.419 A237.6760 
N2359 X-216.724 Y26.645 Z10.447 A242.7825 
N2360 X-216.724 Y26.657 Z10.473 A247.7336 
N2361 X-216.724 Y26.665 Z10.497 A252.4380 
N2362 X-216.724 Y26.671 Z10.518 A256.6372 
N2363 X-216.724 Y26.674 Z10.537 A260.3300 
N2364 X-216.724 Y26.676 Z10.555 A263.7711 
N2365 X-216.724 Y26.678 Z10.572 A266.9815 
N2366 X-216.724 Y26.678 Z10.588 A269.9907 
N2367 X-216.724 Y26.677 Z10.603 A272.8307 
N2368 X-216.724 Y26.676 Z10.617 A275.5347 
N2369 X-216.724 Y26.674 Z10.632 A278.1304 
N2370 X-216.724 Y26.672 Z10.646 A280.6413 
N2371 X-216.724 Y26.669 Z10.659 A283.0870 
N2372 X-216.724 Y26.666 Z10.673 A285.4831 
N2373 X-216.724 Y26.662 Z10.686 A287.8420 
N2374 X-216.724 Y26.657 Z10.699 A290.1737 
N2375 X-216.724 Y26.652 Z10.712 A292.4860 
N2376 X-216.724 Y26.646 Z10.724 A294.7851 
N2377 X-216.724 Y26.640 Z10.737 A297.0750 
N2378 X-216.724 Y26.634 Z10.749 A299.3594 
N2379 X-216.724 Y26.627 Z10.761 A301.6408 
N2380 X-216.724 Y26.619 Z10.773 A303.9216 
N2381 X-216.724 Y26.611 Z10.784 A306.2036 
N2382 X-216.724 Y26.603 Z10.795 A308.4884 
N2383 X-216.724 Y26.594 Z10.806 A310.7778 
N2384 X-216.724 Y26.585 Z10.816 A313.0740 
N2385 X-216.724 Y26.575 Z10.826 A315.3794 
N2386 X-216.724 Y26.565 Z10.836 A317.6974 
N2387 X-216.724 Y26.555 Z10.845 A320.0328 
N2388 X-216.724 Y26.544 Z10.854 A322.3918 
N2389 X-216.724 Y26.533 Z10.862 A324.7825 
N2390 X-216.724 Y26.521 Z10.870 A327.2152 
N2391 X-216.724 Y26.509 Z10.877 A329.7037 
N2392 X-216.724 Y26.497 Z10.884 A332.2655 
N2393 X-216.724 Y26.484 Z10.891 A334.9219 
N2394 X-216.723 Y26.470 Z10.897 A337.6994 
N2395 X-216.723 Y26.455 Z10.903 A340.6290 
N2396 X-216.723 Y26.440 Z10.908 A343.7441 
N2397 X-216.723 Y26.423 Z10.913 A347.0801 
