; PROGRAM NAME: B00000033
; ORDER       : B000000
; OPER. NAME  : Flank Milling Transition:145
; OPER. DESCR.: finish flank root/promienie przejsc wk
; OPER. TYPE  : preFinFlank
; GEO. OPTION : 2
; MACHINE     : HSTM_500_SIM840D_Py
;             : HSTM500 - HAMUEL: 5-axis milling machine - SIM840D Traori PP_Script
; CONTROL     : SINUMERIK 840D
; created:   2021-11-15 09:59:53.103276
;-------DODATKOWE DANE-------------------
; PROGRAMISTA : Mariusz Malec
; PARTID      : 139T001534P1001_-
;  dec_value  : 0.7
;  lean_angle : 24.0
;  tilt_angle : 0.0
;  airf_offset: 0.05
;  firstoffset: 1.5
;----------------------------------------
;RAPORT("TB000000","Flank Milling Transition:145")
N10 TRAFOOF
N11 D0
N12 G90 G94
N13 G0 G53 D0 Z550 B0
N14 STOPRE
M9 ; chlodziwo wyl
; --- Flank Milling Transition:145 - finish flank root/promienie przejsc wk ---
N16 ;ToolChange : concat=None ,current_tdmid=None, PP.tdmId=940783
N17 TRAFOOF
N18 G0 G53 D0 X-200 Y150 Z550 B0
N19 T="7740783"
;RAPORT("TB000000","ToolChangeStart 7740783")
N20 M6
;RAPORT("TB000000","ToolChangeEnd")
N21 STOPRE
N22 MSG(" TLID=940783 D=3.86 R=2.3 Ang=10.0 Len=175.0 ")
N23 ; (Preloading tool)
N24 T="7757163"
N25 S9978 M03
N26 STOPRE
N27 CYCLE832(0.01,1,1)
N28 G0 G53 A197.7586 B-10.8082
N29 TRAORI
N30 G54 D3
N31 D3 
N32 TRANS  X=R9 A=R25
STOPRE
E_ZDARZ=300017
;ACS_FINISH_UBG_PLATFORM_XLB_ROOT=7740783
STOPRE
N33 ; DELTA A > 40.1
N34 TRAFOOF
N35 D3
N36 STOPRE
N37 G00 G54 Z211.000
N38 G01 A197.7586 F10000
N39 TRAORI
N40 G54 D3
N41 STOPRE
N42 TRANS  X=R9 A=R25
N43 G00 X-213.427 Y56.388 Z-36.823 A197.7586 B-10.8082 
N44 M342 ; chlodziwo woda
N45 X-204.051 Y41.408 Z9.950 
N46 G01 X-204.084 Y38.994 Z11.940 F878 
N47 X-204.180 Y36.085 Z13.088 
N48 X-204.329 Y32.966 Z13.282 
N49 X-204.517 Y29.942 Z12.502 
N50 M342 ; chlodziwo woda
N51 X-204.725 Y27.309 Z10.825 
N52 X-204.735 Y27.241 Z10.733 A196.1998 B-10.8375 
N53 X-204.749 Y27.114 Z10.619 A195.8184 B-10.8391 
N54 X-204.763 Y26.961 Z10.491 A195.7504 B-10.8329 
N55 X-204.778 Y26.792 Z10.351 A195.7255 B-10.8250 
N56 X-204.794 Y26.607 Z10.198 A195.7033 B-10.8163 
N57 X-204.811 Y26.406 Z10.032 A195.6775 B-10.8068 
N58 X-204.827 Y26.189 Z9.853 A195.6480 B-10.7966 
N59 X-204.844 Y25.956 Z9.662 A195.6148 B-10.7857 
N60 X-204.860 Y25.708 Z9.457 A195.5784 B-10.7741 
N61 X-204.876 Y25.445 Z9.241 A195.5385 B-10.7618 
N62 X-204.891 Y25.169 Z9.014 A195.4947 B-10.7489 
N63 X-204.905 Y24.879 Z8.777 A195.4464 B-10.7354 
N64 X-204.917 Y24.578 Z8.530 A195.3927 B-10.7214 
N65 X-204.928 Y24.267 Z8.276 A195.3326 B-10.7070 
N66 X-204.938 Y23.947 Z8.014 A195.2654 B-10.6922 
N67 X-204.947 Y23.619 Z7.747 A195.1904 B-10.6768 
N68 X-204.957 Y23.285 Z7.475 A195.1077 B-10.6604 
N69 X-204.966 Y22.945 Z7.199 A195.0173 B-10.6438 
N70 X-204.976 Y22.601 Z6.920 A194.9194 B-10.6270 
N71 X-204.985 Y22.253 Z6.639 A194.8139 B-10.6100 
N72 X-204.994 Y21.902 Z6.357 A194.7004 B-10.5929 
N73 X-205.003 Y21.549 Z6.074 A194.5781 B-10.5757 
N74 X-205.012 Y21.195 Z5.791 A194.4462 B-10.5585 
N75 X-205.020 Y20.840 Z5.509 A194.3041 B-10.5412 
N76 X-205.028 Y20.485 Z5.227 A194.1517 B-10.5238 
N77 X-205.036 Y20.129 Z4.947 A193.9889 B-10.5065 
N78 X-205.044 Y19.774 Z4.669 A193.8160 B-10.4891 
N79 X-205.051 Y19.420 Z4.392 A193.6332 B-10.4717 
N80 X-205.058 Y19.066 Z4.117 A193.4406 B-10.4542 
N81 X-205.065 Y18.713 Z3.845 A193.2383 B-10.4367 
N82 X-205.072 Y18.360 Z3.575 A193.0263 B-10.4192 
N83 X-205.078 Y18.009 Z3.308 A192.8046 B-10.4016 
N84 X-205.084 Y17.659 Z3.043 A192.5731 B-10.3839 
N85 X-205.090 Y17.310 Z2.782 A192.3318 B-10.3661 
N86 X-205.095 Y16.962 Z2.523 A192.0805 B-10.3482 
N87 X-205.101 Y16.615 Z2.267 A191.8190 B-10.3303 
N88 X-205.106 Y16.270 Z2.015 A191.5473 B-10.3122 
N89 X-205.110 Y15.926 Z1.765 A191.2651 B-10.2940 
N90 X-205.115 Y15.583 Z1.519 A190.9723 B-10.2756 
N91 X-205.119 Y15.242 Z1.277 A190.6687 B-10.2571 
N92 X-205.123 Y14.902 Z1.037 A190.3540 B-10.2384 
N93 X-205.127 Y14.563 Z0.802 A190.0282 B-10.2196 
N94 X-205.131 Y14.226 Z0.570 A189.6910 B-10.2005 
N95 X-205.134 Y13.891 Z0.341 A189.3419 B-10.1813 
N96 X-205.138 Y13.557 Z0.116 A188.9804 B-10.1618 
N97 X-205.141 Y13.224 Z-0.104 A188.6060 B-10.1421 
N98 X-205.143 Y12.894 Z-0.321 A188.2179 B-10.1221 
N99 X-205.146 Y12.565 Z-0.534 A187.8154 B-10.1019 
N100 X-205.148 Y12.238 Z-0.743 A187.3982 B-10.0839 
N101 X-205.150 Y11.912 Z-0.948 A186.9658 B-10.0695 
N102 X-205.152 Y11.589 Z-1.148 A186.5185 B-10.0550 
N103 X-205.154 Y11.268 Z-1.344 A186.0564 B-10.0405 
N104 X-205.155 Y10.948 Z-1.536 A185.5799 B-10.0259 
N105 X-205.156 Y10.630 Z-1.724 A185.0896 B-10.0111 
N106 X-205.157 Y10.314 Z-1.907 A184.5857 B-9.9963 
N107 X-205.158 Y10.000 Z-2.085 A184.0684 B-9.9814 
N108 X-205.159 Y9.688 Z-2.259 A183.5377 B-9.9663 
N109 X-205.160 Y9.378 Z-2.429 A182.9936 B-9.9512 
N110 X-205.160 Y9.069 Z-2.594 A182.4359 B-9.9360 
N111 X-205.161 Y8.763 Z-2.755 A181.8641 B-9.9207 
N112 X-205.162 Y8.459 Z-2.911 A181.2781 B-9.9053 
N113 X-205.162 Y8.157 Z-3.062 A180.6775 B-9.8898 
N114 X-205.161 Y7.857 Z-3.209 A180.0621 B-9.8742 
N115 X-205.161 Y7.559 Z-3.351 A179.4317 B-9.8586 
N116 X-205.161 Y7.263 Z-3.488 A178.7860 B-9.8428 
N117 X-205.161 Y6.970 Z-3.621 A178.1249 B-9.8270 
N118 X-205.160 Y6.678 Z-3.749 A177.4482 B-9.8110 
N119 X-205.160 Y6.390 Z-3.872 A176.7558 B-9.7951 
N120 X-205.159 Y6.103 Z-3.991 A176.0477 B-9.7790 
N121 X-205.158 Y5.819 Z-4.105 A175.3238 B-9.7629 
N122 X-205.158 Y5.538 Z-4.214 A174.5842 B-9.7467 
N123 X-205.157 Y5.258 Z-4.319 A173.8289 B-9.7305 
N124 X-205.156 Y4.982 Z-4.419 A173.0579 B-9.7142 
N125 X-205.155 Y4.708 Z-4.514 A172.2714 B-9.6979 
N126 X-205.154 Y4.436 Z-4.605 A171.4694 B-9.6816 
N127 X-205.153 Y4.167 Z-4.691 A170.6521 B-9.6653 
N128 X-205.152 Y3.901 Z-4.772 A169.8198 B-9.6490 
N129 X-205.151 Y3.637 Z-4.849 A168.9727 B-9.6326 
N130 X-205.149 Y3.376 Z-4.921 A168.1109 B-9.6163 
N131 X-205.148 Y3.118 Z-4.989 A167.2348 B-9.5983 
N132 X-205.147 Y2.862 Z-5.052 A166.3444 B-9.5805 
N133 X-205.146 Y2.609 Z-5.111 A165.4402 B-9.5629 
N134 X-205.144 Y2.358 Z-5.166 A164.5223 B-9.5454 
N135 X-205.142 Y2.110 Z-5.216 A163.5911 B-9.5281 
N136 X-205.139 Y1.864 Z-5.262 A162.6469 B-9.5110 
N137 X-205.136 Y1.621 Z-5.303 A161.6902 B-9.4941 
N138 X-205.133 Y1.380 Z-5.341 A160.7213 B-9.4775 
N139 X-205.130 Y1.142 Z-5.374 A159.7408 B-9.4611 
N140 X-205.127 Y0.906 Z-5.403 A158.7489 B-9.4450 
N141 X-205.125 Y0.672 Z-5.429 A157.7462 B-9.4292 
N142 X-205.123 Y0.440 Z-5.450 A156.7331 B-9.4138 
N143 X-205.122 Y0.211 Z-5.467 A155.7098 B-9.3987 
N144 X-205.121 Y-0.016 Z-5.480 A154.6771 B-9.3840 
N145 X-205.121 Y-0.241 Z-5.490 A153.6351 B-9.3697 
N146 X-205.121 Y-0.464 Z-5.495 A152.5845 B-9.3558 
N147 X-205.121 Y-0.685 Z-5.497 A151.5257 B-9.3423 
N148 X-205.121 Y-0.905 Z-5.495 A150.4593 B-9.3292 
N149 X-205.122 Y-1.122 Z-5.489 A149.3859 B-9.3167 
N150 X-205.122 Y-1.338 Z-5.479 A148.3059 B-9.3046 
N151 X-205.122 Y-1.552 Z-5.466 A147.2200 B-9.2930 
N152 X-205.122 Y-1.764 Z-5.449 A146.1288 B-9.2820 
N153 X-205.121 Y-1.975 Z-5.428 A145.0327 B-9.2715 
N154 X-205.120 Y-2.184 Z-5.403 A143.9324 B-9.2615 
N155 X-205.118 Y-2.392 Z-5.374 A142.8284 B-9.2521 
N156 X-205.117 Y-2.598 Z-5.342 A141.7211 B-9.2416 
N157 X-205.116 Y-2.803 Z-5.306 A140.6110 B-9.2304 
N158 X-205.115 Y-3.007 Z-5.266 A139.4986 B-9.2194 
N159 X-205.115 Y-3.210 Z-5.223 A138.3843 B-9.2087 
N160 X-205.114 Y-3.411 Z-5.175 A137.2688 B-9.1984 
N161 X-205.113 Y-3.611 Z-5.124 A136.1524 B-9.1883 
N162 X-205.112 Y-3.811 Z-5.069 A135.0359 B-9.1784 
N163 X-205.111 Y-4.009 Z-5.010 A133.9201 B-9.1688 
N164 X-205.111 Y-4.206 Z-4.947 A132.8066 B-9.1594 
N165 X-205.110 Y-4.402 Z-4.879 A131.7000 B-9.1503 
N166 X-205.109 Y-4.598 Z-4.808 A130.6117 B-9.1413 
N167 X-205.109 Y-4.794 Z-4.730 A129.5675 B-9.1325 
N168 X-205.108 Y-4.991 Z-4.646 A128.6127 B-9.1236 
N169 X-205.108 Y-5.191 Z-4.554 A127.8099 B-9.1147 
N170 X-205.107 Y-5.395 Z-4.450 A127.2216 B-9.1053 
N171 X-205.107 Y-5.603 Z-4.333 A126.8840 B-9.0956 
N172 X-205.107 Y-5.816 Z-4.204 A126.7901 B-9.0856 
N173 X-205.107 Y-6.031 Z-4.065 A126.8930 B-9.0752 
N174 X-205.107 Y-6.249 Z-3.916 A127.1287 B-9.0648 
N175 X-205.107 Y-6.466 Z-3.760 A127.4404 B-9.0544 
N176 X-205.107 Y-6.683 Z-3.599 A127.7898 B-9.0441 
N177 X-205.107 Y-6.899 Z-3.432 A128.1550 B-9.0340 
N178 X-205.108 Y-7.113 Z-3.261 A128.5185 B-9.0241 
N179 X-205.108 Y-7.325 Z-3.086 A128.8481 B-9.0144 
N180 X-205.109 Y-7.532 Z-2.909 A129.0719 B-9.0048 
N181 X-205.109 Y-7.732 Z-2.735 A129.0545 B-8.9954 
N182 X-205.109 Y-7.919 Z-2.570 A128.5955 B-8.9860 
N183 X-205.110 Y-8.089 Z-2.421 A127.4747 B-8.9764 
N184 X-205.110 Y-8.238 Z-2.294 A125.5368 B-8.9667 
N185 X-205.110 Y-8.370 Z-2.191 A122.7657 B-8.9570 
N186 X-205.111 Y-8.490 Z-2.110 A119.2955 B-8.9469 
N187 X-205.111 Y-8.608 Z-2.046 A115.3499 B-8.9347 
N188 X-205.113 Y-8.730 Z-1.990 A111.1644 B-8.9164 
N189 X-205.115 Y-8.861 Z-1.935 A106.9473 B-8.8834 
N190 X-205.117 Y-9.003 Z-1.873 A102.8869 B-8.8628 
N191 X-205.112 Y-9.157 Z-1.796 A99.1692 B-8.9864 
N192 X-205.109 Y-9.321 Z-1.695 A95.9591 B-9.0845 
N193 X-205.107 Y-9.490 Z-1.566 A93.3571 B-9.1601 
N194 X-205.106 Y-9.662 Z-1.409 A91.3572 B-9.2173 
N195 X-205.105 Y-9.835 Z-1.229 A89.8526 B-9.2607 
N196 X-205.105 Y-10.006 Z-1.030 A88.6879 B-9.2951 
N197 X-205.105 Y-10.175 Z-0.819 A87.7206 B-9.3244 
N198 X-205.105 Y-10.342 Z-0.601 A86.8555 B-9.3509 
N199 X-205.105 Y-10.506 Z-0.376 A86.0467 B-9.3757 
N200 X-205.105 Y-10.669 Z-0.145 A85.2808 B-9.3991 
N201 X-205.106 Y-10.828 Z0.090 A84.5585 B-9.4213 
N202 X-205.106 Y-10.985 Z0.331 A83.8815 B-9.4421 
N203 X-205.107 Y-11.139 Z0.577 A83.2466 B-9.4619 
N204 X-205.107 Y-11.289 Z0.827 A82.6464 B-9.4806 
N205 X-205.108 Y-11.436 Z1.082 A82.0741 B-9.4986 
N206 X-205.109 Y-11.580 Z1.340 A81.5297 B-9.5158 
N207 X-205.110 Y-11.720 Z1.601 A81.0269 B-9.5321 
N208 X-205.111 Y-11.857 Z1.868 A80.5953 B-9.5470 
N209 X-205.112 Y-11.988 Z2.141 A80.2759 B-9.5599 
N210 X-205.113 Y-12.115 Z2.420 A80.1066 B-9.5704 
N211 X-205.115 Y-12.237 Z2.707 A80.1040 B-9.5784 
N212 X-205.116 Y-12.353 Z3.001 A80.2537 B-9.5843 
N213 X-205.118 Y-12.464 Z3.298 A80.5155 B-9.5888 
N214 X-205.119 Y-12.571 Z3.598 A80.8386 B-9.5927 
N215 X-205.121 Y-12.673 Z3.897 A81.1720 B-9.5968 
N216 X-205.122 Y-12.770 Z4.194 A81.4646 B-9.6016 
N217 X-205.124 Y-12.864 Z4.484 A81.6612 B-9.6078 
N218 X-205.125 Y-12.953 Z4.767 A81.7036 B-9.6161 
N219 X-205.126 Y-13.038 Z5.039 A81.5445 B-9.6268 
N220 X-205.127 Y-13.120 Z5.299 A81.1663 B-9.6400 
N221 X-205.129 Y-13.197 Z5.547 A80.5896 B-9.6550 
N222 X-205.129 Y-13.270 Z5.786 A79.8612 B-9.6713 
N223 X-205.130 Y-13.339 Z6.016 A79.0319 B-9.6881 
N224 X-205.131 Y-13.403 Z6.238 A78.1355 B-9.7050 
N225 X-205.132 Y-13.463 Z6.453 A77.1904 B-9.7217 
N226 X-205.133 Y-13.519 Z6.661 A76.2077 B-9.7381 
N227 X-205.134 Y-13.569 Z6.862 A75.2003 B-9.7541 
N228 X-205.134 Y-13.616 Z7.057 A74.1810 B-9.7695 
N229 X-205.135 Y-13.657 Z7.244 A73.1550 B-9.7843 
N230 X-205.136 Y-13.695 Z7.424 A72.1108 B-9.7987 
N231 X-205.137 Y-13.729 Z7.595 A71.0263 B-9.8128 
N232 X-205.137 Y-13.761 Z7.756 A69.8787 B-9.8268 
N233 X-205.138 Y-13.789 Z7.908 A68.6598 B-9.8408 
N234 X-205.138 Y-13.815 Z8.051 A67.3724 B-9.8547 
N235 X-205.139 Y-13.838 Z8.184 A66.0245 B-9.8685 
N236 X-205.139 Y-13.859 Z8.309 A64.6261 B-9.8821 
N237 X-205.140 Y-13.878 Z8.425 A63.1815 B-9.8954 
N238 X-205.140 Y-13.896 Z8.534 A61.6876 B-9.9085 
N239 X-205.141 Y-13.912 Z8.634 A60.1412 B-9.9215 
N240 X-205.141 Y-13.927 Z8.728 A58.5375 B-9.9343 
N241 X-205.141 Y-13.942 Z8.814 A56.8797 B-9.9469 
N242 X-205.142 Y-13.956 Z8.893 A55.1707 B-9.9594 
N243 X-205.142 Y-13.970 Z8.968 A53.4196 B-9.9716 
N244 X-205.142 Y-13.983 Z9.037 A51.6378 B-9.9835 
N245 X-205.142 Y-13.995 Z9.102 A49.8347 B-9.9950 
N246 X-205.143 Y-14.007 Z9.164 A48.0197 B-10.0061 
N247 X-205.143 Y-14.018 Z9.223 A46.2003 B-10.0168 
N248 X-205.143 Y-14.028 Z9.279 A44.3803 B-10.0269 
N249 X-205.143 Y-14.037 Z9.334 A42.5638 B-10.0365 
N250 X-205.143 Y-14.045 Z9.387 A40.7523 B-10.0456 
N251 X-205.142 Y-14.052 Z9.439 A38.9466 B-10.0541 
N252 X-205.141 Y-14.058 Z9.490 A37.1464 B-10.0621 
N253 X-205.140 Y-14.063 Z9.540 A35.3534 B-10.0696 
N254 X-205.139 Y-14.067 Z9.589 A33.5663 B-10.0766 
N255 X-205.139 Y-14.069 Z9.638 A31.7852 B-10.0830 
N256 X-205.138 Y-14.071 Z9.686 A30.0103 B-10.0889 
N257 X-205.138 Y-14.070 Z9.734 A28.2412 B-10.0942 
N258 X-205.138 Y-14.069 Z9.782 A26.4775 B-10.0991 
N259 X-205.138 Y-14.066 Z9.829 A24.7188 B-10.1034 
N260 X-205.139 Y-14.062 Z9.876 A22.9648 B-10.1072 
N261 X-205.139 Y-14.056 Z9.923 A21.2151 B-10.1106 
N262 X-205.140 Y-14.049 Z9.969 A19.4694 B-10.1134 
N263 X-205.141 Y-14.040 Z10.016 A17.7272 B-10.1158 
N264 X-205.143 Y-14.029 Z10.062 A15.9881 B-10.1177 
N265 X-205.144 Y-14.017 Z10.108 A14.2514 B-10.1191 
N266 X-205.145 Y-14.003 Z10.154 A12.5165 B-10.1201 
N267 X-205.146 Y-13.987 Z10.199 A10.7826 B-10.1206 
N268 X-205.147 Y-13.970 Z10.245 A9.0488 B-10.1207 
N269 X-205.147 Y-13.950 Z10.290 A7.3141 B-10.1204 
N270 X-205.146 Y-13.929 Z10.335 A5.5777 B-10.1196 
N271 X-205.143 Y-13.905 Z10.380 A3.8393 B-10.1185 
N272 X-205.140 Y-13.880 Z10.425 A2.0984 B-10.1169 
N273 X-205.135 Y-13.851 Z10.469 A0.3537 B-10.1150 
N274 X-205.130 Y-13.820 Z10.513 A358.6058 B-10.1127 
N275 X-205.124 Y-13.786 Z10.557 A356.8545 B-10.1101 
N276 X-205.118 Y-13.749 Z10.601 A355.1000 B-10.1070 
N277 X-205.112 Y-13.709 Z10.644 A353.3439 B-10.1036 
N278 X-205.106 Y-13.665 Z10.686 A351.5895 B-10.0999 
N279 X-205.100 Y-13.616 Z10.728 A349.8384 B-10.0957 
N280 X-205.095 Y-13.562 Z10.769 A348.0972 B-10.0913 
N281 X-205.089 Y-13.503 Z10.809 A346.3713 B-10.0865 
N282 X-205.085 Y-13.438 Z10.848 A344.6702 B-10.0814 
N283 X-205.081 Y-13.367 Z10.885 A343.0002 B-10.0759 
N284 X-205.077 Y-13.288 Z10.920 A341.3687 B-10.0701 
N285 X-205.075 Y-13.201 Z10.952 A339.7785 B-10.0641 
N286 X-205.073 Y-13.106 Z10.982 A338.2296 B-10.0577 
N287 X-205.073 Y-13.003 Z11.009 A336.7223 B-10.0511 
N288 X-205.073 Y-12.891 Z11.033 A335.2525 B-10.0442 
N289 X-205.075 Y-12.771 Z11.052 A333.8187 B-10.0371 
N290 X-205.078 Y-12.641 Z11.068 A332.4241 B-10.0298 
N291 X-205.082 Y-12.502 Z11.080 A331.0782 B-10.0223 
N292 X-205.087 Y-12.352 Z11.086 A329.7940 B-10.0146 
N293 X-205.093 Y-12.191 Z11.086 A328.5786 B-10.0067 
N294 X-205.101 Y-12.019 Z11.080 A327.4321 B-9.9987 
N295 X-205.109 Y-11.836 Z11.069 A326.3397 B-9.9906 
N296 X-205.117 Y-11.643 Z11.051 A325.2817 B-9.9823 
N297 X-205.126 Y-11.440 Z11.028 A324.2462 B-9.9739 
N298 X-205.135 Y-11.226 Z10.998 A323.2361 B-9.9654 
N299 X-205.143 Y-11.002 Z10.961 A322.2671 B-9.9568 
N300 X-205.150 Y-10.766 Z10.917 A321.3527 B-9.9482 
N301 X-205.156 Y-10.519 Z10.864 A320.4979 B-9.9394 
N302 X-205.160 Y-10.260 Z10.804 A319.6977 B-9.9307 
N303 X-205.161 Y-9.990 Z10.735 A318.9466 B-9.9218 
N304 X-205.161 Y-9.709 Z10.659 A318.2439 B-9.9126 
N305 X-205.161 Y-9.417 Z10.574 A317.5919 B-9.8988 
N306 X-205.162 Y-9.114 Z10.482 A316.9939 B-9.8845 
N307 X-205.162 Y-8.800 Z10.381 A316.4543 B-9.8698 
N308 X-205.163 Y-8.476 Z10.273 A315.9768 B-9.8546 
N309 X-205.162 Y-8.142 Z10.156 A315.5613 B-9.8391 
N310 X-205.163 Y-7.799 Z10.033 A315.2044 B-9.8231 
N311 X-205.164 Y-7.447 Z9.903 A314.9015 B-9.8069 
N312 X-205.164 Y-7.087 Z9.768 A314.6478 B-9.7903 
N313 X-205.164 Y-6.720 Z9.627 A314.4386 B-9.7735 
N314 X-205.164 Y-6.348 Z9.482 A314.2710 B-9.7564 
N315 X-205.164 Y-5.971 Z9.333 A314.1486 B-9.7392 
N316 X-205.164 Y-5.589 Z9.180 A314.0885 B-9.7220 
N317 X-205.165 Y-5.202 Z9.023 A314.1335 B-9.7047 
N318 X-205.165 Y-4.809 Z8.860 A314.3644 B-9.6876 
N319 X-205.165 Y-4.408 Z8.689 A314.8992 B-9.6710 
N320 X-205.166 Y-3.995 Z8.506 A315.8619 B-9.6552 
N321 X-205.165 Y-3.569 Z8.312 A317.3233 B-9.6405 
N322 X-205.165 Y-3.130 Z8.110 A319.2431 B-9.6273 
N323 X-205.165 Y-2.684 Z7.905 A321.4549 B-9.6153 
N324 X-205.165 Y-2.237 Z7.704 A323.7150 B-9.6044 
N325 X-205.165 Y-1.798 Z7.514 A325.7923 B-9.5940 
N326 X-205.164 Y-1.371 Z7.338 A327.5509 B-9.5836 
N327 X-205.164 Y-0.959 Z7.174 A328.9784 B-9.5729 
N328 X-205.164 Y-0.559 Z7.022 A330.1529 B-9.5621 
N329 X-205.163 Y-0.168 Z6.878 A331.1817 B-9.5512 
N330 X-205.163 Y0.218 Z6.741 A332.1522 B-9.5405 
N331 X-205.162 Y0.599 Z6.611 A333.1160 B-9.5302 
N332 X-205.162 Y0.977 Z6.485 A334.0953 B-9.5204 
N333 X-205.161 Y1.353 Z6.366 A335.0968 B-9.5111 
N334 X-205.161 Y1.726 Z6.251 A336.1210 B-9.5023 
N335 X-205.160 Y2.097 Z6.143 A337.1669 B-9.4941 
N336 X-205.159 Y2.466 Z6.040 A338.2333 B-9.4863 
N337 X-205.158 Y2.833 Z5.943 A339.3183 B-9.4791 
N338 X-205.158 Y3.197 Z5.852 A340.4179 B-9.4723 
N339 X-205.157 Y3.560 Z5.766 A341.5233 B-9.4660 
N340 X-205.156 Y3.920 Z5.687 A342.6184 B-9.4601 
N341 X-205.155 Y4.277 Z5.614 A343.6788 B-9.4544 
N342 X-205.154 Y4.629 Z5.547 A344.6767 B-9.4486 
N343 X-205.153 Y4.977 Z5.486 A345.5906 B-9.4426 
N344 X-205.151 Y5.320 Z5.432 A346.4146 B-9.4363 
N345 X-205.150 Y5.659 Z5.384 A347.1611 B-9.4297 
N346 X-205.149 Y5.994 Z5.342 A347.8536 B-9.4229 
N347 X-205.148 Y6.328 Z5.305 A348.5161 B-9.4160 
N348 X-205.146 Y6.660 Z5.273 A349.1662 B-9.4093 
N349 X-205.145 Y6.992 Z5.246 A349.8128 B-9.4026 
N350 X-205.143 Y7.323 Z5.225 A350.4594 B-9.3961 
N351 X-205.142 Y7.654 Z5.208 A351.1061 B-9.3898 
N352 X-205.140 Y7.985 Z5.196 A351.7523 B-9.3836 
N353 X-205.138 Y8.316 Z5.190 A352.3968 B-9.3775 
N354 X-205.136 Y8.648 Z5.188 A353.0386 B-9.3715 
N355 X-205.134 Y8.980 Z5.191 A353.6764 B-9.3656 
N356 X-205.132 Y9.312 Z5.200 A354.3092 B-9.3598 
N357 X-205.130 Y9.644 Z5.213 A354.9358 B-9.3540 
N358 X-205.128 Y9.978 Z5.231 A355.5548 B-9.3483 
N359 X-205.125 Y10.312 Z5.254 A356.1633 B-9.3426 
N360 X-205.123 Y10.646 Z5.282 A356.7543 B-9.3368 
N361 X-205.120 Y10.980 Z5.315 A357.3110 B-9.3308 
N362 X-205.117 Y11.313 Z5.354 A357.8002 B-9.3241 
N363 X-205.115 Y11.642 Z5.397 A358.1697 B-9.3160 
N364 X-205.112 Y11.966 Z5.445 A358.3575 B-9.3059 
N365 X-205.109 Y12.282 Z5.498 A358.3135 B-9.2930 
N366 X-205.106 Y12.590 Z5.556 A358.0229 B-9.2771 
N367 X-205.103 Y12.891 Z5.620 A357.5145 B-9.2583 
N368 X-205.100 Y13.187 Z5.688 A356.8479 B-9.2374 
N369 X-205.097 Y13.482 Z5.762 A356.0919 B-9.2152 
N370 X-205.094 Y13.777 Z5.841 A355.3133 B-9.1924 
N371 X-205.090 Y14.076 Z5.925 A354.5799 B-9.1699 
N372 X-205.087 Y14.382 Z6.014 A353.9659 B-9.1485 
N373 X-205.083 Y14.697 Z6.106 A353.5463 B-9.1292 
N374 X-205.079 Y15.023 Z6.203 A353.3740 B-9.1126 
N375 X-205.074 Y15.362 Z6.303 A353.4579 B-9.0989 
N376 X-205.070 Y15.710 Z6.406 A353.7584 B-9.0878 
N377 X-205.065 Y16.066 Z6.514 A354.2079 B-9.0785 
N378 X-205.059 Y16.427 Z6.626 A354.7383 B-9.0702 
N379 X-205.054 Y16.791 Z6.742 A355.3004 B-9.0625 
N380 X-205.048 Y17.157 Z6.864 A355.8668 B-9.0550 
N381 X-205.042 Y17.524 Z6.990 A356.4255 B-9.0474 
N382 X-205.036 Y17.892 Z7.120 A356.9724 B-9.0398 
N383 X-205.030 Y18.260 Z7.255 A357.5066 B-9.0322 
N384 X-205.023 Y18.629 Z7.394 A358.0283 B-9.0245 
N385 X-205.017 Y18.999 Z7.538 A358.5376 B-9.0168 
N386 X-205.010 Y19.368 Z7.685 A359.0350 B-9.0091 
N387 X-205.003 Y19.736 Z7.837 A359.5203 B-9.0013 
N388 X-204.995 Y20.103 Z7.991 A359.9913 B-8.9936 
N389 X-204.988 Y20.468 Z8.148 A0.4446 B-8.9858 
N390 X-204.980 Y20.830 Z8.308 A0.8765 B-8.9779 
N391 X-204.972 Y21.187 Z8.469 A1.2831 B-8.9699 
N392 X-204.965 Y21.539 Z8.631 A1.6619 B-8.9617 
N393 X-204.957 Y21.884 Z8.793 A2.0119 B-8.9534 
N394 X-204.949 Y22.220 Z8.954 A2.3353 B-8.9451 
N395 X-204.941 Y22.547 Z9.113 A2.6354 B-8.9368 
N396 X-204.933 Y22.863 Z9.268 A2.9163 B-8.9288 
N397 X-204.926 Y23.166 Z9.420 A3.1812 B-8.9210 
N398 X-204.918 Y23.456 Z9.566 A3.4319 B-8.9136 
N399 X-204.911 Y23.732 Z9.707 A3.6684 B-8.9066 
N400 X-204.904 Y23.991 Z9.840 A3.8886 B-8.9000 
N401 X-204.898 Y24.234 Z9.967 A4.0893 B-8.8938 
N402 X-204.892 Y24.460 Z10.086 A4.2699 B-8.8879 
N403 X-204.886 Y24.669 Z10.196 A4.4398 B-8.8807 
N404 X-204.880 Y24.863 Z10.299 A4.6162 B-8.8745 
N405 X-204.873 Y25.040 Z10.394 A4.7860 B-8.8690 
N406 X-204.862 Y25.190 Z10.480 A4.6030 B-8.8570 
N407 X-204.851 Y25.276 Z10.552 A3.1125 B-8.8191 
N408 X-204.840 Y25.313 Z10.613 A0.6360 B-8.7631 
N409 X-204.830 Y25.333 Z10.667 A357.9377 B-8.7055 
N410 X-204.821 Y25.347 Z10.716 A355.2927 B-8.6519 
N411 X-204.813 Y25.359 Z10.761 A352.7641 B-8.6033 
N412 X-204.806 Y25.370 Z10.803 A350.3696 B-8.5597 
N413 X-204.800 Y25.380 Z10.842 A348.0984 B-8.5207 
N414 X-204.795 Y25.391 Z10.878 A345.9336 B-8.4856 
N415 X-204.790 Y25.401 Z10.912 A343.8624 B-8.4541 
N416 X-204.787 Y25.413 Z10.945 A341.8625 B-8.4256 
N417 X-204.784 Y25.424 Z10.976 A339.9222 B-8.3999 
N418 X-204.782 Y25.436 Z11.006 A338.0252 B-8.3765 
N419 X-204.780 Y25.449 Z11.036 A336.1635 B-8.3554 
N420 X-204.780 Y25.462 Z11.064 A334.3262 B-8.3364 
N421 X-204.780 Y25.476 Z11.092 A332.5071 B-8.3193 
N422 X-204.780 Y25.491 Z11.119 A330.7011 B-8.3041 
N423 X-204.782 Y25.506 Z11.146 A328.9040 B-8.2908 
N424 X-204.784 Y25.523 Z11.172 A327.1131 B-8.2793 
N425 X-204.786 Y25.540 Z11.198 A325.3261 B-8.2696 
N426 X-204.789 Y25.557 Z11.223 A323.5416 B-8.2618 
N427 X-204.793 Y25.576 Z11.248 A321.7585 B-8.2558 
N428 X-204.797 Y25.595 Z11.271 A319.9763 B-8.2516 
N429 X-204.801 Y25.615 Z11.295 A318.1944 B-8.2493 
N430 X-204.805 Y25.636 Z11.318 A316.4128 B-8.2489 
N431 X-204.809 Y25.658 Z11.340 A314.6313 B-8.2503 
N432 X-204.813 Y25.680 Z11.361 A312.8500 B-8.2535 
N433 X-204.818 Y25.703 Z11.382 A311.0690 B-8.2587 
N434 X-204.822 Y25.727 Z11.402 A309.2882 B-8.2657 
N435 X-204.826 Y25.751 Z11.421 A307.5074 B-8.2746 
N436 X-204.829 Y25.777 Z11.440 A305.7266 B-8.2853 
N437 X-204.833 Y25.802 Z11.457 A303.9456 B-8.2978 
N438 X-204.835 Y25.829 Z11.474 A302.1641 B-8.3122 
N439 X-204.837 Y25.856 Z11.490 A300.3821 B-8.3285 
N440 X-204.838 Y25.883 Z11.505 A298.5995 B-8.3465 
N441 X-204.838 Y25.912 Z11.520 A296.8163 B-8.3664 
N442 X-204.838 Y25.940 Z11.533 A295.0324 B-8.3880 
N443 X-204.837 Y25.969 Z11.546 A293.2476 B-8.4113 
N444 X-204.836 Y25.999 Z11.557 A291.4619 B-8.4332 
N445 X-204.835 Y26.029 Z11.568 A289.6750 B-8.4548 
N446 X-204.834 Y26.059 Z11.578 A287.8870 B-8.4773 
N447 X-204.834 Y26.090 Z11.587 A286.0979 B-8.5005 
N448 X-204.833 Y26.121 Z11.595 A284.3075 B-8.5238 
N449 X-204.833 Y26.153 Z11.602 A282.5161 B-8.5469 
N450 X-204.832 Y26.184 Z11.608 A280.7239 B-8.5863 
N451 X-204.831 Y26.216 Z11.612 A278.9310 B-8.6281 
N452 X-204.830 Y26.248 Z11.616 A277.1373 B-8.6705 
N453 X-204.829 Y26.281 Z11.619 A275.3430 B-8.7136 
N454 X-204.828 Y26.313 Z11.621 A273.5483 B-8.7575 
N455 X-204.827 Y26.346 Z11.622 A271.7535 B-8.8021 
N456 X-204.826 Y26.378 Z11.622 A269.9587 B-8.8474 
N457 X-204.826 Y26.411 Z11.621 A268.1642 B-8.8934 
N458 X-204.825 Y26.443 Z11.619 A266.3701 B-8.9401 
N459 X-204.824 Y26.476 Z11.616 A264.5768 B-8.9874 
N460 X-204.823 Y26.508 Z11.612 A262.7844 B-9.0354 
N461 X-204.823 Y26.540 Z11.607 A260.9931 B-9.0839 
N462 X-204.822 Y26.572 Z11.601 A259.2030 B-9.1329 
N463 X-204.822 Y26.604 Z11.594 A257.4141 B-9.1825 
N464 X-204.821 Y26.636 Z11.586 A255.6265 B-9.2325 
N465 X-204.821 Y26.667 Z11.578 A253.8400 B-9.2825 
N466 X-204.820 Y26.698 Z11.568 A252.0545 B-9.3330 
N467 X-204.819 Y26.729 Z11.558 A250.2698 B-9.3840 
N468 X-204.818 Y26.759 Z11.546 A248.4856 B-9.4353 
N469 X-204.816 Y26.790 Z11.534 A246.7015 B-9.4870 
N470 X-204.814 Y26.819 Z11.521 A244.9172 B-9.5389 
N471 X-204.811 Y26.849 Z11.507 A243.1324 B-9.5910 
N472 X-204.807 Y26.877 Z11.492 A241.3468 B-9.6434 
N473 X-204.802 Y26.906 Z11.476 A239.5602 B-9.6958 
N474 X-204.796 Y26.934 Z11.459 A237.7718 B-9.7483 
N475 X-204.790 Y26.961 Z11.442 A235.9808 B-9.8009 
N476 X-204.783 Y26.988 Z11.423 A234.1861 B-9.8534 
N477 X-204.776 Y27.015 Z11.404 A232.3861 B-9.9060 
N478 X-204.769 Y27.041 Z11.383 A230.5786 B-9.9585 
N479 X-204.763 Y27.066 Z11.362 A228.7611 B-10.0111 
N480 X-204.756 Y27.091 Z11.340 A226.9299 B-10.0637 
N481 X-204.750 Y27.116 Z11.316 A225.0802 B-10.1164 
N482 X-204.743 Y27.140 Z11.291 A223.2060 B-10.1693 
N483 X-204.737 Y27.163 Z11.265 A221.2983 B-10.2226 
N484 X-204.732 Y27.186 Z11.238 A219.3452 B-10.2766 
N485 X-204.727 Y27.208 Z11.208 A217.3337 B-10.3313 
N486 X-204.722 Y27.230 Z11.176 A215.2484 B-10.3872 
N487 X-204.718 Y27.252 Z11.141 A213.0691 B-10.4445 
N488 X-204.714 Y27.272 Z11.103 A210.7756 B-10.5036 
N489 X-204.712 Y27.292 Z11.061 A208.3532 B-10.5645 
N490 X-204.712 Y27.309 Z11.014 A205.7802 B-10.6273 
N491 X-204.713 Y27.321 Z10.960 A203.0794 B-10.6910 
N492 X-204.717 Y27.326 Z10.898 A200.3080 B-10.7537 
N493 X-204.725 Y27.309 Z10.825 A197.7586 B-10.8082 
N494 X-206.600 Y30.305 Z1.471 
N495 G00 X-211.288 Y37.795 Z-21.916 
N496 X-212.727 Y56.374 Z-36.836 
N497 X-203.351 Y41.394 Z9.937 
N498 G01 X-203.384 Y38.980 Z11.927 F878 
N499 X-203.480 Y36.071 Z13.076 
N500 X-203.629 Y32.952 Z13.269 
N501 X-203.817 Y29.928 Z12.490 
N502 M342 ; chlodziwo woda
N503 X-204.025 Y27.295 Z10.813 
N504 X-204.036 Y27.227 Z10.721 A196.1998 B-10.8375 
N505 X-204.049 Y27.100 Z10.607 A195.8184 B-10.8391 
N506 X-204.063 Y26.947 Z10.480 A195.7504 B-10.8329 
N507 X-204.078 Y26.778 Z10.340 A195.7255 B-10.8250 
N508 X-204.094 Y26.593 Z10.187 A195.7033 B-10.8163 
N509 X-204.111 Y26.392 Z10.021 A195.6775 B-10.8068 
N510 X-204.127 Y26.175 Z9.842 A195.6480 B-10.7966 
N511 X-204.144 Y25.943 Z9.651 A195.6148 B-10.7857 
N512 X-204.161 Y25.695 Z9.447 A195.5784 B-10.7741 
N513 X-204.177 Y25.432 Z9.231 A195.5385 B-10.7618 
N514 X-204.192 Y25.156 Z9.004 A195.4947 B-10.7489 
N515 X-204.205 Y24.867 Z8.766 A195.4464 B-10.7354 
N516 X-204.218 Y24.566 Z8.520 A195.3927 B-10.7214 
N517 X-204.228 Y24.255 Z8.266 A195.3326 B-10.7070 
N518 X-204.238 Y23.936 Z8.005 A195.2654 B-10.6922 
N519 X-204.247 Y23.608 Z7.737 A195.1904 B-10.6768 
N520 X-204.257 Y23.274 Z7.466 A195.1077 B-10.6604 
N521 X-204.266 Y22.934 Z7.190 A195.0173 B-10.6438 
N522 X-204.276 Y22.590 Z6.911 A194.9194 B-10.6270 
N523 X-204.285 Y22.242 Z6.631 A194.8139 B-10.6100 
N524 X-204.294 Y21.892 Z6.349 A194.7004 B-10.5929 
N525 X-204.303 Y21.539 Z6.066 A194.5781 B-10.5757 
N526 X-204.312 Y21.186 Z5.784 A194.4462 B-10.5585 
N527 X-204.320 Y20.831 Z5.502 A194.3041 B-10.5412 
N528 X-204.328 Y20.476 Z5.220 A194.1517 B-10.5238 
N529 X-204.336 Y20.121 Z4.940 A193.9889 B-10.5065 
N530 X-204.344 Y19.766 Z4.662 A193.8160 B-10.4891 
N531 X-204.351 Y19.412 Z4.386 A193.6332 B-10.4717 
N532 X-204.358 Y19.058 Z4.111 A193.4406 B-10.4542 
N533 X-204.365 Y18.705 Z3.839 A193.2383 B-10.4367 
N534 X-204.372 Y18.353 Z3.570 A193.0263 B-10.4192 
N535 X-204.378 Y18.002 Z3.303 A192.8046 B-10.4016 
N536 X-204.384 Y17.652 Z3.039 A192.5731 B-10.3839 
N537 X-204.390 Y17.304 Z2.777 A192.3318 B-10.3661 
N538 X-204.395 Y16.956 Z2.519 A192.0805 B-10.3482 
N539 X-204.401 Y16.610 Z2.263 A191.8190 B-10.3303 
N540 X-204.406 Y16.264 Z2.011 A191.5473 B-10.3122 
N541 X-204.411 Y15.921 Z1.762 A191.2651 B-10.2940 
N542 X-204.415 Y15.578 Z1.516 A190.9723 B-10.2756 
N543 X-204.419 Y15.237 Z1.273 A190.6687 B-10.2571 
N544 X-204.423 Y14.897 Z1.034 A190.3540 B-10.2384 
N545 X-204.427 Y14.559 Z0.799 A190.0282 B-10.2196 
N546 X-204.431 Y14.222 Z0.567 A189.6910 B-10.2005 
N547 X-204.434 Y13.887 Z0.339 A189.3419 B-10.1813 
N548 X-204.438 Y13.553 Z0.114 A188.9804 B-10.1618 
N549 X-204.441 Y13.221 Z-0.106 A188.6060 B-10.1421 
N550 X-204.443 Y12.891 Z-0.323 A188.2179 B-10.1221 
N551 X-204.446 Y12.562 Z-0.536 A187.8154 B-10.1019 
N552 X-204.448 Y12.235 Z-0.744 A187.3982 B-10.0839 
N553 X-204.450 Y11.910 Z-0.949 A186.9658 B-10.0695 
N554 X-204.452 Y11.587 Z-1.149 A186.5185 B-10.0550 
N555 X-204.454 Y11.266 Z-1.345 A186.0564 B-10.0405 
N556 X-204.455 Y10.947 Z-1.537 A185.5799 B-10.0259 
N557 X-204.456 Y10.629 Z-1.724 A185.0896 B-10.0111 
N558 X-204.457 Y10.313 Z-1.907 A184.5857 B-9.9963 
N559 X-204.458 Y10.000 Z-2.085 A184.0684 B-9.9814 
N560 X-204.459 Y9.688 Z-2.259 A183.5377 B-9.9663 
N561 X-204.460 Y9.378 Z-2.429 A182.9936 B-9.9512 
N562 X-204.460 Y9.070 Z-2.594 A182.4359 B-9.9360 
N563 X-204.461 Y8.764 Z-2.754 A181.8641 B-9.9207 
N564 X-204.462 Y8.460 Z-2.910 A181.2781 B-9.9053 
N565 X-204.462 Y8.158 Z-3.061 A180.6775 B-9.8898 
N566 X-204.461 Y7.858 Z-3.208 A180.0621 B-9.8742 
N567 X-204.461 Y7.560 Z-3.350 A179.4317 B-9.8586 
N568 X-204.461 Y7.265 Z-3.488 A178.7860 B-9.8428 
N569 X-204.461 Y6.972 Z-3.620 A178.1249 B-9.8270 
N570 X-204.460 Y6.681 Z-3.748 A177.4482 B-9.8110 
N571 X-204.460 Y6.392 Z-3.872 A176.7558 B-9.7951 
N572 X-204.459 Y6.106 Z-3.990 A176.0477 B-9.7790 
N573 X-204.458 Y5.822 Z-4.104 A175.3238 B-9.7629 
N574 X-204.458 Y5.540 Z-4.213 A174.5842 B-9.7467 
N575 X-204.457 Y5.261 Z-4.318 A173.8289 B-9.7305 
N576 X-204.456 Y4.985 Z-4.418 A173.0579 B-9.7142 
N577 X-204.455 Y4.711 Z-4.513 A172.2714 B-9.6979 
N578 X-204.454 Y4.440 Z-4.604 A171.4694 B-9.6816 
N579 X-204.453 Y4.171 Z-4.690 A170.6521 B-9.6653 
N580 X-204.452 Y3.905 Z-4.771 A169.8198 B-9.6490 
N581 X-204.451 Y3.641 Z-4.848 A168.9727 B-9.6326 
N582 X-204.450 Y3.381 Z-4.920 A168.1109 B-9.6163 
N583 X-204.448 Y3.122 Z-4.988 A167.2348 B-9.5983 
N584 X-204.447 Y2.866 Z-5.051 A166.3444 B-9.5805 
N585 X-204.446 Y2.613 Z-5.110 A165.4402 B-9.5629 
N586 X-204.444 Y2.363 Z-5.165 A164.5223 B-9.5454 
N587 X-204.442 Y2.114 Z-5.215 A163.5911 B-9.5281 
N588 X-204.439 Y1.869 Z-5.261 A162.6469 B-9.5110 
N589 X-204.436 Y1.626 Z-5.303 A161.6902 B-9.4941 
N590 X-204.433 Y1.385 Z-5.340 A160.7213 B-9.4775 
N591 X-204.430 Y1.147 Z-5.374 A159.7408 B-9.4611 
N592 X-204.427 Y0.911 Z-5.403 A158.7489 B-9.4450 
N593 X-204.425 Y0.677 Z-5.429 A157.7462 B-9.4292 
N594 X-204.423 Y0.445 Z-5.450 A156.7331 B-9.4138 
N595 X-204.422 Y0.216 Z-5.467 A155.7098 B-9.3987 
N596 X-204.421 Y-0.011 Z-5.481 A154.6771 B-9.3840 
N597 X-204.421 Y-0.236 Z-5.490 A153.6351 B-9.3697 
N598 X-204.421 Y-0.459 Z-5.496 A152.5845 B-9.3558 
N599 X-204.421 Y-0.681 Z-5.497 A151.5257 B-9.3423 
N600 X-204.421 Y-0.900 Z-5.495 A150.4593 B-9.3292 
N601 X-204.422 Y-1.117 Z-5.489 A149.3859 B-9.3167 
N602 X-204.422 Y-1.333 Z-5.480 A148.3059 B-9.3046 
N603 X-204.422 Y-1.547 Z-5.466 A147.2200 B-9.2930 
N604 X-204.422 Y-1.759 Z-5.449 A146.1288 B-9.2820 
N605 X-204.421 Y-1.970 Z-5.428 A145.0327 B-9.2715 
N606 X-204.420 Y-2.180 Z-5.404 A143.9324 B-9.2615 
N607 X-204.418 Y-2.388 Z-5.375 A142.8284 B-9.2521 
N608 X-204.417 Y-2.594 Z-5.343 A141.7211 B-9.2416 
N609 X-204.416 Y-2.799 Z-5.307 A140.6110 B-9.2304 
N610 X-204.415 Y-3.003 Z-5.267 A139.4986 B-9.2194 
N611 X-204.415 Y-3.206 Z-5.224 A138.3843 B-9.2087 
N612 X-204.414 Y-3.408 Z-5.176 A137.2688 B-9.1984 
N613 X-204.413 Y-3.608 Z-5.125 A136.1524 B-9.1883 
N614 X-204.412 Y-3.807 Z-5.070 A135.0359 B-9.1784 
N615 X-204.411 Y-4.006 Z-5.011 A133.9201 B-9.1688 
N616 X-204.410 Y-4.203 Z-4.948 A132.8066 B-9.1594 
N617 X-204.410 Y-4.400 Z-4.880 A131.7000 B-9.1503 
N618 X-204.409 Y-4.596 Z-4.809 A130.6117 B-9.1413 
N619 X-204.409 Y-4.792 Z-4.732 A129.5675 B-9.1325 
N620 X-204.408 Y-4.989 Z-4.648 A128.6127 B-9.1236 
N621 X-204.408 Y-5.189 Z-4.555 A127.8099 B-9.1147 
N622 X-204.407 Y-5.393 Z-4.450 A127.2216 B-9.1053 
N623 X-204.407 Y-5.602 Z-4.334 A126.8840 B-9.0956 
N624 X-204.407 Y-5.814 Z-4.205 A126.7901 B-9.0856 
N625 X-204.407 Y-6.030 Z-4.065 A126.8930 B-9.0752 
N626 X-204.407 Y-6.248 Z-3.917 A127.1287 B-9.0648 
N627 X-204.407 Y-6.465 Z-3.761 A127.4404 B-9.0544 
N628 X-204.407 Y-6.682 Z-3.599 A127.7898 B-9.0441 
N629 X-204.407 Y-6.898 Z-3.432 A128.1550 B-9.0340 
N630 X-204.408 Y-7.113 Z-3.261 A128.5185 B-9.0241 
N631 X-204.408 Y-7.325 Z-3.086 A128.8481 B-9.0144 
N632 X-204.408 Y-7.532 Z-2.909 A129.0719 B-9.0048 
N633 X-204.409 Y-7.732 Z-2.735 A129.0545 B-8.9954 
N634 X-204.409 Y-7.919 Z-2.570 A128.5955 B-8.9860 
N635 X-204.410 Y-8.089 Z-2.421 A127.4747 B-8.9764 
N636 X-204.410 Y-8.238 Z-2.293 A125.5368 B-8.9667 
N637 X-204.410 Y-8.370 Z-2.190 A122.7657 B-8.9570 
N638 X-204.411 Y-8.491 Z-2.109 A119.2955 B-8.9469 
N639 X-204.411 Y-8.609 Z-2.045 A115.3499 B-8.9347 
N640 X-204.413 Y-8.731 Z-1.989 A111.1644 B-8.9164 
N641 X-204.415 Y-8.862 Z-1.934 A106.9473 B-8.8834 
N642 X-204.417 Y-9.004 Z-1.872 A102.8869 B-8.8628 
N643 X-204.412 Y-9.158 Z-1.794 A99.1692 B-8.9864 
N644 X-204.409 Y-9.322 Z-1.693 A95.9591 B-9.0845 
N645 X-204.407 Y-9.491 Z-1.564 A93.3571 B-9.1601 
N646 X-204.406 Y-9.664 Z-1.408 A91.3572 B-9.2173 
N647 X-204.405 Y-9.836 Z-1.227 A89.8526 B-9.2607 
N648 X-204.405 Y-10.007 Z-1.028 A88.6879 B-9.2951 
N649 X-204.404 Y-10.176 Z-0.817 A87.7206 B-9.3244 
N650 X-204.405 Y-10.343 Z-0.598 A86.8555 B-9.3509 
N651 X-204.405 Y-10.508 Z-0.373 A86.0467 B-9.3757 
N652 X-204.405 Y-10.670 Z-0.143 A85.2808 B-9.3991 
N653 X-204.406 Y-10.830 Z0.093 A84.5585 B-9.4213 
N654 X-204.406 Y-10.986 Z0.334 A83.8815 B-9.4421 
N655 X-204.407 Y-11.140 Z0.580 A83.2466 B-9.4619 
N656 X-204.407 Y-11.291 Z0.830 A82.6464 B-9.4806 
N657 X-204.408 Y-11.438 Z1.085 A82.0741 B-9.4986 
N658 X-204.409 Y-11.582 Z1.343 A81.5297 B-9.5158 
N659 X-204.410 Y-11.722 Z1.605 A81.0269 B-9.5321 
N660 X-204.411 Y-11.858 Z1.871 A80.5953 B-9.5470 
N661 X-204.412 Y-11.990 Z2.144 A80.2759 B-9.5599 
N662 X-204.413 Y-12.116 Z2.424 A80.1066 B-9.5704 
N663 X-204.415 Y-12.238 Z2.711 A80.1040 B-9.5784 
N664 X-204.416 Y-12.354 Z3.004 A80.2537 B-9.5843 
N665 X-204.418 Y-12.466 Z3.302 A80.5155 B-9.5888 
N666 X-204.419 Y-12.572 Z3.602 A80.8386 B-9.5927 
N667 X-204.421 Y-12.674 Z3.901 A81.1720 B-9.5968 
N668 X-204.422 Y-12.772 Z4.197 A81.4646 B-9.6016 
N669 X-204.424 Y-12.865 Z4.488 A81.6612 B-9.6078 
N670 X-204.425 Y-12.954 Z4.771 A81.7036 B-9.6161 
N671 X-204.426 Y-13.039 Z5.042 A81.5445 B-9.6268 
N672 X-204.427 Y-13.121 Z5.302 A81.1663 B-9.6400 
N673 X-204.428 Y-13.198 Z5.551 A80.5896 B-9.6550 
N674 X-204.429 Y-13.271 Z5.789 A79.8612 B-9.6713 
N675 X-204.430 Y-13.340 Z6.019 A79.0319 B-9.6881 
N676 X-204.431 Y-13.404 Z6.242 A78.1355 B-9.7050 
N677 X-204.432 Y-13.464 Z6.457 A77.1904 B-9.7217 
N678 X-204.433 Y-13.519 Z6.665 A76.2077 B-9.7381 
N679 X-204.434 Y-13.570 Z6.866 A75.2003 B-9.7541 
N680 X-204.434 Y-13.616 Z7.061 A74.1810 B-9.7695 
N681 X-204.435 Y-13.658 Z7.248 A73.1550 B-9.7843 
N682 X-204.436 Y-13.696 Z7.428 A72.1108 B-9.7987 
N683 X-204.437 Y-13.730 Z7.599 A71.0263 B-9.8128 
N684 X-204.437 Y-13.761 Z7.760 A69.8787 B-9.8268 
N685 X-204.438 Y-13.789 Z7.912 A68.6598 B-9.8408 
N686 X-204.438 Y-13.815 Z8.055 A67.3724 B-9.8547 
N687 X-204.439 Y-13.838 Z8.188 A66.0245 B-9.8685 
N688 X-204.439 Y-13.859 Z8.313 A64.6261 B-9.8821 
N689 X-204.440 Y-13.878 Z8.429 A63.1815 B-9.8954 
N690 X-204.440 Y-13.896 Z8.538 A61.6876 B-9.9085 
N691 X-204.441 Y-13.912 Z8.638 A60.1412 B-9.9215 
N692 X-204.441 Y-13.927 Z8.732 A58.5375 B-9.9343 
N693 X-204.441 Y-13.941 Z8.818 A56.8797 B-9.9469 
N694 X-204.442 Y-13.955 Z8.897 A55.1707 B-9.9594 
N695 X-204.442 Y-13.969 Z8.971 A53.4196 B-9.9716 
N696 X-204.442 Y-13.982 Z9.041 A51.6378 B-9.9835 
N697 X-204.442 Y-13.994 Z9.106 A49.8347 B-9.9950 
N698 X-204.443 Y-14.006 Z9.167 A48.0197 B-10.0061 
N699 X-204.443 Y-14.017 Z9.226 A46.2003 B-10.0168 
N700 X-204.443 Y-14.027 Z9.283 A44.3803 B-10.0269 
N701 X-204.443 Y-14.036 Z9.338 A42.5638 B-10.0365 
N702 X-204.443 Y-14.044 Z9.391 A40.7523 B-10.0456 
N703 X-204.442 Y-14.051 Z9.442 A38.9466 B-10.0541 
N704 X-204.441 Y-14.057 Z9.493 A37.1464 B-10.0621 
N705 X-204.440 Y-14.061 Z9.543 A35.3534 B-10.0696 
N706 X-204.439 Y-14.065 Z9.592 A33.5663 B-10.0766 
N707 X-204.439 Y-14.068 Z9.641 A31.7852 B-10.0830 
N708 X-204.438 Y-14.069 Z9.689 A30.0103 B-10.0889 
N709 X-204.438 Y-14.068 Z9.737 A28.2412 B-10.0942 
N710 X-204.438 Y-14.067 Z9.784 A26.4775 B-10.0991 
N711 X-204.438 Y-14.064 Z9.831 A24.7188 B-10.1034 
N712 X-204.439 Y-14.060 Z9.878 A22.9648 B-10.1072 
N713 X-204.439 Y-14.054 Z9.925 A21.2151 B-10.1106 
N714 X-204.440 Y-14.046 Z9.971 A19.4694 B-10.1134 
N715 X-204.441 Y-14.038 Z10.018 A17.7272 B-10.1158 
N716 X-204.443 Y-14.027 Z10.064 A15.9881 B-10.1177 
N717 X-204.444 Y-14.015 Z10.110 A14.2514 B-10.1191 
N718 X-204.445 Y-14.001 Z10.155 A12.5165 B-10.1201 
N719 X-204.447 Y-13.985 Z10.201 A10.7826 B-10.1206 
N720 X-204.447 Y-13.968 Z10.246 A9.0488 B-10.1207 
N721 X-204.447 Y-13.949 Z10.291 A7.3141 B-10.1204 
N722 X-204.446 Y-13.927 Z10.336 A5.5777 B-10.1196 
N723 X-204.443 Y-13.904 Z10.381 A3.8393 B-10.1185 
N724 X-204.440 Y-13.878 Z10.426 A2.0984 B-10.1169 
N725 X-204.435 Y-13.850 Z10.470 A0.3537 B-10.1150 
N726 X-204.430 Y-13.819 Z10.514 A358.6058 B-10.1127 
N727 X-204.424 Y-13.785 Z10.558 A356.8545 B-10.1101 
N728 X-204.418 Y-13.748 Z10.601 A355.1000 B-10.1070 
N729 X-204.412 Y-13.708 Z10.644 A353.3439 B-10.1036 
N730 X-204.406 Y-13.663 Z10.687 A351.5895 B-10.0999 
N731 X-204.400 Y-13.615 Z10.728 A349.8384 B-10.0957 
N732 X-204.395 Y-13.561 Z10.769 A348.0972 B-10.0913 
N733 X-204.389 Y-13.502 Z10.809 A346.3713 B-10.0865 
N734 X-204.385 Y-13.438 Z10.848 A344.6702 B-10.0814 
N735 X-204.381 Y-13.366 Z10.885 A343.0002 B-10.0759 
N736 X-204.377 Y-13.287 Z10.920 A341.3687 B-10.0701 
N737 X-204.375 Y-13.200 Z10.952 A339.7785 B-10.0641 
N738 X-204.373 Y-13.106 Z10.982 A338.2296 B-10.0577 
N739 X-204.373 Y-13.003 Z11.009 A336.7223 B-10.0511 
N740 X-204.373 Y-12.891 Z11.033 A335.2525 B-10.0442 
N741 X-204.375 Y-12.771 Z11.052 A333.8187 B-10.0371 
N742 X-204.378 Y-12.641 Z11.068 A332.4241 B-10.0298 
N743 X-204.382 Y-12.502 Z11.080 A331.0782 B-10.0223 
N744 X-204.387 Y-12.352 Z11.086 A329.7940 B-10.0146 
N745 X-204.393 Y-12.191 Z11.086 A328.5786 B-10.0067 
N746 X-204.401 Y-12.019 Z11.080 A327.4321 B-9.9987 
N747 X-204.409 Y-11.836 Z11.069 A326.3397 B-9.9906 
N748 X-204.417 Y-11.643 Z11.051 A325.2817 B-9.9823 
N749 X-204.426 Y-11.440 Z11.028 A324.2462 B-9.9739 
N750 X-204.435 Y-11.227 Z10.998 A323.2361 B-9.9654 
N751 X-204.443 Y-11.002 Z10.961 A322.2671 B-9.9568 
N752 X-204.450 Y-10.766 Z10.917 A321.3527 B-9.9482 
N753 X-204.456 Y-10.519 Z10.864 A320.4979 B-9.9394 
N754 X-204.460 Y-10.260 Z10.804 A319.6977 B-9.9307 
N755 X-204.461 Y-9.990 Z10.735 A318.9466 B-9.9218 
N756 X-204.461 Y-9.709 Z10.659 A318.2439 B-9.9126 
N757 X-204.461 Y-9.417 Z10.574 A317.5919 B-9.8988 
N758 X-204.462 Y-9.114 Z10.482 A316.9939 B-9.8845 
N759 X-204.462 Y-8.801 Z10.381 A316.4543 B-9.8698 
N760 X-204.463 Y-8.477 Z10.273 A315.9768 B-9.8546 
N761 X-204.462 Y-8.143 Z10.157 A315.5613 B-9.8391 
N762 X-204.463 Y-7.799 Z10.033 A315.2044 B-9.8231 
N763 X-204.464 Y-7.447 Z9.904 A314.9015 B-9.8069 
N764 X-204.464 Y-7.088 Z9.768 A314.6478 B-9.7903 
N765 X-204.464 Y-6.721 Z9.628 A314.4386 B-9.7735 
N766 X-204.464 Y-6.349 Z9.483 A314.2710 B-9.7564 
N767 X-204.464 Y-5.971 Z9.334 A314.1486 B-9.7392 
N768 X-204.464 Y-5.589 Z9.181 A314.0885 B-9.7220 
N769 X-204.465 Y-5.202 Z9.024 A314.1335 B-9.7047 
N770 X-204.465 Y-4.810 Z8.861 A314.3644 B-9.6876 
N771 X-204.465 Y-4.408 Z8.689 A314.8992 B-9.6710 
N772 X-204.466 Y-3.996 Z8.507 A315.8619 B-9.6552 
N773 X-204.465 Y-3.570 Z8.313 A317.3233 B-9.6405 
N774 X-204.465 Y-3.131 Z8.110 A319.2431 B-9.6273 
N775 X-204.465 Y-2.685 Z7.905 A321.4549 B-9.6153 
N776 X-204.465 Y-2.238 Z7.705 A323.7150 B-9.6044 
N777 X-204.465 Y-1.799 Z7.515 A325.7923 B-9.5940 
N778 X-204.464 Y-1.373 Z7.338 A327.5509 B-9.5836 
N779 X-204.464 Y-0.960 Z7.175 A328.9784 B-9.5729 
N780 X-204.464 Y-0.560 Z7.023 A330.1529 B-9.5621 
N781 X-204.463 Y-0.169 Z6.879 A331.1817 B-9.5512 
N782 X-204.463 Y0.216 Z6.742 A332.1522 B-9.5405 
N783 X-204.462 Y0.598 Z6.611 A333.1160 B-9.5302 
N784 X-204.462 Y0.976 Z6.486 A334.0953 B-9.5204 
N785 X-204.461 Y1.351 Z6.366 A335.0968 B-9.5111 
N786 X-204.461 Y1.725 Z6.252 A336.1210 B-9.5023 
N787 X-204.460 Y2.095 Z6.144 A337.1669 B-9.4941 
N788 X-204.459 Y2.464 Z6.041 A338.2333 B-9.4863 
N789 X-204.458 Y2.830 Z5.944 A339.3183 B-9.4791 
N790 X-204.458 Y3.195 Z5.852 A340.4179 B-9.4723 
N791 X-204.457 Y3.557 Z5.767 A341.5233 B-9.4660 
N792 X-204.456 Y3.917 Z5.687 A342.6184 B-9.4601 
N793 X-204.455 Y4.274 Z5.614 A343.6788 B-9.4544 
N794 X-204.454 Y4.626 Z5.547 A344.6767 B-9.4486 
N795 X-204.453 Y4.974 Z5.487 A345.5906 B-9.4426 
N796 X-204.451 Y5.317 Z5.433 A346.4146 B-9.4363 
N797 X-204.450 Y5.655 Z5.385 A347.1611 B-9.4297 
N798 X-204.449 Y5.991 Z5.342 A347.8536 B-9.4229 
N799 X-204.448 Y6.324 Z5.305 A348.5161 B-9.4160 
N800 X-204.446 Y6.656 Z5.273 A349.1662 B-9.4093 
N801 X-204.445 Y6.988 Z5.247 A349.8128 B-9.4026 
N802 X-204.443 Y7.319 Z5.225 A350.4594 B-9.3961 
N803 X-204.442 Y7.650 Z5.208 A351.1061 B-9.3898 
N804 X-204.440 Y7.981 Z5.196 A351.7523 B-9.3836 
N805 X-204.438 Y8.312 Z5.190 A352.3968 B-9.3775 
N806 X-204.436 Y8.643 Z5.188 A353.0386 B-9.3715 
N807 X-204.434 Y8.974 Z5.191 A353.6764 B-9.3656 
N808 X-204.432 Y9.306 Z5.199 A354.3092 B-9.3598 
N809 X-204.430 Y9.639 Z5.212 A354.9358 B-9.3540 
N810 X-204.428 Y9.972 Z5.231 A355.5548 B-9.3483 
N811 X-204.425 Y10.306 Z5.254 A356.1633 B-9.3426 
N812 X-204.423 Y10.640 Z5.282 A356.7543 B-9.3368 
N813 X-204.420 Y10.974 Z5.315 A357.3110 B-9.3308 
N814 X-204.417 Y11.306 Z5.353 A357.8002 B-9.3241 
N815 X-204.415 Y11.635 Z5.396 A358.1697 B-9.3160 
N816 X-204.412 Y11.959 Z5.444 A358.3575 B-9.3059 
N817 X-204.409 Y12.275 Z5.497 A358.3135 B-9.2930 
N818 X-204.406 Y12.582 Z5.555 A358.0229 B-9.2771 
N819 X-204.403 Y12.883 Z5.618 A357.5145 B-9.2583 
N820 X-204.400 Y13.179 Z5.687 A356.8479 B-9.2374 
N821 X-204.397 Y13.474 Z5.760 A356.0919 B-9.2152 
N822 X-204.394 Y13.769 Z5.839 A355.3133 B-9.1924 
N823 X-204.390 Y14.068 Z5.923 A354.5799 B-9.1699 
N824 X-204.387 Y14.373 Z6.011 A353.9659 B-9.1485 
N825 X-204.383 Y14.688 Z6.104 A353.5463 B-9.1292 
N826 X-204.379 Y15.014 Z6.200 A353.3740 B-9.1126 
N827 X-204.374 Y15.352 Z6.300 A353.4579 B-9.0989 
N828 X-204.370 Y15.700 Z6.403 A353.7584 B-9.0878 
N829 X-204.365 Y16.056 Z6.510 A354.2079 B-9.0785 
N830 X-204.359 Y16.417 Z6.622 A354.7383 B-9.0702 
N831 X-204.354 Y16.781 Z6.739 A355.3004 B-9.0625 
N832 X-204.348 Y17.146 Z6.860 A355.8668 B-9.0550 
N833 X-204.342 Y17.513 Z6.985 A356.4255 B-9.0474 
N834 X-204.336 Y17.880 Z7.116 A356.9724 B-9.0398 
N835 X-204.330 Y18.249 Z7.250 A357.5066 B-9.0322 
N836 X-204.323 Y18.617 Z7.390 A358.0283 B-9.0245 
N837 X-204.317 Y18.986 Z7.533 A358.5376 B-9.0168 
N838 X-204.310 Y19.355 Z7.680 A359.0350 B-9.0091 
N839 X-204.303 Y19.723 Z7.831 A359.5203 B-9.0013 
N840 X-204.295 Y20.090 Z7.985 A359.9913 B-8.9936 
N841 X-204.288 Y20.455 Z8.142 A0.4446 B-8.9858 
N842 X-204.280 Y20.816 Z8.302 A0.8765 B-8.9779 
N843 X-204.273 Y21.174 Z8.463 A1.2831 B-8.9699 
N844 X-204.265 Y21.525 Z8.625 A1.6619 B-8.9617 
N845 X-204.257 Y21.869 Z8.786 A2.0119 B-8.9534 
N846 X-204.249 Y22.206 Z8.947 A2.3353 B-8.9451 
N847 X-204.241 Y22.532 Z9.105 A2.6354 B-8.9368 
N848 X-204.233 Y22.848 Z9.261 A2.9163 B-8.9288 
N849 X-204.226 Y23.151 Z9.412 A3.1812 B-8.9210 
N850 X-204.219 Y23.441 Z9.558 A3.4319 B-8.9136 
N851 X-204.211 Y23.716 Z9.698 A3.6684 B-8.9066 
N852 X-204.205 Y23.976 Z9.832 A3.8886 B-8.9000 
N853 X-204.198 Y24.218 Z9.958 A4.0893 B-8.8938 
N854 X-204.192 Y24.444 Z10.077 A4.2699 B-8.8879 
N855 X-204.186 Y24.653 Z10.188 A4.4398 B-8.8807 
N856 X-204.180 Y24.847 Z10.290 A4.6162 B-8.8745 
N857 X-204.173 Y25.024 Z10.385 A4.7860 B-8.8690 
N858 X-204.163 Y25.173 Z10.471 A4.6030 B-8.8570 
N859 X-204.152 Y25.259 Z10.544 A3.1125 B-8.8191 
N860 X-204.141 Y25.297 Z10.605 A0.6360 B-8.7631 
N861 X-204.130 Y25.317 Z10.660 A357.9377 B-8.7055 
N862 X-204.121 Y25.331 Z10.710 A355.2927 B-8.6519 
N863 X-204.113 Y25.342 Z10.756 A352.7641 B-8.6033 
N864 X-204.106 Y25.353 Z10.799 A350.3696 B-8.5597 
N865 X-204.100 Y25.364 Z10.838 A348.0984 B-8.5207 
N866 X-204.095 Y25.375 Z10.875 A345.9336 B-8.4856 
N867 X-204.090 Y25.386 Z10.910 A343.8624 B-8.4541 
N868 X-204.087 Y25.397 Z10.943 A341.8625 B-8.4256 
N869 X-204.084 Y25.409 Z10.975 A339.9222 B-8.3999 
N870 X-204.082 Y25.422 Z11.006 A338.0252 B-8.3765 
N871 X-204.080 Y25.435 Z11.036 A336.1635 B-8.3554 
N872 X-204.080 Y25.449 Z11.065 A334.3262 B-8.3364 
N873 X-204.080 Y25.464 Z11.093 A332.5071 B-8.3193 
N874 X-204.080 Y25.479 Z11.121 A330.7011 B-8.3041 
N875 X-204.082 Y25.495 Z11.148 A328.9040 B-8.2908 
N876 X-204.084 Y25.512 Z11.174 A327.1131 B-8.2793 
N877 X-204.086 Y25.529 Z11.200 A325.3261 B-8.2696 
N878 X-204.089 Y25.547 Z11.225 A323.5416 B-8.2618 
N879 X-204.093 Y25.566 Z11.250 A321.7585 B-8.2558 
N880 X-204.096 Y25.586 Z11.274 A319.9763 B-8.2516 
N881 X-204.100 Y25.607 Z11.297 A318.1944 B-8.2493 
N882 X-204.104 Y25.629 Z11.320 A316.4128 B-8.2489 
N883 X-204.109 Y25.651 Z11.342 A314.6313 B-8.2503 
N884 X-204.113 Y25.674 Z11.364 A312.8500 B-8.2535 
N885 X-204.117 Y25.698 Z11.384 A311.0690 B-8.2587 
N886 X-204.122 Y25.722 Z11.404 A309.2882 B-8.2657 
N887 X-204.126 Y25.747 Z11.423 A307.5074 B-8.2746 
N888 X-204.129 Y25.773 Z11.442 A305.7266 B-8.2853 
N889 X-204.132 Y25.800 Z11.459 A303.9456 B-8.2978 
N890 X-204.135 Y25.827 Z11.476 A302.1641 B-8.3122 
N891 X-204.136 Y25.854 Z11.491 A300.3821 B-8.3285 
N892 X-204.137 Y25.882 Z11.506 A298.5995 B-8.3465 
N893 X-204.138 Y25.911 Z11.520 A296.8163 B-8.3664 
N894 X-204.138 Y25.940 Z11.533 A295.0324 B-8.3880 
N895 X-204.137 Y25.970 Z11.545 A293.2476 B-8.4113 
N896 X-204.136 Y26.000 Z11.556 A291.4619 B-8.4332 
N897 X-204.135 Y26.030 Z11.567 A289.6750 B-8.4548 
N898 X-204.134 Y26.061 Z11.576 A287.8870 B-8.4773 
N899 X-204.133 Y26.092 Z11.584 A286.0979 B-8.5005 
N900 X-204.133 Y26.124 Z11.591 A284.3075 B-8.5238 
N901 X-204.132 Y26.155 Z11.598 A282.5161 B-8.5469 
N902 X-204.131 Y26.187 Z11.603 A280.7239 B-8.5863 
N903 X-204.131 Y26.220 Z11.607 A278.9310 B-8.6281 
N904 X-204.130 Y26.252 Z11.611 A277.1373 B-8.6705 
N905 X-204.129 Y26.284 Z11.613 A275.3430 B-8.7136 
N906 X-204.128 Y26.317 Z11.614 A273.5483 B-8.7575 
N907 X-204.127 Y26.349 Z11.615 A271.7535 B-8.8021 
N908 X-204.126 Y26.382 Z11.614 A269.9587 B-8.8474 
N909 X-204.125 Y26.414 Z11.612 A268.1642 B-8.8934 
N910 X-204.125 Y26.447 Z11.610 A266.3701 B-8.9401 
N911 X-204.124 Y26.479 Z11.606 A264.5768 B-8.9874 
N912 X-204.123 Y26.511 Z11.601 A262.7844 B-9.0354 
N913 X-204.123 Y26.543 Z11.596 A260.9931 B-9.0839 
N914 X-204.122 Y26.575 Z11.589 A259.2030 B-9.1329 
N915 X-204.122 Y26.607 Z11.582 A257.4141 B-9.1825 
N916 X-204.121 Y26.638 Z11.573 A255.6265 B-9.2325 
N917 X-204.121 Y26.669 Z11.564 A253.8400 B-9.2825 
N918 X-204.120 Y26.700 Z11.554 A252.0545 B-9.3330 
N919 X-204.119 Y26.730 Z11.543 A250.2698 B-9.3840 
N920 X-204.118 Y26.760 Z11.531 A248.4856 B-9.4353 
N921 X-204.116 Y26.790 Z11.518 A246.7015 B-9.4870 
N922 X-204.114 Y26.819 Z11.505 A244.9172 B-9.5389 
N923 X-204.111 Y26.848 Z11.490 A243.1324 B-9.5910 
N924 X-204.107 Y26.876 Z11.475 A241.3468 B-9.6434 
N925 X-204.102 Y26.904 Z11.459 A239.5602 B-9.6958 
N926 X-204.096 Y26.931 Z11.442 A237.7718 B-9.7483 
N927 X-204.090 Y26.958 Z11.424 A235.9808 B-9.8009 
N928 X-204.083 Y26.985 Z11.406 A234.1861 B-9.8534 
N929 X-204.076 Y27.011 Z11.386 A232.3861 B-9.9060 
N930 X-204.069 Y27.036 Z11.366 A230.5786 B-9.9585 
N931 X-204.063 Y27.061 Z11.344 A228.7611 B-10.0111 
N932 X-204.056 Y27.085 Z11.322 A226.9299 B-10.0637 
N933 X-204.050 Y27.109 Z11.299 A225.0802 B-10.1164 
N934 X-204.044 Y27.132 Z11.274 A223.2060 B-10.1693 
N935 X-204.038 Y27.155 Z11.248 A221.2983 B-10.2226 
N936 X-204.032 Y27.177 Z11.220 A219.3452 B-10.2766 
N937 X-204.027 Y27.199 Z11.191 A217.3337 B-10.3313 
N938 X-204.022 Y27.220 Z11.159 A215.2484 B-10.3872 
N939 X-204.018 Y27.241 Z11.125 A213.0691 B-10.4445 
N940 X-204.015 Y27.261 Z11.087 A210.7756 B-10.5036 
N941 X-204.013 Y27.280 Z11.046 A208.3532 B-10.5645 
N942 X-204.012 Y27.296 Z10.999 A205.7802 B-10.6273 
N943 X-204.014 Y27.308 Z10.946 A203.0794 B-10.6910 
N944 X-204.018 Y27.312 Z10.885 A200.3080 B-10.7537 
N945 X-204.025 Y27.295 Z10.813 A197.7586 B-10.8082 
N946 X-205.901 Y30.291 Z1.458 
N947 G00 X-210.589 Y37.781 Z-21.928 
N948 X-212.027 Y56.360 Z-36.848 
N949 X-202.651 Y41.380 Z9.925 
N950 G01 X-202.684 Y38.966 Z11.915 F878 
N951 X-202.780 Y36.057 Z13.063 
N952 X-202.929 Y32.938 Z13.257 
N953 X-203.117 Y29.914 Z12.477 
N954 M342 ; chlodziwo woda
N955 X-203.326 Y27.281 Z10.800 
N956 X-203.336 Y27.212 Z10.709 A196.1998 B-10.8375 F199 
N957 X-203.349 Y27.086 Z10.595 A195.8184 B-10.8391 
N958 X-203.363 Y26.933 Z10.468 A195.7504 B-10.8329 
N959 X-203.379 Y26.764 Z10.328 A195.7255 B-10.8250 
N960 X-203.395 Y26.579 Z10.176 A195.7033 B-10.8163 
N961 X-203.411 Y26.378 Z10.010 A195.6775 B-10.8068 
N962 X-203.428 Y26.162 Z9.831 A195.6480 B-10.7966 
N963 X-203.444 Y25.929 Z9.640 A195.6148 B-10.7857 
N964 X-203.461 Y25.682 Z9.436 A195.5784 B-10.7741 
N965 X-203.477 Y25.419 Z9.220 A195.5385 B-10.7618 
N966 X-203.492 Y25.143 Z8.993 A195.4947 B-10.7489 
N967 X-203.505 Y24.855 Z8.756 A195.4464 B-10.7354 
N968 X-203.518 Y24.554 Z8.510 A195.3927 B-10.7214 
N969 X-203.528 Y24.244 Z8.256 A195.3326 B-10.7070 
N970 X-203.538 Y23.924 Z7.995 A195.2654 B-10.6922 
N971 X-203.547 Y23.597 Z7.728 A195.1904 B-10.6768 
N972 X-203.557 Y23.263 Z7.457 A195.1077 B-10.6604 
N973 X-203.567 Y22.923 Z7.181 A195.0173 B-10.6438 
N974 X-203.576 Y22.580 Z6.903 A194.9194 B-10.6270 
N975 X-203.585 Y22.232 Z6.623 A194.8139 B-10.6100 
N976 X-203.594 Y21.882 Z6.341 A194.7004 B-10.5929 
N977 X-203.603 Y21.530 Z6.059 A194.5781 B-10.5757 
N978 X-203.612 Y21.176 Z5.776 A194.4462 B-10.5585 
N979 X-203.620 Y20.822 Z5.494 A194.3041 B-10.5412 
N980 X-203.628 Y20.467 Z5.213 A194.1517 B-10.5238 
N981 X-203.636 Y20.112 Z4.934 A193.9889 B-10.5065 
N982 X-203.644 Y19.758 Z4.656 A193.8160 B-10.4891 
N983 X-203.651 Y19.404 Z4.380 A193.6332 B-10.4717 
N984 X-203.658 Y19.050 Z4.105 A193.4406 B-10.4542 
N985 X-203.665 Y18.698 Z3.834 A193.2383 B-10.4367 
N986 X-203.672 Y18.346 Z3.564 A193.0263 B-10.4192 
N987 X-203.678 Y17.995 Z3.298 A192.8046 B-10.4016 
N988 X-203.684 Y17.646 Z3.034 A192.5731 B-10.3839 
N989 X-203.690 Y17.297 Z2.772 A192.3318 B-10.3661 
N990 X-203.695 Y16.950 Z2.514 A192.0805 B-10.3482 
N991 X-203.701 Y16.604 Z2.259 A191.8190 B-10.3303 
N992 X-203.706 Y16.259 Z2.007 A191.5473 B-10.3122 
N993 X-203.711 Y15.915 Z1.758 A191.2651 B-10.2940 
N994 X-203.715 Y15.573 Z1.512 A190.9723 B-10.2756 
N995 X-203.719 Y15.232 Z1.270 A190.6687 B-10.2571 
N996 X-203.723 Y14.893 Z1.031 A190.3540 B-10.2384 
N997 X-203.727 Y14.555 Z0.796 A190.0282 B-10.2196 
N998 X-203.731 Y14.218 Z0.564 A189.6910 B-10.2005 
N999 X-203.734 Y13.883 Z0.336 A189.3419 B-10.1813 
N1000 X-203.738 Y13.550 Z0.112 A188.9804 B-10.1618 
N1001 X-203.741 Y13.218 Z-0.108 A188.6060 B-10.1421 
N1002 X-203.743 Y12.888 Z-0.325 A188.2179 B-10.1221 
N1003 X-203.746 Y12.560 Z-0.537 A187.8154 B-10.1019 
N1004 X-203.748 Y12.233 Z-0.746 A187.3982 B-10.0839 
N1005 X-203.750 Y11.908 Z-0.950 A186.9658 B-10.0695 
N1006 X-203.752 Y11.586 Z-1.150 A186.5185 B-10.0550 
N1007 X-203.754 Y11.265 Z-1.346 A186.0564 B-10.0405 
N1008 X-203.755 Y10.945 Z-1.537 A185.5799 B-10.0259 
N1009 X-203.756 Y10.628 Z-1.725 A185.0896 B-10.0111 
N1010 X-203.757 Y10.313 Z-1.907 A184.5857 B-9.9963 
N1011 X-203.758 Y9.999 Z-2.086 A184.0684 B-9.9814 
N1012 X-203.759 Y9.687 Z-2.260 A183.5377 B-9.9663 
N1013 X-203.760 Y9.378 Z-2.429 A182.9936 B-9.9512 
N1014 X-203.760 Y9.070 Z-2.594 A182.4359 B-9.9360 
N1015 X-203.761 Y8.764 Z-2.754 A181.8641 B-9.9207 
N1016 X-203.762 Y8.460 Z-2.910 A181.2781 B-9.9053 
N1017 X-203.762 Y8.159 Z-3.061 A180.6775 B-9.8898 
N1018 X-203.761 Y7.859 Z-3.208 A180.0621 B-9.8742 
N1019 X-203.761 Y7.562 Z-3.350 A179.4317 B-9.8586 
N1020 X-203.761 Y7.266 Z-3.487 A178.7860 B-9.8428 
N1021 X-203.761 Y6.973 Z-3.619 A178.1249 B-9.8270 
N1022 X-203.760 Y6.683 Z-3.747 A177.4482 B-9.8110 
N1023 X-203.760 Y6.394 Z-3.871 A176.7558 B-9.7951 
N1024 X-203.759 Y6.108 Z-3.989 A176.0477 B-9.7790 
N1025 X-203.758 Y5.825 Z-4.103 A175.3238 B-9.7629 
N1026 X-203.758 Y5.543 Z-4.212 A174.5842 B-9.7467 
N1027 X-203.757 Y5.265 Z-4.317 A173.8289 B-9.7305 
N1028 X-203.756 Y4.988 Z-4.417 A173.0579 B-9.7142 
N1029 X-203.755 Y4.715 Z-4.512 A172.2714 B-9.6979 
N1030 X-203.754 Y4.443 Z-4.603 A171.4694 B-9.6816 
N1031 X-203.753 Y4.175 Z-4.689 A170.6521 B-9.6653 
N1032 X-203.752 Y3.909 Z-4.770 A169.8198 B-9.6490 
N1033 X-203.751 Y3.645 Z-4.847 A168.9727 B-9.6326 
N1034 X-203.750 Y3.385 Z-4.919 A168.1109 B-9.6163 
N1035 X-203.748 Y3.126 Z-4.987 A167.2348 B-9.5983 
N1036 X-203.747 Y2.871 Z-5.051 A166.3444 B-9.5805 
N1037 X-203.746 Y2.618 Z-5.109 A165.4402 B-9.5629 
N1038 X-203.744 Y2.367 Z-5.164 A164.5223 B-9.5454 
N1039 X-203.742 Y2.119 Z-5.214 A163.5911 B-9.5281 
N1040 X-203.739 Y1.874 Z-5.261 A162.6469 B-9.5110 
N1041 X-203.736 Y1.630 Z-5.302 A161.6902 B-9.4941 
N1042 X-203.733 Y1.390 Z-5.340 A160.7213 B-9.4775 
N1043 X-203.730 Y1.152 Z-5.374 A159.7408 B-9.4611 
N1044 X-203.727 Y0.916 Z-5.403 A158.7489 B-9.4450 
N1045 X-203.725 Y0.682 Z-5.428 A157.7462 B-9.4292 
N1046 X-203.723 Y0.450 Z-5.450 A156.7331 B-9.4138 
N1047 X-203.722 Y0.221 Z-5.467 A155.7098 B-9.3987 
N1048 X-203.721 Y-0.006 Z-5.481 A154.6771 B-9.3840 
N1049 X-203.721 Y-0.231 Z-5.490 A153.6351 B-9.3697 
N1050 X-203.721 Y-0.454 Z-5.496 A152.5845 B-9.3558 
N1051 X-203.721 Y-0.676 Z-5.498 A151.5257 B-9.3423 
N1052 X-203.721 Y-0.895 Z-5.496 A150.4593 B-9.3292 
N1053 X-203.722 Y-1.113 Z-5.490 A149.3859 B-9.3167 
N1054 X-203.722 Y-1.328 Z-5.480 A148.3059 B-9.3046 
N1055 X-203.722 Y-1.542 Z-5.467 A147.2200 B-9.2930 
N1056 X-203.722 Y-1.755 Z-5.450 A146.1288 B-9.2820 
N1057 X-203.721 Y-1.966 Z-5.429 A145.0327 B-9.2715 
N1058 X-203.720 Y-2.175 Z-5.405 A143.9324 B-9.2615 
N1059 X-203.718 Y-2.383 Z-5.376 A142.8284 B-9.2521 
N1060 X-203.717 Y-2.590 Z-5.344 A141.7211 B-9.2416 
N1061 X-203.716 Y-2.796 Z-5.308 A140.6110 B-9.2304 
N1062 X-203.715 Y-3.000 Z-5.268 A139.4986 B-9.2194 
N1063 X-203.714 Y-3.203 Z-5.225 A138.3843 B-9.2087 
N1064 X-203.714 Y-3.404 Z-5.177 A137.2688 B-9.1984 
N1065 X-203.713 Y-3.605 Z-5.126 A136.1524 B-9.1883 
N1066 X-203.712 Y-3.804 Z-5.071 A135.0359 B-9.1784 
N1067 X-203.711 Y-4.003 Z-5.012 A133.9201 B-9.1688 
N1068 X-203.710 Y-4.200 Z-4.949 A132.8066 B-9.1594 
N1069 X-203.710 Y-4.397 Z-4.882 A131.7000 B-9.1503 
N1070 X-203.709 Y-4.593 Z-4.810 A130.6117 B-9.1413 
N1071 X-203.709 Y-4.790 Z-4.733 A129.5675 B-9.1325 
N1072 X-203.708 Y-4.987 Z-4.649 A128.6127 B-9.1236 
N1073 X-203.708 Y-5.188 Z-4.556 A127.8099 B-9.1147 
N1074 X-203.707 Y-5.392 Z-4.451 A127.2216 B-9.1053 
N1075 X-203.707 Y-5.600 Z-4.335 A126.8840 B-9.0956 
N1076 X-203.707 Y-5.813 Z-4.206 A126.7901 B-9.0856 
N1077 X-203.707 Y-6.029 Z-4.066 A126.8930 B-9.0752 
N1078 X-203.706 Y-6.247 Z-3.917 A127.1287 B-9.0648 
N1079 X-203.707 Y-6.464 Z-3.761 A127.4404 B-9.0544 
N1080 X-203.707 Y-6.682 Z-3.600 A127.7898 B-9.0441 
N1081 X-203.707 Y-6.898 Z-3.433 A128.1550 B-9.0340 
N1082 X-203.708 Y-7.112 Z-3.261 A128.5185 B-9.0241 
N1083 X-203.708 Y-7.324 Z-3.086 A128.8481 B-9.0144 
N1084 X-203.708 Y-7.532 Z-2.909 A129.0719 B-9.0048 
N1085 X-203.709 Y-7.732 Z-2.735 A129.0545 B-8.9954 
N1086 X-203.709 Y-7.920 Z-2.570 A128.5955 B-8.9860 
N1087 X-203.710 Y-8.089 Z-2.420 A127.4747 B-8.9764 
N1088 X-203.710 Y-8.239 Z-2.293 A125.5368 B-8.9667 
N1089 X-203.710 Y-8.371 Z-2.190 A122.7657 B-8.9570 
N1090 X-203.711 Y-8.492 Z-2.109 A119.2955 B-8.9469 
N1091 X-203.711 Y-8.610 Z-2.044 A115.3499 B-8.9347 
N1092 X-203.713 Y-8.732 Z-1.988 A111.1644 B-8.9164 
N1093 X-203.715 Y-8.863 Z-1.933 A106.9473 B-8.8834 
N1094 X-203.716 Y-9.005 Z-1.871 A102.8869 B-8.8628 
N1095 X-203.712 Y-9.160 Z-1.793 A99.1692 B-8.9864 
N1096 X-203.709 Y-9.323 Z-1.692 A95.9591 B-9.0845 
N1097 X-203.707 Y-9.493 Z-1.563 A93.3571 B-9.1601 
N1098 X-203.706 Y-9.665 Z-1.406 A91.3572 B-9.2173 
N1099 X-203.705 Y-9.837 Z-1.225 A89.8526 B-9.2607 
N1100 X-203.704 Y-10.009 Z-1.026 A88.6879 B-9.2951 
N1101 X-203.704 Y-10.178 Z-0.815 A87.7206 B-9.3244 
N1102 X-203.704 Y-10.345 Z-0.596 A86.8555 B-9.3509 
N1103 X-203.705 Y-10.509 Z-0.371 A86.0467 B-9.3757 
N1104 X-203.705 Y-10.672 Z-0.140 A85.2808 B-9.3991 
N1105 X-203.706 Y-10.831 Z0.095 A84.5585 B-9.4213 
N1106 X-203.706 Y-10.988 Z0.337 A83.8815 B-9.4421 
N1107 X-203.707 Y-11.142 Z0.583 A83.2466 B-9.4619 
N1108 X-203.707 Y-11.292 Z0.833 A82.6464 B-9.4806 
N1109 X-203.708 Y-11.440 Z1.088 A82.0741 B-9.4986 
N1110 X-203.709 Y-11.583 Z1.346 A81.5297 B-9.5158 
N1111 X-203.710 Y-11.724 Z1.608 A81.0269 B-9.5321 
N1112 X-203.711 Y-11.860 Z1.875 A80.5953 B-9.5470 
N1113 X-203.712 Y-11.991 Z2.147 A80.2759 B-9.5599 
N1114 X-203.713 Y-12.118 Z2.427 A80.1066 B-9.5704 
N1115 X-203.715 Y-12.239 Z2.714 A80.1040 B-9.5784 
N1116 X-203.716 Y-12.356 Z3.008 A80.2537 B-9.5843 
N1117 X-203.718 Y-12.467 Z3.306 A80.5155 B-9.5888 
N1118 X-203.719 Y-12.573 Z3.605 A80.8386 B-9.5927 
N1119 X-203.721 Y-12.675 Z3.905 A81.1720 B-9.5968 
N1120 X-203.722 Y-12.773 Z4.201 A81.4646 B-9.6016 
N1121 X-203.724 Y-12.866 Z4.492 A81.6612 B-9.6078 
N1122 X-203.725 Y-12.955 Z4.774 A81.7036 B-9.6161 
N1123 X-203.726 Y-13.041 Z5.046 A81.5445 B-9.6268 
N1124 X-203.727 Y-13.122 Z5.306 A81.1663 B-9.6400 
N1125 X-203.728 Y-13.199 Z5.555 A80.5896 B-9.6550 
N1126 X-203.729 Y-13.272 Z5.793 A79.8612 B-9.6713 
N1127 X-203.730 Y-13.341 Z6.023 A79.0319 B-9.6881 
N1128 X-203.731 Y-13.405 Z6.246 A78.1355 B-9.7050 
N1129 X-203.732 Y-13.465 Z6.461 A77.1904 B-9.7217 
N1130 X-203.733 Y-13.520 Z6.669 A76.2077 B-9.7381 
N1131 X-203.734 Y-13.571 Z6.870 A75.2003 B-9.7541 
N1132 X-203.734 Y-13.617 Z7.065 A74.1810 B-9.7695 
N1133 X-203.735 Y-13.658 Z7.252 A73.1550 B-9.7843 
N1134 X-203.736 Y-13.696 Z7.432 A72.1108 B-9.7987 
N1135 X-203.737 Y-13.730 Z7.603 A71.0263 B-9.8128 
N1136 X-203.737 Y-13.761 Z7.765 A69.8787 B-9.8268 
N1137 X-203.738 Y-13.789 Z7.916 A68.6598 B-9.8408 
N1138 X-203.738 Y-13.815 Z8.059 A67.3724 B-9.8547 
N1139 X-203.739 Y-13.838 Z8.192 A66.0245 B-9.8685 
N1140 X-203.739 Y-13.859 Z8.317 A64.6261 B-9.8821 
N1141 X-203.740 Y-13.878 Z8.433 A63.1815 B-9.8954 
N1142 X-203.740 Y-13.895 Z8.542 A61.6876 B-9.9085 
N1143 X-203.741 Y-13.911 Z8.642 A60.1412 B-9.9215 
N1144 X-203.741 Y-13.926 Z8.736 A58.5375 B-9.9343 
N1145 X-203.741 Y-13.941 Z8.822 A56.8797 B-9.9469 
N1146 X-203.742 Y-13.954 Z8.901 A55.1707 B-9.9594 
N1147 X-203.742 Y-13.968 Z8.975 A53.4196 B-9.9716 
N1148 X-203.742 Y-13.981 Z9.044 A51.6378 B-9.9835 
N1149 X-203.742 Y-13.993 Z9.109 A49.8347 B-9.9950 
N1150 X-203.743 Y-14.005 Z9.171 A48.0197 B-10.0061 
N1151 X-203.743 Y-14.015 Z9.230 A46.2003 B-10.0168 
N1152 X-203.743 Y-14.025 Z9.286 A44.3803 B-10.0269 
N1153 X-203.743 Y-14.034 Z9.341 A42.5638 B-10.0365 
N1154 X-203.743 Y-14.042 Z9.394 A40.7523 B-10.0456 
N1155 X-203.742 Y-14.049 Z9.446 A38.9466 B-10.0541 
N1156 X-203.741 Y-14.055 Z9.496 A37.1464 B-10.0621 
N1157 X-203.740 Y-14.060 Z9.546 A35.3534 B-10.0696 
N1158 X-203.739 Y-14.063 Z9.595 A33.5663 B-10.0766 
N1159 X-203.739 Y-14.066 Z9.643 A31.7852 B-10.0830 
N1160 X-203.738 Y-14.067 Z9.691 A30.0103 B-10.0889 
N1161 X-203.738 Y-14.066 Z9.739 A28.2412 B-10.0942 
N1162 X-203.738 Y-14.065 Z9.786 A26.4775 B-10.0991 
N1163 X-203.738 Y-14.062 Z9.833 A24.7188 B-10.1034 
N1164 X-203.739 Y-14.058 Z9.880 A22.9648 B-10.1072 
N1165 X-203.739 Y-14.052 Z9.927 A21.2151 B-10.1106 
N1166 X-203.740 Y-14.044 Z9.973 A19.4694 B-10.1134 
N1167 X-203.741 Y-14.036 Z10.019 A17.7272 B-10.1158 
N1168 X-203.743 Y-14.025 Z10.065 A15.9881 B-10.1177 
N1169 X-203.744 Y-14.013 Z10.111 A14.2514 B-10.1191 
N1170 X-203.745 Y-13.999 Z10.157 A12.5165 B-10.1201 
N1171 X-203.747 Y-13.983 Z10.202 A10.7826 B-10.1206 
N1172 X-203.747 Y-13.966 Z10.247 A9.0488 B-10.1207 
N1173 X-203.747 Y-13.947 Z10.292 A7.3141 B-10.1204 
N1174 X-203.746 Y-13.925 Z10.337 A5.5777 B-10.1196 
N1175 X-203.743 Y-13.902 Z10.382 A3.8393 B-10.1185 
N1176 X-203.740 Y-13.876 Z10.426 A2.0984 B-10.1169 
N1177 X-203.735 Y-13.848 Z10.471 A0.3537 B-10.1150 
N1178 X-203.730 Y-13.817 Z10.515 A358.6058 B-10.1127 
N1179 X-203.724 Y-13.784 Z10.558 A356.8545 B-10.1101 
N1180 X-203.718 Y-13.747 Z10.602 A355.1000 B-10.1070 
N1181 X-203.712 Y-13.706 Z10.645 A353.3439 B-10.1036 
N1182 X-203.706 Y-13.662 Z10.687 A351.5895 B-10.0999 
N1183 X-203.700 Y-13.614 Z10.729 A349.8384 B-10.0957 
N1184 X-203.695 Y-13.560 Z10.770 A348.0972 B-10.0913 
N1185 X-203.689 Y-13.502 Z10.810 A346.3713 B-10.0865 
N1186 X-203.685 Y-13.437 Z10.848 A344.6702 B-10.0814 
N1187 X-203.681 Y-13.365 Z10.885 A343.0002 B-10.0759 
N1188 X-203.677 Y-13.286 Z10.920 A341.3687 B-10.0701 
N1189 X-203.675 Y-13.200 Z10.952 A339.7785 B-10.0641 
N1190 X-203.673 Y-13.105 Z10.982 A338.2296 B-10.0577 
N1191 X-203.673 Y-13.002 Z11.009 A336.7223 B-10.0511 
N1192 X-203.673 Y-12.891 Z11.033 A335.2525 B-10.0442 
N1193 X-203.675 Y-12.770 Z11.052 A333.8187 B-10.0371 
N1194 X-203.678 Y-12.641 Z11.068 A332.4241 B-10.0298 
N1195 X-203.682 Y-12.501 Z11.080 A331.0782 B-10.0223 
N1196 X-203.687 Y-12.352 Z11.086 A329.7940 B-10.0146 
N1197 X-203.693 Y-12.191 Z11.086 A328.5786 B-10.0067 
N1198 X-203.701 Y-12.019 Z11.080 A327.4321 B-9.9987 
N1199 X-203.709 Y-11.836 Z11.069 A326.3397 B-9.9906 
N1200 X-203.717 Y-11.643 Z11.051 A325.2817 B-9.9823 
N1201 X-203.726 Y-11.440 Z11.028 A324.2462 B-9.9739 
N1202 X-203.735 Y-11.227 Z10.998 A323.2361 B-9.9654 
N1203 X-203.743 Y-11.002 Z10.961 A322.2671 B-9.9568 
N1204 X-203.750 Y-10.767 Z10.917 A321.3527 B-9.9482 
N1205 X-203.756 Y-10.519 Z10.864 A320.4979 B-9.9394 
N1206 X-203.760 Y-10.261 Z10.804 A319.6977 B-9.9307 
N1207 X-203.761 Y-9.991 Z10.735 A318.9466 B-9.9218 
N1208 X-203.761 Y-9.710 Z10.659 A318.2439 B-9.9126 
N1209 X-203.761 Y-9.418 Z10.575 A317.5919 B-9.8988 
N1210 X-203.762 Y-9.115 Z10.482 A316.9939 B-9.8845 
N1211 X-203.762 Y-8.801 Z10.381 A316.4543 B-9.8698 
N1212 X-203.763 Y-8.477 Z10.273 A315.9768 B-9.8546 
N1213 X-203.762 Y-8.143 Z10.157 A315.5613 B-9.8391 
N1214 X-203.763 Y-7.800 Z10.034 A315.2044 B-9.8231 
N1215 X-203.764 Y-7.448 Z9.904 A314.9015 B-9.8069 
N1216 X-203.764 Y-7.088 Z9.768 A314.6478 B-9.7903 
N1217 X-203.764 Y-6.722 Z9.628 A314.4386 B-9.7735 
N1218 X-203.764 Y-6.349 Z9.483 A314.2710 B-9.7564 
N1219 X-203.764 Y-5.972 Z9.334 A314.1486 B-9.7392 
N1220 X-203.764 Y-5.590 Z9.181 A314.0885 B-9.7220 
N1221 X-203.765 Y-5.203 Z9.024 A314.1335 B-9.7047 
N1222 X-203.765 Y-4.810 Z8.861 A314.3644 B-9.6876 
N1223 X-203.765 Y-4.409 Z8.690 A314.8992 B-9.6710 
N1224 X-203.766 Y-3.997 Z8.507 A315.8619 B-9.6552 
N1225 X-203.765 Y-3.571 Z8.313 A317.3233 B-9.6405 
N1226 X-203.765 Y-3.132 Z8.111 A319.2431 B-9.6273 
N1227 X-203.765 Y-2.686 Z7.905 A321.4549 B-9.6153 
N1228 X-203.765 Y-2.239 Z7.705 A323.7150 B-9.6044 
N1229 X-203.765 Y-1.800 Z7.515 A325.7923 B-9.5940 
N1230 X-203.764 Y-1.374 Z7.339 A327.5509 B-9.5836 
N1231 X-203.764 Y-0.962 Z7.175 A328.9784 B-9.5729 
N1232 X-203.764 Y-0.562 Z7.023 A330.1529 B-9.5621 
N1233 X-203.763 Y-0.171 Z6.879 A331.1817 B-9.5512 
N1234 X-203.763 Y0.215 Z6.742 A332.1522 B-9.5405 
N1235 X-203.762 Y0.596 Z6.612 A333.1160 B-9.5302 
N1236 X-203.762 Y0.974 Z6.486 A334.0953 B-9.5204 
N1237 X-203.761 Y1.350 Z6.367 A335.0968 B-9.5111 
N1238 X-203.761 Y1.723 Z6.253 A336.1210 B-9.5023 
N1239 X-203.760 Y2.093 Z6.144 A337.1669 B-9.4941 
N1240 X-203.759 Y2.462 Z6.041 A338.2333 B-9.4863 
N1241 X-203.758 Y2.828 Z5.944 A339.3183 B-9.4791 
N1242 X-203.758 Y3.193 Z5.853 A340.4179 B-9.4723 
N1243 X-203.757 Y3.555 Z5.767 A341.5233 B-9.4660 
N1244 X-203.756 Y3.915 Z5.688 A342.6184 B-9.4601 
N1245 X-203.755 Y4.271 Z5.615 A343.6788 B-9.4544 
N1246 X-203.754 Y4.624 Z5.548 A344.6767 B-9.4486 
N1247 X-203.753 Y4.971 Z5.487 A345.5906 B-9.4426 
N1248 X-203.751 Y5.314 Z5.433 A346.4146 B-9.4363 
N1249 X-203.750 Y5.652 Z5.385 A347.1611 B-9.4297 
N1250 X-203.749 Y5.987 Z5.343 A347.8536 B-9.4229 
N1251 X-203.748 Y6.320 Z5.306 A348.5161 B-9.4160 
N1252 X-203.746 Y6.652 Z5.274 A349.1662 B-9.4093 
N1253 X-203.745 Y6.984 Z5.247 A349.8128 B-9.4026 
N1254 X-203.743 Y7.315 Z5.225 A350.4594 B-9.3961 
N1255 X-203.742 Y7.645 Z5.208 A351.1061 B-9.3898 
N1256 X-203.740 Y7.976 Z5.197 A351.7523 B-9.3836 
N1257 X-203.738 Y8.307 Z5.190 A352.3968 B-9.3775 
N1258 X-203.736 Y8.638 Z5.188 A353.0386 B-9.3715 
N1259 X-203.734 Y8.969 Z5.191 A353.6764 B-9.3656 
N1260 X-203.732 Y9.301 Z5.199 A354.3092 B-9.3598 
N1261 X-203.730 Y9.633 Z5.212 A354.9358 B-9.3540 
N1262 X-203.728 Y9.966 Z5.230 A355.5548 B-9.3483 
N1263 X-203.725 Y10.300 Z5.253 A356.1633 B-9.3426 
N1264 X-203.723 Y10.633 Z5.281 A356.7543 B-9.3368 
N1265 X-203.720 Y10.967 Z5.314 A357.3110 B-9.3308 
N1266 X-203.717 Y11.299 Z5.352 A357.8002 B-9.3241 
N1267 X-203.715 Y11.628 Z5.395 A358.1697 B-9.3160 
N1268 X-203.712 Y11.952 Z5.443 A358.3575 B-9.3059 
N1269 X-203.709 Y12.267 Z5.496 A358.3135 B-9.2930 
N1270 X-203.706 Y12.575 Z5.554 A358.0229 B-9.2771 
N1271 X-203.703 Y12.875 Z5.617 A357.5145 B-9.2583 
N1272 X-203.700 Y13.171 Z5.685 A356.8479 B-9.2374 
N1273 X-203.697 Y13.465 Z5.758 A356.0919 B-9.2152 
N1274 X-203.694 Y13.760 Z5.837 A355.3133 B-9.1924 
N1275 X-203.690 Y14.059 Z5.921 A354.5799 B-9.1699 
N1276 X-203.687 Y14.364 Z6.009 A353.9659 B-9.1485 
N1277 X-203.683 Y14.678 Z6.101 A353.5463 B-9.1292 
N1278 X-203.679 Y15.004 Z6.197 A353.3740 B-9.1126 
N1279 X-203.674 Y15.342 Z6.297 A353.4579 B-9.0989 
N1280 X-203.670 Y15.690 Z6.400 A353.7584 B-9.0878 
N1281 X-203.665 Y16.046 Z6.507 A354.2079 B-9.0785 
N1282 X-203.659 Y16.407 Z6.619 A354.7383 B-9.0702 
N1283 X-203.654 Y16.770 Z6.735 A355.3004 B-9.0625 
N1284 X-203.648 Y17.135 Z6.856 A355.8668 B-9.0550 
N1285 X-203.642 Y17.502 Z6.981 A356.4255 B-9.0474 
N1286 X-203.636 Y17.869 Z7.111 A356.9724 B-9.0398 
N1287 X-203.630 Y18.237 Z7.246 A357.5066 B-9.0322 
N1288 X-203.623 Y18.606 Z7.385 A358.0283 B-9.0245 
N1289 X-203.617 Y18.974 Z7.528 A358.5376 B-9.0168 
N1290 X-203.610 Y19.343 Z7.675 A359.0350 B-9.0091 
N1291 X-203.603 Y19.711 Z7.826 A359.5203 B-9.0013 
N1292 X-203.595 Y20.077 Z7.980 A359.9913 B-8.9936 
N1293 X-203.588 Y20.442 Z8.136 A0.4446 B-8.9858 
N1294 X-203.580 Y20.803 Z8.296 A0.8765 B-8.9779 
N1295 X-203.573 Y21.160 Z8.456 A1.2831 B-8.9699 
N1296 X-203.565 Y21.511 Z8.618 A1.6619 B-8.9617 
N1297 X-203.557 Y21.855 Z8.779 A2.0119 B-8.9534 
N1298 X-203.549 Y22.191 Z8.940 A2.3353 B-8.9451 
N1299 X-203.541 Y22.518 Z9.098 A2.6354 B-8.9368 
N1300 X-203.534 Y22.833 Z9.253 A2.9163 B-8.9288 
N1301 X-203.526 Y23.136 Z9.404 A3.1812 B-8.9210 
N1302 X-203.519 Y23.426 Z9.550 A3.4319 B-8.9136 
N1303 X-203.512 Y23.701 Z9.690 A3.6684 B-8.9066 
N1304 X-203.505 Y23.960 Z9.824 A3.8886 B-8.9000 
N1305 X-203.498 Y24.203 Z9.950 A4.0893 B-8.8938 
N1306 X-203.492 Y24.428 Z10.068 A4.2699 B-8.8879 
N1307 X-203.486 Y24.637 Z10.179 A4.4398 B-8.8807 
N1308 X-203.481 Y24.831 Z10.281 A4.6162 B-8.8745 
N1309 X-203.473 Y25.008 Z10.376 A4.7860 B-8.8690 
N1310 X-203.463 Y25.157 Z10.462 A4.6030 B-8.8570 
N1311 X-203.452 Y25.243 Z10.535 A3.1125 B-8.8191 
N1312 X-203.441 Y25.280 Z10.598 A0.6360 B-8.7631 
N1313 X-203.430 Y25.300 Z10.654 A357.9377 B-8.7055 
N1314 X-203.421 Y25.314 Z10.704 A355.2927 B-8.6519 
N1315 X-203.413 Y25.326 Z10.751 A352.7641 B-8.6033 
N1316 X-203.406 Y25.337 Z10.794 A350.3696 B-8.5597 
N1317 X-203.400 Y25.348 Z10.835 A348.0984 B-8.5207 
N1318 X-203.395 Y25.359 Z10.872 A345.9336 B-8.4856 
N1319 X-203.390 Y25.370 Z10.908 A343.8624 B-8.4541 
N1320 X-203.387 Y25.382 Z10.942 A341.8625 B-8.4256 
N1321 X-203.384 Y25.395 Z10.974 A339.9222 B-8.3999 
N1322 X-203.382 Y25.408 Z11.005 A338.0252 B-8.3765 
N1323 X-203.380 Y25.421 Z11.036 A336.1635 B-8.3554 
N1324 X-203.379 Y25.436 Z11.065 A334.3262 B-8.3364 
N1325 X-203.379 Y25.451 Z11.094 A332.5071 B-8.3193 
N1326 X-203.380 Y25.467 Z11.122 A330.7011 B-8.3041 
N1327 X-203.382 Y25.483 Z11.149 A328.9040 B-8.2908 
N1328 X-203.384 Y25.500 Z11.176 A327.1131 B-8.2793 
N1329 X-203.386 Y25.519 Z11.202 A325.3261 B-8.2696 
N1330 X-203.389 Y25.537 Z11.227 A323.5416 B-8.2618 
N1331 X-203.392 Y25.557 Z11.252 A321.7585 B-8.2558 
N1332 X-203.396 Y25.578 Z11.276 A319.9763 B-8.2516 
N1333 X-203.400 Y25.599 Z11.300 A318.1944 B-8.2493 
N1334 X-203.404 Y25.621 Z11.323 A316.4128 B-8.2489 
N1335 X-203.408 Y25.644 Z11.345 A314.6313 B-8.2503 
N1336 X-203.413 Y25.668 Z11.366 A312.8500 B-8.2535 
N1337 X-203.417 Y25.692 Z11.387 A311.0690 B-8.2587 
N1338 X-203.421 Y25.717 Z11.407 A309.2882 B-8.2657 
N1339 X-203.425 Y25.743 Z11.425 A307.5074 B-8.2746 
N1340 X-203.429 Y25.770 Z11.444 A305.7266 B-8.2853 
N1341 X-203.432 Y25.797 Z11.461 A303.9456 B-8.2978 
N1342 X-203.434 Y25.824 Z11.477 A302.1641 B-8.3122 
N1343 X-203.436 Y25.853 Z11.492 A300.3821 B-8.3285 
N1344 X-203.437 Y25.881 Z11.507 A298.5995 B-8.3465 
N1345 X-203.437 Y25.911 Z11.521 A296.8163 B-8.3664 
N1346 X-203.437 Y25.940 Z11.533 A295.0324 B-8.3880 
N1347 X-203.437 Y25.970 Z11.545 A293.2476 B-8.4113 
N1348 X-203.436 Y26.001 Z11.555 A291.4619 B-8.4332 
N1349 X-203.435 Y26.032 Z11.565 A289.6750 B-8.4548 
N1350 X-203.434 Y26.063 Z11.574 A287.8870 B-8.4773 
N1351 X-203.433 Y26.094 Z11.582 A286.0979 B-8.5005 
N1352 X-203.432 Y26.126 Z11.588 A284.3075 B-8.5238 
N1353 X-203.432 Y26.158 Z11.594 A282.5161 B-8.5469 
N1354 X-203.431 Y26.190 Z11.599 A280.7239 B-8.5863 
N1355 X-203.430 Y26.223 Z11.602 A278.9310 B-8.6281 
N1356 X-203.429 Y26.255 Z11.605 A277.1373 B-8.6705 
N1357 X-203.429 Y26.288 Z11.607 A275.3430 B-8.7136 
N1358 X-203.428 Y26.320 Z11.607 A273.5483 B-8.7575 
N1359 X-203.427 Y26.353 Z11.607 A271.7535 B-8.8021 
N1360 X-203.426 Y26.386 Z11.606 A269.9587 B-8.8474 
N1361 X-203.425 Y26.418 Z11.603 A268.1642 B-8.8934 
N1362 X-203.424 Y26.450 Z11.600 A266.3701 B-8.9401 
N1363 X-203.424 Y26.483 Z11.596 A264.5768 B-8.9874 
N1364 X-203.423 Y26.515 Z11.590 A262.7844 B-9.0354 
N1365 X-203.423 Y26.546 Z11.584 A260.9931 B-9.0839 
N1366 X-203.422 Y26.578 Z11.577 A259.2030 B-9.1329 
N1367 X-203.422 Y26.609 Z11.569 A257.4141 B-9.1825 
N1368 X-203.421 Y26.640 Z11.560 A255.6265 B-9.2325 
N1369 X-203.421 Y26.671 Z11.550 A253.8400 B-9.2825 
N1370 X-203.420 Y26.701 Z11.540 A252.0545 B-9.3330 
N1371 X-203.419 Y26.731 Z11.528 A250.2698 B-9.3840 
N1372 X-203.418 Y26.761 Z11.516 A248.4856 B-9.4353 
N1373 X-203.416 Y26.790 Z11.503 A246.7015 B-9.4870 
N1374 X-203.414 Y26.819 Z11.489 A244.9172 B-9.5389 
N1375 X-203.411 Y26.847 Z11.474 A243.1324 B-9.5910 
N1376 X-203.407 Y26.875 Z11.458 A241.3468 B-9.6434 
N1377 X-203.402 Y26.902 Z11.442 A239.5602 B-9.6958 
N1378 X-203.396 Y26.929 Z11.425 A237.7718 B-9.7483 
N1379 X-203.390 Y26.955 Z11.407 A235.9808 B-9.8009 
N1380 X-203.383 Y26.981 Z11.388 A234.1861 B-9.8534 
N1381 X-203.376 Y27.006 Z11.369 A232.3861 B-9.9060 
N1382 X-203.370 Y27.031 Z11.348 A230.5786 B-9.9585 
N1383 X-203.363 Y27.055 Z11.327 A228.7611 B-10.0111 
N1384 X-203.356 Y27.079 Z11.304 A226.9299 B-10.0637 
N1385 X-203.350 Y27.102 Z11.281 A225.0802 B-10.1164 
N1386 X-203.344 Y27.125 Z11.256 A223.2060 B-10.1693 
N1387 X-203.338 Y27.147 Z11.231 A221.2983 B-10.2226 
N1388 X-203.332 Y27.168 Z11.203 A219.3452 B-10.2766 
N1389 X-203.327 Y27.190 Z11.174 A217.3337 B-10.3313 
N1390 X-203.322 Y27.210 Z11.143 A215.2484 B-10.3872 
N1391 X-203.318 Y27.230 Z11.109 A213.0691 B-10.4445 
N1392 X-203.315 Y27.250 Z11.071 A210.7756 B-10.5036 
N1393 X-203.313 Y27.268 Z11.030 A208.3532 B-10.5645 
N1394 X-203.312 Y27.284 Z10.984 A205.7802 B-10.6273 
N1395 X-203.314 Y27.295 Z10.932 A203.0794 B-10.6910 
N1396 X-203.318 Y27.298 Z10.872 A200.3080 B-10.7537 
N1397 X-203.326 Y27.281 Z10.800 A197.7586 B-10.8082 
N1398 X-205.201 Y30.277 Z1.446 F878 
N1399 G00 X-212.702 Y42.261 Z-35.973 
;RAPORT("TB000000","Flank Milling Transition:145 End")
;trailer : concat=None
; points cnt = 1344
N1401 MSG (" --- GROUPED OF SUBPROGRAM --- ")
N1402 FGROUP()
N1403 TRAFOOF
; PROGRAM NAME: B00000033
; ORDER       : B000000
; OPER. NAME  : Flank Milling Transition:146
; OPER. DESCR.: finish flank shroud
; OPER. TYPE  : preFinFlank
; GEO. OPTION : 2
; MACHINE     : HSTM_500_SIM840D_Py
;             : HSTM500 - HAMUEL: 5-axis milling machine - SIM840D Traori PP_Script
; CONTROL     : SINUMERIK 840D
; created:   2021-11-15 10:00:07.029416
;-------DODATKOWE DANE-------------------
; PROGRAMISTA : Mariusz Malec
; PARTID      : 139T001534P1001_-
;  dec_value  : 0.7
;  lean_angle : 10.0
;  tilt_angle : 0.0
;  airf_offset: 0.05
;  firstoffset: 1.5
;----------------------------------------
;RAPORT("TB000000","Flank Milling Transition:146")
N10 TRAFOOF
N11 D0
N12 G90 G94
N13 G0 G53 D0 Z550 B0
N14 STOPRE
M9 ; chlodziwo wyl
; --- Flank Milling Transition:146 - finish flank shroud ---
N16 ;ToolChange : concat=None ,current_tdmid=None, PP.tdmId=940783
N17 TRAFOOF
N18 G0 G53 D0 Z550 B0
N19 STOPRE
N20 MSG(" TLID=940783 D=3.86 R=2.3 Ang=10.0 Len=175.0 ")
N21 S9978 M03
N22 STOPRE
N23 CYCLE832(0.01,1,1)
N24 G0 G53 A231.3314 B-5.9340
N25 TRAORI
N26 G54 D4
N27 D4 
N28 TRANS  X=R8 A=R25
STOPRE
E_ZDARZ=300018
;ACS_FINISH_UBG_PLATFORM_XLB_SHROUD=7740783
STOPRE
N29 ; DELTA A > 40.1
N30 TRAFOOF
N31 D4
N32 STOPRE
N33 G00 G54 Z211.000
N34 G01 A231.3314 F10000
N35 TRAORI
N36 G54 D4
N37 STOPRE
N38 TRANS  X=R8 A=R25
N39 G00 X-311.035 Y64.167 Z-35.099 A231.3314 B-5.9340 
N40 M342 ; chlodziwo woda
N41 X-305.866 Y25.337 Z-4.026 
N42 G01 X-305.871 Y23.656 Z-1.387 F878 
N43 X-305.885 Y22.872 Z1.642 
N44 X-305.907 Y23.062 Z4.764 
N45 X-305.935 Y24.208 Z7.676 
N46 M342 ; chlodziwo woda
N47 X-305.966 Y26.197 Z10.090 
N48 X-305.972 Y26.233 Z10.098 A234.1488 B-5.8160 
N49 X-305.978 Y26.252 Z10.087 A237.1856 B-5.6450 
N50 X-305.984 Y26.266 Z10.071 A240.1215 B-5.4368 
N51 X-305.991 Y26.279 Z10.053 A242.8814 B-5.2030 
N52 X-305.997 Y26.290 Z10.036 A245.4593 B-4.9516 
N53 X-306.003 Y26.303 Z10.019 A247.8720 B-4.6879 
N54 X-306.009 Y26.315 Z10.003 A250.1436 B-4.4148 
N55 X-306.015 Y26.328 Z9.988 A252.2992 B-4.1336 
N56 X-306.020 Y26.341 Z9.974 A254.3619 B-3.8449 
N57 X-306.026 Y26.355 Z9.961 A256.3519 B-3.5484 
N58 X-306.032 Y26.370 Z9.949 A258.2858 B-3.2436 
N59 X-306.037 Y26.385 Z9.938 A260.1768 B-2.9301 
N60 X-306.043 Y26.400 Z9.928 A262.0354 B-2.6072 
N61 X-306.049 Y26.417 Z9.918 A263.8695 B-2.2747 
N62 X-306.054 Y26.434 Z9.910 A265.6847 B-1.9322 
N63 X-306.060 Y26.451 Z9.903 A267.4854 B-1.5796 
N64 X-306.065 Y26.469 Z9.897 A269.2746 B-1.2170 
N65 X-306.070 Y26.488 Z9.892 A271.0543 B-0.8445 
N66 X-306.075 Y26.508 Z9.888 A272.8262 B-0.4624 
N67 X-306.080 Y26.527 Z9.885 A274.5910 B-0.0699 
N68 X-306.085 Y26.548 Z9.884 A276.3494 B0.3326 
N69 X-306.089 Y26.568 Z9.884 A278.1019 B0.7442 
N70 X-306.093 Y26.589 Z9.885 A279.8488 B1.1644 
N71 X-306.097 Y26.610 Z9.888 A281.5904 B1.5929 
N72 X-306.101 Y26.632 Z9.892 A283.3267 B2.0292 
N73 X-306.105 Y26.653 Z9.897 A285.0576 B2.4730 
N74 X-306.108 Y26.674 Z9.904 A286.7833 B2.9239 
N75 X-306.111 Y26.696 Z9.912 A288.5036 B3.3813 
N76 X-306.113 Y26.717 Z9.922 A290.2184 B3.8450 
N77 X-306.116 Y26.738 Z9.933 A291.9292 B4.3081 
N78 X-306.117 Y26.758 Z9.945 A293.6364 B4.7676 
N79 X-306.118 Y26.778 Z9.958 A295.3375 B5.2311 
N80 X-306.119 Y26.798 Z9.973 A297.0322 B5.6977 
N81 X-306.119 Y26.817 Z9.989 A298.7198 B6.1668 
N82 X-306.119 Y26.836 Z10.006 A300.3998 B6.6375 
N83 X-306.119 Y26.854 Z10.024 A302.0717 B7.1093 
N84 X-306.118 Y26.871 Z10.043 A303.7351 B7.5813 
N85 X-306.117 Y26.888 Z10.062 A305.3897 B8.0531 
N86 X-306.115 Y26.903 Z10.083 A307.0356 B8.5241 
N87 X-306.113 Y26.918 Z10.105 A308.6729 B8.9939 
N88 X-306.112 Y26.932 Z10.127 A310.3017 B9.4643 
N89 X-306.110 Y26.945 Z10.150 A311.9247 B9.9331 
N90 X-306.108 Y26.958 Z10.174 A313.5449 B10.4008 
N91 X-306.108 Y26.969 Z10.198 A315.1652 B10.8676 
N92 X-306.109 Y26.980 Z10.223 A316.7885 B11.3341 
N93 X-306.111 Y26.989 Z10.249 A318.4168 B11.8002 
N94 X-306.114 Y26.998 Z10.275 A320.0504 B12.2658 
N95 X-306.119 Y27.006 Z10.302 A321.6888 B12.7332 
N96 X-306.124 Y27.013 Z10.329 A323.3342 B13.1970 
N97 X-306.130 Y27.018 Z10.357 A324.9866 B13.6593 
N98 X-306.136 Y27.023 Z10.385 A326.6470 B14.1198 
N99 X-306.143 Y27.027 Z10.413 A328.3166 B14.5785 
N100 X-306.150 Y27.030 Z10.442 A329.9961 B15.0349 
N101 X-306.156 Y27.032 Z10.471 A331.6864 B15.4889 
N102 X-306.163 Y27.033 Z10.500 A333.3880 B15.9401 
N103 X-306.170 Y27.032 Z10.529 A335.1013 B16.3880 
N104 X-306.177 Y27.031 Z10.559 A336.8265 B16.8322 
N105 X-306.183 Y27.029 Z10.588 A338.5638 B17.2721 
N106 X-306.189 Y27.025 Z10.617 A340.3131 B17.7073 
N107 X-306.194 Y27.021 Z10.647 A342.0745 B18.1371 
N108 X-306.199 Y27.015 Z10.676 A343.8477 B18.5611 
N109 X-306.204 Y27.009 Z10.705 A345.6328 B18.9786 
N110 X-306.207 Y27.001 Z10.733 A347.4297 B19.3891 
N111 X-306.210 Y26.992 Z10.762 A349.2385 B19.7922 
N112 X-306.211 Y26.983 Z10.790 A351.0594 B20.1872 
N113 X-306.212 Y26.972 Z10.817 A352.8927 B20.5739 
N114 X-306.211 Y26.960 Z10.844 A354.7393 B20.9517 
N115 X-306.210 Y26.948 Z10.871 A356.6003 B21.3204 
N116 X-306.207 Y26.934 Z10.897 A358.4772 B21.6797 
N117 X-306.203 Y26.919 Z10.923 A0.3719 B22.0294 
N118 X-306.197 Y26.904 Z10.948 A2.2870 B22.3692 
N119 X-306.190 Y26.887 Z10.972 A4.2257 B22.6991 
N120 X-306.182 Y26.869 Z10.996 A6.1926 B23.0190 
N121 X-306.173 Y26.849 Z11.019 A8.1928 B23.3288 
N122 X-306.162 Y26.829 Z11.041 A10.2331 B23.6285 
N123 X-306.149 Y26.807 Z11.063 A12.3214 B23.9179 
N124 X-306.135 Y26.783 Z11.084 A14.4669 B24.1969 
N125 X-306.120 Y26.758 Z11.104 A16.6804 B24.4648 
N126 X-306.102 Y26.731 Z11.124 A18.9732 B24.7210 
N127 X-306.082 Y26.701 Z11.142 A21.3573 B24.9641 
N128 X-306.060 Y26.668 Z11.159 A23.8427 B25.1920 
N129 X-306.035 Y26.632 Z11.174 A26.4367 B25.4019 
N130 X-306.008 Y26.591 Z11.186 A29.1343 B25.5898 
N131 X-305.979 Y26.544 Z11.193 A31.8974 B25.7498 
N132 X-305.947 Y26.487 Z11.193 A34.5912 B25.8741 
N133 X-305.913 Y26.411 Z11.175 A36.8075 B25.9525 
N134 X-305.879 Y26.300 Z11.126 A37.8112 B25.9802 
N135 X-305.844 Y26.159 Z11.048 A37.8271 B25.9789 
N136 X-305.809 Y26.002 Z10.959 A37.6417 B25.9719 
N137 X-305.775 Y25.832 Z10.865 A37.4566 B25.9646 
N138 X-305.742 Y25.649 Z10.764 A37.2773 B25.9571 
N139 X-305.711 Y25.452 Z10.655 A37.0893 B25.9489 
N140 X-305.684 Y25.241 Z10.540 A36.8822 B25.9397 
N141 X-305.660 Y25.015 Z10.417 A36.6545 B25.9292 
N142 X-305.638 Y24.774 Z10.288 A36.4086 B25.9180 
N143 X-305.615 Y24.519 Z10.152 A36.1468 B25.9056 
N144 X-305.590 Y24.252 Z10.011 A35.8700 B25.8921 
N145 X-305.564 Y23.971 Z9.865 A35.5775 B25.8774 
N146 X-305.536 Y23.679 Z9.714 A35.2667 B25.8613 
N147 X-305.506 Y23.376 Z9.559 A34.9341 B25.8436 
N148 X-305.475 Y23.063 Z9.401 A34.5759 B25.8240 
N149 X-305.443 Y22.741 Z9.240 A34.1885 B25.8022 
N150 X-305.409 Y22.411 Z9.078 A33.7696 B25.7780 
N151 X-305.374 Y22.075 Z8.915 A33.3196 B25.7512 
N152 X-305.337 Y21.732 Z8.752 A32.8412 B25.7217 
N153 X-305.300 Y21.386 Z8.590 A32.3380 B25.6895 
N154 X-305.261 Y21.036 Z8.429 A31.8139 B25.6548 
N155 X-305.221 Y20.683 Z8.270 A31.2729 B25.6176 
N156 X-305.180 Y20.329 Z8.115 A30.7177 B25.5779 
N157 X-305.138 Y19.974 Z7.962 A30.1491 B25.5358 
N158 X-305.096 Y19.618 Z7.812 A29.5671 B25.4911 
N159 X-305.052 Y19.262 Z7.666 A28.9715 B25.4437 
N160 X-305.008 Y18.906 Z7.524 A28.3621 B25.3936 
N161 X-304.962 Y18.551 Z7.386 A27.7390 B25.3405 
N162 X-304.917 Y18.197 Z7.251 A27.1021 B25.2844 
N163 X-304.870 Y17.843 Z7.121 A26.4515 B25.2252 
N164 X-304.822 Y17.490 Z6.995 A25.7871 B25.1627 
N165 X-304.774 Y17.139 Z6.873 A25.1091 B25.0969 
N166 X-304.725 Y16.788 Z6.756 A24.4174 B25.0277 
N167 X-304.675 Y16.438 Z6.643 A23.7121 B24.9549 
N168 X-304.625 Y16.090 Z6.534 A22.9931 B24.8784 
N169 X-304.573 Y15.743 Z6.430 A22.2604 B24.7981 
N170 X-304.521 Y15.397 Z6.330 A21.5140 B24.7139 
N171 X-304.469 Y15.052 Z6.236 A20.7541 B24.6256 
N172 X-304.415 Y14.708 Z6.145 A19.9809 B24.5332 
N173 X-304.361 Y14.365 Z6.059 A19.1946 B24.4366 
N174 X-304.306 Y14.024 Z5.977 A18.3957 B24.3357 
N175 X-304.250 Y13.683 Z5.901 A17.5846 B24.2304 
N176 X-304.194 Y13.344 Z5.828 A16.7617 B24.1207 
N177 X-304.136 Y13.005 Z5.761 A15.9275 B24.0066 
N178 X-304.078 Y12.668 Z5.698 A15.0827 B23.8880 
N179 X-304.019 Y12.331 Z5.640 A14.2279 B23.7649 
N180 X-303.959 Y11.995 Z5.586 A13.3639 B23.6373 
N181 X-303.899 Y11.660 Z5.537 A12.4914 B23.5053 
N182 X-303.837 Y11.326 Z5.493 A11.6112 B23.3689 
N183 X-303.775 Y10.992 Z5.454 A10.7241 B23.2283 
N184 X-303.711 Y10.659 Z5.420 A9.8312 B23.0833 
N185 X-303.647 Y10.326 Z5.390 A8.9332 B22.9343 
N186 X-303.582 Y9.994 Z5.366 A8.0312 B22.7813 
N187 X-303.516 Y9.661 Z5.346 A7.1264 B22.6244 
N188 X-303.449 Y9.329 Z5.331 A6.2198 B22.4640 
N189 X-303.381 Y8.997 Z5.321 A5.3127 B22.3001 
N190 X-303.312 Y8.665 Z5.315 A4.4061 B22.1330 
N191 X-303.242 Y8.333 Z5.315 A3.5014 B21.9630 
N192 X-303.170 Y8.001 Z5.320 A2.5998 B21.7904 
N193 X-303.098 Y7.668 Z5.330 A1.7025 B21.6154 
N194 X-303.025 Y7.334 Z5.345 A0.8109 B21.4384 
N195 X-302.950 Y7.000 Z5.365 A359.9263 B21.2597 
N196 X-302.874 Y6.665 Z5.390 A359.0503 B21.0797 
N197 X-302.797 Y6.330 Z5.421 A358.1841 B20.8988 
N198 X-302.718 Y5.993 Z5.456 A357.3292 B20.7174 
N199 X-302.639 Y5.655 Z5.497 A356.4868 B20.5360 
N200 X-302.558 Y5.316 Z5.543 A355.6583 B20.3548 
N201 X-302.475 Y4.975 Z5.595 A354.8450 B20.1744 
N202 X-302.391 Y4.633 Z5.652 A354.0484 B19.9952 
N203 X-302.307 Y4.289 Z5.714 A353.2692 B19.8175 
N204 X-302.220 Y3.943 Z5.782 A352.5091 B19.6419 
N205 X-302.132 Y3.596 Z5.855 A351.7694 B19.4688 
N206 X-302.042 Y3.246 Z5.933 A351.0508 B19.2986 
N207 X-301.951 Y2.894 Z6.017 A350.3542 B19.1315 
N208 X-301.859 Y2.540 Z6.107 A349.6803 B18.9680 
N209 X-301.764 Y2.184 Z6.201 A349.0303 B18.8085 
N210 X-301.669 Y1.826 Z6.301 A348.4059 B18.6536 
N211 X-301.571 Y1.466 Z6.407 A347.8094 B18.5039 
N212 X-301.473 Y1.105 Z6.517 A347.2438 B18.3603 
N213 X-301.373 Y0.742 Z6.632 A346.7125 B18.2238 
N214 X-301.272 Y0.378 Z6.751 A346.2194 B18.0956 
N215 X-301.170 Y0.014 Z6.875 A345.7682 B17.9767 
N216 X-301.068 Y-0.350 Z7.002 A345.3617 B17.8680 
N217 X-300.965 Y-0.714 Z7.133 A345.0020 B17.7702 
N218 X-300.862 Y-1.076 Z7.267 A344.6900 B17.6837 
N219 X-300.757 Y-1.437 Z7.401 A344.4305 B17.5915 
N220 X-300.651 Y-1.795 Z7.538 A344.2349 B17.4492 
N221 X-300.542 Y-2.151 Z7.674 A344.1059 B17.2412 
N222 X-300.430 Y-2.506 Z7.812 A344.0935 B16.9752 
N223 X-300.319 Y-2.863 Z7.953 A344.2123 B16.7298 
N224 X-300.214 Y-3.219 Z8.094 A344.3648 B16.4924 
N225 X-300.113 Y-3.571 Z8.234 A344.5485 B16.2618 
N226 X-300.016 Y-3.920 Z8.374 A344.7606 B16.0372 
N227 X-299.924 Y-4.266 Z8.513 A344.9986 B15.8179 
N228 X-299.837 Y-4.608 Z8.649 A345.2606 B15.6033 
N229 X-299.755 Y-4.946 Z8.784 A345.5454 B15.3927 
N230 X-299.677 Y-5.279 Z8.917 A345.8529 B15.1860 
N231 X-299.602 Y-5.608 Z9.047 A346.1841 B14.9830 
N232 X-299.533 Y-5.932 Z9.175 A346.5419 B14.7842 
N233 X-299.468 Y-6.250 Z9.299 A346.9300 B14.5894 
N234 X-299.408 Y-6.562 Z9.419 A347.3522 B14.3991 
N235 X-299.351 Y-6.868 Z9.536 A347.8123 B14.2131 
N236 X-299.299 Y-7.166 Z9.649 A348.3140 B14.0317 
N237 X-299.250 Y-7.458 Z9.757 A348.8607 B13.8546 
N238 X-299.206 Y-7.742 Z9.860 A349.4537 B13.6816 
N239 X-299.164 Y-8.018 Z9.958 A350.0913 B13.5119 
N240 X-299.126 Y-8.287 Z10.052 A350.7713 B13.3449 
N241 X-299.092 Y-8.548 Z10.140 A351.4937 B13.1633 
N242 X-299.063 Y-8.800 Z10.222 A352.2561 B12.9803 
N243 X-299.038 Y-9.045 Z10.299 A353.0581 B12.7983 
N244 X-299.017 Y-9.282 Z10.371 A353.9024 B12.6187 
N245 X-299.000 Y-9.509 Z10.437 A354.7956 B12.4402 
N246 X-298.986 Y-9.728 Z10.498 A355.7414 B12.2633 
N247 X-298.973 Y-9.938 Z10.554 A356.7357 B12.0879 
N248 X-298.963 Y-10.139 Z10.604 A357.7668 B11.9131 
N249 X-298.954 Y-10.332 Z10.649 A358.8221 B11.7385 
N250 X-298.946 Y-10.516 Z10.689 A359.8992 B11.5645 
N251 X-298.938 Y-10.692 Z10.725 A1.0083 B11.3918 
N252 X-298.931 Y-10.859 Z10.756 A2.1677 B11.2213 
N253 X-298.925 Y-11.016 Z10.783 A3.3930 B11.0531 
N254 X-298.917 Y-11.163 Z10.806 A4.6874 B10.8872 
N255 X-298.911 Y-11.300 Z10.825 A6.0441 B10.7237 
N256 X-298.903 Y-11.428 Z10.841 A7.4521 B10.5627 
N257 X-298.895 Y-11.548 Z10.854 A8.9014 B10.4042 
N258 X-298.886 Y-11.660 Z10.864 A10.3873 B10.2485 
N259 X-298.877 Y-11.764 Z10.871 A11.9109 B10.0958 
N260 X-298.868 Y-11.860 Z10.876 A13.4755 B9.9465 
N261 X-298.858 Y-11.949 Z10.880 A15.0829 B9.8011 
N262 X-298.847 Y-12.030 Z10.882 A16.7326 B9.6594 
N263 X-298.837 Y-12.106 Z10.882 A18.4214 B9.5224 
N264 X-298.826 Y-12.175 Z10.882 A20.1438 B9.3886 
N265 X-298.815 Y-12.239 Z10.881 A21.8912 B9.2602 
N266 X-298.805 Y-12.298 Z10.879 A23.6552 B9.1380 
N267 X-298.794 Y-12.353 Z10.876 A25.4289 B9.0198 
N268 X-298.784 Y-12.405 Z10.873 A27.2066 B8.9075 
N269 X-298.775 Y-12.454 Z10.869 A28.9846 B8.8026 
N270 X-298.766 Y-12.501 Z10.864 A30.7604 B8.7038 
N271 X-298.757 Y-12.545 Z10.859 A32.5323 B8.6097 
N272 X-298.749 Y-12.587 Z10.853 A34.2998 B8.5225 
N273 X-298.743 Y-12.627 Z10.846 A36.0627 B8.4478 
N274 X-298.738 Y-12.667 Z10.839 A37.8213 B8.3919 
N275 X-298.735 Y-12.704 Z10.832 A39.5762 B8.3567 
N276 X-298.734 Y-12.741 Z10.824 A41.3278 B8.3390 
N277 X-298.735 Y-12.777 Z10.815 A43.0768 B8.3334 
N278 X-298.735 Y-12.812 Z10.806 A44.8239 B8.3330 
N279 X-298.736 Y-12.845 Z10.796 A46.5708 B8.3353 
N280 X-298.737 Y-12.879 Z10.786 A48.3183 B8.3399 
N281 X-298.738 Y-12.911 Z10.775 A50.0671 B8.3457 
N282 X-298.739 Y-12.943 Z10.763 A51.8178 B8.3538 
N283 X-298.740 Y-12.975 Z10.750 A53.5710 B8.3638 
N284 X-298.741 Y-13.006 Z10.737 A55.3272 B8.3758 
N285 X-298.741 Y-13.037 Z10.722 A57.0869 B8.3897 
N286 X-298.742 Y-13.067 Z10.707 A58.8505 B8.4056 
N287 X-298.742 Y-13.097 Z10.691 A60.6185 B8.4235 
N288 X-298.742 Y-13.126 Z10.674 A62.3914 B8.4433 
N289 X-298.742 Y-13.156 Z10.656 A64.1695 B8.4650 
N290 X-298.741 Y-13.185 Z10.636 A65.9532 B8.4888 
N291 X-298.741 Y-13.213 Z10.615 A67.7431 B8.5144 
N292 X-298.740 Y-13.242 Z10.593 A69.5391 B8.5421 
N293 X-298.740 Y-13.270 Z10.569 A71.3415 B8.5716 
N294 X-298.740 Y-13.299 Z10.543 A73.1503 B8.6031 
N295 X-298.739 Y-13.327 Z10.515 A74.9657 B8.6366 
N296 X-298.740 Y-13.355 Z10.484 A76.7897 B8.6787 
N297 X-298.740 Y-13.383 Z10.450 A78.6185 B8.7360 
N298 X-298.742 Y-13.411 Z10.413 A80.4498 B8.8143 
N299 X-298.743 Y-13.439 Z10.372 A82.2803 B8.8967 
N300 X-298.745 Y-13.467 Z10.327 A84.1050 B8.9702 
N301 X-298.746 Y-13.494 Z10.276 A85.9165 B9.0469 
N302 X-298.747 Y-13.521 Z10.220 A87.7060 B9.1265 
N303 X-298.748 Y-13.547 Z10.157 A89.4646 B9.2086 
N304 X-298.749 Y-13.572 Z10.086 A91.1874 B9.2930 
N305 X-298.751 Y-13.595 Z10.008 A92.8764 B9.3795 
N306 X-298.752 Y-13.617 Z9.923 A94.5381 B9.4681 
N307 X-298.754 Y-13.637 Z9.830 A96.1811 B9.5585 
N308 X-298.756 Y-13.655 Z9.729 A97.8121 B9.6509 
N309 X-298.758 Y-13.671 Z9.620 A99.4317 B9.7448 
N310 X-298.761 Y-13.684 Z9.502 A101.0315 B9.8399 
N311 X-298.764 Y-13.694 Z9.376 A102.5947 B9.9356 
N312 X-298.768 Y-13.701 Z9.239 A104.1050 B10.0313 
N313 X-298.772 Y-13.704 Z9.093 A105.5511 B10.1268 
N314 X-298.775 Y-13.702 Z8.936 A106.9308 B10.2217 
N315 X-298.781 Y-13.697 Z8.769 A108.2560 B10.3161 
N316 X-298.787 Y-13.687 Z8.593 A109.5501 B10.4101 
N317 X-298.794 Y-13.673 Z8.410 A110.8333 B10.5036 
N318 X-298.802 Y-13.655 Z8.219 A112.1126 B10.5966 
N319 X-298.811 Y-13.632 Z8.022 A113.3814 B10.6885 
N320 X-298.821 Y-13.604 Z7.817 A114.6279 B10.7792 
N321 X-298.833 Y-13.571 Z7.605 A115.8455 B10.8685 
N322 X-298.846 Y-13.533 Z7.387 A117.0347 B10.9564 
N323 X-298.861 Y-13.491 Z7.163 A118.2015 B11.0428 
N324 X-298.877 Y-13.443 Z6.934 A119.3511 B11.1279 
N325 X-298.896 Y-13.390 Z6.700 A120.4831 B11.2117 
N326 X-298.916 Y-13.333 Z6.462 A121.5934 B11.2946 
N327 X-298.939 Y-13.271 Z6.220 A122.6740 B11.3768 
N328 X-298.963 Y-13.203 Z5.974 A123.7137 B11.4590 
N329 X-298.990 Y-13.130 Z5.724 A124.7003 B11.5415 
N330 X-299.019 Y-13.052 Z5.470 A125.6225 B11.6249 
N331 X-299.050 Y-12.967 Z5.213 A126.4707 B11.7097 
N332 X-299.084 Y-12.877 Z4.953 A127.2346 B11.7957 
N333 X-299.120 Y-12.781 Z4.689 A127.9033 B11.8829 
N334 X-299.159 Y-12.679 Z4.422 A128.4712 B11.9798 
N335 X-299.201 Y-12.570 Z4.153 A128.9421 B12.0761 
N336 X-299.245 Y-12.456 Z3.883 A129.3332 B12.1617 
N337 X-299.290 Y-12.337 Z3.612 A129.6726 B12.2400 
N338 X-299.339 Y-12.212 Z3.343 A129.9891 B12.3123 
N339 X-299.389 Y-12.085 Z3.076 A130.3080 B12.3785 
N340 X-299.442 Y-11.955 Z2.811 A130.6535 B12.4370 
N341 X-299.496 Y-11.823 Z2.550 A131.0516 B12.4847 
N342 X-299.553 Y-11.690 Z2.295 A131.5279 B12.5170 
N343 X-299.612 Y-11.556 Z2.044 A132.1005 B12.5283 
N344 X-299.672 Y-11.421 Z1.800 A132.7717 B12.5135 
N345 X-299.734 Y-11.285 Z1.560 A133.5266 B12.4697 
N346 X-299.797 Y-11.148 Z1.325 A134.3415 B12.3965 
N347 X-299.861 Y-11.009 Z1.094 A135.1930 B12.2953 
N348 X-299.927 Y-10.867 Z0.867 A136.0641 B12.1678 
N349 X-299.994 Y-10.723 Z0.643 A136.9448 B12.0157 
N350 X-300.064 Y-10.576 Z0.422 A137.8311 B11.8399 
N351 X-300.136 Y-10.427 Z0.204 A138.7215 B11.6407 
N352 X-300.208 Y-10.276 Z-0.008 A139.5892 B11.4259 
N353 X-300.279 Y-10.125 Z-0.213 A140.3734 B11.2071 
N354 X-300.349 Y-9.972 Z-0.414 A141.1662 B10.9685 
N355 X-300.418 Y-9.816 Z-0.612 A141.9724 B10.7259 
N356 X-300.488 Y-9.659 Z-0.806 A142.7917 B10.4793 
N357 X-300.557 Y-9.499 Z-0.996 A143.6239 B10.2290 
N358 X-300.627 Y-9.338 Z-1.183 A144.4688 B9.9751 
N359 X-300.695 Y-9.175 Z-1.365 A145.3259 B9.7176 
N360 X-300.764 Y-9.010 Z-1.544 A146.1948 B9.4569 
N361 X-300.832 Y-8.843 Z-1.718 A147.0751 B9.1931 
N362 X-300.900 Y-8.675 Z-1.888 A147.9664 B8.9264 
N363 X-300.967 Y-8.506 Z-2.053 A148.8682 B8.6571 
N364 X-301.034 Y-8.335 Z-2.214 A149.7802 B8.3852 
N365 X-301.100 Y-8.163 Z-2.371 A150.7020 B8.1111 
N366 X-301.165 Y-7.990 Z-2.523 A151.6333 B7.8348 
N367 X-301.230 Y-7.816 Z-2.670 A152.5735 B7.5567 
N368 X-301.295 Y-7.641 Z-2.813 A153.5224 B7.2770 
N369 X-301.359 Y-7.465 Z-2.952 A154.4794 B6.9958 
N370 X-301.422 Y-7.288 Z-3.086 A155.4442 B6.7134 
N371 X-301.485 Y-7.111 Z-3.216 A156.4164 B6.4301 
N372 X-301.547 Y-6.932 Z-3.341 A157.3955 B6.1461 
N373 X-301.609 Y-6.752 Z-3.462 A158.3812 B5.8615 
N374 X-301.670 Y-6.572 Z-3.579 A159.3730 B5.5768 
N375 X-301.730 Y-6.390 Z-3.691 A160.3705 B5.2919 
N376 X-301.790 Y-6.208 Z-3.800 A161.3735 B5.0073 
N377 X-301.850 Y-6.025 Z-3.904 A162.3814 B4.7232 
N378 X-301.908 Y-5.841 Z-4.004 A163.3941 B4.4396 
N379 X-301.967 Y-5.656 Z-4.100 A164.4110 B4.1570 
N380 X-302.025 Y-5.470 Z-4.192 A165.4319 B3.8754 
N381 X-302.082 Y-5.283 Z-4.280 A166.4565 B3.5952 
N382 X-302.139 Y-5.095 Z-4.364 A167.4843 B3.3165 
N383 X-302.195 Y-4.907 Z-4.444 A168.5148 B3.0395 
N384 X-302.251 Y-4.717 Z-4.520 A169.5477 B2.7646 
N385 X-302.306 Y-4.526 Z-4.593 A170.5824 B2.4920 
N386 X-302.361 Y-4.334 Z-4.662 A171.6184 B2.2219 
N387 X-302.416 Y-4.141 Z-4.727 A172.6552 B1.9544 
N388 X-302.470 Y-3.946 Z-4.788 A173.6924 B1.6900 
N389 X-302.524 Y-3.751 Z-4.845 A174.7295 B1.4287 
N390 X-302.577 Y-3.554 Z-4.899 A175.7662 B1.1707 
N391 X-302.630 Y-3.355 Z-4.949 A176.8021 B0.9163 
N392 X-302.683 Y-3.156 Z-4.996 A177.8366 B0.6656 
N393 X-302.735 Y-2.954 Z-5.039 A178.8696 B0.4187 
N394 X-302.787 Y-2.752 Z-5.078 A179.9004 B0.1758 
N395 X-302.839 Y-2.547 Z-5.113 A180.9287 B-0.0628 
N396 X-302.890 Y-2.341 Z-5.145 A181.9539 B-0.2971 
N397 X-302.942 Y-2.134 Z-5.173 A182.9755 B-0.5268 
N398 X-302.992 Y-1.924 Z-5.198 A183.9929 B-0.7518 
N399 X-303.043 Y-1.713 Z-5.219 A185.0057 B-0.9721 
N400 X-303.093 Y-1.500 Z-5.236 A186.0133 B-1.1874 
N401 X-303.143 Y-1.285 Z-5.249 A187.0152 B-1.3976 
N402 X-303.193 Y-1.068 Z-5.259 A188.0108 B-1.6027 
N403 X-303.242 Y-0.848 Z-5.264 A188.9998 B-1.8025 
N404 X-303.291 Y-0.627 Z-5.266 A189.9815 B-1.9970 
N405 X-303.340 Y-0.403 Z-5.264 A190.9556 B-2.1861 
N406 X-303.389 Y-0.177 Z-5.258 A191.9217 B-2.3698 
N407 X-303.438 Y0.051 Z-5.248 A192.8792 B-2.5480 
N408 X-303.486 Y0.281 Z-5.234 A193.8278 B-2.7208 
N409 X-303.534 Y0.514 Z-5.216 A194.7669 B-2.8880 
N410 X-303.582 Y0.750 Z-5.193 A195.6963 B-3.0498 
N411 X-303.629 Y0.987 Z-5.167 A196.6153 B-3.2060 
N412 X-303.676 Y1.228 Z-5.136 A197.5235 B-3.3567 
N413 X-303.723 Y1.471 Z-5.101 A198.4205 B-3.5020 
N414 X-303.770 Y1.716 Z-5.062 A199.3059 B-3.6418 
N415 X-303.817 Y1.965 Z-5.018 A200.1794 B-3.7763 
N416 X-303.863 Y2.215 Z-4.970 A201.0407 B-3.9054 
N417 X-303.909 Y2.469 Z-4.917 A201.8895 B-4.0293 
N418 X-303.954 Y2.725 Z-4.860 A202.7255 B-4.1480 
N419 X-304.000 Y2.984 Z-4.799 A203.5485 B-4.2617 
N420 X-304.045 Y3.245 Z-4.732 A204.3582 B-4.3703 
N421 X-304.090 Y3.509 Z-4.661 A205.1543 B-4.4741 
N422 X-304.134 Y3.776 Z-4.586 A205.9367 B-4.5731 
N423 X-304.178 Y4.046 Z-4.505 A206.7050 B-4.6675 
N424 X-304.222 Y4.318 Z-4.420 A207.4592 B-4.7573 
N425 X-304.265 Y4.593 Z-4.331 A208.1991 B-4.8426 
N426 X-304.308 Y4.870 Z-4.236 A208.9247 B-4.9236 
N427 X-304.350 Y5.150 Z-4.137 A209.6356 B-5.0013 
N428 X-304.392 Y5.432 Z-4.032 A210.3321 B-5.0753 
N429 X-304.434 Y5.717 Z-3.923 A211.0140 B-5.1452 
N430 X-304.475 Y6.004 Z-3.809 A211.6813 B-5.2112 
N431 X-304.516 Y6.294 Z-3.690 A212.3342 B-5.2734 
N432 X-304.556 Y6.586 Z-3.566 A212.9727 B-5.3320 
N433 X-304.595 Y6.880 Z-3.438 A213.5970 B-5.3871 
N434 X-304.635 Y7.177 Z-3.304 A214.2071 B-5.4389 
N435 X-304.673 Y7.475 Z-3.166 A214.8032 B-5.4874 
N436 X-304.712 Y7.776 Z-3.023 A215.3856 B-5.5329 
N437 X-304.749 Y8.080 Z-2.875 A215.9544 B-5.5755 
N438 X-304.786 Y8.385 Z-2.723 A216.5099 B-5.6153 
N439 X-304.823 Y8.692 Z-2.566 A217.0523 B-5.6525 
N440 X-304.859 Y9.001 Z-2.404 A217.5817 B-5.6871 
N441 X-304.895 Y9.312 Z-2.238 A218.0981 B-5.7193 
N442 X-304.929 Y9.625 Z-2.067 A218.6015 B-5.7492 
N443 X-304.964 Y9.940 Z-1.892 A219.0915 B-5.7769 
N444 X-304.997 Y10.257 Z-1.712 A219.5677 B-5.8024 
N445 X-305.031 Y10.576 Z-1.527 A220.0297 B-5.8259 
N446 X-305.063 Y10.897 Z-1.338 A220.4769 B-5.8474 
N447 X-305.095 Y11.219 Z-1.144 A220.9092 B-5.8671 
N448 X-305.126 Y11.543 Z-0.947 A221.3267 B-5.8850 
N449 X-305.157 Y11.870 Z-0.744 A221.7295 B-5.9012 
N450 X-305.188 Y12.197 Z-0.538 A222.1181 B-5.9160 
N451 X-305.217 Y12.527 Z-0.327 A222.4932 B-5.9293 
N452 X-305.246 Y12.858 Z-0.113 A222.8556 B-5.9414 
N453 X-305.275 Y13.191 Z0.106 A223.2058 B-5.9522 
N454 X-305.303 Y13.525 Z0.328 A223.5443 B-5.9619 
N455 X-305.330 Y13.861 Z0.554 A223.8713 B-5.9705 
N456 X-305.357 Y14.199 Z0.784 A224.1873 B-5.9782 
N457 X-305.383 Y14.537 Z1.018 A224.4922 B-5.9850 
N458 X-305.408 Y14.878 Z1.255 A224.7864 B-5.9909 
N459 X-305.433 Y15.219 Z1.496 A225.0699 B-5.9960 
N460 X-305.458 Y15.562 Z1.740 A225.3430 B-6.0004 
N461 X-305.482 Y15.906 Z1.987 A225.6058 B-6.0042 
N462 X-305.505 Y16.252 Z2.238 A225.8585 B-6.0073 
N463 X-305.528 Y16.598 Z2.492 A226.1012 B-6.0098 
N464 X-305.550 Y16.946 Z2.749 A226.3340 B-6.0118 
N465 X-305.572 Y17.295 Z3.009 A226.5570 B-6.0134 
N466 X-305.593 Y17.646 Z3.272 A226.7702 B-6.0145 
N467 X-305.614 Y17.997 Z3.538 A226.9738 B-6.0152 
N468 X-305.634 Y18.350 Z3.806 A227.1677 B-6.0155 
N469 X-305.653 Y18.704 Z4.078 A227.3518 B-6.0156 
N470 X-305.672 Y19.058 Z4.351 A227.5260 B-6.0154 
N471 X-305.691 Y19.414 Z4.627 A227.6900 B-6.0149 
N472 X-305.709 Y19.770 Z4.905 A227.8437 B-6.0143 
N473 X-305.727 Y20.127 Z5.185 A227.9869 B-6.0135 
N474 X-305.744 Y20.483 Z5.467 A228.1201 B-6.0125 
N475 X-305.761 Y20.839 Z5.749 A228.2436 B-6.0115 
N476 X-305.777 Y21.194 Z6.032 A228.3583 B-6.0104 
N477 X-305.792 Y21.547 Z6.314 A228.4650 B-6.0093 
N478 X-305.807 Y21.898 Z6.595 A228.5639 B-6.0081 
N479 X-305.822 Y22.245 Z6.874 A228.6551 B-6.0069 
N480 X-305.836 Y22.587 Z7.150 A228.7383 B-6.0057 
N481 X-305.849 Y22.922 Z7.422 A228.8133 B-6.0045 
N482 X-305.862 Y23.250 Z7.688 A228.8802 B-6.0034 
N483 X-305.874 Y23.569 Z7.948 A228.9397 B-6.0024 
N484 X-305.885 Y23.877 Z8.199 A228.9928 B-6.0014 
N485 X-305.896 Y24.173 Z8.441 A229.0404 B-6.0005 
N486 X-305.906 Y24.455 Z8.671 A229.0834 B-5.9996 
N487 X-305.915 Y24.722 Z8.890 A229.1226 B-5.9988 
N488 X-305.923 Y24.973 Z9.096 A229.1582 B-5.9980 
N489 X-305.931 Y25.207 Z9.288 A229.1901 B-5.9972 
N490 X-305.938 Y25.425 Z9.467 A229.2179 B-5.9966 
N491 X-305.945 Y25.625 Z9.632 A229.2415 B-5.9960 
N492 X-305.951 Y25.808 Z9.782 A229.2652 B-5.9954 
N493 X-305.956 Y25.973 Z9.918 A229.3238 B-5.9939 
N494 X-305.961 Y26.113 Z10.032 A229.6768 B-5.9849 
N495 X-305.966 Y26.197 Z10.090 A231.3314 B-5.9340 
N496 X-306.999 Y33.963 Z3.875 
N497 G00 X-309.584 Y53.378 Z-11.661 
N498 X-311.763 Y64.160 Z-35.105 
N499 X-306.594 Y25.330 Z-4.032 
N500 G01 X-306.599 Y23.648 Z-1.394 F878 
N501 X-306.613 Y22.864 Z1.635 
N502 X-306.635 Y23.055 Z4.758 
N503 X-306.663 Y24.201 Z7.669 
N504 M342 ; chlodziwo woda
N505 X-306.694 Y26.190 Z10.084 
N506 X-306.700 Y26.233 Z10.098 A234.1488 B-5.8160 
N507 X-306.706 Y26.260 Z10.096 A237.1856 B-5.6450 
N508 X-306.712 Y26.280 Z10.088 A240.1215 B-5.4368 
N509 X-306.718 Y26.298 Z10.078 A242.8814 B-5.2030 
N510 X-306.723 Y26.315 Z10.069 A245.4593 B-4.9516 
N511 X-306.728 Y26.331 Z10.060 A247.8720 B-4.6879 
N512 X-306.733 Y26.346 Z10.051 A250.1436 B-4.4148 
N513 X-306.737 Y26.360 Z10.044 A252.2992 B-4.1336 
N514 X-306.742 Y26.375 Z10.037 A254.3619 B-3.8449 
N515 X-306.746 Y26.390 Z10.031 A256.3519 B-3.5484 
N516 X-306.750 Y26.405 Z10.025 A258.2858 B-3.2436 
N517 X-306.754 Y26.421 Z10.020 A260.1768 B-2.9301 
N518 X-306.759 Y26.436 Z10.017 A262.0354 B-2.6072 
N519 X-306.763 Y26.452 Z10.014 A263.8695 B-2.2747 
N520 X-306.766 Y26.468 Z10.011 A265.6847 B-1.9322 
N521 X-306.770 Y26.484 Z10.010 A267.4854 B-1.5796 
N522 X-306.774 Y26.500 Z10.010 A269.2746 B-1.2170 
N523 X-306.777 Y26.517 Z10.010 A271.0543 B-0.8445 
N524 X-306.780 Y26.534 Z10.012 A272.8262 B-0.4624 
N525 X-306.783 Y26.551 Z10.014 A274.5910 B-0.0699 
N526 X-306.786 Y26.568 Z10.018 A276.3494 B0.3326 
N527 X-306.789 Y26.585 Z10.023 A278.1019 B0.7442 
N528 X-306.792 Y26.603 Z10.028 A279.8488 B1.1644 
N529 X-306.794 Y26.620 Z10.035 A281.5904 B1.5929 
N530 X-306.796 Y26.637 Z10.043 A283.3267 B2.0292 
N531 X-306.798 Y26.654 Z10.052 A285.0576 B2.4730 
N532 X-306.799 Y26.670 Z10.063 A286.7833 B2.9239 
N533 X-306.800 Y26.687 Z10.074 A288.5036 B3.3813 
N534 X-306.801 Y26.703 Z10.086 A290.2184 B3.8450 
N535 X-306.802 Y26.718 Z10.099 A291.9292 B4.3081 
N536 X-306.802 Y26.733 Z10.113 A293.6364 B4.7676 
N537 X-306.802 Y26.748 Z10.128 A295.3375 B5.2311 
N538 X-306.801 Y26.762 Z10.144 A297.0322 B5.6977 
N539 X-306.800 Y26.776 Z10.161 A298.7198 B6.1668 
N540 X-306.799 Y26.789 Z10.179 A300.3998 B6.6375 
N541 X-306.797 Y26.801 Z10.197 A302.0717 B7.1093 
N542 X-306.795 Y26.812 Z10.216 A303.7351 B7.5813 
N543 X-306.793 Y26.823 Z10.235 A305.3897 B8.0531 
N544 X-306.791 Y26.833 Z10.255 A307.0356 B8.5241 
N545 X-306.789 Y26.842 Z10.276 A308.6729 B8.9939 
N546 X-306.786 Y26.851 Z10.296 A310.3017 B9.4643 
N547 X-306.784 Y26.859 Z10.318 A311.9247 B9.9331 
N548 X-306.782 Y26.865 Z10.339 A313.5449 B10.4008 
N549 X-306.781 Y26.872 Z10.361 A315.1652 B10.8676 
N550 X-306.782 Y26.877 Z10.384 A316.7885 B11.3341 
N551 X-306.784 Y26.882 Z10.406 A318.4168 B11.8002 
N552 X-306.787 Y26.886 Z10.429 A320.0504 B12.2658 
N553 X-306.792 Y26.889 Z10.452 A321.6888 B12.7332 
N554 X-306.797 Y26.891 Z10.476 A323.3342 B13.1970 
N555 X-306.803 Y26.893 Z10.499 A324.9866 B13.6593 
N556 X-306.810 Y26.894 Z10.523 A326.6470 B14.1198 
N557 X-306.817 Y26.894 Z10.547 A328.3166 B14.5785 
N558 X-306.824 Y26.893 Z10.571 A329.9961 B15.0349 
N559 X-306.831 Y26.891 Z10.595 A331.6864 B15.4889 
N560 X-306.839 Y26.889 Z10.619 A333.3880 B15.9401 
N561 X-306.846 Y26.886 Z10.642 A335.1013 B16.3880 
N562 X-306.854 Y26.882 Z10.666 A336.8265 B16.8322 
N563 X-306.861 Y26.878 Z10.690 A338.5638 B17.2721 
N564 X-306.868 Y26.873 Z10.713 A340.3131 B17.7073 
N565 X-306.875 Y26.867 Z10.737 A342.0745 B18.1371 
N566 X-306.881 Y26.860 Z10.760 A343.8477 B18.5611 
N567 X-306.887 Y26.853 Z10.782 A345.6328 B18.9786 
N568 X-306.891 Y26.845 Z10.805 A347.4297 B19.3891 
N569 X-306.896 Y26.837 Z10.827 A349.2385 B19.7922 
N570 X-306.899 Y26.827 Z10.849 A351.0594 B20.1872 
N571 X-306.901 Y26.818 Z10.870 A352.8927 B20.5739 
N572 X-306.902 Y26.807 Z10.891 A354.7393 B20.9517 
N573 X-306.902 Y26.796 Z10.912 A356.6003 B21.3204 
N574 X-306.900 Y26.785 Z10.932 A358.4772 B21.6797 
N575 X-306.898 Y26.772 Z10.951 A0.3719 B22.0294 
N576 X-306.894 Y26.759 Z10.971 A2.2870 B22.3692 
N577 X-306.889 Y26.746 Z10.990 A4.2257 B22.6991 
N578 X-306.883 Y26.731 Z11.008 A6.1926 B23.0190 
N579 X-306.875 Y26.716 Z11.026 A8.1928 B23.3288 
N580 X-306.866 Y26.700 Z11.043 A10.2331 B23.6285 
N581 X-306.856 Y26.683 Z11.060 A12.3214 B23.9179 
N582 X-306.844 Y26.665 Z11.077 A14.4669 B24.1969 
N583 X-306.830 Y26.645 Z11.093 A16.6804 B24.4648 
N584 X-306.814 Y26.624 Z11.109 A18.9732 B24.7210 
N585 X-306.796 Y26.602 Z11.124 A21.3573 B24.9641 
N586 X-306.776 Y26.576 Z11.138 A23.8427 B25.1920 
N587 X-306.753 Y26.548 Z11.150 A26.4367 B25.4019 
N588 X-306.727 Y26.516 Z11.161 A29.1343 B25.5898 
N589 X-306.700 Y26.477 Z11.167 A31.8974 B25.7498 
N590 X-306.670 Y26.429 Z11.168 A34.5912 B25.8741 
N591 X-306.637 Y26.360 Z11.150 A36.8075 B25.9525 
N592 X-306.603 Y26.253 Z11.100 A37.8112 B25.9802 
N593 X-306.568 Y26.112 Z11.022 A37.8271 B25.9789 
N594 X-306.533 Y25.954 Z10.933 A37.6417 B25.9719 
N595 X-306.499 Y25.783 Z10.838 A37.4566 B25.9646 
N596 X-306.466 Y25.600 Z10.737 A37.2773 B25.9571 
N597 X-306.435 Y25.402 Z10.628 A37.0893 B25.9489 
N598 X-306.407 Y25.190 Z10.513 A36.8822 B25.9397 
N599 X-306.383 Y24.963 Z10.390 A36.6545 B25.9292 
N600 X-306.362 Y24.721 Z10.260 A36.4086 B25.9180 
N601 X-306.339 Y24.466 Z10.124 A36.1468 B25.9056 
N602 X-306.313 Y24.197 Z9.983 A35.8700 B25.8921 
N603 X-306.287 Y23.916 Z9.836 A35.5775 B25.8774 
N604 X-306.259 Y23.622 Z9.685 A35.2667 B25.8613 
N605 X-306.229 Y23.318 Z9.530 A34.9341 B25.8436 
N606 X-306.197 Y23.004 Z9.371 A34.5759 B25.8240 
N607 X-306.165 Y22.680 Z9.211 A34.1885 B25.8022 
N608 X-306.131 Y22.349 Z9.048 A33.7696 B25.7780 
N609 X-306.095 Y22.011 Z8.885 A33.3196 B25.7512 
N610 X-306.058 Y21.667 Z8.722 A32.8412 B25.7217 
N611 X-306.020 Y21.319 Z8.559 A32.3380 B25.6895 
N612 X-305.981 Y20.967 Z8.399 A31.8139 B25.6548 
N613 X-305.941 Y20.612 Z8.240 A31.2729 B25.6176 
