; PROGRAM NAME: B00000013
; ORDER       : B000000
; OPER. NAME  : Spiral Rough Airfoil:104
; OPER. DESCR.: spiral roughing airfoil/pioro zgr
; OPER. TYPE  : rouAirfoil
; GEO. OPTION : 6
; MACHINE     : HSTM_500_SIM840D_Py
;             : HSTM500 - HAMUEL: 5-axis milling machine - SIM840D Traori PP_Script
; CONTROL     : SINUMERIK 840D
; created:   2021-11-15 09:58:01.019947
;-------DODATKOWE DANE-------------------
; PROGRAMISTA : Mariusz Malec
; PARTID      : 139T001534P1001_-
;  ap         : 2.5
;  ae         : 24.0
;  lean_angle : 1.0
;  airf_offset: 1.0
;----------------------------------------
;RAPORT("TB000000","Spiral Rough Airfoil:104")
N10 TRAFOOF
N11 D0
N12 G90 G94
N13 G0 G53 D0 Z550 B0
N14 STOPRE
M9 ; chlodziwo wyl
; --- Spiral Rough Airfoil:104 - spiral roughing airfoil/pioro zgr ---
N16 ;ToolChange : concat=None ,current_tdmid=None, PP.tdmId=941293
N17 TRAFOOF
N18 G0 G53 D0 X-200 Y150 Z550 B0
N19 T="7741293"
;RAPORT("TB000000","ToolChangeStart 7741293")
N20 M6
;RAPORT("TB000000","ToolChangeEnd")
N21 STOPRE
N22 MSG(" TLID=941293 D=40.0 R=6.0 Ang=0.0 Len=90.0 ")
N23 ; (Preloading tool)
N24 T="7741290"
N25 S2148 M03
N26 STOPRE
N27 CYCLE832(0.1,3,1)
N28 G0 G53 A181.0835 B-0.0000
N29 TRAORI
N30 G54 D1
N31 D1 
N32 ; DELTA A > 40.1
N33 TRAFOOF
N34 D1
N35 STOPRE
N36 G00 G54 Z296.000
N37 G01 A181.0835 F10000
N38 TRAORI
N39 G54 D1
N40 STOPRE
N41 TRANS 
N42 G00 X-223.557 Y-67.642 Z-78.482 A181.0835 
N43 M348 ; chlodziwo mgla
N44 X-223.557 Y-68.588 Z-28.491 
N45 G01 X-223.557 Y-68.103 Z-25.400 F2835 
N46 X-223.557 Y-66.686 Z-22.610 
N47 X-223.557 Y-64.477 Z-20.394 
N48 X-223.557 Y-61.692 Z-18.970 
N49 X-223.557 Y-58.602 Z-18.476 
N50 X-223.557 Y-50.997 Z-18.474 A181.1280 
N51 X-223.557 Y-43.482 Z-18.460 A181.1394 
N52 X-223.557 Y-36.141 Z-18.443 A181.1161 
N53 X-223.557 Y-29.053 Z-18.434 
N54 X-223.557 Y-22.292 Z-18.427 A181.1203 
N55 X-223.557 Y-15.920 Z-18.419 A181.1229 
N56 X-223.557 Y-9.988 Z-18.411 A181.1272 
N57 X-223.557 Y-4.533 Z-18.406 A181.1377 
N58 X-223.557 Y0.420 Z-18.404 A181.1569 
N59 X-223.557 Y4.860 Z-18.402 A181.1799 
N60 X-223.557 Y8.791 Z-18.398 A181.1887 
N61 X-223.557 Y12.227 Z-18.389 A181.1683 
N62 X-223.557 Y15.193 Z-18.376 A181.1161 
N63 X-223.557 Y17.720 Z-18.379 
N64 X-223.557 Y19.861 Z-18.389 A181.1464 
N65 X-223.557 Y21.645 Z-18.478 A181.5326 
N66 X-223.557 Y23.125 Z-18.684 A182.4533 
N67 X-223.557 Y24.355 Z-19.083 A184.2624 
N68 X-223.557 Y25.408 Z-19.752 A187.3135 
N69 X-223.557 Y26.375 Z-20.712 A191.7428 
N70 X-223.557 Y27.336 Z-21.852 A197.1509 
N71 X-223.557 Y28.305 Z-22.977 A202.7498 
N72 X-223.557 Y29.270 Z-23.987 A208.1091 
N73 X-223.557 Y30.230 Z-24.882 A213.2000 
N74 X-223.557 Y31.179 Z-25.655 A217.9710 
N75 X-223.557 Y32.118 Z-26.315 A222.4629 
N76 X-223.557 Y33.065 Z-26.883 A226.7871 
N77 X-223.557 Y34.035 Z-27.370 A231.0418 
N78 X-223.557 Y35.052 Z-27.782 A235.3319 
N79 X-223.557 Y36.128 Z-28.114 A239.7257 
N80 X-223.557 Y37.281 Z-28.353 A244.2955 
N81 X-223.557 Y38.492 Z-28.469 A248.9735 
N82 X-223.557 Y39.727 Z-28.433 A253.6531 
N83 X-223.557 Y40.953 Z-28.225 A258.2446 
N84 X-223.557 Y42.083 Z-27.827 A262.4654 
N85 X-223.557 Y43.009 Z-27.241 A265.9234 
N86 X-223.557 Y43.670 Z-26.489 A268.4062 
N87 X-223.557 Y44.079 Z-25.594 A269.9565 
N88 X-223.557 Y44.298 Z-24.570 A270.8033 
N89 X-223.557 Y44.395 Z-23.421 A271.1975 
N90 X-223.557 Y44.425 Z-22.149 A271.3466 
N91 X-223.557 Y44.426 Z-20.763 A271.3800 
N92 X-223.557 Y44.414 Z-19.275 A271.3686 
N93 X-223.557 Y44.402 Z-17.701 A271.3513 
N94 X-223.557 Y44.394 Z-16.066 A271.3474 
N95 X-223.557 Y44.390 Z-14.393 A271.3608 
N96 X-223.557 Y44.390 Z-12.712 A271.3846 
N97 X-223.557 Y44.387 Z-11.051 A271.3977 
N98 X-223.557 Y44.380 Z-9.437 A271.3888 
N99 X-223.557 Y44.367 Z-7.895 A271.3457 
N100 X-223.557 Y44.364 Z-6.448 A271.3369 
N101 X-223.557 Y44.365 Z-5.103 
N102 X-223.557 Y44.384 Z-3.867 A271.4210 
N103 X-223.557 Y44.483 Z-2.759 A271.8490 
N104 X-223.557 Y44.676 Z-1.772 A272.7101 
N105 X-223.557 Y45.006 Z-0.896 A274.1881 
N106 X-223.557 Y45.511 Z-0.107 A276.4628 
N107 X-223.557 Y46.224 Z0.633 A279.7038 
N108 X-223.557 Y47.136 Z1.375 A283.9024 
N109 X-223.557 Y48.164 Z2.154 A288.7642 
N110 X-223.557 Y49.177 Z2.970 A293.7700 
N111 X-223.557 Y50.102 Z3.803 A298.6129 
N112 X-223.557 Y50.943 Z4.657 A303.3073 
N113 X-223.557 Y51.705 Z5.535 A307.8800 
N114 X-223.557 Y52.383 Z6.439 A312.3347 
N115 X-223.557 Y52.993 Z7.390 A316.7973 
N116 X-223.557 Y53.539 Z8.411 A321.3678 
N117 X-223.557 Y54.020 Z9.536 A326.1879 
N118 X-223.557 Y54.412 Z10.782 A331.3242 
N119 X-223.557 Y54.694 Z12.197 A336.9731 
N120 X-223.557 Y54.795 Z13.742 A342.9845 
N121 X-223.557 Y54.625 Z15.220 A348.6066 
N122 X-223.557 Y54.168 Z16.464 A353.2683 
N123 X-223.557 Y53.453 Z17.408 A356.7883 
N124 X-223.557 Y52.503 Z18.046 A359.1785 
N125 X-223.557 Y51.321 Z18.408 A0.5582 
N126 X-223.557 Y49.892 Z18.561 A1.1654 
N127 X-223.557 Y48.193 Z18.591 A1.3086 
N128 X-223.557 Y46.194 Z18.574 A1.2645 
N129 X-223.557 Y43.876 Z18.556 A1.2003 
N130 X-223.557 Y41.227 Z18.557 A1.1990 
N131 X-223.557 Y38.242 Z18.560 
N132 X-223.557 Y34.933 Z18.563 
N133 X-223.557 Y31.327 Z18.568 A1.2032 
N134 X-223.557 Y27.462 Z18.571 A1.2049 
N135 X-223.557 Y23.387 Z18.574 A1.2044 
N136 X-223.557 Y19.162 Z18.577 A1.2032 
N137 X-223.557 Y14.854 Z18.580 A1.2023 
N138 X-223.557 Y10.535 Z18.583 A1.2028 
N139 X-223.557 Y6.278 Z18.587 A1.2061 
N140 X-223.557 Y2.151 Z18.592 A1.2144 
N141 X-223.557 Y-1.783 Z18.598 A1.2305 
N142 X-223.557 Y-5.471 Z18.606 A1.2550 
N143 X-223.557 Y-8.872 Z18.614 A1.2824 
N144 X-223.557 Y-11.958 Z18.618 A1.2925 
N145 X-223.557 Y-14.712 Z18.616 A1.2702 
N146 X-223.557 Y-17.135 Z18.604 A1.1990 
N147 X-223.557 Y-19.229 Z18.613 
N148 X-223.557 Y-21.037 Z18.621 
N149 X-223.557 Y-22.560 Z18.737 A1.6809 
N150 X-223.557 Y-23.840 Z18.999 A2.8244 
N151 X-223.557 Y-24.919 Z19.455 A4.8723 
N152 X-223.557 Y-25.858 Z20.143 A7.9970 
N153 X-223.557 Y-26.735 Z21.081 A12.3121 
N154 X-223.557 Y-27.628 Z22.220 A17.6719 
N155 X-223.557 Y-28.571 Z23.403 A23.4839 
N156 X-223.557 Y-29.528 Z24.465 A29.0431 
N157 X-223.557 Y-30.479 Z25.379 A34.2077 
N158 X-223.557 Y-31.429 Z26.171 A39.0749 
N159 X-223.557 Y-32.378 Z26.846 A43.6617 
N160 X-223.557 Y-33.342 Z27.429 A48.1043 
N161 X-223.557 Y-34.342 Z27.927 A52.5065 
N162 X-223.557 Y-35.402 Z28.350 A56.9959 
N163 X-223.557 Y-36.530 Z28.681 A61.6018 
N164 X-223.557 Y-37.741 Z28.907 A66.4050 
N165 X-223.557 Y-39.037 Z29.004 A71.4369 
N166 X-223.557 Y-40.333 Z28.922 A76.3780 
N167 X-223.557 Y-41.497 Z28.635 A80.7477 
N168 X-223.557 Y-42.451 Z28.154 A84.2979 
N169 X-223.557 Y-43.178 Z27.506 A86.9984 
N170 X-223.557 Y-43.694 Z26.710 A88.9242 
N171 X-223.557 Y-44.025 Z25.777 A90.1747 
N172 X-223.557 Y-44.204 Z24.715 A90.8667 
N173 X-223.557 Y-44.276 Z23.525 A91.1570 
N174 X-223.557 Y-44.285 Z22.212 A91.2045 
N175 X-223.557 Y-44.272 Z20.786 A91.1569 
N176 X-223.557 Y-44.259 Z19.258 A91.1017 
N177 X-223.557 Y-44.261 Z17.651 A91.0972 
N178 X-223.557 Y-44.266 Z15.983 
N179 X-223.557 Y-44.275 Z14.284 A91.1141 
N180 X-223.557 Y-44.287 Z12.584 A91.1430 
N181 X-223.557 Y-44.297 Z10.912 A91.1656 
N182 X-223.557 Y-44.302 Z9.295 A91.1697 
N183 X-223.557 Y-44.302 Z7.758 A91.1460 
N184 X-223.557 Y-44.296 Z6.319 A91.0972 
N185 X-223.557 Y-44.304 Z4.996 
N186 X-223.557 Y-44.311 Z3.780 
N187 X-223.557 Y-44.415 Z2.695 A91.5157 
N188 X-223.557 Y-44.655 Z1.729 A92.5384 
N189 X-223.557 Y-45.082 Z0.869 A94.4079 
N190 X-223.557 Y-45.706 Z0.084 A97.1883 
N191 X-223.557 Y-46.505 Z-0.665 A100.8149 
N192 X-223.557 Y-47.429 Z-1.414 A105.1131 
N193 X-223.557 Y-48.430 Z-2.197 A109.9148 
N194 X-223.557 Y-49.420 Z-3.018 A114.8775 
N195 X-223.557 Y-50.315 Z-3.852 A119.6381 
N196 X-223.557 Y-51.118 Z-4.699 A124.2045 
N197 X-223.557 Y-51.841 Z-5.566 A128.6389 
N198 X-223.557 Y-52.491 Z-6.463 A133.0000 
N199 X-223.557 Y-53.091 Z-7.426 A137.4801 
N200 X-223.557 Y-53.651 Z-8.497 A142.2557 
N201 X-223.557 Y-54.136 Z-9.677 A147.2892 
N202 X-223.557 Y-54.488 Z-10.926 A152.3735 
N203 X-223.557 Y-54.690 Z-12.251 A157.5733 
N204 X-223.557 Y-54.725 Z-13.694 A163.1157 
N205 X-223.557 Y-54.525 Z-15.154 A168.6359 
N206 X-223.557 Y-54.051 Z-16.492 A173.6732 
N207 X-223.557 Y-53.299 Z-17.489 A177.4245 
N208 X-223.557 Y-52.303 Z-18.075 A179.6416 
N209 X-223.557 Y-51.076 Z-18.350 A180.6953 
N210 X-223.557 Y-49.602 Z-18.451 A181.0964 
N211 X-223.557 Y-47.852 Z-18.474 A181.2089 
N212 X-223.557 Y-45.802 Z-18.470 A181.2238 
N213 X-223.557 Y-43.433 Z-18.460 A181.2159 
N214 X-223.557 Y-40.736 Z-18.449 A181.2078 
N215 X-223.557 Y-37.714 Z-18.440 A181.2078 
N216 X-223.557 Y-34.379 Z-18.430 
N217 X-223.557 Y-30.759 Z-18.419 
N218 X-223.557 Y-26.894 Z-18.407 
N219 X-223.557 Y-22.836 Z-18.395 A181.2087 
N220 X-223.557 Y-18.646 Z-18.382 A181.2102 
N221 X-223.557 Y-14.390 Z-18.369 A181.2132 
N222 X-223.557 Y-10.140 Z-18.356 A181.2176 
N223 X-223.557 Y-5.966 Z-18.343 A181.2222 
N224 X-223.557 Y-1.933 Z-18.330 A181.2247 
N225 X-223.557 Y1.899 Z-18.316 A181.2233 
N226 X-223.557 Y5.481 Z-18.303 A181.2168 
N227 X-223.557 Y8.777 Z-18.290 A181.2078 
N228 X-223.557 Y11.762 Z-18.282 
N229 X-223.557 Y14.428 Z-18.280 A181.2326 
N230 X-223.557 Y16.771 Z-18.307 A181.3876 
N231 X-223.557 Y18.805 Z-18.384 A181.7785 
N232 X-223.557 Y20.550 Z-18.542 A182.5549 
N233 X-223.557 Y22.038 Z-18.813 A183.8823 
N234 X-223.557 Y23.312 Z-19.238 A185.9473 
N235 X-223.557 Y24.426 Z-19.854 A188.9343 
N236 X-223.557 Y25.448 Z-20.668 A192.8987 
N237 X-223.557 Y26.436 Z-21.618 A197.6242 
N238 X-223.557 Y27.417 Z-22.592 A202.6658 
N239 X-223.557 Y28.393 Z-23.512 A207.7015 
N240 X-223.557 Y29.362 Z-24.343 A212.5673 
N241 X-223.557 Y30.314 Z-25.065 A217.1561 
N242 X-223.557 Y31.254 Z-25.685 A221.5005 
N243 X-223.557 Y32.195 Z-26.219 A225.6892 
N244 X-223.557 Y33.151 Z-26.676 A229.7877 
N245 X-223.557 Y34.139 Z-27.059 A233.8863 
N246 X-223.557 Y35.171 Z-27.365 A238.0330 
N247 X-223.557 Y36.260 Z-27.585 A242.2948 
N248 X-223.557 Y37.405 Z-27.701 A246.6674 
N249 X-223.557 Y38.570 Z-27.682 A251.0251 
N250 X-223.557 Y39.712 Z-27.507 A255.2266 
N251 X-223.557 Y40.786 Z-27.164 A259.1351 
N252 X-223.557 Y41.728 Z-26.651 A262.5389 
N253 X-223.557 Y42.491 Z-25.976 A265.2800 
N254 X-223.557 Y43.061 Z-25.157 A267.3186 
N255 X-223.557 Y43.462 Z-24.206 A268.7497 
N256 X-223.557 Y43.733 Z-23.135 A269.7214 
N257 X-223.557 Y43.913 Z-21.950 A270.3761 
N258 X-223.557 Y44.031 Z-20.660 A270.8193 
N259 X-223.557 Y44.104 Z-19.277 A271.1143 
N260 X-223.557 Y44.144 Z-17.816 A271.2962 
N261 X-223.557 Y44.157 Z-16.295 A271.3859 
N262 X-223.557 Y44.151 Z-14.739 A271.4063 
N263 X-223.557 Y44.138 Z-13.169 A271.3960 
N264 X-223.557 Y44.128 Z-11.610 
N265 X-223.557 Y44.135 Z-10.087 A271.4686 
N266 X-223.557 Y44.170 Z-8.620 A271.6682 
N267 X-223.557 Y44.240 Z-7.230 A272.0363 
N268 X-223.557 Y44.352 Z-5.929 A272.6091 
N269 X-223.557 Y44.512 Z-4.728 A273.4272 
N270 X-223.557 Y44.731 Z-3.628 A274.5485 
N271 X-223.557 Y45.027 Z-2.626 A276.0491 
N272 X-223.557 Y45.419 Z-1.710 A278.0204 
N273 X-223.557 Y45.927 Z-0.859 A280.5547 
N274 X-223.557 Y46.558 Z-0.047 A283.7049 
N275 X-223.557 Y47.295 Z0.757 A287.4193 
N276 X-223.557 Y48.087 Z1.569 A291.5165 
N277 X-223.557 Y48.874 Z2.393 A295.7548 
N278 X-223.557 Y49.624 Z3.230 A300.0117 
N279 X-223.557 Y50.325 Z4.083 A304.2389 
N280 X-223.557 Y50.965 Z4.954 A308.4091 
N281 X-223.557 Y51.548 Z5.855 A312.5630 
N282 X-223.557 Y52.080 Z6.805 A316.7922 
N283 X-223.557 Y52.556 Z7.824 A321.1655 
N284 X-223.557 Y52.969 Z8.938 A325.7768 
N285 X-223.557 Y53.293 Z10.158 A330.6595 
N286 X-223.557 Y53.504 Z11.515 A335.9431 
N287 X-223.557 Y53.545 Z12.985 A341.5356 
N288 X-223.557 Y53.335 Z14.410 A346.8392 
N289 X-223.557 Y52.847 Z15.639 A351.3234 
N290 X-223.557 Y52.097 Z16.606 A354.8060 
N291 X-223.557 Y51.103 Z17.313 A357.3264 
N292 X-223.557 Y49.868 Z17.790 A359.0235 
N293 X-223.557 Y48.381 Z18.087 A0.0824 
N294 X-223.557 Y46.624 Z18.254 A0.6894 
N295 X-223.557 Y44.578 Z18.335 A0.9951 
N296 X-223.557 Y42.227 Z18.363 A1.1126 
N297 X-223.557 Y39.565 Z18.362 A1.1263 
N298 X-223.557 Y36.594 Z18.353 A1.1013 
N299 X-223.557 Y33.328 Z18.346 A1.0770 
N300 X-223.557 Y29.797 Z18.348 
N301 X-223.557 Y26.037 Z18.350 
N302 X-223.557 Y22.098 Z18.353 A1.0778 
N303 X-223.557 Y18.042 Z18.357 A1.0839 
N304 X-223.557 Y13.932 Z18.362 A1.0906 
N305 X-223.557 Y9.836 Z18.367 A1.1019 
N306 X-223.557 Y5.821 Z18.373 A1.1173 
N307 X-223.557 Y1.949 Z18.378 A1.1315 
N308 X-223.557 Y-1.725 Z18.381 A1.1322 
N309 X-223.557 Y-5.156 Z18.380 A1.1117 
N310 X-223.557 Y-8.311 Z18.378 A1.0770 
N311 X-223.557 Y-11.167 Z18.387 
N312 X-223.557 Y-13.726 Z18.395 
N313 X-223.557 Y-15.978 Z18.453 A1.3149 
N314 X-223.557 Y-17.938 Z18.580 A1.8877 
N315 X-223.557 Y-19.629 Z18.815 A2.9932 
N316 X-223.557 Y-21.086 Z19.198 A4.8338 
N317 X-223.557 Y-22.358 Z19.761 A7.5643 
N318 X-223.557 Y-23.502 Z20.491 A11.1665 
N319 X-223.557 Y-24.572 Z21.340 A15.4553 
N320 X-223.557 Y-25.607 Z22.241 A20.1744 
N321 X-223.557 Y-26.629 Z23.131 A25.0617 
N322 X-223.557 Y-27.631 Z23.940 A29.8160 
N323 X-223.557 Y-28.603 Z24.642 A34.3011 
N324 X-223.557 Y-29.553 Z25.247 A38.5394 
N325 X-223.557 Y-30.484 Z25.760 A42.5553 
N326 X-223.557 Y-31.407 Z26.192 A46.4106 
N327 X-223.557 Y-32.337 Z26.550 A50.1733 
N328 X-223.557 Y-33.284 Z26.836 A53.8993 
N329 X-223.557 Y-34.261 Z27.050 A57.6436 
N330 X-223.557 Y-35.270 Z27.181 A61.4189 
N331 X-223.557 Y-36.306 Z27.215 A65.2113 
N332 X-223.557 Y-37.355 Z27.137 A68.9814 
N333 X-223.557 Y-38.391 Z26.929 A72.6432 
N334 X-223.557 Y-39.382 Z26.580 A76.0963 
N335 X-223.557 Y-40.303 Z26.088 A79.2808 
N336 X-223.557 Y-41.132 Z25.452 A82.1366 
N337 X-223.557 Y-41.846 Z24.680 A84.5979 
N338 X-223.557 Y-42.432 Z23.779 A86.6269 
N339 X-223.557 Y-42.889 Z22.761 A88.2257 
N340 X-223.557 Y-43.227 Z21.638 A89.4296 
N341 X-223.557 Y-43.461 Z20.424 A90.2796 
N342 X-223.557 Y-43.603 Z19.133 A90.8159 
N343 X-223.557 Y-43.673 Z17.779 A91.0943 
N344 X-223.557 Y-43.693 Z16.381 A91.1802 
N345 X-223.557 Y-43.686 Z14.957 A91.1572 
N346 X-223.557 Y-43.669 Z13.525 A91.0862 
N347 X-223.557 Y-43.671 Z12.109 
N348 X-223.557 Y-43.674 Z10.716 
N349 X-223.557 Y-43.730 Z9.374 A91.3139 
N350 X-223.557 Y-43.853 Z8.096 A91.8514 
N351 X-223.557 Y-44.059 Z6.893 A92.7908 
N352 X-223.557 Y-44.354 Z5.767 A94.1772 
N353 X-223.557 Y-44.732 Z4.715 A96.0113 
N354 X-223.557 Y-45.191 Z3.730 A98.2884 
N355 X-223.557 Y-45.727 Z2.799 A101.0031 
N356 X-223.557 Y-46.330 Z1.903 A104.1304 
N357 X-223.557 Y-46.976 Z1.029 A107.5763 
N358 X-223.557 Y-47.633 Z0.168 A111.2117 
N359 X-223.557 Y-48.283 Z-0.688 A114.9645 
N360 X-223.557 Y-48.902 Z-1.542 A118.7416 
N361 X-223.557 Y-49.474 Z-2.394 A122.4728 
N362 X-223.557 Y-49.997 Z-3.247 A126.1528 
N363 X-223.557 Y-50.468 Z-4.108 A129.7835 
N364 X-223.557 Y-50.887 Z-4.984 A133.3945 
N365 X-223.557 Y-51.255 Z-5.889 A137.0287 
N366 X-223.557 Y-51.567 Z-6.833 A140.7244 
N367 X-223.557 Y-51.817 Z-7.830 A144.5318 
N368 X-223.557 Y-51.990 Z-8.891 A148.4865 
N369 X-223.557 Y-52.064 Z-10.020 A152.5943 
N370 X-223.557 Y-52.011 Z-11.216 A156.8556 
N371 X-223.557 Y-51.796 Z-12.461 A161.2233 
N372 X-223.557 Y-51.387 Z-13.740 A165.6806 
N373 X-223.557 Y-50.742 Z-14.986 A170.0206 
N374 X-223.557 Y-49.832 Z-16.087 A173.8672 
N375 X-223.557 Y-48.652 Z-16.978 A177.0125 
N376 X-223.557 Y-47.206 Z-17.601 A179.2593 
N377 X-223.557 Y-45.497 Z-17.956 A180.5783 
N378 X-223.557 Y-43.518 Z-18.106 A181.1781 
N379 X-223.557 Y-41.259 Z-18.140 A181.3590 
N380 X-223.557 Y-38.712 Z-18.128 A181.3718 
N381 X-223.557 Y-35.876 Z-18.106 A181.3489 
N382 X-223.557 Y-32.765 Z-18.088 A181.3383 
N383 X-223.557 Y-29.402 Z-18.071 
N384 X-223.557 Y-25.822 Z-18.055 
N385 X-223.557 Y-22.070 Z-18.037 
N386 X-223.557 Y-18.202 Z-18.019 A181.3439 
N387 X-223.557 Y-14.277 Z-18.001 A181.3519 
N388 X-223.557 Y-10.358 Z-17.983 A181.3607 
N389 X-223.557 Y-6.508 Z-17.964 A181.3676 
N390 X-223.557 Y-2.784 Z-17.944 A181.3674 
N391 X-223.557 Y0.760 Z-17.924 A181.3616 
N392 X-223.557 Y4.083 Z-17.902 A181.3399 
N393 X-223.557 Y7.149 Z-17.888 A181.3383 
N394 X-223.557 Y9.944 Z-17.876 
N395 X-223.557 Y12.454 Z-17.904 A181.5129 
N396 X-223.557 Y14.681 Z-18.007 A182.0411 
N397 X-223.557 Y16.640 Z-18.228 A183.1460 
N398 X-223.557 Y18.358 Z-18.594 A184.9892 
N399 X-223.557 Y19.875 Z-19.103 A187.6087 
N400 X-223.557 Y21.238 Z-19.740 A190.9560 
N401 X-223.557 Y22.491 Z-20.468 A194.8963 
N402 X-223.557 Y23.670 Z-21.228 A199.1836 
N403 X-223.557 Y24.783 Z-21.948 A203.4967 
N404 X-223.557 Y25.840 Z-22.599 A207.6879 
N405 X-223.557 Y26.853 Z-23.185 A211.7516 
N406 X-223.557 Y27.832 Z-23.702 A215.6701 
N407 X-223.557 Y28.784 Z-24.150 A219.4360 
N408 X-223.557 Y29.721 Z-24.532 A223.0794 
N409 X-223.557 Y30.649 Z-24.850 A226.6262 
N410 X-223.557 Y31.581 Z-25.107 A230.1166 
N411 X-223.557 Y32.523 Z-25.299 A233.5813 
N412 X-223.557 Y33.482 Z-25.423 A237.0399 
N413 X-223.557 Y34.460 Z-25.472 A240.5057 
N414 X-223.557 Y35.452 Z-25.434 A243.9678 
N415 X-223.557 Y36.448 Z-25.297 A247.3901 
N416 X-223.557 Y37.433 Z-25.052 A250.7307 
N417 X-223.557 Y38.388 Z-24.689 A253.9373 
N418 X-223.557 Y39.289 Z-24.204 A256.9371 
N419 X-223.557 Y40.116 Z-23.596 A259.6755 
N420 X-223.557 Y40.856 Z-22.869 A262.1194 
N421 X-223.557 Y41.497 Z-22.032 A264.2404 
N422 X-223.557 Y42.033 Z-21.093 A266.0167 
N423 X-223.557 Y42.461 Z-20.065 A267.4450 
N424 X-223.557 Y42.794 Z-18.959 A268.5625 
N425 X-223.557 Y43.049 Z-17.790 A269.4317 
N426 X-223.557 Y43.245 Z-16.571 A270.1243 
N427 X-223.557 Y43.401 Z-15.316 A270.7071 
N428 X-223.557 Y43.532 Z-14.042 A271.2390 
N429 X-223.557 Y43.653 Z-12.763 A271.7759 
N430 X-223.557 Y43.777 Z-11.494 A272.3735 
N431 X-223.557 Y43.914 Z-10.250 A273.0839 
N432 X-223.557 Y44.077 Z-9.043 A273.9584 
N433 X-223.557 Y44.275 Z-7.881 A275.0486 
N434 X-223.557 Y44.519 Z-6.771 A276.4038 
N435 X-223.557 Y44.815 Z-5.714 A278.0631 
N436 X-223.557 Y45.164 Z-4.708 A280.0385 
N437 X-223.557 Y45.561 Z-3.748 A282.3114 
N438 X-223.557 Y45.997 Z-2.828 A284.8540 
N439 X-223.557 Y46.466 Z-1.939 A287.6378 
N440 X-223.557 Y46.958 Z-1.072 A290.6350 
N441 X-223.557 Y47.463 Z-0.219 A293.7979 
N442 X-223.557 Y47.965 Z0.626 A297.0761 
N443 X-223.557 Y48.456 Z1.471 A300.4384 
N444 X-223.557 Y48.925 Z2.320 A303.8556 
N445 X-223.557 Y49.365 Z3.179 A307.3080 
N446 X-223.557 Y49.771 Z4.054 A310.7989 
N447 X-223.557 Y50.139 Z4.956 A314.3492 
N448 X-223.557 Y50.463 Z5.895 A317.9840 
N449 X-223.557 Y50.736 Z6.885 A321.7432 
N450 X-223.557 Y50.945 Z7.936 A325.6526 
N451 X-223.557 Y51.069 Z9.057 A329.7383 
N452 X-223.557 Y51.088 Z10.260 A334.0485 
N453 X-223.557 Y50.965 Z11.538 A338.5590 
N454 X-223.557 Y50.659 Z12.861 A343.1804 
N455 X-223.557 Y50.127 Z14.173 A347.7425 
N456 X-223.557 Y49.334 Z15.363 A351.8707 
N457 X-223.557 Y48.270 Z16.333 A355.2275 
N458 X-223.557 Y46.944 Z17.048 A357.7067 
N459 X-223.557 Y45.361 Z17.528 A359.3862 
N460 X-223.557 Y43.517 Z17.812 A0.4004 
N461 X-223.557 Y41.404 Z17.948 A0.9028 
N462 X-223.557 Y39.016 Z17.991 A1.0699 
N463 X-223.557 Y36.349 Z17.990 A1.0709 
N464 X-223.557 Y33.413 Z17.983 A1.0307 
N465 X-223.557 Y30.228 Z17.984 A1.0135 
N466 X-223.557 Y26.822 Z17.992 
N467 X-223.557 Y23.235 Z18.001 
N468 X-223.557 Y19.520 Z18.012 A1.0212 
N469 X-223.557 Y15.733 Z18.024 A1.0326 
N470 X-223.557 Y11.933 Z18.037 A1.0494 
N471 X-223.557 Y8.180 Z18.052 A1.0715 
N472 X-223.557 Y4.534 Z18.064 A1.0881 
N473 X-223.557 Y1.045 Z18.073 A1.0855 
N474 X-223.557 Y-2.242 Z18.075 A1.0444 
N475 X-223.557 Y-5.292 Z18.082 A1.0135 
N476 X-223.557 Y-8.087 Z18.099 
N477 X-223.557 Y-10.622 Z18.136 A1.1207 
N478 X-223.557 Y-12.880 Z18.261 A1.6494 
N479 X-223.557 Y-14.879 Z18.487 A2.7017 
N480 X-223.557 Y-16.640 Z18.844 A4.4477 
N481 X-223.557 Y-18.200 Z19.351 A7.0022 
N482 X-223.557 Y-19.607 Z20.001 A10.3691 
N483 X-223.557 Y-20.905 Z20.738 A14.3330 
N484 X-223.557 Y-22.120 Z21.481 A18.5536 
N485 X-223.557 Y-23.269 Z22.185 A22.8157 
N486 X-223.557 Y-24.365 Z22.830 A27.0178 
N487 X-223.557 Y-25.414 Z23.403 A31.0768 
N488 X-223.557 Y-26.425 Z23.901 A34.9674 
N489 X-223.557 Y-27.407 Z24.326 A38.7041 
N490 X-223.557 Y-28.367 Z24.679 A42.2936 
N491 X-223.557 Y-29.313 Z24.964 A45.7643 
N492 X-223.557 Y-30.254 Z25.182 A49.1430 
N493 X-223.557 Y-31.193 Z25.331 A52.4487 
N494 X-223.557 Y-32.135 Z25.408 A55.6964 
N495 X-223.557 Y-33.078 Z25.409 A58.8887 
N496 X-223.557 Y-34.020 Z25.327 A62.0154 
N497 X-223.557 Y-34.953 Z25.157 A65.0619 
N498 X-223.557 Y-35.869 Z24.893 A68.0078 
N499 X-223.557 Y-36.757 Z24.531 A70.8234 
N500 X-223.557 Y-37.606 Z24.069 A73.4823 
N501 X-223.557 Y-38.406 Z23.507 A75.9660 
N502 X-223.557 Y-39.149 Z22.849 A78.2561 
N503 X-223.557 Y-39.828 Z22.098 A80.3390 
N504 X-223.557 Y-40.438 Z21.263 A82.2117 
N505 X-223.557 Y-40.981 Z20.351 A83.8858 
N506 X-223.557 Y-41.461 Z19.373 A85.3824 
N507 X-223.557 Y-41.882 Z18.338 A86.7269 
N508 X-223.557 Y-42.253 Z17.259 A87.9504 
N509 X-223.557 Y-42.581 Z16.147 A89.0888 
N510 X-223.557 Y-42.877 Z15.013 A90.1809 
N511 X-223.557 Y-43.150 Z13.870 A91.2665 
N512 X-223.557 Y-43.409 Z12.729 A92.3846 
N513 X-223.557 Y-43.663 Z11.599 A93.5747 
N514 X-223.557 Y-43.922 Z10.489 A94.8764 
N515 X-223.557 Y-44.193 Z9.406 A96.3266 
N516 X-223.557 Y-44.483 Z8.353 A97.9547 
N517 X-223.557 Y-44.795 Z7.333 A99.7752 
N518 X-223.557 Y-45.129 Z6.344 A101.7962 
N519 X-223.557 Y-45.488 Z5.385 A104.0229 
N520 X-223.557 Y-45.867 Z4.452 A106.4497 
N521 X-223.557 Y-46.262 Z3.539 A109.0520 
N522 X-223.557 Y-46.664 Z2.643 A111.8009 
N523 X-223.557 Y-47.067 Z1.758 A114.6770 
N524 X-223.557 Y-47.463 Z0.880 A117.6471 
N525 X-223.557 Y-47.843 Z0.006 A120.6852 
N526 X-223.557 Y-48.202 Z-0.868 A123.7732 
N527 X-223.557 Y-48.532 Z-1.746 A126.8931 
N528 X-223.557 Y-48.829 Z-2.632 A130.0427 
N529 X-223.557 Y-49.091 Z-3.534 A133.2370 
N530 X-223.557 Y-49.313 Z-4.459 A136.4913 
N531 X-223.557 Y-49.489 Z-5.416 A139.8260 
N532 X-223.557 Y-49.608 Z-6.411 A143.2587 
N533 X-223.557 Y-49.658 Z-7.453 A146.8020 
N534 X-223.557 Y-49.620 Z-8.544 A150.4637 
N535 X-223.557 Y-49.472 Z-9.685 A154.2484 
N536 X-223.557 Y-49.189 Z-10.875 A158.1565 
N537 X-223.557 Y-48.738 Z-12.094 A162.1338 
N538 X-223.557 Y-48.087 Z-13.314 A166.1169 
N539 X-223.557 Y-47.207 Z-14.493 A169.9896 
N540 X-223.557 Y-46.076 Z-15.588 A173.6548 
N541 X-223.557 Y-44.677 Z-16.508 A176.8120 
N542 X-223.557 Y-43.012 Z-17.158 A179.1043 
N543 X-223.557 Y-41.091 Z-17.534 A180.4742 
N544 X-223.557 Y-38.917 Z-17.708 A181.1592 
N545 X-223.557 Y-36.490 Z-17.764 A181.4429 
N546 X-223.557 Y-33.811 Z-17.763 A181.5319 
N547 X-223.557 Y-30.893 Z-17.739 A181.5385 
N548 X-223.557 Y-27.757 Z-17.708 A181.5205 
N549 X-223.557 Y-24.436 Z-17.678 A181.5104 
N550 X-223.557 Y-20.970 Z-17.651 
N551 X-223.557 Y-17.406 Z-17.624 A181.5183 
N552 X-223.557 Y-13.800 Z-17.600 A181.5369 
N553 X-223.557 Y-10.205 Z-17.574 A181.5536 
N554 X-223.557 Y-6.677 Z-17.546 A181.5586 
N555 X-223.557 Y-3.267 Z-17.514 A181.5407 
N556 X-223.557 Y-0.019 Z-17.483 A181.5104 
N557 X-223.557 Y3.031 Z-17.462 
N558 X-223.557 Y5.861 Z-17.457 A181.5759 
N559 X-223.557 Y8.448 Z-17.509 A181.9052 
N560 X-223.557 Y10.789 Z-17.637 A182.6177 
N561 X-223.557 Y12.891 Z-17.875 A183.9032 
N562 X-223.557 Y14.775 Z-18.249 A185.9270 
N563 X-223.557 Y16.477 Z-18.760 A188.7430 
N564 X-223.557 Y18.030 Z-19.359 A192.1712 
N565 X-223.557 Y19.461 Z-19.973 A195.9097 
N566 X-223.557 Y20.788 Z-20.561 A199.7525 
N567 X-223.557 Y22.031 Z-21.110 A203.6212 
N568 X-223.557 Y23.203 Z-21.608 A207.4387 
N569 X-223.557 Y24.318 Z-22.047 A211.1555 
N570 X-223.557 Y25.385 Z-22.426 A214.7564 
N571 X-223.557 Y26.413 Z-22.743 A218.2318 
N572 X-223.557 Y27.412 Z-22.999 A221.5904 
N573 X-223.557 Y28.390 Z-23.196 A224.8500 
N574 X-223.557 Y29.352 Z-23.332 A228.0239 
N575 X-223.557 Y30.305 Z-23.406 A231.1266 
N576 X-223.557 Y31.250 Z-23.418 A234.1676 
N577 X-223.557 Y32.188 Z-23.363 A237.1476 
N578 X-223.557 Y33.116 Z-23.237 A240.0605 
N579 X-223.557 Y34.031 Z-23.038 A242.8963 
N580 X-223.557 Y34.926 Z-22.761 A245.6401 
N581 X-223.557 Y35.794 Z-22.407 A248.2763 
N582 X-223.557 Y36.630 Z-21.974 A250.7933 
N583 X-223.557 Y37.427 Z-21.464 A253.1821 
N584 X-223.557 Y38.182 Z-20.879 A255.4378 
N585 X-223.557 Y38.891 Z-20.226 A257.5610 
N586 X-223.557 Y39.552 Z-19.507 A259.5586 
N587 X-223.557 Y40.167 Z-18.731 A261.4424 
N588 X-223.557 Y40.738 Z-17.904 A263.2271 
N589 X-223.557 Y41.266 Z-17.033 A264.9311 
N590 X-223.557 Y41.755 Z-16.125 A266.5757 
N591 X-223.557 Y42.211 Z-15.189 A268.1828 
N592 X-223.557 Y42.637 Z-14.232 A269.7747 
N593 X-223.557 Y43.037 Z-13.262 A271.3731 
N594 X-223.557 Y43.417 Z-12.284 A272.9984 
N595 X-223.557 Y43.781 Z-11.306 A274.6688 
N596 X-223.557 Y44.131 Z-10.333 A276.4011 
N597 X-223.557 Y44.473 Z-9.369 A278.2088 
N598 X-223.557 Y44.807 Z-8.417 A280.1015 
N599 X-223.557 Y45.136 Z-7.479 A282.0863 
N600 X-223.557 Y45.463 Z-6.557 A284.1682 
N601 X-223.557 Y45.786 Z-5.651 A286.3481 
N602 X-223.557 Y46.107 Z-4.759 A288.6241 
N603 X-223.557 Y46.424 Z-3.881 A290.9931 
N604 X-223.557 Y46.736 Z-3.013 A293.4519 
N605 X-223.557 Y47.043 Z-2.154 A295.9960 
N606 X-223.557 Y47.341 Z-1.299 A298.6209 
N607 X-223.557 Y47.629 Z-0.445 A301.3251 
N608 X-223.557 Y47.904 Z0.412 A304.1084 
N609 X-223.557 Y48.163 Z1.279 A306.9707 
N610 X-223.557 Y48.402 Z2.160 A309.9154 
N611 X-223.557 Y48.615 Z3.062 A312.9514 
N612 X-223.557 Y48.798 Z3.992 A316.0932 
N613 X-223.557 Y48.943 Z4.960 A319.3599 
N614 X-223.557 Y49.039 Z5.974 A322.7725 
N615 X-223.557 Y49.071 Z7.042 A326.3370 
N616 X-223.557 Y49.017 Z8.167 A330.0628 
N617 X-223.557 Y48.856 Z9.356 A333.9747 
N618 X-223.557 Y48.558 Z10.605 A338.0655 
N619 X-223.557 Y48.087 Z11.895 A342.2866 
N620 X-223.557 Y47.403 Z13.184 A346.5168 
N621 X-223.557 Y46.471 Z14.387 A350.4763 
N622 X-223.557 Y45.275 Z15.422 A353.8938 
N623 X-223.557 Y43.817 Z16.241 A356.6236 
N624 X-223.557 Y42.102 Z16.831 A358.6131 
N625 X-223.557 Y40.136 Z17.200 A359.8775 
N626 X-223.557 Y37.922 Z17.392 A0.5350 
N627 X-223.557 Y35.460 Z17.468 A0.7847 
N628 X-223.557 Y32.758 Z17.489 A0.8295 
N629 X-223.557 Y29.830 Z17.496 A0.8105 
N630 X-223.557 Y26.702 Z17.506 A0.7882 
N631 X-223.557 Y23.409 Z17.522 A0.7835 
N632 X-223.557 Y19.991 Z17.542 
N633 X-223.557 Y16.499 Z17.566 A0.7959 
N634 X-223.557 Y12.985 Z17.591 A0.8119 
N635 X-223.557 Y9.502 Z17.616 A0.8284 
N636 X-223.557 Y6.103 Z17.639 A0.8355 
N637 X-223.557 Y2.834 Z17.659 A0.8267 
N638 X-223.557 Y-0.264 Z17.672 A0.7835 
N639 X-223.557 Y-3.158 Z17.698 
N640 X-223.557 Y-5.842 Z17.721 
N641 X-223.557 Y-8.286 Z17.839 A1.2172 
N642 X-223.557 Y-10.496 Z18.079 A2.2714 
N643 X-223.557 Y-12.486 Z18.468 A4.1334 
N644 X-223.557 Y-14.285 Z18.981 A6.7606 
N645 X-223.557 Y-15.924 Z19.580 A10.0138 
N646 X-223.557 Y-17.437 Z20.218 A13.7082 
N647 X-223.557 Y-18.847 Z20.848 A17.6310 
N648 X-223.557 Y-20.164 Z21.423 A21.5497 
N649 X-223.557 Y-21.401 Z21.928 A25.3638 
N650 X-223.557 Y-22.569 Z22.365 A29.0507 
N651 X-223.557 Y-23.680 Z22.732 A32.5897 
N652 X-223.557 Y-24.742 Z23.033 A35.9777 
N653 X-223.557 Y-25.765 Z23.269 A39.2271 
N654 X-223.557 Y-26.756 Z23.442 A42.3465 
N655 X-223.557 Y-27.722 Z23.555 A45.3525 
N656 X-223.557 Y-28.668 Z23.609 A48.2616 
N657 X-223.557 Y-29.598 Z23.605 A51.0861 
N658 X-223.557 Y-30.514 Z23.541 A53.8360 
N659 X-223.557 Y-31.416 Z23.419 A56.5180 
N660 X-223.557 Y-32.304 Z23.237 A59.1357 
N661 X-223.557 Y-33.177 Z22.995 A61.6906 
N662 X-223.557 Y-34.034 Z22.693 A64.1835 
N663 X-223.557 Y-34.870 Z22.332 A66.6143 
N664 X-223.557 Y-35.684 Z21.911 A68.9830 
N665 X-223.557 Y-36.474 Z21.434 A71.2903 
N666 X-223.557 Y-37.237 Z20.901 A73.5377 
N667 X-223.557 Y-37.970 Z20.316 A75.7274 
N668 X-223.557 Y-38.673 Z19.682 A77.8627 
N669 X-223.557 Y-39.343 Z19.002 A79.9480 
N670 X-223.557 Y-39.980 Z18.282 A81.9885 
N671 X-223.557 Y-40.584 Z17.525 A83.9901 
N672 X-223.557 Y-41.155 Z16.736 A85.9601 
N673 X-223.557 Y-41.694 Z15.920 A87.9080 
N674 X-223.557 Y-42.202 Z15.082 A89.8442 
N675 X-223.557 Y-42.681 Z14.227 A91.7801 
N676 X-223.557 Y-43.134 Z13.358 A93.7277 
N677 X-223.557 Y-43.563 Z12.480 A95.6976 
N678 X-223.557 Y-43.970 Z11.595 A97.6992 
N679 X-223.557 Y-44.357 Z10.706 A99.7424 
N680 X-223.557 Y-44.726 Z9.815 A101.8351 
N681 X-223.557 Y-45.078 Z8.924 A103.9821 
N682 X-223.557 Y-45.414 Z8.033 A106.1875 
N683 X-223.557 Y-45.735 Z7.143 A108.4552 
N684 X-223.557 Y-46.041 Z6.253 A110.7864 
N685 X-223.557 Y-46.330 Z5.363 A113.1784 
N686 X-223.557 Y-46.603 Z4.473 A115.6300 
N687 X-223.557 Y-46.856 Z3.580 A118.1395 
N688 X-223.557 Y-47.088 Z2.684 A120.7016 
N689 X-223.557 Y-47.297 Z1.783 A123.3137 
N690 X-223.557 Y-47.480 Z0.876 A125.9738 
N691 X-223.557 Y-47.633 Z-0.039 A128.6783 
N692 X-223.557 Y-47.753 Z-0.965 A131.4271 
N693 X-223.557 Y-47.836 Z-1.905 A134.2257 
N694 X-223.557 Y-47.879 Z-2.862 A137.0815 
N695 X-223.557 Y-47.873 Z-3.842 A140.0033 
N696 X-223.557 Y-47.813 Z-4.847 A143.0012 
N697 X-223.557 Y-47.686 Z-5.883 A146.0795 
N698 X-223.557 Y-47.480 Z-6.951 A149.2426 
N699 X-223.557 Y-47.177 Z-8.052 A152.4948 
N700 X-223.557 Y-46.759 Z-9.188 A155.8482 
N701 X-223.557 Y-46.203 Z-10.353 A159.2974 
N702 X-223.557 Y-45.482 Z-11.530 A162.7970 
N703 X-223.557 Y-44.569 Z-12.695 A166.2868 
N704 X-223.557 Y-43.443 Z-13.827 A169.7468 
N705 X-223.557 Y-42.086 Z-14.908 A173.1664 
N706 X-223.557 Y-40.478 Z-15.841 A176.2261 
N707 X-223.557 Y-38.621 Z-16.534 A178.5740 
N708 X-223.557 Y-36.530 Z-16.979 A180.1486 
N709 X-223.557 Y-34.218 Z-17.225 A181.0904 
N710 X-223.557 Y-31.696 Z-17.327 A181.5678 
N711 X-223.557 Y-28.977 Z-17.339 A181.7403 
N712 X-223.557 Y-26.080 Z-17.306 A181.7525 
N713 X-223.557 Y-23.032 Z-17.262 A181.7187 
N714 X-223.557 Y-19.869 Z-17.223 A181.7027 
N715 X-223.557 Y-16.629 Z-17.189 
N716 X-223.557 Y-13.359 Z-17.157 A181.7107 
N717 X-223.557 Y-10.105 Z-17.125 A181.7125 
N718 X-223.557 Y-6.912 Z-17.091 A181.7027 
N719 X-223.557 Y-3.823 Z-17.061 
N720 X-223.557 Y-0.869 Z-17.033 
N721 X-223.557 Y1.917 Z-17.036 A181.8356 
N722 X-223.557 Y4.514 Z-17.106 A182.2928 
N723 X-223.557 Y6.913 Z-17.278 A183.2745 
N724 X-223.557 Y9.118 Z-17.571 A184.9303 
N725 X-223.557 Y11.142 Z-17.969 A187.2551 
N726 X-223.557 Y13.006 Z-18.436 A190.1386 
N727 X-223.557 Y14.730 Z-18.931 A193.4182 
N728 X-223.557 Y16.330 Z-19.413 A196.9030 
N729 X-223.557 Y17.817 Z-19.844 A200.3993 
N730 X-223.557 Y19.201 Z-20.215 A203.8321 
N731 X-223.557 Y20.498 Z-20.534 A207.1955 
N732 X-223.557 Y21.721 Z-20.800 A210.4703 
N733 X-223.557 Y22.881 Z-21.012 A213.6396 
N734 X-223.557 Y23.988 Z-21.172 A216.7039 
N735 X-223.557 Y25.051 Z-21.281 A219.6676 
N736 X-223.557 Y26.077 Z-21.342 A222.5421 
N737 X-223.557 Y27.074 Z-21.355 A225.3401 
N738 X-223.557 Y28.047 Z-21.321 A228.0715 
N739 X-223.557 Y28.998 Z-21.240 A230.7456 
N740 X-223.557 Y29.931 Z-21.113 A233.3691 
N741 X-223.557 Y30.846 Z-20.939 A235.9462 
N742 X-223.557 Y31.744 Z-20.718 A238.4790 
N743 X-223.557 Y32.624 Z-20.450 A240.9683 
N744 X-223.557 Y33.483 Z-20.136 A243.4144 
N745 X-223.557 Y34.322 Z-19.777 A245.8179 
N746 X-223.557 Y35.138 Z-19.373 A248.1800 
N747 X-223.557 Y35.931 Z-18.926 A250.5028 
N748 X-223.557 Y36.698 Z-18.439 A252.7888 
N749 X-223.557 Y37.440 Z-17.913 A255.0414 
N750 X-223.557 Y38.154 Z-17.352 A257.2647 
N751 X-223.557 Y38.842 Z-16.757 A259.4634 
N752 X-223.557 Y39.503 Z-16.132 A261.6424 
N753 X-223.557 Y40.136 Z-15.480 A263.8072 
N754 X-223.557 Y40.742 Z-14.803 A265.9637 
N755 X-223.557 Y41.322 Z-14.104 A268.1173 
N756 X-223.557 Y41.876 Z-13.386 A270.2735 
N757 X-223.557 Y42.404 Z-12.650 A272.4380 
N758 X-223.557 Y42.907 Z-11.900 A274.6159 
N759 X-223.557 Y43.387 Z-11.137 A276.8115 
N760 X-223.557 Y43.843 Z-10.362 A279.0291 
N761 X-223.557 Y44.275 Z-9.578 A281.2717 
N762 X-223.557 Y44.685 Z-8.785 A283.5417 
N763 X-223.557 Y45.073 Z-7.984 A285.8405 
N764 X-223.557 Y45.437 Z-7.176 A288.1687 
N765 X-223.557 Y45.778 Z-6.361 A290.5265 
N766 X-223.557 Y46.096 Z-5.540 A292.9136 
N767 X-223.557 Y46.389 Z-4.712 A295.3303 
N768 X-223.557 Y46.658 Z-3.878 A297.7771 
N769 X-223.557 Y46.901 Z-3.037 A300.2555 
N770 X-223.557 Y47.118 Z-2.187 A302.7682 
N771 X-223.557 Y47.308 Z-1.327 A305.3188 
N772 X-223.557 Y47.469 Z-0.455 A307.9119 
N773 X-223.557 Y47.598 Z0.431 A310.5529 
N774 X-223.557 Y47.694 Z1.334 A313.2498 
N775 X-223.557 Y47.752 Z2.259 A316.0143 
N776 X-223.557 Y47.767 Z3.212 A318.8613 
N777 X-223.557 Y47.733 Z4.197 A321.8079 
N778 X-223.557 Y47.638 Z5.221 A324.8683 
N779 X-223.557 Y47.470 Z6.288 A328.0513 
N780 X-223.557 Y47.211 Z7.401 A331.3703 
N781 X-223.557 Y46.839 Z8.561 A334.8270 
N782 X-223.557 Y46.329 Z9.759 A338.4074 
N783 X-223.557 Y45.651 Z10.981 A342.0769 
N784 X-223.557 Y44.776 Z12.195 A345.7489 
N785 X-223.557 Y43.676 Z13.355 A349.2968 
N786 X-223.557 Y42.334 Z14.415 A352.5928 
N787 X-223.557 Y40.742 Z15.311 A355.4291 
N788 X-223.557 Y38.903 Z15.991 A357.6075 
N789 X-223.557 Y36.829 Z16.446 A359.0724 
N790 X-223.557 Y34.533 Z16.718 A359.9397 
N791 X-223.557 Y32.025 Z16.863 A0.3815 
N792 X-223.557 Y29.320 Z16.932 A0.5539 
N793 X-223.557 Y26.439 Z16.962 A0.5763 
N794 X-223.557 Y23.410 Z16.981 A0.5423 
N795 X-223.557 Y20.269 Z17.005 A0.5132 
N796 X-223.557 Y17.057 Z17.040 A0.5096 
N797 X-223.557 Y13.819 Z17.079 A0.5197 
N798 X-223.557 Y10.602 Z17.118 A0.5245 
N799 X-223.557 Y7.449 Z17.153 A0.5087 
N800 X-223.557 Y4.405 Z17.194 A0.5079 
N801 X-223.557 Y1.499 Z17.234 
N802 X-223.557 Y-1.245 Z17.279 A0.5487 
N803 X-223.557 Y-3.794 Z17.392 A0.9198 
N804 X-223.557 Y-6.142 Z17.606 A1.8152 
N805 X-223.557 Y-8.293 Z17.958 A3.4682 
N806 X-223.557 Y-10.265 Z18.438 A5.9071 
N807 X-223.557 Y-12.078 Z18.986 A8.9308 
N808 X-223.557 Y-13.753 Z19.537 A12.2668 
N809 X-223.557 Y-15.303 Z20.058 A15.7405 
N810 X-223.557 Y-16.744 Z20.531 A19.2399 
N811 X-223.557 Y-18.085 Z20.944 A22.6758 
N812 X-223.557 Y-19.341 Z21.298 A26.0206 
N813 X-223.557 Y-20.524 Z21.599 A29.2657 
N814 X-223.557 Y-21.646 Z21.846 A32.4029 
N815 X-223.557 Y-22.716 Z22.042 A35.4375 
N816 X-223.557 Y-23.745 Z22.191 A38.3774 
N817 X-223.557 Y-24.739 Z22.292 A41.2303 
N818 X-223.557 Y-25.706 Z22.349 A44.0093 
N819 X-223.557 Y-26.649 Z22.361 A46.7262 
N820 X-223.557 Y-27.573 Z22.331 A49.3909 
N821 X-223.557 Y-28.482 Z22.257 A52.0115 
N822 X-223.557 Y-29.375 Z22.140 A54.5936 
N823 X-223.557 Y-30.254 Z21.980 A57.1411 
N824 X-223.557 Y-31.119 Z21.777 A59.6571 
N825 X-223.557 Y-31.970 Z21.530 A62.1436 
N826 X-223.557 Y-32.804 Z21.241 A64.6023 
N827 X-223.557 Y-33.621 Z20.909 A67.0342 
N828 X-223.557 Y-34.420 Z20.535 A69.4405 
N829 X-223.557 Y-35.200 Z20.121 A71.8224 
N830 X-223.557 Y-35.958 Z19.666 A74.1815 
N831 X-223.557 Y-36.693 Z19.173 A76.5196 
N832 X-223.557 Y-37.405 Z18.643 A78.8381 
N833 X-223.557 Y-38.092 Z18.077 A81.1383 
N834 X-223.557 Y-38.753 Z17.478 A83.4214 
N835 X-223.557 Y-39.385 Z16.847 A85.6887 
N836 X-223.557 Y-39.990 Z16.186 A87.9418 
N837 X-223.557 Y-40.565 Z15.499 A90.1825 
N838 X-223.557 Y-41.110 Z14.786 A92.4139 
N839 X-223.557 Y-41.626 Z14.050 A94.6400 
N840 X-223.557 Y-42.113 Z13.293 A96.8649 
N841 X-223.557 Y-42.570 Z12.518 A99.0937 
N842 X-223.557 Y-43.000 Z11.725 A101.3313 
N843 X-223.557 Y-43.401 Z10.917 A103.5814 
N844 X-223.557 Y-43.774 Z10.094 A105.8478 
N845 X-223.557 Y-44.120 Z9.258 A108.1342 
N846 X-223.557 Y-44.439 Z8.410 A110.4437 
N847 X-223.557 Y-44.729 Z7.551 A112.7781 
N848 X-223.557 Y-44.992 Z6.680 A115.1395 
N849 X-223.557 Y-45.225 Z5.798 A117.5298 
N850 X-223.557 Y-45.429 Z4.906 A119.9501 
N851 X-223.557 Y-45.602 Z4.004 A122.4010 
N852 X-223.557 Y-45.743 Z3.090 A124.8841 
N853 X-223.557 Y-45.850 Z2.166 A127.4005 
N854 X-223.557 Y-45.920 Z1.229 A129.9518 
N855 X-223.557 Y-45.951 Z0.280 A132.5400 
N856 X-223.557 Y-45.938 Z-0.684 A135.1666 
N857 X-223.557 Y-45.878 Z-1.662 A137.8314 
N858 X-223.557 Y-45.765 Z-2.658 A140.5389 
N859 X-223.557 Y-45.593 Z-3.673 A143.3006 
N860 X-223.557 Y-45.354 Z-4.712 A146.1297 
N861 X-223.557 Y-45.038 Z-5.777 A149.0343 
N862 X-223.557 Y-44.631 Z-6.867 A152.0133 
N863 X-223.557 Y-44.116 Z-7.982 A155.0700 
N864 X-223.557 Y-43.476 Z-9.116 A158.1971 
N865 X-223.557 Y-42.690 Z-10.259 A161.3732 
N866 X-223.557 Y-41.737 Z-11.395 A164.5622 
N867 X-223.557 Y-40.597 Z-12.500 A167.7204 
N868 X-223.557 Y-39.254 Z-13.553 A170.8011 
N869 X-223.557 Y-37.697 Z-14.514 A173.7056 
N870 X-223.557 Y-35.922 Z-15.352 A176.3476 
N871 X-223.557 Y-33.934 Z-16.022 A178.5716 
N872 X-223.557 Y-31.746 Z-16.481 A180.1957 
N873 X-223.557 Y-29.378 Z-16.732 A181.1687 
N874 X-223.557 Y-26.849 Z-16.827 A181.6348 
N875 X-223.557 Y-24.178 Z-16.836 A181.8072 
N876 X-223.557 Y-21.390 Z-16.808 A181.8559 
N877 X-223.557 Y-18.513 Z-16.768 A181.8613 
N878 X-223.557 Y-15.581 Z-16.724 A181.8510 
N879 X-223.557 Y-12.632 Z-16.678 A181.8272 
N880 X-223.557 Y-9.704 Z-16.640 
N881 X-223.557 Y-6.827 Z-16.603 
N882 X-223.557 Y-4.042 Z-16.595 A181.9541 
N883 X-223.557 Y-1.373 Z-16.629 A182.2926 
N884 X-223.557 Y1.157 Z-16.735 A183.0055 
N885 X-223.557 Y3.539 Z-16.939 A184.2657 
N886 X-223.557 Y5.771 Z-17.247 A186.1668 
N887 X-223.557 Y7.858 Z-17.621 A188.6124 
N888 X-223.557 Y9.807 Z-18.005 A191.3873 
N889 X-223.557 Y11.621 Z-18.362 A194.3162 
N890 X-223.557 Y13.311 Z-18.683 A197.3304 
N891 X-223.557 Y14.886 Z-18.964 A200.3745 
N892 X-223.557 Y16.357 Z-19.201 A203.4061 
N893 X-223.557 Y17.736 Z-19.396 A206.4009 
N894 X-223.557 Y19.035 Z-19.549 A209.3399 
N895 X-223.557 Y20.263 Z-19.662 A212.2130 
N896 X-223.557 Y21.431 Z-19.735 A215.0207 
N897 X-223.557 Y22.548 Z-19.770 A217.7654 
N898 X-223.557 Y23.620 Z-19.770 A220.4530 
N899 X-223.557 Y24.656 Z-19.734 A223.0912 
N900 X-223.557 Y25.660 Z-19.664 A225.6866 
N901 X-223.557 Y26.637 Z-19.560 A228.2456 
N902 X-223.557 Y27.589 Z-19.423 A230.7740 
N903 X-223.557 Y28.519 Z-19.253 A233.2763 
N904 X-223.557 Y29.428 Z-19.050 A235.7561 
N905 X-223.557 Y30.317 Z-18.815 A238.2165 
N906 X-223.557 Y31.186 Z-18.548 A240.6597 
N907 X-223.557 Y32.037 Z-18.250 A243.0877 
N908 X-223.557 Y32.867 Z-17.921 A245.5018 
N909 X-223.557 Y33.678 Z-17.562 A247.9036 
N910 X-223.557 Y34.469 Z-17.173 A250.2945 
N911 X-223.557 Y35.238 Z-16.756 A252.6759 
N912 X-223.557 Y35.987 Z-16.311 A255.0493 
N913 X-223.557 Y36.714 Z-15.839 A257.4163 
N914 X-223.557 Y37.418 Z-15.342 A259.7784 
N915 X-223.557 Y38.100 Z-14.821 A262.1373 
N916 X-223.557 Y38.759 Z-14.276 A264.4946 
N917 X-223.557 Y39.395 Z-13.708 A266.8519 
N918 X-223.557 Y40.007 Z-13.119 A269.2108 
N919 X-223.557 Y40.595 Z-12.509 A271.5728 
N920 X-223.557 Y41.158 Z-11.880 A273.9393 
N921 X-223.557 Y41.697 Z-11.231 A276.3116 
N922 X-223.557 Y42.210 Z-10.565 A278.6913 
N923 X-223.557 Y42.698 Z-9.881 A281.0794 
N924 X-223.557 Y43.160 Z-9.181 A283.4773 
N925 X-223.557 Y43.596 Z-8.464 A285.8861 
N926 X-223.557 Y44.005 Z-7.732 A288.3069 
N927 X-223.557 Y44.386 Z-6.984 A290.7408 
N928 X-223.557 Y44.739 Z-6.221 A293.1887 
N929 X-223.557 Y45.063 Z-5.444 A295.6516 
N930 X-223.557 Y45.356 Z-4.651 A298.1307 
N931 X-223.557 Y45.619 Z-3.844 A300.6274 
N932 X-223.557 Y45.849 Z-3.022 A303.1439 
N933 X-223.557 Y46.045 Z-2.184 A305.6829 
N934 X-223.557 Y46.205 Z-1.330 A308.2476 
N935 X-223.557 Y46.327 Z-0.459 A310.8424 
N936 X-223.557 Y46.409 Z0.432 A313.4728 
N937 X-223.557 Y46.445 Z1.344 A316.1456 
N938 X-223.557 Y46.433 Z2.279 A318.8687 
N939 X-223.557 Y46.365 Z3.241 A321.6507 
N940 X-223.557 Y46.232 Z4.233 A324.4984 
N941 X-223.557 Y46.026 Z5.256 A327.4212 
N942 X-223.557 Y45.732 Z6.315 A330.4346 
N943 X-223.557 Y45.336 Z7.411 A333.5504 
N944 X-223.557 Y44.818 Z8.542 A336.7673 
N945 X-223.557 Y44.153 Z9.694 A340.0552 
N946 X-223.557 Y43.319 Z10.852 A343.3806 
N947 X-223.557 Y42.295 Z12.007 A346.7502 
N948 X-223.557 Y41.060 Z13.130 A350.1192 
N949 X-223.557 Y39.594 Z14.153 A353.2610 
N950 X-223.557 Y37.891 Z15.002 A355.9270 
N951 X-223.557 Y35.961 Z15.643 A357.9765 
N952 X-223.557 Y33.822 Z16.072 A359.3727 
N953 X-223.557 Y31.488 Z16.313 A0.1488 
N954 X-223.557 Y28.977 Z16.418 A0.4445 
N955 X-223.557 Y26.309 Z16.452 A0.4640 
N956 X-223.557 Y23.507 Z16.471 A0.4018 
N957 X-223.557 Y20.603 Z16.502 A0.3677 
N958 X-223.557 Y17.632 Z16.545 
N959 X-223.557 Y14.632 Z16.593 A0.3755 
N960 X-223.557 Y11.647 Z16.638 A0.3708 
N961 X-223.557 Y8.715 Z16.685 A0.3677 
N962 X-223.557 Y5.872 Z16.732 
N963 X-223.557 Y3.141 Z16.777 
N964 X-223.557 Y0.563 Z16.877 A0.6387 
N965 X-223.557 Y-1.850 Z17.061 A1.3477 
N966 X-223.557 Y-4.091 Z17.369 A2.7328 
N967 X-223.557 Y-6.166 Z17.801 A4.8718 
N968 X-223.557 Y-8.090 Z18.301 A7.5952 
N969 X-223.557 Y-9.872 Z18.802 A10.6227 
N970 X-223.557 Y-11.522 Z19.265 A13.7649 
N971 X-223.557 Y-13.052 Z19.685 A16.9570 
N972 X-223.557 Y-14.474 Z20.058 A20.1415 
N973 X-223.557 Y-15.801 Z20.384 A23.2838 
N974 X-223.557 Y-17.045 Z20.664 A26.3680 
N975 X-223.557 Y-18.219 Z20.902 A29.3817 
N976 X-223.557 Y-19.332 Z21.097 A32.3221 
N977 X-223.557 Y-20.396 Z21.253 A35.1941 
N978 X-223.557 Y-21.419 Z21.371 A38.0014 
N979 X-223.557 Y-22.407 Z21.452 A40.7521 
N980 X-223.557 Y-23.368 Z21.496 A43.4551 
N981 X-223.557 Y-24.306 Z21.505 A46.1180 
N982 X-223.557 Y-25.224 Z21.479 A48.7476 
N983 X-223.557 Y-26.126 Z21.417 A51.3495 
N984 X-223.557 Y-27.012 Z21.320 A53.9276 
N985 X-223.557 Y-27.884 Z21.186 A56.4851 
N986 X-223.557 Y-28.743 Z21.017 A59.0243 
N987 X-223.557 Y-29.587 Z20.811 A61.5466 
N988 X-223.557 Y-30.417 Z20.568 A64.0531 
N989 X-223.557 Y-31.232 Z20.289 A66.5443 
N990 X-223.557 Y-32.031 Z19.973 A69.0202 
N991 X-223.557 Y-32.812 Z19.621 A71.4808 
N992 X-223.557 Y-33.574 Z19.233 A73.9256 
N993 X-223.557 Y-34.315 Z18.809 A76.3541 
N994 X-223.557 Y-35.035 Z18.351 A78.7658 
N995 X-223.557 Y-35.731 Z17.859 A81.1603 
N996 X-223.557 Y-36.403 Z17.334 A83.5380 
N997 X-223.557 Y-37.049 Z16.778 A85.9000 
N998 X-223.557 Y-37.669 Z16.193 A88.2483 
N999 X-223.557 Y-38.261 Z15.578 A90.5856 
N1000 X-223.557 Y-38.826 Z14.937 A92.9147 
N1001 X-223.557 Y-39.363 Z14.269 A95.2386 
N1002 X-223.557 Y-39.871 Z13.577 A97.5604 
N1003 X-223.557 Y-40.351 Z12.863 A99.8829 
N1004 X-223.557 Y-40.802 Z12.126 A102.2084 
N1005 X-223.557 Y-41.223 Z11.368 A104.5393 
N1006 X-223.557 Y-41.614 Z10.591 A106.8780 
N1007 X-223.557 Y-41.975 Z9.796 A109.2267 
N1008 X-223.557 Y-42.305 Z8.983 A111.5874 
N1009 X-223.557 Y-42.602 Z8.153 A113.9619 
N1010 X-223.557 Y-42.868 Z7.307 A116.3521 
N1011 X-223.557 Y-43.099 Z6.445 A118.7595 
N1012 X-223.557 Y-43.296 Z5.568 A121.1854 
N1013 X-223.557 Y-43.457 Z4.677 A123.6312 
N1014 X-223.557 Y-43.581 Z3.771 A126.0987 
N1015 X-223.557 Y-43.665 Z2.851 A128.5898 
N1016 X-223.557 Y-43.707 Z1.916 A131.1064 
N1017 X-223.557 Y-43.705 Z0.966 A133.6495 
N1018 X-223.557 Y-43.654 Z0.002 A136.2192 
N1019 X-223.557 Y-43.550 Z-0.978 A138.8191 
N1020 X-223.557 Y-43.390 Z-1.975 A141.4576 
N1021 X-223.557 Y-43.167 Z-2.992 A144.1440 
N1022 X-223.557 Y-42.874 Z-4.029 A146.8835 
N1023 X-223.557 Y-42.500 Z-5.086 A149.6750 
N1024 X-223.557 Y-42.033 Z-6.162 A152.5219 
N1025 X-223.557 Y-41.462 Z-7.255 A155.4238 
N1026 X-223.557 Y-40.770 Z-8.358 A158.3693 
N1027 X-223.557 Y-39.941 Z-9.463 A161.3399 
N1028 X-223.557 Y-38.957 Z-10.552 A164.3015 
N1029 X-223.557 Y-37.805 Z-11.607 A167.2109 
N1030 X-223.557 Y-36.473 Z-12.606 A170.0138 
N1031 X-223.557 Y-34.953 Z-13.526 A172.6687 
N1032 X-223.557 Y-33.245 Z-14.344 A175.1109 
N1033 X-223.557 Y-31.353 Z-15.033 A177.2645 
N1034 X-223.557 Y-29.287 Z-15.580 A179.0727 
N1035 X-223.557 Y-27.064 Z-15.973 A180.4814 
N1036 X-223.557 Y-24.703 Z-16.210 A181.4447 
N1037 X-223.557 Y-22.228 Z-16.312 A181.9879 
N1038 X-223.557 Y-19.661 Z-16.318 A182.2115 
N1039 X-223.557 Y-17.029 Z-16.272 A182.2518 
N1040 X-223.557 Y-14.359 Z-16.207 A182.2172 
N1041 X-223.557 Y-11.683 Z-16.153 
N1042 X-223.557 Y-9.024 Z-16.113 A182.2799 
N1043 X-223.557 Y-6.419 Z-16.118 A182.5512 
N1044 X-223.557 Y-3.890 Z-16.174 A183.0955 
N1045 X-223.557 Y-1.459 Z-16.295 A184.0145 
N1046 X-223.557 Y0.862 Z-16.482 A185.3750 
N1047 X-223.557 Y3.064 Z-16.727 A187.1812 
N1048 X-223.557 Y5.145 Z-17.001 A189.3451 
N1049 X-223.557 Y7.103 Z-17.275 A191.7606 
N1050 X-223.557 Y8.942 Z-17.536 A194.3541 
N1051 X-223.557 Y10.666 Z-17.776 A197.0728 
N1052 X-223.557 Y12.283 Z-17.987 A199.8610 
N1053 X-223.557 Y13.801 Z-18.166 A202.6806 
N1054 X-223.557 Y15.229 Z-18.313 A205.5015 
N1055 X-223.557 Y16.575 Z-18.425 A208.3010 
N1056 X-223.557 Y17.850 Z-18.504 A211.0670 
N1057 X-223.557 Y19.061 Z-18.551 A213.7939 
N1058 X-223.557 Y20.217 Z-18.566 A216.4791 
N1059 X-223.557 Y21.326 Z-18.550 A219.1243 
N1060 X-223.557 Y22.393 Z-18.503 A221.7328 
N1061 X-223.557 Y23.424 Z-18.428 A224.3081 
N1062 X-223.557 Y24.423 Z-18.323 A226.8542 
N1063 X-223.557 Y25.394 Z-18.189 A229.3747 
N1064 X-223.557 Y26.340 Z-18.027 A231.8732 
N1065 X-223.557 Y27.261 Z-17.836 A234.3535 
N1066 X-223.557 Y28.161 Z-17.618 A236.8192 
N1067 X-223.557 Y29.040 Z-17.372 A239.2732 
N1068 X-223.557 Y29.899 Z-17.099 A241.7176 
N1069 X-223.557 Y30.739 Z-16.800 A244.1536 
N1070 X-223.557 Y31.558 Z-16.473 A246.5823 
N1071 X-223.557 Y32.358 Z-16.121 A249.0046 
N1072 X-223.557 Y33.137 Z-15.744 A251.4209 
N1073 X-223.557 Y33.896 Z-15.341 A253.8321 
N1074 X-223.557 Y34.635 Z-14.914 A256.2391 
N1075 X-223.557 Y35.352 Z-14.463 A258.6425 
N1076 X-223.557 Y36.048 Z-13.989 A261.0434 
N1077 X-223.557 Y36.722 Z-13.493 A263.4427 
N1078 X-223.557 Y37.373 Z-12.975 A265.8414 
N1079 X-223.557 Y38.003 Z-12.437 A268.2407 
N1080 X-223.557 Y38.609 Z-11.878 A270.6415 
N1081 X-223.557 Y39.192 Z-11.299 A273.0448 
N1082 X-223.557 Y39.751 Z-10.702 A275.4518 
N1083 X-223.557 Y40.287 Z-10.086 A277.8635 
N1084 X-223.557 Y40.798 Z-9.453 A280.2806 
N1085 X-223.557 Y41.284 Z-8.802 A282.7043 
N1086 X-223.557 Y41.745 Z-8.135 A285.1355 
N1087 X-223.557 Y42.180 Z-7.451 A287.5749 
N1088 X-223.557 Y42.588 Z-6.752 A290.0236 
N1089 X-223.557 Y42.970 Z-6.037 A292.4826 
N1090 X-223.557 Y43.323 Z-5.307 A294.9527 
N1091 X-223.557 Y43.648 Z-4.561 A297.4353 
N1092 X-223.557 Y43.943 Z-3.801 A299.9321 
N1093 X-223.557 Y44.207 Z-3.025 A302.4452 
N1094 X-223.557 Y44.439 Z-2.234 A304.9776 
N1095 X-223.557 Y44.639 Z-1.426 A307.5333 
N1096 X-223.557 Y44.803 Z-0.600 A310.1177 
N1097 X-223.557 Y44.930 Z0.245 A312.7382 
N1098 X-223.557 Y45.017 Z1.113 A315.4042 
N1099 X-223.557 Y45.060 Z2.006 A318.1281 
N1100 X-223.557 Y45.054 Z2.930 A320.9252 
N1101 X-223.557 Y44.992 Z3.889 A323.8114 
N1102 X-223.557 Y44.863 Z4.889 A326.8059 
N1103 X-223.557 Y44.655 Z5.933 A329.9227 
N1104 X-223.557 Y44.350 Z7.022 A333.1670 
N1105 X-223.557 Y43.927 Z8.153 A336.5349 
N1106 X-223.557 Y43.361 Z9.314 A339.9995 
N1107 X-223.557 Y42.629 Z10.493 A343.5468 
N1108 X-223.557 Y41.707 Z11.676 A347.1655 
N1109 X-223.557 Y40.568 Z12.806 A350.6921 
N1110 X-223.557 Y39.196 Z13.801 A353.8521 
N1111 X-223.557 Y37.594 Z14.604 A356.4389 
N1112 X-223.557 Y35.775 Z15.187 A358.3454 
N1113 X-223.557 Y33.753 Z15.553 A359.5419 
N1114 X-223.557 Y31.545 Z15.740 A0.1165 
N1115 X-223.557 Y29.166 Z15.814 A0.2726 
N1116 X-223.557 Y26.632 Z15.844 A0.2449 
N1117 X-223.557 Y23.968 Z15.874 A0.1925 
N1118 X-223.557 Y21.203 Z15.920 A0.1839 
N1119 X-223.557 Y18.370 Z15.971 A0.1840 
N1120 X-223.557 Y15.510 Z16.026 A0.1932 
N1121 X-223.557 Y12.660 Z16.078 A0.1839 
N1122 X-223.557 Y9.860 Z16.133 
N1123 X-223.557 Y7.141 Z16.188 
N1124 X-223.557 Y4.527 Z16.247 A0.2151 
N1125 X-223.557 Y2.056 Z16.384 A0.6263 
N1126 X-223.557 Y-0.261 Z16.632 A1.6153 
N1127 X-223.557 Y-2.420 Z17.014 A3.3649 
N1128 X-223.557 Y-4.430 Z17.488 A5.7761 
N1129 X-223.557 Y-6.298 Z17.983 A8.5800 
N1130 X-223.557 Y-8.030 Z18.447 A11.5415 
N1131 X-223.557 Y-9.635 Z18.870 A14.5788 
N1132 X-223.557 Y-11.124 Z19.249 A17.6424 
N1133 X-223.557 Y-12.510 Z19.586 A20.6944 
N1134 X-223.557 Y-13.804 Z19.882 A23.7165 
N1135 X-223.557 Y-15.019 Z20.139 A26.6921 
N1136 X-223.557 Y-16.166 Z20.358 A29.6096 
N1137 X-223.557 Y-17.255 Z20.541 A32.4694 
N1138 X-223.557 Y-18.297 Z20.690 A35.2739 
N1139 X-223.557 Y-19.299 Z20.806 A38.0289 
N1140 X-223.557 Y-20.268 Z20.890 A40.7421 
N1141 X-223.557 Y-21.211 Z20.942 A43.4196 
N1142 X-223.557 Y-22.132 Z20.964 A46.0678 
N1143 X-223.557 Y-23.033 Z20.954 A48.6922 
N1144 X-223.557 Y-23.919 Z20.912 A51.2970 
N1145 X-223.557 Y-24.790 Z20.839 A53.8857 
N1146 X-223.557 Y-25.648 Z20.733 A56.4605 
N1147 X-223.557 Y-26.493 Z20.594 A59.0229 
N1148 X-223.557 Y-27.326 Z20.423 A61.5740 
N1149 X-223.557 Y-28.145 Z20.217 A64.1142 
N1150 X-223.557 Y-28.950 Z19.977 A66.6437 
N1151 X-223.557 Y-29.741 Z19.703 A69.1621 
N1152 X-223.557 Y-30.516 Z19.395 A71.6690 
N1153 X-223.557 Y-31.274 Z19.052 A74.1638 
N1154 X-223.557 Y-32.013 Z18.675 A76.6455 
N1155 X-223.557 Y-32.732 Z18.264 A79.1137 
N1156 X-223.557 Y-33.431 Z17.820 A81.5680 
N1157 X-223.557 Y-34.106 Z17.343 A84.0085 
N1158 X-223.557 Y-34.758 Z16.835 A86.4359 
N1159 X-223.557 Y-35.385 Z16.295 A88.8510 
N1160 X-223.557 Y-35.986 Z15.725 A91.2552 
N1161 X-223.557 Y-36.561 Z15.126 A93.6501 
N1162 X-223.557 Y-37.108 Z14.499 A96.0373 
N1163 X-223.557 Y-37.626 Z13.844 A98.4184 
N1164 X-223.557 Y-38.114 Z13.165 A100.7948 
N1165 X-223.557 Y-38.573 Z12.460 A103.1682 
N1166 X-223.557 Y-39.000 Z11.732 A105.5404 
N1167 X-223.557 Y-39.395 Z10.981 A107.9129 
N1168 X-223.557 Y-39.757 Z10.209 A110.2875 
N1169 X-223.557 Y-40.086 Z9.416 A112.6663 
N1170 X-223.557 Y-40.381 Z8.604 A115.0509 
N1171 X-223.557 Y-40.640 Z7.773 A117.4433 
N1172 X-223.557 Y-40.863 Z6.924 A119.8456 
N1173 X-223.557 Y-41.048 Z6.059 A122.2596 
N1174 X-223.557 Y-41.195 Z5.176 A124.6878 
N1175 X-223.557 Y-41.302 Z4.277 A127.1330 
N1176 X-223.557 Y-41.367 Z3.363 A129.5980 
N1177 X-223.557 Y-41.387 Z2.432 A132.0840 
N1178 X-223.557 Y-41.360 Z1.485 A134.5922 
N1179 X-223.557 Y-41.282 Z0.523 A137.1272 
N1180 X-223.557 Y-41.150 Z-0.457 A139.6976 
N1181 X-223.557 Y-40.960 Z-1.456 A142.3119 
N1182 X-223.557 Y-40.705 Z-2.475 A144.9733 
N1183 X-223.557 Y-40.377 Z-3.512 A147.6815 
N1184 X-223.557 Y-39.967 Z-4.568 A150.4413 
N1185 X-223.557 Y-39.463 Z-5.641 A153.2511 
N1186 X-223.557 Y-38.854 Z-6.725 A156.1015 
N1187 X-223.557 Y-38.125 Z-7.812 A158.9766 
N1188 X-223.557 Y-37.262 Z-8.890 A161.8435 
N1189 X-223.557 Y-36.251 Z-9.941 A164.6617 
N1190 X-223.557 Y-35.083 Z-10.947 A167.3882 
N1191 X-223.557 Y-33.751 Z-11.893 A169.9938 
N1192 X-223.557 Y-32.252 Z-12.763 A172.4429 
N1193 X-223.557 Y-30.588 Z-13.540 A174.7037 
N1194 X-223.557 Y-28.764 Z-14.209 A176.7318 
N1195 X-223.557 Y-26.792 Z-14.751 A178.4627 
N1196 X-223.557 Y-24.687 Z-15.158 A179.8445 
N1197 X-223.557 Y-22.469 Z-15.435 A180.8752 
N1198 X-223.557 Y-20.159 Z-15.599 A181.5823 
N1199 X-223.557 Y-17.779 Z-15.672 A182.0160 
N1200 X-223.557 Y-15.355 Z-15.684 A182.2624 
N1201 X-223.557 Y-12.909 Z-15.670 A182.4427 
N1202 X-223.557 Y-10.468 Z-15.664 A182.6843 
N1203 X-223.557 Y-8.054 Z-15.685 A183.0903 
N1204 X-223.557 Y-5.691 Z-15.748 A183.7470 
N1205 X-223.557 Y-3.397 Z-15.860 A184.7243 
N1206 X-223.557 Y-1.187 Z-16.022 A186.0615 
N1207 X-223.557 Y0.931 Z-16.221 A187.7457 
N1208 X-223.557 Y2.951 Z-16.442 A189.7363 
N1209 X-223.557 Y4.869 Z-16.672 A191.9860 
N1210 X-223.557 Y6.687 Z-16.897 A194.4389 
N1211 X-223.557 Y8.406 Z-17.105 A197.0299 
N1212 X-223.557 Y10.031 Z-17.288 A199.7085 
N1213 X-223.557 Y11.567 Z-17.442 A202.4355 
N1214 X-223.557 Y13.020 Z-17.563 A205.1760 
N1215 X-223.557 Y14.396 Z-17.651 A207.9079 
N1216 X-223.557 Y15.704 Z-17.705 A210.6166 
N1217 X-223.557 Y16.949 Z-17.726 A213.2926 
N1218 X-223.557 Y18.140 Z-17.715 A215.9321 
N1219 X-223.557 Y19.282 Z-17.673 A218.5349 
N1220 X-223.557 Y20.380 Z-17.600 A221.1019 
N1221 X-223.557 Y21.440 Z-17.498 A223.6360 
N1222 X-223.557 Y22.465 Z-17.367 A226.1406 
N1223 X-223.557 Y23.460 Z-17.208 A228.6190 
N1224 X-223.557 Y24.425 Z-17.021 A231.0749 
N1225 X-223.557 Y25.365 Z-16.808 A233.5119 
N1226 X-223.557 Y26.280 Z-16.569 A235.9331 
N1227 X-223.557 Y27.171 Z-16.305 A238.3416 
N1228 X-223.557 Y28.040 Z-16.016 A240.7401 
N1229 X-223.557 Y28.887 Z-15.703 A243.1307 
N1230 X-223.557 Y29.712 Z-15.368 A245.5152 
N1231 X-223.557 Y30.516 Z-15.010 A247.8947 
N1232 X-223.557 Y31.299 Z-14.631 A250.2703 
N1233 X-223.557 Y32.061 Z-14.231 A252.6435 
N1234 X-223.557 Y32.801 Z-13.812 A255.0154 
N1235 X-223.557 Y33.521 Z-13.373 A257.3875 
N1236 X-223.557 Y34.220 Z-12.916 A259.7610 
N1237 X-223.557 Y34.898 Z-12.441 A262.1373 
N1238 X-223.557 Y35.556 Z-11.950 A264.5179 
N1239 X-223.557 Y36.192 Z-11.442 A266.9042 
N1240 X-223.557 Y36.809 Z-10.918 A269.2977 
N1241 X-223.557 Y37.405 Z-10.379 A271.6997 
N1242 X-223.557 Y37.980 Z-9.825 A274.1113 
N1243 X-223.557 Y38.535 Z-9.256 A276.5337 
N1244 X-223.557 Y39.069 Z-8.673 A278.9676 
N1245 X-223.557 Y39.583 Z-8.075 A281.4141 
N1246 X-223.557 Y40.075 Z-7.463 A283.8737 
N1247 X-223.557 Y40.545 Z-6.836 A286.3474 
N1248 X-223.557 Y40.993 Z-6.195 A288.8357 
N1249 X-223.557 Y41.418 Z-5.539 A291.3392 
N1250 X-223.557 Y41.819 Z-4.868 A293.8587 
N1251 X-223.557 Y42.196 Z-4.182 A296.3952 
N1252 X-223.557 Y42.548 Z-3.481 A298.9501 
N1253 X-223.557 Y42.873 Z-2.764 A301.5254 
N1254 X-223.557 Y43.170 Z-2.029 A304.1243 
N1255 X-223.557 Y43.437 Z-1.277 A306.7510 
N1256 X-223.557 Y43.674 Z-0.504 A309.4120 
N1257 X-223.557 Y43.878 Z0.292 A312.1158 
N1258 X-223.557 Y44.045 Z1.114 A314.8741 
N1259 X-223.557 Y44.173 Z1.966 A317.7020 
N1260 X-223.557 Y44.256 Z2.855 A320.6160 
N1261 X-223.557 Y44.286 Z3.786 A323.6382 
N1262 X-223.557 Y44.253 Z4.766 A326.7906 
N1263 X-223.557 Y44.142 Z5.800 A330.0887 
N1264 X-223.557 Y43.935 Z6.889 A333.5418 
N1265 X-223.557 Y43.606 Z8.026 A337.1304 
N1266 X-223.557 Y43.130 Z9.204 A340.8422 
N1267 X-223.557 Y42.482 Z10.409 A344.6723 
N1268 X-223.557 Y41.631 Z11.596 A348.4863 
N1269 X-223.557 Y40.552 Z12.689 A352.0390 
N1270 X-223.557 Y39.240 Z13.621 A355.1100 
N1271 X-223.557 Y37.700 Z14.332 A357.4868 
N1272 X-223.557 Y35.950 Z14.795 A359.0311 
N1273 X-223.557 Y34.003 Z15.037 A359.7989 
N1274 X-223.557 Y31.871 Z15.136 A0.0349 
N1275 X-223.557 Y29.567 Z15.177 A0.0290 
N1276 X-223.557 Y27.107 Z15.212 A359.9769 
N1277 X-223.557 Y24.516 Z15.262 A359.9653 
N1278 X-223.557 Y21.823 Z15.322 A359.9781 
N1279 X-223.557 Y19.064 Z15.389 A0.0156 
N1280 X-223.557 Y16.276 Z15.454 A0.0398 
N1281 X-223.557 Y13.501 Z15.513 A0.0351 
N1282 X-223.557 Y10.773 Z15.558 A359.9653 
N1283 X-223.557 Y8.135 Z15.623 
N1284 X-223.557 Y5.592 Z15.685 
N1285 X-223.557 Y3.194 Z15.853 A0.4618 
N1286 X-223.557 Y0.947 Z16.135 A1.5653 
N1287 X-223.557 Y-1.144 Z16.527 A3.3401 
N1288 X-223.557 Y-3.084 Z16.989 A5.6763 
N1289 X-223.557 Y-4.885 Z17.483 A8.4292 
N1290 X-223.557 Y-6.555 Z17.969 A11.4241 
N1291 X-223.557 Y-8.101 Z18.413 A14.4830 
N1292 X-223.557 Y-9.531 Z18.805 A17.5259 
N1293 X-223.557 Y-10.860 Z19.158 A20.5593 
N1294 X-223.557 Y-12.101 Z19.476 A23.5761 
N1295 X-223.557 Y-13.267 Z19.759 A26.5542 
N1296 X-223.557 Y-14.368 Z20.007 A29.4833 
N1297 X-223.557 Y-15.414 Z20.221 A32.3580 
N1298 X-223.557 Y-16.415 Z20.403 A35.1807 
N1299 X-223.557 Y-17.380 Z20.554 A37.9584 
N1300 X-223.557 Y-18.314 Z20.675 A40.6977 
N1301 X-223.557 Y-19.224 Z20.766 A43.4061 
N1302 X-223.557 Y-20.115 Z20.828 A46.0899 
N1303 X-223.557 Y-20.990 Z20.859 A48.7539 
N1304 X-223.557 Y-21.852 Z20.861 A51.4022 
N1305 X-223.557 Y-22.702 Z20.831 A54.0378 
N1306 X-223.557 Y-23.541 Z20.769 A56.6629 
N1307 X-223.557 Y-24.371 Z20.674 A59.2786 
N1308 X-223.557 Y-25.190 Z20.546 A61.8855 
N1309 X-223.557 Y-25.999 Z20.383 A64.4835 
N1310 X-223.557 Y-26.796 Z20.185 A67.0723 
N1311 X-223.557 Y-27.582 Z19.951 A69.6512 
N1312 X-223.557 Y-28.353 Z19.681 A72.2192 
N1313 X-223.557 Y-29.110 Z19.374 A74.7754 
N1314 X-223.557 Y-29.849 Z19.031 A77.3185 
N1315 X-223.557 Y-30.570 Z18.650 A79.8467 
N1316 X-223.557 Y-31.270 Z18.232 A82.3577 
N1317 X-223.557 Y-31.947 Z17.779 A84.8492 
N1318 X-223.557 Y-32.600 Z17.290 A87.3188 
N1319 X-223.557 Y-33.224 Z16.766 A89.7641 
N1320 X-223.557 Y-33.820 Z16.209 A92.1837 
N1321 X-223.557 Y-34.385 Z15.620 A94.5774 
N1322 X-223.557 Y-34.919 Z15.001 A96.9458 
N1323 X-223.557 Y-35.419 Z14.354 A99.2910 
N1324 X-223.557 Y-35.887 Z13.680 A101.6160 
N1325 X-223.557 Y-36.322 Z12.981 A103.9246 
N1326 X-223.557 Y-36.723 Z12.259 A106.2209 
N1327 X-223.557 Y-37.092 Z11.514 A108.5103 
N1328 X-223.557 Y-37.428 Z10.748 A110.7988 
N1329 X-223.557 Y-37.732 Z9.962 A113.0926 
N1330 X-223.557 Y-38.003 Z9.158 A115.3980 
N1331 X-223.557 Y-38.243 Z8.334 A117.7220 
N1332 X-223.557 Y-38.451 Z7.491 A120.0707 
N1333 X-223.557 Y-38.627 Z6.630 A122.4496 
N1334 X-223.557 Y-38.769 Z5.750 A124.8632 
N1335 X-223.557 Y-38.875 Z4.851 A127.3158 
N1336 X-223.557 Y-38.943 Z3.933 A129.8121 
N1337 X-223.557 Y-38.972 Z2.994 A132.3570 
N1338 X-223.557 Y-38.956 Z2.033 A134.9534 
N1339 X-223.557 Y-38.890 Z1.053 A137.5973 
N1340 X-223.557 Y-38.768 Z0.053 A140.2798 
N1341 X-223.557 Y-38.581 Z-0.964 A142.9940 
N1342 X-223.557 Y-38.324 Z-1.997 A145.7375 
N1343 X-223.557 Y-37.988 Z-3.044 A148.5110 
N1344 X-223.557 Y-37.563 Z-4.103 A151.3035 
N1345 X-223.557 Y-37.039 Z-5.165 A154.0962 
N1346 X-223.557 Y-36.405 Z-6.224 A156.8694 
N1347 X-223.557 Y-35.650 Z-7.266 A159.5870 
N1348 X-223.557 Y-34.764 Z-8.277 A162.2103 
N1349 X-223.557 Y-33.742 Z-9.250 A164.7307 
N1350 X-223.557 Y-32.581 Z-10.183 A167.1717 
N1351 X-223.557 Y-31.279 Z-11.073 A169.5446 
N1352 X-223.557 Y-29.834 Z-11.909 A171.8372 
N1353 X-223.557 Y-28.247 Z-12.674 A174.0124 
N1354 X-223.557 Y-26.522 Z-13.346 A175.9988 
N1355 X-223.557 Y-24.671 Z-13.905 A177.7226 
N1356 X-223.557 Y-22.708 Z-14.343 A179.1509 
N1357 X-223.557 Y-20.651 Z-14.668 A180.2867 
N1358 X-223.557 Y-18.522 Z-14.892 A181.1584 
N1359 X-223.557 Y-16.339 Z-15.037 A181.8271 
N1360 X-223.557 Y-14.123 Z-15.131 A182.3805 
N1361 X-223.557 Y-11.895 Z-15.198 A182.9143 
N1362 X-223.557 Y-9.676 Z-15.261 A183.5173 
N1363 X-223.557 Y-7.483 Z-15.338 A184.2781 
N1364 X-223.557 Y-5.333 Z-15.443 A185.2734 
N1365 X-223.557 Y-3.240 Z-15.579 A186.5498 
N1366 X-223.557 Y-1.213 Z-15.743 A188.1149 
N1367 X-223.557 Y0.740 Z-15.926 A189.9564 
N1368 X-223.557 Y2.615 Z-16.119 A192.0468 
N1369 X-223.557 Y4.410 Z-16.309 A194.3392 
N1370 X-223.557 Y6.124 Z-16.485 A196.7798 
N1371 X-223.557 Y7.758 Z-16.639 A199.3242 
N1372 X-223.557 Y9.315 Z-16.766 A201.9319 
N1373 X-223.557 Y10.797 Z-16.861 A204.5677 
N1374 X-223.557 Y12.210 Z-16.922 A207.2087 
N1375 X-223.557 Y13.558 Z-16.949 A209.8372 
N1376 X-223.557 Y14.845 Z-16.943 A212.4416 
N1377 X-223.557 Y16.078 Z-16.904 A215.0159 
N1378 X-223.557 Y17.261 Z-16.834 A217.5574 
N1379 X-223.557 Y18.398 Z-16.733 A220.0657 
N1380 X-223.557 Y19.495 Z-16.602 A222.5426 
N1381 X-223.557 Y20.553 Z-16.444 A224.9905 
N1382 X-223.557 Y21.577 Z-16.259 A227.4125 
N1383 X-223.557 Y22.569 Z-16.048 A229.8120 
N1384 X-223.557 Y23.531 Z-15.813 A232.1926 
N1385 X-223.557 Y24.465 Z-15.555 A234.5577 
N1386 X-223.557 Y25.373 Z-15.275 A236.9110 
N1387 X-223.557 Y26.255 Z-14.974 A239.2555 
N1388 X-223.557 Y27.113 Z-14.654 A241.5944 
N1389 X-223.557 Y27.947 Z-14.316 A243.9301 
N1390 X-223.557 Y28.758 Z-13.960 A246.2646 
N1391 X-223.557 Y29.548 Z-13.589 A248.6000 
N1392 X-223.557 Y30.316 Z-13.201 A250.9381 
N1393 X-223.557 Y31.062 Z-12.800 A253.2807 
N1394 X-223.557 Y31.789 Z-12.384 A255.6297 
N1395 X-223.557 Y32.496 Z-11.956 A257.9869 
N1396 X-223.557 Y33.184 Z-11.514 A260.3542 
N1397 X-223.557 Y33.853 Z-11.061 A262.7330 
N1398 X-223.557 Y34.504 Z-10.595 A265.1249 
N1399 X-223.557 Y35.137 Z-10.118 A267.5310 
N1400 X-223.557 Y35.753 Z-9.628 A269.9523 
N1401 X-223.557 Y36.351 Z-9.127 A272.3897 
N1402 X-223.557 Y36.932 Z-8.613 A274.8438 
N1403 X-223.557 Y37.496 Z-8.087 A277.3152 
N1404 X-223.557 Y38.043 Z-7.547 A279.8041 
N1405 X-223.557 Y38.571 Z-6.994 A282.3107 
N1406 X-223.557 Y39.081 Z-6.427 A284.8349 
N1407 X-223.557 Y39.572 Z-5.846 A287.3765 
N1408 X-223.557 Y40.044 Z-5.249 A289.9353 
N1409 X-223.557 Y40.494 Z-4.638 A292.5116 
N1410 X-223.557 Y40.923 Z-4.010 A295.1058 
N1411 X-223.557 Y41.328 Z-3.365 A297.7191 
N1412 X-223.557 Y41.710 Z-2.703 A300.3531 
N1413 X-223.557 Y42.067 Z-2.023 A303.0105 
N1414 X-223.557 Y42.397 Z-1.322 A305.6959 
N1415 X-223.557 Y42.699 Z-0.599 A308.4159 
N1416 X-223.557 Y42.970 Z0.149 A311.1799 
N1417 X-223.557 Y43.209 Z0.926 A314.0015 
N1418 X-223.557 Y43.411 Z1.737 A316.8969 
N1419 X-223.557 Y43.573 Z2.588 A319.8858 
N1420 X-223.557 Y43.686 Z3.487 A322.9949 
N1421 X-223.557 Y43.741 Z4.441 A326.2475 
N1422 X-223.557 Y43.724 Z5.456 A329.6658 
N1423 X-223.557 Y43.613 Z6.534 A333.2575 
N1424 X-223.557 Y43.384 Z7.671 A337.0075 
N1425 X-223.557 Y43.011 Z8.862 A340.9274 
N1426 X-223.557 Y42.465 Z10.088 A344.9792 
N1427 X-223.557 Y41.709 Z11.287 A348.9657 
N1428 X-223.557 Y40.723 Z12.386 A352.6580 
N1429 X-223.557 Y39.501 Z13.301 A355.7702 
N1430 X-223.557 Y38.055 Z13.956 A358.0158 
N1431 X-223.557 Y36.401 Z14.338 A359.2953 
N1432 X-223.557 Y34.553 Z14.512 A359.8167 
N1433 X-223.557 Y32.519 Z14.578 A359.9159 
N1434 X-223.557 Y30.308 Z14.615 A359.8791 
N1435 X-223.557 Y27.937 Z14.658 A359.8439 
N1436 X-223.557 Y25.429 Z14.715 
N1437 X-223.557 Y22.812 Z14.779 A359.8637 
N1438 X-223.557 Y20.123 Z14.848 A359.8935 
N1439 X-223.557 Y17.399 Z14.914 A359.9073 
N1440 X-223.557 Y14.680 Z14.973 A359.8895 
N1441 X-223.557 Y12.006 Z15.028 A359.8439 
N1442 X-223.557 Y9.412 Z15.095 
N1443 X-223.557 Y6.915 Z15.159 A359.8456 
N1444 X-223.557 Y4.561 Z15.294 A0.1911 
N1445 X-223.557 Y2.359 Z15.514 A0.9880 
N1446 X-223.557 Y0.317 Z15.859 A2.4640 
N1447 X-223.557 Y-1.572 Z16.333 A4.7122 
N1448 X-223.557 Y-3.325 Z16.885 A7.5735 
N1449 X-223.557 Y-4.950 Z17.428 A10.6836 
N1450 X-223.557 Y-6.448 Z17.910 A13.7853 
N1451 X-223.557 Y-7.831 Z18.342 A16.8727 
N1452 X-223.557 Y-9.116 Z18.738 A19.9708 
N1453 X-223.557 Y-10.315 Z19.102 A23.0585 
N1454 X-223.557 Y-11.440 Z19.430 A26.1101 
N1455 X-223.557 Y-12.501 Z19.724 A29.1095 
N1456 X-223.557 Y-13.511 Z19.984 A32.0507 
N1457 X-223.557 Y-14.476 Z20.211 A34.9371 
N1458 X-223.557 Y-15.407 Z20.407 A37.7724 
N1459 X-223.557 Y-16.309 Z20.572 A40.5640 
N1460 X-223.557 Y-17.189 Z20.706 A43.3206 
N1461 X-223.557 Y-18.052 Z20.811 A46.0496 
N1462 X-223.557 Y-18.901 Z20.886 A48.7573 
N1463 X-223.557 Y-19.740 Z20.930 A51.4484 
N1464 X-223.557 Y-20.569 Z20.942 A54.1259 
N1465 X-223.557 Y-21.389 Z20.922 A56.7922 
N1466 X-223.557 Y-22.202 Z20.869 A59.4485 
N1467 X-223.557 Y-23.008 Z20.781 A62.0955 
N1468 X-223.557 Y-23.805 Z20.657 A64.7333 
N1469 X-223.557 Y-24.592 Z20.497 A67.3614 
N1470 X-223.557 Y-25.370 Z20.300 A69.9789 
N1471 X-223.557 Y-26.135 Z20.065 A72.5849 
N1472 X-223.557 Y-26.887 Z19.792 A75.1782 
N1473 X-223.557 Y-27.624 Z19.480 A77.7574 
N1474 X-223.557 Y-28.343 Z19.128 A80.3209 
N1475 X-223.557 Y-29.043 Z18.738 A82.8671 
N1476 X-223.557 Y-29.721 Z18.309 A85.3932 
N1477 X-223.557 Y-30.374 Z17.842 A87.8957 
N1478 X-223.557 Y-31.000 Z17.337 A90.3713 
N1479 X-223.557 Y-31.597 Z16.796 A92.8172 
N1480 X-223.557 Y-32.161 Z16.221 A95.2313 
N1481 X-223.557 Y-32.692 Z15.612 A97.6129 
N1482 X-223.557 Y-33.188 Z14.973 A99.9633 
N1483 X-223.557 Y-33.649 Z14.304 A102.2848 
N1484 X-223.557 Y-34.075 Z13.609 A104.5808 
N1485 X-223.557 Y-34.464 Z12.888 A106.8566 
N1486 X-223.557 Y-34.818 Z12.143 A109.1176 
N1487 X-223.557 Y-35.138 Z11.376 A111.3698 
N1488 X-223.557 Y-35.423 Z10.588 A113.6208 
N1489 X-223.557 Y-35.674 Z9.779 A115.8787 
N1490 X-223.557 Y-35.893 Z8.952 A118.1515 
N1491 X-223.557 Y-36.078 Z8.105 A120.4468 
N1492 X-223.557 Y-36.231 Z7.239 A122.7722 
N1493 X-223.557 Y-36.350 Z6.354 A125.1344 
N1494 X-223.557 Y-36.435 Z5.449 A127.5408 
N1495 X-223.557 Y-36.483 Z4.524 A129.9986 
N1496 X-223.557 Y-36.493 Z3.578 A132.5109 
N1497 X-223.557 Y-36.458 Z2.613 A135.0733 
N1498 X-223.557 Y-36.374 Z1.628 A137.6786 
N1499 X-223.557 Y-36.234 Z0.628 A140.3209 
N1500 X-223.557 Y-36.033 Z-0.389 A142.9985 
N1501 X-223.557 Y-35.764 Z-1.421 A145.7099 
N1502 X-223.557 Y-35.419 Z-2.463 A148.4432 
N1503 X-223.557 Y-34.990 Z-3.511 A151.1836 
N1504 X-223.557 Y-34.467 Z-4.559 A153.9149 
N1505 X-223.557 Y-33.841 Z-5.596 A156.6081 
N1506 X-223.557 Y-33.103 Z-6.613 A159.2352 
N1507 X-223.557 Y-32.249 Z-7.603 A161.7898 
N1508 X-223.557 Y-31.276 Z-8.564 A164.2878 
N1509 X-223.557 Y-30.179 Z-9.494 A166.7403 
N1510 X-223.557 Y-28.957 Z-10.384 A169.1443 
N1511 X-223.557 Y-27.607 Z-11.222 A171.4713 
N1512 X-223.557 Y-26.131 Z-11.984 A173.6597 
N1513 X-223.557 Y-24.534 Z-12.652 A175.6434 
N1514 X-223.557 Y-22.827 Z-13.215 A177.3830 
N1515 X-223.557 Y-21.024 Z-13.670 A178.8652 
N1516 X-223.557 Y-19.140 Z-14.023 A180.1011 
N1517 X-223.557 Y-17.193 Z-14.289 A181.1293 
N1518 X-223.557 Y-15.201 Z-14.485 A182.0064 
N1519 X-223.557 Y-13.180 Z-14.630 A182.7993 
N1520 X-223.557 Y-11.147 Z-14.746 A183.5850 
N1521 X-223.557 Y-9.118 Z-14.853 A184.4496 
N1522 X-223.557 Y-7.108 Z-14.965 A185.4674 
N1523 X-223.557 Y-5.130 Z-15.092 A186.6898 
N1524 X-223.557 Y-3.195 Z-15.236 A188.1461 
N1525 X-223.557 Y-1.309 Z-15.395 A189.8490 
N1526 X-223.557 Y0.520 Z-15.563 A191.7854 
N1527 X-223.557 Y2.288 Z-15.730 A193.9213 
N1528 X-223.557 Y3.994 Z-15.886 A196.2170 
N1529 X-223.557 Y5.634 Z-16.022 A198.6327 
N1530 X-223.557 Y7.209 Z-16.133 A201.1267 
N1531 X-223.557 Y8.719 Z-16.212 A203.6646 
N1532 X-223.557 Y10.166 Z-16.259 A206.2208 
N1533 X-223.557 Y11.553 Z-16.270 A208.7743 
N1534 X-223.557 Y12.882 Z-16.246 A211.3115 
N1535 X-223.557 Y14.156 Z-16.189 A213.8240 
N1536 X-223.557 Y15.380 Z-16.100 A216.3072 
N1537 X-223.557 Y16.557 Z-15.979 A218.7593 
N1538 X-223.557 Y17.690 Z-15.829 A221.1811 
N1539 X-223.557 Y18.783 Z-15.652 A223.5744 
N1540 X-223.557 Y19.837 Z-15.449 A225.9422 
N1541 X-223.557 Y20.857 Z-15.222 A228.2880 
N1542 X-223.557 Y21.843 Z-14.973 A230.6152 
N1543 X-223.557 Y22.797 Z-14.704 A232.9281 
N1544 X-223.557 Y23.723 Z-14.416 A235.2303 
N1545 X-223.557 Y24.620 Z-14.111 A237.5257 
N1546 X-223.557 Y25.490 Z-13.791 A239.8180 
N1547 X-223.557 Y26.335 Z-13.457 A242.1104 
N1548 X-223.557 Y27.156 Z-13.110 A244.4058 
N1549 X-223.557 Y27.954 Z-12.752 A246.7071 
N1550 X-223.557 Y28.730 Z-12.383 A249.0169 
N1551 X-223.557 Y29.485 Z-12.004 A251.3376 
N1552 X-223.557 Y30.220 Z-11.616 A253.6712 
N1553 X-223.557 Y30.937 Z-11.220 A256.0200 
N1554 X-223.557 Y31.636 Z-10.815 A258.3854 
N1555 X-223.557 Y32.318 Z-10.401 A260.7690 
N1556 X-223.557 Y32.984 Z-9.979 A263.1720 
N1557 X-223.557 Y33.635 Z-9.547 A265.5952 
N1558 X-223.557 Y34.270 Z-9.107 A268.0393 
N1559 X-223.557 Y34.891 Z-8.656 A270.5046 
N1560 X-223.557 Y35.497 Z-8.194 A272.9913 
N1561 X-223.557 Y36.088 Z-7.721 A275.4991 
N1562 X-223.557 Y36.665 Z-7.236 A278.0277 
N1563 X-223.557 Y37.226 Z-6.737 A280.5764 
N1564 X-223.557 Y37.771 Z-6.224 A283.1444 
N1565 X-223.557 Y38.300 Z-5.696 A285.7311 
N1566 X-223.557 Y38.811 Z-5.153 A288.3355 
N1567 X-223.557 Y39.303 Z-4.594 A290.9571 
N1568 X-223.557 Y39.775 Z-4.017 A293.5957 
N1569 X-223.557 Y40.227 Z-3.423 A296.2515 
N1570 X-223.557 Y40.656 Z-2.810 A298.9259 
N1571 X-223.557 Y41.062 Z-2.177 A301.6212 
N1572 X-223.557 Y41.443 Z-1.523 A304.3419 
N1573 X-223.557 Y41.798 Z-0.846 A307.0948 
N1574 X-223.557 Y42.126 Z-0.143 A309.8899 
N1575 X-223.557 Y42.424 Z0.590 A312.7412 
N1576 X-223.557 Y42.689 Z1.359 A315.6660 
N1577 X-223.557 Y42.919 Z2.170 A318.6877 
N1578 X-223.557 Y43.106 Z3.031 A321.8348 
N1579 X-223.557 Y43.242 Z3.950 A325.1332 
N1580 X-223.557 Y43.313 Z4.936 A328.6146 
N1581 X-223.557 Y43.300 Z5.995 A332.2929 
N1582 X-223.557 Y43.179 Z7.126 A336.1760 
N1583 X-223.557 Y42.923 Z8.329 A340.2817 
N1584 X-223.557 Y42.497 Z9.576 A344.5364 
N1585 X-223.557 Y41.864 Z10.812 A348.7702 
N1586 X-223.557 Y41.001 Z11.962 A352.7479 
N1587 X-223.557 Y39.897 Z12.899 A356.0258 
N1588 X-223.557 Y38.568 Z13.531 A358.2320 
N1589 X-223.557 Y37.037 Z13.869 A359.3721 
N1590 X-223.557 Y35.314 Z14.013 A359.7837 
N1591 X-223.557 Y33.404 Z14.070 A359.8513 
N1592 X-223.557 Y31.313 Z14.107 A359.8234 
N1593 X-223.557 Y29.056 Z14.151 A359.7966 
N1594 X-223.557 Y26.653 Z14.206 
N1595 X-223.557 Y24.132 Z14.265 A359.7972 
N1596 X-223.557 Y21.526 Z14.329 A359.8150 
N1597 X-223.557 Y18.875 Z14.394 A359.8295 
N1598 X-223.557 Y16.216 Z14.457 A359.8349 
N1599 X-223.557 Y13.590 Z14.516 A359.8237 
N1600 X-223.557 Y11.034 Z14.571 A359.7966 
N1601 X-223.557 Y8.582 Z14.632 
N1602 X-223.557 Y6.250 Z14.704 A359.8599 
N1603 X-223.557 Y4.073 Z14.875 A0.3877 
N1604 X-223.557 Y2.054 Z15.186 A1.6267 
N1605 X-223.557 Y0.192 Z15.652 A3.7178 
N1606 X-223.557 Y-1.530 Z16.204 A6.4408 
N1607 X-223.557 Y-3.121 Z16.762 A9.4640 
N1608 X-223.557 Y-4.588 Z17.284 A12.5878 
N1609 X-223.557 Y-5.943 Z17.770 A15.7608 
N1610 X-223.557 Y-7.198 Z18.218 A18.9396 
N1611 X-223.557 Y-8.367 Z18.630 A22.1032 
N1612 X-223.557 Y-9.462 Z19.009 A25.2372 
N1613 X-223.557 Y-10.495 Z19.353 A28.3213 
N1614 X-223.557 Y-11.476 Z19.663 A31.3470 
N1615 X-223.557 Y-12.414 Z19.940 A34.3126 
N1616 X-223.557 Y-13.318 Z20.184 A37.2198 
N1617 X-223.557 Y-14.194 Z20.397 A40.0767 
N1618 X-223.557 Y-15.048 Z20.578 A42.8914 
N1619 X-223.557 Y-15.886 Z20.729 A45.6723 
N1620 X-223.557 Y-16.712 Z20.849 A48.4270 
N1621 X-223.557 Y-17.529 Z20.938 A51.1613 
N1622 X-223.557 Y-18.338 Z20.996 A53.8799 
N1623 X-223.557 Y-19.141 Z21.020 A56.5858 
N1624 X-223.557 Y-19.938 Z21.011 A59.2809 
N1625 X-223.557 Y-20.730 Z20.968 A61.9662 
N1626 X-223.557 Y-21.515 Z20.888 A64.6421 
N1627 X-223.557 Y-22.294 Z20.772 A67.3084 
N1628 X-223.557 Y-23.064 Z20.617 A69.9644 
N1629 X-223.557 Y-23.825 Z20.424 A72.6094 
N1630 X-223.557 Y-24.574 Z20.191 A75.2419 
N1631 X-223.557 Y-25.310 Z19.918 A77.8604 
N1632 X-223.557 Y-26.031 Z19.604 A80.4638 
N1633 X-223.557 Y-26.733 Z19.250 A83.0500 
N1634 X-223.557 Y-27.415 Z18.854 A85.6166 
N1635 X-223.557 Y-28.075 Z18.418 A88.1614 
N1636 X-223.557 Y-28.708 Z17.941 A90.6816 
N1637 X-223.557 Y-29.313 Z17.425 A93.1737 
N1638 X-223.557 Y-29.887 Z16.871 A95.6349 
N1639 X-223.557 Y-30.427 Z16.280 A98.0635 
N1640 X-223.557 Y-30.932 Z15.654 A100.4583 
N1641 X-223.557 Y-31.399 Z14.995 A102.8185 
N1642 X-223.557 Y-31.828 Z14.306 A105.1455 
N1643 X-223.557 Y-32.217 Z13.587 A107.4411 
N1644 X-223.557 Y-32.566 Z12.842 A109.7076 
N1645 X-223.557 Y-32.875 Z12.072 A111.9491 
N1646 X-223.557 Y-33.144 Z11.280 A114.1718 
N1647 X-223.557 Y-33.374 Z10.466 A116.3823 
N1648 X-223.557 Y-33.565 Z9.634 A118.5888 
N1649 X-223.557 Y-33.720 Z8.782 A120.8008 
N1650 X-223.557 Y-33.838 Z7.912 A123.0286 
N1651 X-223.557 Y-33.921 Z7.024 A125.2839 
N1652 X-223.557 Y-33.969 Z6.117 A127.5794 
N1653 X-223.557 Y-33.982 Z5.192 A129.9228 
N1654 X-223.557 Y-33.957 Z4.248 A132.3152 
N1655 X-223.557 Y-33.890 Z3.287 A134.7552 
N1656 X-223.557 Y-33.779 Z2.310 A137.2423 
N1657 X-223.557 Y-33.619 Z1.317 A139.7794 
N1658 X-223.557 Y-33.405 Z0.308 A142.3666 
N1659 X-223.557 Y-33.132 Z-0.714 A144.9972 
N1660 X-223.557 Y-32.793 Z-1.747 A147.6640 
N1661 X-223.557 Y-32.380 Z-2.785 A150.3546 
N1662 X-223.557 Y-31.885 Z-3.823 A153.0490 
N1663 X-223.557 Y-31.299 Z-4.854 A155.7286 
N1664 X-223.557 Y-30.617 Z-5.871 A158.3788 
N1665 X-223.557 Y-29.832 Z-6.868 A160.9952 
N1666 X-223.557 Y-28.942 Z-7.841 A163.5829 
N1667 X-223.557 Y-27.941 Z-8.787 A166.1470 
N1668 X-223.557 Y-26.827 Z-9.694 A168.6629 
N1669 X-223.557 Y-25.595 Z-10.541 A171.0766 
N1670 X-223.557 Y-24.249 Z-11.310 A173.3305 
N1671 X-223.557 Y-22.794 Z-11.987 A175.3821 
N1672 X-223.557 Y-21.239 Z-12.565 A177.2069 
N1673 X-223.557 Y-19.598 Z-13.043 A178.8013 
N1674 X-223.557 Y-17.883 Z-13.426 A180.1775 
N1675 X-223.557 Y-16.108 Z-13.725 A181.3619 
N1676 X-223.557 Y-14.289 Z-13.952 A182.4029 
N1677 X-223.557 Y-12.439 Z-14.129 A183.3675 
N1678 X-223.557 Y-10.574 Z-14.273 A184.3284 
N1679 X-223.557 Y-8.706 Z-14.401 A185.3534 
N1680 X-223.557 Y-6.847 Z-14.526 A186.5066 
N1681 X-223.557 Y-5.008 Z-14.658 A187.8403 
N1682 X-223.557 Y-3.198 Z-14.800 A189.3840 
N1683 X-223.557 Y-1.424 Z-14.949 A191.1412 
N1684 X-223.557 Y0.309 Z-15.101 A193.1009 
N1685 X-223.557 Y1.995 Z-15.247 A195.2386 
N1686 X-223.557 Y3.631 Z-15.379 A197.5173 
N1687 X-223.557 Y5.215 Z-15.489 A199.8974 
N1688 X-223.557 Y6.744 Z-15.571 A202.3455 
N1689 X-223.557 Y8.218 Z-15.620 A204.8301 
N1690 X-223.557 Y9.637 Z-15.635 A207.3263 
N1691 X-223.557 Y11.002 Z-15.614 A209.8173 
N1692 X-223.557 Y12.315 Z-15.558 A212.2903 
N1693 X-223.557 Y13.577 Z-15.468 A214.7379 
N1694 X-223.557 Y14.791 Z-15.346 A217.1566 
N1695 X-223.557 Y15.959 Z-15.194 A219.5453 
N1696 X-223.557 Y17.085 Z-15.014 A221.9049 
N1697 X-223.557 Y18.170 Z-14.808 A224.2381 
N1698 X-223.557 Y19.217 Z-14.579 A226.5479 
N1699 X-223.557 Y20.228 Z-14.328 A228.8382 
N1700 X-223.557 Y21.204 Z-14.059 A231.1132 
N1701 X-223.557 Y22.149 Z-13.773 A233.3770 
N1702 X-223.557 Y23.063 Z-13.471 A235.6342 
N1703 X-223.557 Y23.948 Z-13.157 A237.8889 
N1704 X-223.557 Y24.805 Z-12.832 A240.1452 
N1705 X-223.557 Y25.638 Z-12.498 A242.4070 
N1706 X-223.557 Y26.446 Z-12.155 A244.6778 
N1707 X-223.557 Y27.231 Z-11.805 A246.9606 
N1708 X-223.557 Y27.996 Z-11.448 A249.2584 
N1709 X-223.557 Y28.741 Z-11.086 A251.5736 
N1710 X-223.557 Y29.467 Z-10.719 A253.9084 
N1711 X-223.557 Y30.176 Z-10.346 A256.2647 
N1712 X-223.557 Y30.870 Z-9.967 A258.6439 
N1713 X-223.557 Y31.549 Z-9.583 A261.0473 
N1714 X-223.557 Y32.214 Z-9.191 A263.4753 
N1715 X-223.557 Y32.865 Z-8.793 A265.9284 
N1716 X-223.557 Y33.504 Z-8.386 A268.4065 
N1717 X-223.557 Y34.130 Z-7.969 A270.9092 
N1718 X-223.557 Y34.743 Z-7.542 A273.4358 
N1719 X-223.557 Y35.344 Z-7.104 A275.9857 
N1720 X-223.557 Y35.931 Z-6.652 A278.5574 
N1721 X-223.557 Y36.504 Z-6.187 A281.1501 
N1722 X-223.557 Y37.063 Z-5.707 A283.7624 
N1723 X-223.557 Y37.606 Z-5.211 A286.3930 
N1724 X-223.557 Y38.133 Z-4.699 A289.0408 
N1725 X-223.557 Y38.642 Z-4.169 A291.7051 
N1726 X-223.557 Y39.131 Z-3.621 A294.3855 
N1727 X-223.557 Y39.601 Z-3.053 A297.0827 
N1728 X-223.557 Y40.049 Z-2.466 A299.7985 
N1729 X-223.557 Y40.474 Z-1.856 A302.5368 
N1730 X-223.557 Y40.876 Z-1.224 A305.3038 
N1731 X-223.557 Y41.253 Z-0.565 A308.1093 
N1732 X-223.557 Y41.604 Z0.123 A310.9670 
N1733 X-223.557 Y41.926 Z0.847 A313.8950 
N1734 X-223.557 Y42.218 Z1.612 A316.9183 
N1735 X-223.557 Y42.475 Z2.427 A320.0653 
N1736 X-223.557 Y42.689 Z3.302 A323.3675 
N1737 X-223.557 Y42.850 Z4.248 A326.8657 
N1738 X-223.557 Y42.941 Z5.273 A330.5837 
N1739 X-223.557 Y42.939 Z6.383 A334.5476 
N1740 X-223.557 Y42.816 Z7.574 A338.7533 
N1741 X-223.557 Y42.538 Z8.831 A343.1661 
N1742 X-223.557 Y42.070 Z10.133 A347.7584 
N1743 X-223.557 Y41.372 Z11.379 A352.1917 
N1744 X-223.557 Y40.426 Z12.380 A355.7681 
N1745 X-223.557 Y39.255 Z13.029 A358.0703 
N1746 X-223.557 Y37.888 Z13.376 A359.2583 
N1747 X-223.557 Y36.333 Z13.535 A359.7433 
N1748 X-223.557 Y34.593 Z13.607 A359.8851 
N1749 X-223.557 Y32.671 Z13.647 A359.8894 
N1750 X-223.557 Y30.576 Z13.683 A359.8560 
N1751 X-223.557 Y28.327 Z13.728 A359.8370 
N1752 X-223.557 Y25.945 Z13.781 
N1753 X-223.557 Y23.462 Z13.842 A359.8569 
N1754 X-223.557 Y20.915 Z13.909 A359.8957 
N1755 X-223.557 Y18.340 Z13.974 A359.9309 
N1756 X-223.557 Y15.778 Z14.034 A359.9422 
N1757 X-223.557 Y13.267 Z14.080 A359.8954 
N1758 X-223.557 Y10.842 Z14.125 A359.8370 
N1759 X-223.557 Y8.530 Z14.185 
N1760 X-223.557 Y6.346 Z14.289 A0.0479 
N1761 X-223.557 Y4.321 Z14.518 A0.8602 
N1762 X-223.557 Y2.455 Z14.870 A2.3419 
N1763 X-223.557 Y0.741 Z15.336 A4.5058 
N1764 X-223.557 Y-0.838 Z15.881 A7.2456 
N1765 X-223.557 Y-2.296 Z16.460 A10.3704 
N1766 X-223.557 Y-3.643 Z17.015 A13.6240 
N1767 X-223.557 Y-4.885 Z17.521 A16.8556 
N1768 X-223.557 Y-6.038 Z17.990 A20.0768 
N1769 X-223.557 Y-7.117 Z18.430 A23.2952 
N1770 X-223.557 Y-8.133 Z18.838 A26.4815 
N1771 X-223.557 Y-9.097 Z19.212 A29.6156 
N1772 X-223.557 Y-10.017 Z19.552 A32.6869 
N1773 X-223.557 Y-10.902 Z19.857 A35.6946 
N1774 X-223.557 Y-11.760 Z20.130 A38.6436 
N1775 X-223.557 Y-12.595 Z20.369 A41.5391 
N1776 X-223.557 Y-13.414 Z20.577 A44.3896 
N1777 X-223.557 Y-14.220 Z20.752 A47.2046 
N1778 X-223.557 Y-15.019 Z20.896 A49.9928 
N1779 X-223.557 Y-15.811 Z21.008 A52.7609 
N1780 X-223.557 Y-16.598 Z21.086 A55.5132 
N1781 X-223.557 Y-17.382 Z21.131 A58.2524 
N1782 X-223.557 Y-18.162 Z21.141 A60.9804 
N1783 X-223.557 Y-18.939 Z21.115 A63.6980 
N1784 X-223.557 Y-19.711 Z21.051 A66.4056 
N1785 X-223.557 Y-20.477 Z20.949 A69.1028 
N1786 X-223.557 Y-21.236 Z20.808 A71.7888 
N1787 X-223.557 Y-21.987 Z20.626 A74.4623 
N1788 X-223.557 Y-22.726 Z20.402 A77.1218 
N1789 X-223.557 Y-23.451 Z20.137 A79.7657 
N1790 X-223.557 Y-24.161 Z19.829 A82.3913 
N1791 X-223.557 Y-24.852 Z19.478 A84.9960 
N1792 X-223.557 Y-25.522 Z19.084 A87.5775 
N1793 X-223.557 Y-26.168 Z18.648 A90.1329 
N1794 X-223.557 Y-26.786 Z18.171 A92.6589 
N1795 X-223.557 Y-27.374 Z17.652 A95.1532 
N1796 X-223.557 Y-27.930 Z17.093 A97.6140 
N1797 X-223.557 Y-28.450 Z16.497 A100.0393 
N1798 X-223.557 Y-28.933 Z15.864 A102.4278 
N1799 X-223.557 Y-29.377 Z15.196 A104.7799 
N1800 X-223.557 Y-29.780 Z14.497 A107.0958 
N1801 X-223.557 Y-30.142 Z13.767 A109.3763 
N1802 X-223.557 Y-30.460 Z13.010 A111.6243 
N1803 X-223.557 Y-30.737 Z12.227 A113.8436 
N1804 X-223.557 Y-30.970 Z11.422 A116.0392 
N1805 X-223.557 Y-31.162 Z10.595 A118.2177 
N1806 X-223.557 Y-31.312 Z9.749 A120.3878 
N1807 X-223.557 Y-31.424 Z8.884 A122.5616 
N1808 X-223.557 Y-31.499 Z8.000 A124.7551 
N1809 X-223.557 Y-31.537 Z7.097 A126.9799 
N1810 X-223.557 Y-31.538 Z6.178 A129.2381 
N1811 X-223.557 Y-31.500 Z5.243 A131.5293 
N1812 X-223.557 Y-31.422 Z4.293 A133.8569 
N1813 X-223.557 Y-31.301 Z3.329 A136.2293 
N1814 X-223.557 Y-31.137 Z2.350 A138.6524 
N1815 X-223.557 Y-30.926 Z1.358 A141.1253 
N1816 X-223.557 Y-30.663 Z0.353 A143.6471 
N1817 X-223.557 Y-30.344 Z-0.660 A146.2128 
N1818 X-223.557 Y-29.962 Z-1.681 A148.8134 
N1819 X-223.557 Y-29.510 Z-2.703 A151.4384 
N1820 X-223.557 Y-28.983 Z-3.722 A154.0731 
N1821 X-223.557 Y-28.374 Z-4.734 A156.7099 
N1822 X-223.557 Y-27.679 Z-5.735 A159.3529 
N1823 X-223.557 Y-26.894 Z-6.721 A162.0055 
N1824 X-223.557 Y-26.012 Z-7.685 A164.6491 
N1825 X-223.557 Y-25.028 Z-8.610 A167.2433 
N1826 X-223.557 Y-23.941 Z-9.480 A169.7400 
N1827 X-223.557 Y-22.751 Z-10.281 A172.0967 
N1828 X-223.557 Y-21.463 Z-11.000 A174.2822 
N1829 X-223.557 Y-20.084 Z-11.630 A176.2734 
N1830 X-223.557 Y-18.625 Z-12.167 A178.0568 
N1831 X-223.557 Y-17.097 Z-12.613 A179.6358 
N1832 X-223.557 Y-15.511 Z-12.975 A181.0340 
N1833 X-223.557 Y-13.880 Z-13.264 A182.2880 
N1834 X-223.557 Y-12.216 Z-13.495 A183.4471 
N1835 X-223.557 Y-10.531 Z-13.684 A184.5732 
N1836 X-223.557 Y-8.835 Z-13.848 A185.7349 
N1837 X-223.557 Y-7.139 Z-14.000 A186.9931 
N1838 X-223.557 Y-5.450 Z-14.150 A188.3972 
N1839 X-223.557 Y-3.776 Z-14.304 A189.9834 
N1840 X-223.557 Y-2.122 Z-14.463 A191.7702 
N1841 X-223.557 Y-0.493 Z-14.623 A193.7506 
N1842 X-223.557 Y1.106 Z-14.775 A195.9006 
N1843 X-223.557 Y2.671 Z-14.911 A198.1881 
N1844 X-223.557 Y4.200 Z-15.022 A200.5743 
N1845 X-223.557 Y5.688 Z-15.101 A203.0190 
N1846 X-223.557 Y7.133 Z-15.142 A205.4904 
N1847 X-223.557 Y8.532 Z-15.143 A207.9628 
N1848 X-223.557 Y9.886 Z-15.103 A210.4164 
N1849 X-223.557 Y11.193 Z-15.022 A212.8397 
N1850 X-223.557 Y12.454 Z-14.903 A215.2258 
N1851 X-223.557 Y13.670 Z-14.748 A217.5720 
N1852 X-223.557 Y14.842 Z-14.559 A219.8788 
N1853 X-223.557 Y15.971 Z-14.340 A222.1490 
N1854 X-223.557 Y17.060 Z-14.095 A224.3862 
N1855 X-223.557 Y18.109 Z-13.827 A226.5958 
N1856 X-223.557 Y19.121 Z-13.539 A228.7839 
N1857 X-223.557 Y20.097 Z-13.234 A230.9566 
N1858 X-223.557 Y21.039 Z-12.916 A233.1211 
N1859 X-223.557 Y21.949 Z-12.588 A235.2845 
N1860 X-223.557 Y22.830 Z-12.253 A237.4535 
N1861 X-223.557 Y23.683 Z-11.912 A239.6339 
N1862 X-223.557 Y24.510 Z-11.568 A241.8303 
N1863 X-223.557 Y25.313 Z-11.221 A244.0465 
N1864 X-223.557 Y26.093 Z-10.874 A246.2858 
N1865 X-223.557 Y26.853 Z-10.526 A248.5507 
N1866 X-223.557 Y27.595 Z-10.179 A250.8432 
N1867 X-223.557 Y28.319 Z-9.831 A253.1652 
N1868 X-223.557 Y29.028 Z-9.483 A255.5183 
N1869 X-223.557 Y29.723 Z-9.133 A257.9033 
N1870 X-223.557 Y30.405 Z-8.782 A260.3209 
N1871 X-223.557 Y31.075 Z-8.427 A262.7711 
N1872 X-223.557 Y31.735 Z-8.067 A265.2533 
N1873 X-223.557 Y32.384 Z-7.701 A267.7668 
N1874 X-223.557 Y33.024 Z-7.327 A270.3104 
N1875 X-223.557 Y33.653 Z-6.943 A272.8826 
N1876 X-223.557 Y34.272 Z-6.548 A275.4815 
N1877 X-223.557 Y34.879 Z-6.140 A278.1052 
N1878 X-223.557 Y35.475 Z-5.718 A280.7516 
N1879 X-223.557 Y36.059 Z-5.280 A283.4184 
N1880 X-223.557 Y36.628 Z-4.826 A286.1038 
N1881 X-223.557 Y37.182 Z-4.354 A288.8060 
N1882 X-223.557 Y37.719 Z-3.862 A291.5239 
N1883 X-223.557 Y38.239 Z-3.351 A294.2572 
N1884 X-223.557 Y38.739 Z-2.819 A297.0068 
N1885 X-223.557 Y39.220 Z-2.266 A299.7752 
N1886 X-223.557 Y39.679 Z-1.688 A302.5671 
N1887 X-223.557 Y40.116 Z-1.085 A305.3907 
N1888 X-223.557 Y40.530 Z-0.454 A308.2582 
N1889 X-223.557 Y40.921 Z0.212 A311.1867 
N1890 X-223.557 Y41.286 Z0.917 A314.2004 
N1891 X-223.557 Y41.623 Z1.670 A317.3270 
N1892 X-223.557 Y41.928 Z2.480 A320.6013 
N1893 X-223.557 Y42.193 Z3.360 A324.0666 
N1894 X-223.557 Y42.404 Z4.320 A327.7534 
N1895 X-223.557 Y42.545 Z5.369 A331.6941 
N1896 X-223.557 Y42.586 Z6.507 A335.8832 
N1897 X-223.557 Y42.499 Z7.737 A340.3522 
N1898 X-223.557 Y42.257 Z9.074 A345.2071 
N1899 X-223.557 Y41.802 Z10.420 A350.1080 
N1900 X-223.557 Y41.093 Z11.556 A354.2333 
N1901 X-223.557 Y40.152 Z12.351 A357.1042 
N1902 X-223.557 Y39.013 Z12.834 A358.8242 
N1903 X-223.557 Y37.691 Z13.092 A359.7134 
N1904 X-223.557 Y36.187 Z13.209 A0.0706 
N1905 X-223.557 Y34.501 Z13.253 A0.1343 
N1906 X-223.557 Y32.636 Z13.273 A0.0848 
N1907 X-223.557 Y30.602 Z13.301 A0.0416 
N1908 X-223.557 Y28.417 Z13.345 
N1909 X-223.557 Y26.100 Z13.391 
N1910 X-223.557 Y23.689 Z13.446 A0.0705 
N1911 X-223.557 Y21.217 Z13.500 A0.0949 
N1912 X-223.557 Y18.722 Z13.550 A0.1026 
N1913 X-223.557 Y16.245 Z13.594 A0.0871 
N1914 X-223.557 Y13.822 Z13.631 A0.0416 
N1915 X-223.557 Y11.490 Z13.680 
N1916 X-223.557 Y9.266 Z13.726 
N1917 X-223.557 Y7.185 Z13.823 A0.2830 
N1918 X-223.557 Y5.258 Z14.006 A0.9515 
N1919 X-223.557 Y3.492 Z14.329 A2.3213 
N1920 X-223.557 Y1.873 Z14.813 A4.5446 
N1921 X-223.557 Y0.382 Z15.405 A7.4593 
N1922 X-223.557 Y-0.994 Z16.013 A10.6817 
N1923 X-223.557 Y-2.260 Z16.579 A13.9441 
N1924 X-223.557 Y-3.430 Z17.111 A17.2304 
N1925 X-223.557 Y-4.520 Z17.617 A20.5449 
N1926 X-223.557 Y-5.543 Z18.094 A23.8550 
N1927 X-223.557 Y-6.509 Z18.540 A27.1292 
N1928 X-223.557 Y-7.429 Z18.951 A30.3436 
N1929 X-223.557 Y-8.309 Z19.325 A33.4880 
N1930 X-223.557 Y-9.159 Z19.665 A36.5637 
N1931 X-223.557 Y-9.985 Z19.970 A39.5736 
N1932 X-223.557 Y-10.792 Z20.240 A42.5256 
N1933 X-223.557 Y-11.586 Z20.478 A45.4281 
N1934 X-223.557 Y-12.369 Z20.681 A48.2889 
N1935 X-223.557 Y-13.146 Z20.852 A51.1171 
N1936 X-223.557 Y-13.918 Z20.989 A53.9210 
N1937 X-223.557 Y-14.688 Z21.093 A56.7072 
N1938 X-223.557 Y-15.456 Z21.162 A59.4799 
N1939 X-223.557 Y-16.223 Z21.195 A62.2409 
N1940 X-223.557 Y-16.987 Z21.191 A64.9909 
N1941 X-223.557 Y-17.748 Z21.149 A67.7301 
N1942 X-223.557 Y-18.505 Z21.068 A70.4586 
N1943 X-223.557 Y-19.255 Z20.946 A73.1754 
N1944 X-223.557 Y-19.997 Z20.782 A75.8792 
N1945 X-223.557 Y-20.729 Z20.577 A78.5688 
N1946 X-223.557 Y-21.448 Z20.328 A81.2417 
N1947 X-223.557 Y-22.152 Z20.035 A83.8951 
N1948 X-223.557 Y-22.837 Z19.699 A86.5269 
N1949 X-223.557 Y-23.500 Z19.318 A89.1341 
N1950 X-223.557 Y-24.139 Z18.893 A91.7131 
N1951 X-223.557 Y-24.750 Z18.426 A94.2608 
N1952 X-223.557 Y-25.331 Z17.916 A96.7750 
N1953 X-223.557 Y-25.877 Z17.364 A99.2528 
N1954 X-223.557 Y-26.387 Z16.773 A101.6915 
N1955 X-223.557 Y-26.858 Z16.145 A104.0903 
N1956 X-223.557 Y-27.288 Z15.480 A106.4478 
N1957 X-223.557 Y-27.674 Z14.782 A108.7628 
N1958 X-223.557 Y-28.016 Z14.053 A111.0360 
N1959 X-223.557 Y-28.312 Z13.296 A113.2689 
N1960 X-223.557 Y-28.562 Z12.513 A115.4642 
N1961 X-223.557 Y-28.766 Z11.706 A117.6276 
N1962 X-223.557 Y-28.927 Z10.878 A119.7683 
N1963 X-223.557 Y-29.045 Z10.029 A121.9032 
N1964 X-223.557 Y-29.125 Z9.158 A124.0519 
N1965 X-223.557 Y-29.167 Z8.268 A126.2231 
N1966 X-223.557 Y-29.169 Z7.360 A128.4150 
N1967 X-223.557 Y-29.130 Z6.436 A130.6294 
N1968 X-223.557 Y-29.051 Z5.497 A132.8767 
N1969 X-223.557 Y-28.932 Z4.543 A135.1679 
N1970 X-223.557 Y-28.771 Z3.575 A137.5038 
N1971 X-223.557 Y-28.565 Z2.596 A139.8845 
N1972 X-223.557 Y-28.312 Z1.607 A142.3059 
N1973 X-223.557 Y-28.007 Z0.612 A144.7611 
N1974 X-223.557 Y-27.646 Z-0.386 A147.2421 
N1975 X-223.557 Y-27.225 Z-1.382 A149.7345 
N1976 X-223.557 Y-26.740 Z-2.372 A152.2345 
N1977 X-223.557 Y-26.191 Z-3.357 A154.7514 
N1978 X-223.557 Y-25.573 Z-4.335 A157.2957 
N1979 X-223.557 Y-24.884 Z-5.303 A159.8631 
N1980 X-223.557 Y-24.119 Z-6.250 A162.4298 
N1981 X-223.557 Y-23.274 Z-7.166 A164.9624 
N1982 X-223.557 Y-22.346 Z-8.040 A167.4314 
N1983 X-223.557 Y-21.338 Z-8.861 A169.8123 
N1984 X-223.557 Y-20.251 Z-9.621 A172.0836 
N1985 X-223.557 Y-19.091 Z-10.313 A174.2285 
N1986 X-223.557 Y-17.863 Z-10.934 A176.2384 
N1987 X-223.557 Y-16.575 Z-11.482 A178.1142 
N1988 X-223.557 Y-15.235 Z-11.960 A179.8648 
N1989 X-223.557 Y-13.852 Z-12.372 A181.5092 
N1990 X-223.557 Y-12.434 Z-12.726 A183.0777 
N1991 X-223.557 Y-10.988 Z-13.032 A184.6087 
N1992 X-223.557 Y-9.522 Z-13.298 A186.1445 
N1993 X-223.557 Y-8.041 Z-13.536 A187.7276 
N1994 X-223.557 Y-6.551 Z-13.754 A189.3987 
N1995 X-223.557 Y-5.055 Z-13.956 A191.1897 
N1996 X-223.557 Y-3.557 Z-14.145 A193.1180 
N1997 X-223.557 Y-2.060 Z-14.318 A195.1853 
N1998 X-223.557 Y-0.567 Z-14.470 A197.3806 
N1999 X-223.557 Y0.917 Z-14.595 A199.6787 
N2000 X-223.557 Y2.387 Z-14.683 A202.0451 
N2001 X-223.557 Y3.840 Z-14.727 A204.4437 
N2002 X-223.557 Y5.268 Z-14.721 A206.8418 
N2003 X-223.557 Y6.666 Z-14.663 A209.2099 
N2004 X-223.557 Y8.029 Z-14.550 A211.5270 
N2005 X-223.557 Y9.354 Z-14.385 A213.7806 
N2006 X-223.557 Y10.637 Z-14.171 A215.9658 
N2007 X-223.557 Y11.877 Z-13.914 A218.0845 
N2008 X-223.557 Y13.073 Z-13.620 A220.1441 
N2009 X-223.557 Y14.226 Z-13.295 A222.1552 
N2010 X-223.557 Y15.335 Z-12.947 A224.1303 
N2011 X-223.557 Y16.403 Z-12.582 A226.0834 
N2012 X-223.557 Y17.430 Z-12.205 A228.0283 
N2013 X-223.557 Y18.420 Z-11.824 A229.9779 
N2014 X-223.557 Y19.373 Z-11.442 A231.9448 
N2015 X-223.557 Y20.293 Z-11.063 A233.9397 
N2016 X-223.557 Y21.182 Z-10.692 A235.9711 
N2017 X-223.557 Y22.042 Z-10.330 A238.0449 
N2018 X-223.557 Y22.876 Z-9.978 A240.1641 
N2019 X-223.557 Y23.684 Z-9.638 A242.3292 
N2020 X-223.557 Y24.470 Z-9.309 A244.5409 
N2021 X-223.557 Y25.236 Z-8.991 A246.8003 
N2022 X-223.557 Y25.984 Z-8.683 A249.1084 
N2023 X-223.557 Y26.718 Z-8.385 A251.4651 
N2024 X-223.557 Y27.438 Z-8.093 A253.8704 
N2025 X-223.557 Y28.147 Z-7.807 A256.3236 
N2026 X-223.557 Y28.848 Z-7.523 A258.8225 
N2027 X-223.557 Y29.540 Z-7.239 A261.3649 
N2028 X-223.557 Y30.224 Z-6.953 A263.9480 
N2029 X-223.557 Y30.902 Z-6.660 A266.5683 
N2030 X-223.557 Y31.572 Z-6.360 A269.2218 
N2031 X-223.557 Y32.235 Z-6.048 A271.9050 
N2032 X-223.557 Y32.890 Z-5.724 A274.6141 
N2033 X-223.557 Y33.535 Z-5.384 A277.3451 
N2034 X-223.557 Y34.170 Z-5.027 A280.0949 
N2035 X-223.557 Y34.792 Z-4.652 A282.8602 
N2036 X-223.557 Y35.402 Z-4.257 A285.6379 
N2037 X-223.557 Y35.996 Z-3.842 A288.4250 
N2038 X-223.557 Y36.574 Z-3.404 A291.2198 
N2039 X-223.557 Y37.133 Z-2.945 A294.0210 
N2040 X-223.557 Y37.674 Z-2.463 A296.8284 
N2041 X-223.557 Y38.193 Z-1.958 A299.6432 
N2042 X-223.557 Y38.690 Z-1.430 A302.4678 
N2043 X-223.557 Y39.164 Z-0.877 A305.3059 
N2044 X-223.557 Y39.614 Z-0.298 A308.1631 
N2045 X-223.557 Y40.038 Z0.309 A311.0471 
N2046 X-223.557 Y40.435 Z0.944 A313.9669 
N2047 X-223.557 Y40.804 Z1.612 A316.9353 
N2048 X-223.557 Y41.141 Z2.315 A319.9696 
N2049 X-223.557 Y41.444 Z3.060 A323.0868 
N2050 X-223.557 Y41.708 Z3.850 A326.3077 
N2051 X-223.557 Y41.925 Z4.693 A329.6603 
N2052 X-223.557 Y42.085 Z5.592 A333.1609 
N2053 X-223.557 Y42.174 Z6.550 A336.8186 
N2054 X-223.557 Y42.174 Z7.565 A340.6356 
N2055 X-223.557 Y42.064 Z8.623 A344.5737 
N2056 X-223.557 Y41.820 Z9.693 A348.5382 
N2057 X-223.557 Y41.425 Z10.738 A352.4253 
N2058 X-223.557 Y40.866 Z11.707 A356.0688 
N2059 X-223.557 Y40.145 Z12.525 A359.2172 
N2060 X-223.557 Y39.271 Z13.140 A1.6775 
N2061 X-223.557 Y38.259 Z13.547 A3.4308 
N2062 X-223.557 Y37.116 Z13.779 A4.5917 
N2063 X-223.557 Y35.842 Z13.880 A5.3043 
N2064 X-223.557 Y34.437 Z13.884 A5.6803 
N2065 X-223.557 Y32.903 Z13.819 A5.7833 
N2066 X-223.557 Y31.246 Z13.705 A5.6539 
N2067 X-223.557 Y29.475 Z13.571 A5.3560 
N2068 X-223.557 Y27.601 Z13.458 A5.0072 
N2069 X-223.557 Y25.640 Z13.395 A4.7045 
N2070 X-223.557 Y23.618 Z13.418 A4.5787 
N2071 X-223.557 Y21.552 Z13.510 
N2072 X-223.557 Y19.453 Z13.633 
N2073 X-223.557 Y17.348 Z13.777 
N2074 X-223.557 Y15.265 Z13.928 
N2075 X-223.557 Y13.228 Z14.076 
N2076 X-223.557 Y11.255 Z14.208 
N2077 X-223.557 Y9.360 Z14.315 
N2078 X-223.557 Y7.552 Z14.388 
N2079 X-223.557 Y5.876 Z14.540 A5.0723 
N2080 X-223.557 Y4.331 Z14.757 A6.0163 
N2081 X-223.557 Y2.916 Z15.043 A7.4417 
N2082 X-223.557 Y1.624 Z15.393 A9.3243 
N2083 X-223.557 Y0.443 Z15.792 A11.5832 
N2084 X-223.557 Y-0.642 Z16.223 A14.1250 
N2085 X-223.557 Y-1.646 Z16.674 A16.8787 
N2086 X-223.557 Y-2.587 Z17.137 A19.7906 
N2087 X-223.557 Y-3.477 Z17.600 A22.7994 
N2088 X-223.557 Y-4.330 Z18.052 A25.8527 
N2089 X-223.557 Y-5.152 Z18.485 A28.9125 
N2090 X-223.557 Y-5.952 Z18.894 A31.9532 
N2091 X-223.557 Y-6.733 Z19.274 A34.9615 
N2092 X-223.557 Y-7.502 Z19.625 A37.9343 
N2093 X-223.557 Y-8.262 Z19.945 A40.8719 
N2094 X-223.557 Y-9.016 Z20.235 A43.7769 
N2095 X-223.557 Y-9.766 Z20.492 A46.6533 
N2096 X-223.557 Y-10.515 Z20.718 A49.5039 
N2097 X-223.557 Y-11.262 Z20.910 A52.3316 
N2098 X-223.557 Y-12.010 Z21.069 A55.1399 
N2099 X-223.557 Y-12.759 Z21.193 A57.9325 
N2100 X-223.557 Y-13.508 Z21.281 A60.7124 
N2101 X-223.557 Y-14.258 Z21.334 A63.4821 
N2102 X-223.557 Y-15.007 Z21.349 A66.2431 
N2103 X-223.557 Y-15.755 Z21.325 A68.9959 
N2104 X-223.557 Y-16.501 Z21.262 A71.7400 
N2105 X-223.557 Y-17.242 Z21.158 A74.4746 
N2106 X-223.557 Y-17.976 Z21.011 A77.1982 
N2107 X-223.557 Y-18.701 Z20.822 A79.9085 
N2108 X-223.557 Y-19.414 Z20.588 A82.6040 
N2109 X-223.557 Y-20.113 Z20.310 A85.2831 
N2110 X-223.557 Y-20.794 Z19.987 A87.9435 
N2111 X-223.557 Y-21.455 Z19.618 A90.5821 
N2112 X-223.557 Y-22.092 Z19.204 A93.1969 
N2113 X-223.557 Y-22.702 Z18.744 A95.7858 
N2114 X-223.557 Y-23.282 Z18.239 A98.3454 
N2115 X-223.557 Y-23.828 Z17.690 A100.8728 
N2116 X-223.557 Y-24.337 Z17.098 A103.3659 
N2117 X-223.557 Y-24.805 Z16.464 A105.8208 
N2118 X-223.557 Y-25.229 Z15.792 A108.2329 
N2119 X-223.557 Y-25.606 Z15.082 A110.5965 
N2120 X-223.557 Y-25.932 Z14.339 A112.9064 
N2121 X-223.557 Y-26.207 Z13.566 A115.1644 
N2122 X-223.557 Y-26.431 Z12.764 A117.3760 
N2123 X-223.557 Y-26.597 Z11.940 A119.5203 
N2124 X-223.557 Y-26.698 Z11.104 A121.5529 
N2125 X-223.557 Y-26.740 Z10.256 A123.5005 
N2126 X-223.557 Y-26.749 Z9.384 A125.4845 
N2127 X-223.557 Y-26.731 Z8.483 A127.5527 
N2128 X-223.557 Y-26.673 Z7.566 A129.6390 
N2129 X-223.557 Y-26.570 Z6.640 A131.7173 
N2130 X-223.557 Y-26.424 Z5.705 A133.8069 
N2131 X-223.557 Y-26.241 Z4.762 A135.9237 
N2132 X-223.557 Y-26.019 Z3.813 A138.0743 
N2133 X-223.557 Y-25.761 Z2.857 A140.2679 
N2134 X-223.557 Y-25.466 Z1.896 A142.5123 
N2135 X-223.557 Y-25.134 Z0.931 A144.8120 
N2136 X-223.557 Y-24.764 Z-0.037 A147.1705 
N2137 X-223.557 Y-24.354 Z-1.004 A149.5794 
N2138 X-223.557 Y-23.899 Z-1.965 A152.0252 
N2139 X-223.557 Y-23.397 Z-2.917 A154.5003 
N2140 X-223.557 Y-22.847 Z-3.856 A156.9973 
N2141 X-223.557 Y-22.245 Z-4.778 A159.5061 
N2142 X-223.557 Y-21.590 Z-5.678 A162.0178 
N2143 X-223.557 Y-20.880 Z-6.552 A164.5228 
N2144 X-223.557 Y-20.115 Z-7.395 A167.0100 
N2145 X-223.557 Y-19.292 Z-8.202 A169.4688 
N2146 X-223.557 Y-18.413 Z-8.968 A171.8910 
N2147 X-223.557 Y-17.477 Z-9.689 A174.2697 
N2148 X-223.557 Y-16.487 Z-10.361 A176.5999 
N2149 X-223.557 Y-15.443 Z-10.983 A178.8796 
N2150 X-223.557 Y-14.348 Z-11.551 A181.1097 
N2151 X-223.557 Y-13.205 Z-12.064 A183.2934 
N2152 X-223.557 Y-12.016 Z-12.522 A185.4364 
N2153 X-223.557 Y-10.783 Z-12.926 A187.5464 
N2154 X-223.557 Y-9.510 Z-13.274 A189.6322 
N2155 X-223.557 Y-8.200 Z-13.567 A191.7028 
N2156 X-223.557 Y-6.855 Z-13.807 A193.7669 
N2157 X-223.557 Y-5.480 Z-13.993 A195.8318 
N2158 X-223.557 Y-4.079 Z-14.124 A197.9025 
N2159 X-223.557 Y-2.656 Z-14.201 A199.9815 
N2160 X-223.557 Y-1.216 Z-14.223 A202.0674 
N2161 X-223.557 Y0.234 Z-14.188 A204.1537 
N2162 X-223.557 Y1.687 Z-14.095 A206.2290 
N2163 X-223.557 Y3.134 Z-13.943 A208.2778 
N2164 X-223.557 Y4.567 Z-13.732 A210.2795 
N2165 X-223.557 Y5.976 Z-13.461 A212.2122 
N2166 X-223.557 Y7.351 Z-13.135 A214.0625 
N2167 X-223.557 Y8.686 Z-12.760 A215.8297 
N2168 X-223.557 Y9.977 Z-12.347 A217.5246 
N2169 X-223.557 Y11.221 Z-11.906 A219.1686 
N2170 X-223.557 Y12.418 Z-11.452 A220.7930 
N2171 X-223.557 Y13.571 Z-10.995 A222.4334 
N2172 X-223.557 Y14.682 Z-10.547 A224.1181 
N2173 X-223.557 Y15.751 Z-10.112 A225.8641 
N2174 X-223.557 Y16.779 Z-9.697 A227.6790 
N2175 X-223.557 Y17.767 Z-9.304 A229.5677 
N2176 X-223.557 Y18.717 Z-8.936 A231.5322 
N2177 X-223.557 Y19.631 Z-8.592 A233.5714 
N2178 X-223.557 Y20.511 Z-8.274 A235.6834 
N2179 X-223.557 Y21.360 Z-7.981 A237.8664 
N2180 X-223.557 Y22.183 Z-7.711 A240.1181 
N2181 X-223.557 Y22.981 Z-7.463 A242.4355 
N2182 X-223.557 Y23.760 Z-7.234 A244.8160 
N2183 X-223.557 Y24.522 Z-7.021 A247.2578 
N2184 X-223.557 Y25.271 Z-6.820 A249.7577 
N2185 X-223.557 Y26.010 Z-6.629 A252.3113 
N2186 X-223.557 Y26.740 Z-6.442 A254.9146 
N2187 X-223.557 Y27.463 Z-6.256 A257.5626 
N2188 X-223.557 Y28.180 Z-6.067 A260.2494 
N2189 X-223.557 Y28.891 Z-5.871 A262.9702 
N2190 X-223.557 Y29.597 Z-5.665 A265.7199 
N2191 X-223.557 Y30.296 Z-5.446 A268.4934 
N2192 X-223.557 Y30.988 Z-5.212 A271.2861 
N2193 X-223.557 Y31.672 Z-4.960 A274.0942 
N2194 X-223.557 Y32.347 Z-4.687 A276.9137 
N2195 X-223.557 Y33.010 Z-4.394 A279.7408 
N2196 X-223.557 Y33.662 Z-4.078 A282.5726 
N2197 X-223.557 Y34.299 Z-3.738 A285.4067 
N2198 X-223.557 Y34.922 Z-3.375 A288.2416 
N2199 X-223.557 Y35.527 Z-2.987 A291.0764 
N2200 X-223.557 Y36.114 Z-2.574 A293.9111 
N2201 X-223.557 Y36.682 Z-2.136 A296.7463 
N2202 X-223.557 Y37.229 Z-1.674 A299.5830 
N2203 X-223.557 Y37.755 Z-1.186 A302.4224 
N2204 X-223.557 Y38.257 Z-0.673 A305.2667 
N2205 X-223.557 Y38.734 Z-0.135 A308.1181 
N2206 X-223.557 Y39.186 Z0.428 A310.9792 
N2207 X-223.557 Y39.610 Z1.017 A313.8544 
N2208 X-223.557 Y40.005 Z1.633 A316.7492 
N2209 X-223.557 Y40.369 Z2.275 A319.6691 
N2210 X-223.557 Y40.700 Z2.945 A322.6226 
N2211 X-223.557 Y40.996 Z3.646 A325.6229 
N2212 X-223.557 Y41.254 Z4.379 A328.6817 
N2213 X-223.557 Y41.469 Z5.147 A331.8097 
N2214 X-223.557 Y41.635 Z5.952 A335.0206 
N2215 X-223.557 Y41.745 Z6.794 A338.3228 
N2216 X-223.557 Y41.788 Z7.670 A341.7091 
N2217 X-223.557 Y41.753 Z8.571 A345.1587 
N2218 X-223.557 Y41.629 Z9.487 A348.6444 
N2219 X-223.557 Y41.404 Z10.400 A352.1229 
N2220 X-223.557 Y41.070 Z11.283 A355.5170 
N2221 X-223.557 Y40.622 Z12.111 A358.7517 
N2222 X-223.557 Y40.059 Z12.861 A1.7673 
N2223 X-223.557 Y39.387 Z13.508 A4.4922 
N2224 X-223.557 Y38.611 Z14.030 A6.8572 
N2225 X-223.557 Y37.741 Z14.416 A8.8140 
N2226 X-223.557 Y36.785 Z14.663 A10.3422 
N2227 X-223.557 Y35.750 Z14.772 A11.4260 
N2228 X-223.557 Y34.641 Z14.750 A12.0549 
N2229 X-223.557 Y33.460 Z14.617 A12.2575 
N2230 X-223.557 Y32.204 Z14.402 A12.0979 
N2231 X-223.557 Y30.872 Z14.142 A11.6674 
N2232 X-223.557 Y29.459 Z13.885 A11.0986 
N2233 X-223.557 Y27.966 Z13.686 A10.5672 
N2234 X-223.557 Y26.393 Z13.579 A10.1895 
N2235 X-223.557 Y24.760 Z13.625 
N2236 X-223.557 Y23.058 Z13.722 
N2237 X-223.557 Y21.308 Z13.862 
N2238 X-223.557 Y19.533 Z14.037 
N2239 X-223.557 Y17.758 Z14.235 
N2240 X-223.557 Y16.005 Z14.446 
N2241 X-223.557 Y14.288 Z14.661 
N2242 X-223.557 Y12.617 Z14.869 
N2243 X-223.557 Y11.000 Z15.059 
N2244 X-223.557 Y9.442 Z15.222 
N2245 X-223.557 Y7.944 Z15.347 
N2246 X-223.557 Y6.508 Z15.426 
N2247 X-223.557 Y5.148 Z15.501 A10.3802 
N2248 X-223.557 Y3.891 Z15.668 A11.1438 
N2249 X-223.557 Y2.727 Z15.881 A12.3016 
N2250 X-223.557 Y1.656 Z16.154 A13.8989 
N2251 X-223.557 Y0.669 Z16.474 A15.8514 
N2252 X-223.557 Y-0.244 Z16.832 A18.0992 
N2253 X-223.557 Y-1.096 Z17.220 A20.5797 
N2254 X-223.557 Y-1.901 Z17.627 A23.2345 
N2255 X-223.557 Y-2.671 Z18.041 A26.0005 
N2256 X-223.557 Y-3.417 Z18.451 A28.8243 
N2257 X-223.557 Y-4.145 Z18.848 A31.6681 
N2258 X-223.557 Y-4.862 Z19.223 A34.5057 
N2259 X-223.557 Y-5.572 Z19.573 A37.3217 
N2260 X-223.557 Y-6.279 Z19.895 A40.1120 
N2261 X-223.557 Y-6.984 Z20.188 A42.8785 
N2262 X-223.557 Y-7.690 Z20.452 A45.6245 
N2263 X-223.557 Y-8.398 Z20.686 A48.3547 
N2264 X-223.557 Y-9.109 Z20.891 A51.0740 
N2265 X-223.557 Y-9.824 Z21.065 A53.7855 
N2266 X-223.557 Y-10.543 Z21.207 A56.4920 
N2267 X-223.557 Y-11.265 Z21.318 A59.1958 
N2268 X-223.557 Y-11.992 Z21.395 A61.8989 
N2269 X-223.557 Y-12.721 Z21.438 A64.6029 
N2270 X-223.557 Y-13.452 Z21.446 A67.3093 
N2271 X-223.557 Y-14.185 Z21.418 A70.0200 
N2272 X-223.557 Y-14.918 Z21.352 A72.7362 
N2273 X-223.557 Y-15.651 Z21.246 A75.4580 
N2274 X-223.557 Y-16.380 Z21.100 A78.1845 
N2275 X-223.557 Y-17.103 Z20.912 A80.9147 
N2276 X-223.557 Y-17.819 Z20.679 A83.6468 
N2277 X-223.557 Y-18.524 Z20.402 A86.3778 
N2278 X-223.557 Y-19.215 Z20.078 A89.1044 
N2279 X-223.557 Y-19.887 Z19.707 A91.8233 
N2280 X-223.557 Y-20.538 Z19.288 A94.5298 
N2281 X-223.557 Y-21.161 Z18.821 A97.2165 
N2282 X-223.557 Y-21.753 Z18.306 A99.8763 
N2283 X-223.557 Y-22.309 Z17.743 A102.5016 
N2284 X-223.557 Y-22.822 Z17.136 A105.0811 
N2285 X-223.557 Y-23.286 Z16.485 A107.6019 
N2286 X-223.557 Y-23.697 Z15.795 A110.0481 
N2287 X-223.557 Y-24.047 Z15.071 A112.4025 
N2288 X-223.557 Y-24.334 Z14.317 A114.6524 
N2289 X-223.557 Y-24.556 Z13.540 A116.7940 
N2290 X-223.557 Y-24.716 Z12.740 A118.8402 
N2291 X-223.557 Y-24.821 Z11.921 A120.8193 
N2292 X-223.557 Y-24.875 Z11.082 A122.7523 
N2293 X-223.557 Y-24.880 Z10.227 A124.6488 
N2294 X-223.557 Y-24.841 Z9.359 A126.5219 
N2295 X-223.557 Y-24.763 Z8.476 A128.3959 
N2296 X-223.557 Y-24.650 Z7.582 A130.2873 
N2297 X-223.557 Y-24.504 Z6.678 A132.2098 
N2298 X-223.557 Y-24.328 Z5.763 A134.1772 
N2299 X-223.557 Y-24.126 Z4.840 A136.2036 
N2300 X-223.557 Y-23.900 Z3.908 A138.3023 
N2301 X-223.557 Y-23.649 Z2.968 A140.4806 
N2302 X-223.557 Y-23.375 Z2.022 A142.7432 
N2303 X-223.557 Y-23.073 Z1.073 A145.0781 
N2304 X-223.557 Y-22.740 Z0.128 A147.4648 
N2305 X-223.557 Y-22.375 Z-0.810 A149.8926 
N2306 X-223.557 Y-21.975 Z-1.740 A152.3573 
N2307 X-223.557 Y-21.539 Z-2.657 A154.8529 
N2308 X-223.557 Y-21.065 Z-3.561 A157.3746 
N2309 X-223.557 Y-20.552 Z-4.449 A159.9172 
N2310 X-223.557 Y-19.998 Z-5.317 A162.4730 
N2311 X-223.557 Y-19.400 Z-6.163 A165.0346 
N2312 X-223.557 Y-18.756 Z-6.983 A167.5962 
N2313 X-223.557 Y-18.066 Z-7.775 A170.1534 
N2314 X-223.557 Y-17.327 Z-8.536 A172.7018 
N2315 X-223.557 Y-16.537 Z-9.262 A175.2385 
N2316 X-223.557 Y-15.697 Z-9.951 A177.7620 
N2317 X-223.557 Y-14.803 Z-10.600 A180.2707 
N2318 X-223.557 Y-13.855 Z-11.205 A182.7630 
N2319 X-223.557 Y-12.853 Z-11.762 A185.2380 
N2320 X-223.557 Y-11.794 Z-12.268 A187.6938 
N2321 X-223.557 Y-10.680 Z-12.718 A190.1281 
N2322 X-223.557 Y-9.511 Z-13.107 A192.5377 
N2323 X-223.557 Y-8.287 Z-13.431 A194.9178 
N2324 X-223.557 Y-7.013 Z-13.685 A197.2625 
N2325 X-223.557 Y-5.690 Z-13.863 A199.5629 
N2326 X-223.557 Y-4.326 Z-13.962 A201.8091 
N2327 X-223.557 Y-2.926 Z-13.977 A203.9891 
N2328 X-223.557 Y-1.500 Z-13.906 A206.0871 
N2329 X-223.557 Y-0.057 Z-13.747 A208.0865 
N2330 X-223.557 Y1.390 Z-13.502 A209.9700 
N2331 X-223.557 Y2.830 Z-13.171 A211.7180 
N2332 X-223.557 Y4.250 Z-12.761 A213.3122 
N2333 X-223.557 Y5.638 Z-12.279 A214.7499 
N2334 X-223.557 Y6.988 Z-11.742 A216.0465 
N2335 X-223.557 Y8.293 Z-11.166 A217.2323 
N2336 X-223.557 Y9.551 Z-10.569 A218.3538 
N2337 X-223.557 Y10.766 Z-9.973 A219.4757 
N2338 X-223.557 Y11.940 Z-9.400 A220.6741 
N2339 X-223.557 Y13.078 Z-8.865 A222.0073 
N2340 X-223.557 Y14.180 Z-8.375 A223.5039 
N2341 X-223.557 Y15.244 Z-7.934 A225.1635 
N2342 X-223.557 Y16.269 Z-7.539 A226.9780 
N2343 X-223.557 Y17.254 Z-7.191 A228.9362 
N2344 X-223.557 Y18.200 Z-6.886 A231.0214 
N2345 X-223.557 Y19.108 Z-6.621 A233.2159 
N2346 X-223.557 Y19.982 Z-6.391 A235.5058 
N2347 X-223.557 Y20.825 Z-6.193 A237.8831 
N2348 X-223.557 Y21.643 Z-6.024 A240.3394 
N2349 X-223.557 Y22.439 Z-5.878 A242.8660 
N2350 X-223.557 Y23.219 Z-5.751 A245.4570 
N2351 X-223.557 Y23.985 Z-5.637 A248.1063 
N2352 X-223.557 Y24.742 Z-5.530 A250.8061 
N2353 X-223.557 Y25.491 Z-5.426 A253.5494 
N2354 X-223.557 Y26.233 Z-5.320 A256.3295 
N2355 X-223.557 Y26.970 Z-5.208 A259.1394 
N2356 X-223.557 Y27.702 Z-5.084 A261.9725 
N2357 X-223.557 Y28.429 Z-4.946 A264.8232 
N2358 X-223.557 Y29.149 Z-4.791 A267.6859 
N2359 X-223.557 Y29.861 Z-4.615 A270.5550 
N2360 X-223.557 Y30.564 Z-4.418 A273.4254 
N2361 X-223.557 Y31.257 Z-4.198 A276.2934 
N2362 X-223.557 Y31.938 Z-3.954 A279.1568 
N2363 X-223.557 Y32.606 Z-3.684 A282.0152 
N2364 X-223.557 Y33.260 Z-3.389 A284.8697 
N2365 X-223.557 Y33.900 Z-3.068 A287.7218 
N2366 X-223.557 Y34.524 Z-2.720 A290.5729 
N2367 X-223.557 Y35.132 Z-2.345 A293.4236 
