; PROGRAM NAME: B00000052
; ORDER       : B000000
; OPER. NAME  : Side Milling:159
; OPER. DESCR.: Side Milling/BH wk
; OPER. TYPE  : sideMill
; GEO. OPTION : 1
; MACHINE     : HSTM_500_SIM840D_Py
;             : HSTM500 - HAMUEL: 5-axis milling machine - SIM840D Traori PP_Script
; CONTROL     : SINUMERIK 840D
; created:   2021-11-15 10:01:30.932238
;-------DODATKOWE DANE-------------------
; PROGRAMISTA : Mariusz Malec
; PARTID      : 139T001534P1001_-
;  ap         : 0.05
;  ae         : 10.0
;  lean_angle : 0.02
;  fin_offset : 0.0
;----------------------------------------
;RAPORT("TB000000","Side Milling:159")
N10 TRAFOOF
N11 D0
N12 G90 G94
N13 G0 G53 D0 Z550 B0
N14 STOPRE
M9 ; chlodziwo wyl
; --- Side Milling:159 - Side Milling/BH wk ---
N16 ;ToolChange : concat=None ,current_tdmid=None, PP.tdmId=958024
N17 TRAFOOF
N18 G0 G53 D0 X-200 Y150 Z550 B0
N19 T="7758024"
;RAPORT("TB000000","ToolChangeStart 7758024")
N20 M6
;RAPORT("TB000000","ToolChangeEnd")
N21 STOPRE
N22 MSG(" TLID=958024 D=16.0 R=3.175 Ang=0.0 Len=115.0 ")
N23 ; (Preloading tool)
N24 T="7767773"
N25 S3183 M03
N26 STOPRE
N27 CYCLE832(0.01,1,1)
N28 G0 G53 A49.0200 B-0.0000
N29 TRAORI
N30 G54 D1
;tol5=0.03
N31 D1 
STOPRE
E_ZDARZ=300004
;ACS_FINISH_BH_C5=7758024
STOPRE
;UWAGA : ZMIENIONA TOLERANCJA OSI A i B, ruchy osi A i B beda usuniete : TOL5=0.03
N32 ; DELTA A > 40.1
N33 TRAFOOF
N34 D1
N35 STOPRE
N36 G00 G54 Z271.000
N37 G01 A49.0200 F10000
N38 TRAORI
N39 G54 D1
N40 STOPRE
N41 TRANS 
N42 G00 X-175.873 Y-40.961 Z53.690 A49.0200 
N43 M342 ; chlodziwo woda
N44 X-175.873 Y-3.215 Z20.900 
N45 ;FSHE - BH od wlotu
N46 G01 G41 X-175.839 Y-8.463 Z14.863 F509
N47 G01 X-175.839 Y-8.463 Z14.863 F509 
N48 X-175.839 Y-8.572 Z14.737 
N49 X-175.838 Y-8.682 Z14.611 
N50 X-175.837 Y-8.791 Z14.485 
N51 X-175.836 Y-8.900 Z14.360 
N52 X-175.836 Y-9.010 Z14.234 
N53 X-175.835 Y-9.119 Z14.108 
N54 X-175.834 Y-9.224 Z13.987 
N55 X-175.834 Y-9.329 Z13.866 
N56 X-175.833 Y-9.434 Z13.746 
N57 X-175.832 Y-9.539 Z13.625 
N58 X-175.832 Y-9.644 Z13.504 
N59 X-175.831 Y-9.755 Z13.376 
N60 X-175.830 Y-9.866 Z13.248 
N61 X-175.829 Y-9.978 Z13.120 
N62 X-175.829 Y-10.089 Z12.992 
N63 X-175.828 Y-10.200 Z12.864 
N64 X-175.827 Y-10.312 Z12.736 
N65 X-175.827 Y-10.423 Z12.608 
N66 X-175.826 Y-10.534 Z12.480 
N67 X-175.825 Y-10.646 Z12.352 
N68 X-175.824 Y-10.757 Z12.224 
N69 X-175.824 Y-10.868 Z12.096 
N70 X-175.823 Y-10.980 Z11.968 
N71 X-175.822 Y-11.091 Z11.840 
N72 X-175.821 Y-11.202 Z11.712 
N73 X-175.821 Y-11.313 Z11.584 
N74 X-175.820 Y-11.425 Z11.455 
N75 X-175.819 Y-11.536 Z11.327 
N76 X-175.819 Y-11.647 Z11.199 
N77 X-175.818 Y-11.759 Z11.071 
N78 X-175.817 Y-11.870 Z10.943 
N79 X-175.816 Y-11.981 Z10.815 
N80 X-175.816 Y-12.093 Z10.687 
N81 X-175.815 Y-12.204 Z10.559 
N82 X-175.814 Y-12.315 Z10.431 
N83 X-175.813 Y-12.426 Z10.303 
N84 X-175.813 Y-12.538 Z10.175 
N85 X-175.812 Y-12.649 Z10.047 
N86 X-175.811 Y-12.760 Z9.919 
N87 X-175.811 Y-12.872 Z9.791 
N88 X-175.810 Y-12.983 Z9.663 
N89 X-175.809 Y-13.094 Z9.535 
N90 X-175.808 Y-13.206 Z9.407 
N91 X-175.808 Y-13.317 Z9.279 
N92 X-175.807 Y-13.428 Z9.151 
N93 X-175.806 Y-13.540 Z9.023 
N94 X-175.806 Y-13.651 Z8.895 
N95 X-175.805 Y-13.762 Z8.767 
N96 X-175.804 Y-13.873 Z8.639 
N97 X-175.803 Y-13.985 Z8.511 
N98 X-175.803 Y-14.096 Z8.382 
N99 X-175.802 Y-14.207 Z8.254 
N100 X-175.801 Y-14.319 Z8.126 
N101 X-175.800 Y-14.430 Z7.998 
N102 X-175.800 Y-14.541 Z7.870 
N103 X-175.799 Y-14.653 Z7.742 
N104 X-175.798 Y-14.764 Z7.614 
N105 X-175.798 Y-14.875 Z7.486 
N106 X-175.797 Y-14.987 Z7.358 
N107 X-175.796 Y-15.098 Z7.230 
N108 X-175.795 Y-15.209 Z7.102 
N109 X-175.795 Y-15.320 Z6.974 
N110 X-175.794 Y-15.432 Z6.846 
N111 X-175.793 Y-15.543 Z6.718 
N112 X-175.791 Y-15.654 Z6.590 
N113 X-175.788 Y-15.766 Z6.462 
N114 X-175.785 Y-15.877 Z6.334 
N115 X-175.783 Y-15.988 Z6.206 
N116 X-175.780 Y-16.100 Z6.078 
N117 X-175.778 Y-16.211 Z5.950 
N118 X-175.775 Y-16.322 Z5.822 
N119 X-175.773 Y-16.433 Z5.694 
N120 X-175.770 Y-16.545 Z5.566 
N121 X-175.768 Y-16.656 Z5.438 
N122 X-175.765 Y-16.767 Z5.310 
N123 X-175.763 Y-16.879 Z5.182 
N124 X-175.760 Y-16.990 Z5.054 
N125 X-175.757 Y-17.101 Z4.925 
N126 X-175.755 Y-17.212 Z4.797 
N127 X-175.752 Y-17.324 Z4.669 
N128 X-175.750 Y-17.435 Z4.541 
N129 X-175.747 Y-17.546 Z4.413 
N130 X-175.745 Y-17.658 Z4.285 
N131 X-175.742 Y-17.769 Z4.157 
N132 X-175.740 Y-17.880 Z4.029 
N133 X-175.737 Y-17.992 Z3.901 
N134 X-175.735 Y-18.103 Z3.773 
N135 X-175.732 Y-18.214 Z3.645 
N136 X-175.730 Y-18.325 Z3.517 
N137 X-175.727 Y-18.437 Z3.389 
N138 X-175.724 Y-18.548 Z3.261 
N139 X-175.722 Y-18.659 Z3.133 
N140 X-175.719 Y-18.771 Z3.005 
N141 X-175.717 Y-18.882 Z2.877 
N142 X-175.714 Y-18.993 Z2.749 
N143 X-175.712 Y-19.104 Z2.621 
N144 X-175.709 Y-19.216 Z2.493 
N145 X-175.707 Y-19.327 Z2.365 
N146 X-175.704 Y-19.438 Z2.237 
N147 X-175.702 Y-19.550 Z2.109 
N148 X-175.699 Y-19.661 Z1.981 
N149 X-175.696 Y-19.772 Z1.853 
N150 X-175.694 Y-19.884 Z1.725 
N151 X-175.691 Y-19.995 Z1.597 
N152 X-175.689 Y-20.106 Z1.469 
N153 X-175.686 Y-20.217 Z1.341 
N154 X-175.684 Y-20.329 Z1.213 
N155 X-175.681 Y-20.440 Z1.085 
N156 X-175.679 Y-20.551 Z0.957 
N157 X-175.676 Y-20.663 Z0.829 
N158 X-175.673 Y-20.774 Z0.701 
N159 X-175.669 Y-20.885 Z0.573 
N160 X-175.664 Y-20.996 Z0.445 
N161 X-175.660 Y-21.108 Z0.317 
N162 X-175.656 Y-21.219 Z0.189 
N163 X-175.652 Y-21.330 Z0.060 
N164 X-175.648 Y-21.442 Z-0.068 
N165 X-175.644 Y-21.553 Z-0.196 
N166 X-175.640 Y-21.664 Z-0.324 
N167 X-175.636 Y-21.775 Z-0.452 
N168 X-175.632 Y-21.887 Z-0.580 
N169 X-175.627 Y-21.998 Z-0.708 
N170 X-175.623 Y-22.109 Z-0.836 
N171 X-175.619 Y-22.220 Z-0.964 
N172 X-175.615 Y-22.332 Z-1.092 
N173 X-175.611 Y-22.443 Z-1.220 
N174 X-175.607 Y-22.554 Z-1.348 
N175 X-175.603 Y-22.666 Z-1.476 
N176 X-175.599 Y-22.777 Z-1.604 
N177 X-175.594 Y-22.888 Z-1.732 
N178 X-175.590 Y-22.999 Z-1.860 
N179 X-175.586 Y-23.111 Z-1.988 
N180 X-175.582 Y-23.222 Z-2.116 
N181 X-175.578 Y-23.333 Z-2.244 
N182 X-175.574 Y-23.444 Z-2.372 
N183 X-175.570 Y-23.556 Z-2.500 
N184 X-175.566 Y-23.667 Z-2.628 
N185 X-175.562 Y-23.778 Z-2.756 
N186 X-175.557 Y-23.890 Z-2.884 
N187 X-175.553 Y-24.001 Z-3.012 
N188 X-175.549 Y-24.112 Z-3.140 
N189 X-175.545 Y-24.223 Z-3.268 
N190 X-175.541 Y-24.335 Z-3.396 
N191 X-175.537 Y-24.446 Z-3.524 
N192 X-175.533 Y-24.557 Z-3.652 
N193 X-175.529 Y-24.668 Z-3.780 
N194 X-175.524 Y-24.780 Z-3.908 
N195 X-175.520 Y-24.891 Z-4.036 
N196 X-175.516 Y-25.002 Z-4.164 
N197 X-175.512 Y-25.114 Z-4.292 
N198 X-175.507 Y-25.225 Z-4.420 
N199 X-175.501 Y-25.336 Z-4.548 
N200 X-175.496 Y-25.447 Z-4.676 
N201 X-175.491 Y-25.559 Z-4.804 
N202 X-175.485 Y-25.670 Z-4.932 
N203 X-175.480 Y-25.781 Z-5.060 
N204 X-175.474 Y-25.892 Z-5.188 
N205 X-175.469 Y-26.004 Z-5.316 
N206 X-175.463 Y-26.115 Z-5.444 
N207 X-175.458 Y-26.226 Z-5.571 
N208 X-175.452 Y-26.337 Z-5.699 
N209 X-175.447 Y-26.449 Z-5.827 
N210 X-175.441 Y-26.560 Z-5.955 
N211 X-175.436 Y-26.671 Z-6.083 
N212 X-175.430 Y-26.782 Z-6.211 
N213 X-175.425 Y-26.894 Z-6.339 
N214 X-175.419 Y-27.005 Z-6.467 
N215 X-175.414 Y-27.116 Z-6.595 
N216 X-175.408 Y-27.227 Z-6.723 
N217 X-175.403 Y-27.339 Z-6.851 
N218 X-175.397 Y-27.450 Z-6.979 
N219 X-175.392 Y-27.561 Z-7.107 
N220 X-175.386 Y-27.672 Z-7.235 
N221 X-175.381 Y-27.784 Z-7.363 
N222 X-175.375 Y-27.895 Z-7.491 
N223 X-175.370 Y-28.006 Z-7.619 
N224 X-175.364 Y-28.117 Z-7.747 
N225 X-175.359 Y-28.229 Z-7.875 
N226 X-175.353 Y-28.340 Z-8.003 
N227 X-175.348 Y-28.451 Z-8.131 
N228 X-175.343 Y-28.562 Z-8.259 
N229 X-175.337 Y-28.674 Z-8.387 
N230 X-175.332 Y-28.785 Z-8.515 
N231 X-175.326 Y-28.896 Z-8.643 
N232 X-175.321 Y-29.007 Z-8.771 
N233 X-175.315 Y-29.112 Z-8.892 
N234 X-175.310 Y-29.217 Z-9.012 
N235 X-175.305 Y-29.322 Z-9.133 
N236 X-175.300 Y-29.427 Z-9.254 
N237 X-175.295 Y-29.532 Z-9.374 
N238 G40 X-175.036 Y-34.778 Z-15.409 F509
N239 X-175.036 Y-34.778 Z-15.409 
N240 G00 X-175.036 Y-46.102 Z-5.572 
N241 X-182.273 Y-14.533 Z30.744 
N242 X-182.273 Y-3.209 Z20.907 
N243 ;FSHE - BH od wlotu
N244 G01 G41 X-182.239 Y-8.457 Z14.869 F509
N245 G01 X-182.239 Y-8.457 Z14.869 F509 
N246 X-182.239 Y-8.567 Z14.743 
N247 X-182.238 Y-8.676 Z14.618 
N248 X-182.237 Y-8.785 Z14.492 
N249 X-182.236 Y-8.895 Z14.366 
N250 X-182.236 Y-9.004 Z14.240 
N251 X-182.235 Y-9.113 Z14.115 
N252 X-182.234 Y-9.218 Z13.994 
N253 X-182.234 Y-9.323 Z13.873 
N254 X-182.233 Y-9.428 Z13.752 
N255 X-182.232 Y-9.533 Z13.632 
N256 X-182.232 Y-9.638 Z13.511 
N257 X-182.231 Y-9.750 Z13.382 
N258 X-182.230 Y-9.861 Z13.254 
N259 X-182.229 Y-9.973 Z13.126 
N260 X-182.229 Y-10.084 Z12.997 
N261 X-182.228 Y-10.196 Z12.869 
N262 X-182.227 Y-10.308 Z12.741 
N263 X-182.226 Y-10.419 Z12.612 
N264 X-182.226 Y-10.531 Z12.484 
N265 X-182.225 Y-10.642 Z12.356 
N266 X-182.224 Y-10.754 Z12.227 
N267 X-182.224 Y-10.865 Z12.099 
N268 X-182.223 Y-10.977 Z11.971 
N269 X-182.222 Y-11.088 Z11.842 
N270 X-182.221 Y-11.200 Z11.714 
N271 X-182.221 Y-11.312 Z11.586 
N272 X-182.220 Y-11.423 Z11.457 
N273 X-182.219 Y-11.535 Z11.329 
N274 X-182.219 Y-11.646 Z11.201 
N275 X-182.218 Y-11.758 Z11.072 
N276 X-182.217 Y-11.869 Z10.944 
N277 X-182.216 Y-11.981 Z10.816 
N278 X-182.216 Y-12.093 Z10.687 
N279 X-182.215 Y-12.204 Z10.559 
N280 X-182.214 Y-12.316 Z10.431 
N281 X-182.213 Y-12.427 Z10.302 
N282 X-182.213 Y-12.539 Z10.174 
N283 X-182.212 Y-12.650 Z10.046 
N284 X-182.211 Y-12.762 Z9.917 
N285 X-182.211 Y-12.874 Z9.789 
N286 X-182.210 Y-12.985 Z9.661 
N287 X-182.209 Y-13.097 Z9.532 
N288 X-182.208 Y-13.208 Z9.404 
N289 X-182.208 Y-13.320 Z9.275 
N290 X-182.207 Y-13.431 Z9.147 
N291 X-182.206 Y-13.543 Z9.019 
N292 X-182.205 Y-13.654 Z8.890 
N293 X-182.205 Y-13.766 Z8.762 
N294 X-182.204 Y-13.878 Z8.634 
N295 X-182.203 Y-13.989 Z8.505 
N296 X-182.203 Y-14.101 Z8.377 
N297 X-182.202 Y-14.212 Z8.249 
N298 X-182.201 Y-14.324 Z8.120 
N299 X-182.200 Y-14.435 Z7.992 
N300 X-182.200 Y-14.547 Z7.864 
N301 X-182.199 Y-14.659 Z7.735 
N302 X-182.198 Y-14.770 Z7.607 
N303 X-182.197 Y-14.882 Z7.479 
N304 X-182.197 Y-14.993 Z7.350 
N305 X-182.196 Y-15.105 Z7.222 
N306 X-182.195 Y-15.216 Z7.094 
N307 X-182.195 Y-15.328 Z6.965 
N308 X-182.194 Y-15.440 Z6.837 
N309 X-182.193 Y-15.551 Z6.709 
N310 X-182.191 Y-15.663 Z6.580 
N311 X-182.188 Y-15.774 Z6.452 
N312 X-182.186 Y-15.886 Z6.324 
N313 X-182.183 Y-15.997 Z6.195 
N314 X-182.181 Y-16.109 Z6.067 
N315 X-182.178 Y-16.220 Z5.939 
N316 X-182.176 Y-16.332 Z5.810 
N317 X-182.173 Y-16.444 Z5.682 
N318 X-182.171 Y-16.555 Z5.554 
N319 X-182.168 Y-16.667 Z5.425 
N320 X-182.165 Y-16.778 Z5.297 
N321 X-182.163 Y-16.890 Z5.169 
N322 X-182.160 Y-17.001 Z5.040 
N323 X-182.158 Y-17.113 Z4.912 
N324 X-182.155 Y-17.224 Z4.784 
N325 X-182.153 Y-17.336 Z4.655 
N326 X-182.150 Y-17.448 Z4.527 
N327 X-182.148 Y-17.559 Z4.399 
N328 X-182.145 Y-17.671 Z4.270 
N329 X-182.143 Y-17.782 Z4.142 
N330 X-182.140 Y-17.894 Z4.014 
N331 X-182.137 Y-18.005 Z3.885 
N332 X-182.135 Y-18.117 Z3.757 
N333 X-182.132 Y-18.228 Z3.629 
N334 X-182.130 Y-18.340 Z3.500 
N335 X-182.127 Y-18.452 Z3.372 
N336 X-182.125 Y-18.563 Z3.244 
N337 X-182.122 Y-18.675 Z3.115 
N338 X-182.120 Y-18.786 Z2.987 
N339 X-182.117 Y-18.898 Z2.859 
N340 X-182.115 Y-19.009 Z2.730 
N341 X-182.112 Y-19.121 Z2.602 
N342 X-182.109 Y-19.232 Z2.474 
N343 X-182.107 Y-19.344 Z2.345 
N344 X-182.104 Y-19.456 Z2.217 
N345 X-182.102 Y-19.567 Z2.089 
N346 X-182.099 Y-19.679 Z1.960 
N347 X-182.097 Y-19.790 Z1.832 
N348 X-182.094 Y-19.902 Z1.704 
N349 X-182.092 Y-20.013 Z1.575 
N350 X-182.089 Y-20.125 Z1.447 
N351 X-182.087 Y-20.236 Z1.319 
N352 X-182.084 Y-20.348 Z1.190 
N353 X-182.081 Y-20.460 Z1.062 
N354 X-182.079 Y-20.571 Z0.934 
N355 X-182.076 Y-20.683 Z0.806 
N356 X-182.074 Y-20.794 Z0.677 
N357 X-182.070 Y-20.906 Z0.549 
N358 X-182.066 Y-21.017 Z0.421 
N359 X-182.061 Y-21.129 Z0.292 
N360 X-182.057 Y-21.240 Z0.164 
N361 X-182.053 Y-21.352 Z0.036 
N362 X-182.049 Y-21.463 Z-0.093 
N363 X-182.045 Y-21.575 Z-0.221 
N364 X-182.041 Y-21.686 Z-0.349 
N365 X-182.037 Y-21.798 Z-0.478 
N366 X-182.033 Y-21.910 Z-0.606 
N367 X-182.028 Y-22.021 Z-0.734 
N368 X-182.024 Y-22.133 Z-0.862 
N369 X-182.020 Y-22.244 Z-0.991 
N370 X-182.016 Y-22.356 Z-1.119 
N371 X-182.012 Y-22.467 Z-1.247 
N372 X-182.008 Y-22.579 Z-1.376 
N373 X-182.004 Y-22.690 Z-1.504 
N374 X-182.000 Y-22.802 Z-1.632 
N375 X-181.995 Y-22.913 Z-1.761 
N376 X-181.991 Y-23.025 Z-1.889 
N377 X-181.987 Y-23.136 Z-2.017 
N378 X-181.983 Y-23.248 Z-2.146 
N379 X-181.979 Y-23.359 Z-2.274 
N380 X-181.975 Y-23.471 Z-2.402 
N381 X-181.971 Y-23.583 Z-2.530 
N382 X-181.966 Y-23.694 Z-2.659 
N383 X-181.962 Y-23.806 Z-2.787 
N384 X-181.958 Y-23.917 Z-2.915 
N385 X-181.954 Y-24.029 Z-3.044 
N386 X-181.950 Y-24.140 Z-3.172 
N387 X-181.946 Y-24.252 Z-3.300 
N388 X-181.942 Y-24.363 Z-3.429 
N389 X-181.938 Y-24.475 Z-3.557 
N390 X-181.933 Y-24.586 Z-3.685 
N391 X-181.929 Y-24.698 Z-3.814 
N392 X-181.925 Y-24.809 Z-3.942 
N393 X-181.921 Y-24.921 Z-4.070 
N394 X-181.917 Y-25.032 Z-4.198 
N395 X-181.913 Y-25.144 Z-4.327 
N396 X-181.909 Y-25.256 Z-4.455 
N397 X-181.903 Y-25.367 Z-4.583 
N398 X-181.898 Y-25.479 Z-4.712 
N399 X-181.892 Y-25.590 Z-4.840 
N400 X-181.887 Y-25.702 Z-4.968 
N401 X-181.881 Y-25.813 Z-5.096 
N402 X-181.876 Y-25.925 Z-5.225 
N403 X-181.870 Y-26.036 Z-5.353 
N404 X-181.865 Y-26.148 Z-5.481 
N405 X-181.859 Y-26.259 Z-5.610 
N406 X-181.854 Y-26.371 Z-5.738 
N407 X-181.848 Y-26.482 Z-5.866 
N408 X-181.843 Y-26.594 Z-5.994 
N409 X-181.837 Y-26.705 Z-6.123 
N410 X-181.832 Y-26.817 Z-6.251 
N411 X-181.826 Y-26.928 Z-6.379 
N412 X-181.821 Y-27.040 Z-6.507 
N413 X-181.815 Y-27.151 Z-6.636 
N414 X-181.810 Y-27.263 Z-6.764 
N415 X-181.804 Y-27.374 Z-6.892 
N416 X-181.799 Y-27.486 Z-7.021 
N417 X-181.793 Y-27.597 Z-7.149 
N418 X-181.788 Y-27.709 Z-7.277 
N419 X-181.782 Y-27.820 Z-7.405 
N420 X-181.777 Y-27.932 Z-7.534 
N421 X-181.771 Y-28.043 Z-7.662 
N422 X-181.766 Y-28.155 Z-7.790 
N423 X-181.760 Y-28.266 Z-7.919 
N424 X-181.755 Y-28.378 Z-8.047 
N425 X-181.749 Y-28.489 Z-8.175 
N426 X-181.744 Y-28.601 Z-8.303 
N427 X-181.738 Y-28.712 Z-8.432 
N428 X-181.733 Y-28.824 Z-8.560 
N429 X-181.727 Y-28.935 Z-8.688 
N430 X-181.722 Y-29.047 Z-8.816 
N431 X-181.716 Y-29.158 Z-8.945 
N432 X-181.711 Y-29.263 Z-9.065 
N433 X-181.706 Y-29.368 Z-9.186 
N434 X-181.701 Y-29.473 Z-9.307 
N435 X-181.696 Y-29.578 Z-9.427 
N436 X-181.691 Y-29.683 Z-9.548 
N437 G40 X-181.432 Y-34.929 Z-15.583 F509
N438 X-181.432 Y-34.929 Z-15.583 
N439 G00 X-181.432 Y-46.253 Z-5.746 
N440 X-175.873 Y-14.501 Z30.704 
N441 X-175.873 Y-3.177 Z20.867 
N442 ;FSHE - BH od wlotu
N443 G01 G41 X-175.839 Y-8.425 Z14.830 F509
N444 G01 X-175.839 Y-8.425 Z14.830 F509 
N445 X-175.839 Y-8.535 Z14.704 
N446 X-175.838 Y-8.644 Z14.578 
N447 X-175.837 Y-8.753 Z14.452 
N448 X-175.836 Y-8.863 Z14.327 
N449 X-175.836 Y-8.972 Z14.201 
N450 X-175.835 Y-9.081 Z14.075 
N451 X-175.834 Y-9.186 Z13.954 
N452 X-175.834 Y-9.291 Z13.834 
N453 X-175.833 Y-9.396 Z13.713 
N454 X-175.832 Y-9.501 Z13.592 
N455 X-175.832 Y-9.606 Z13.471 
N456 X-175.831 Y-9.717 Z13.343 
N457 X-175.830 Y-9.829 Z13.215 
N458 X-175.829 Y-9.940 Z13.087 
N459 X-175.829 Y-10.051 Z12.959 
N460 X-175.828 Y-10.163 Z12.831 
N461 X-175.827 Y-10.274 Z12.703 
N462 X-175.827 Y-10.385 Z12.575 
N463 X-175.826 Y-10.497 Z12.447 
N464 X-175.825 Y-10.608 Z12.319 
N465 X-175.824 Y-10.719 Z12.191 
N466 X-175.824 Y-10.830 Z12.063 
N467 X-175.823 Y-10.942 Z11.935 
N468 X-175.822 Y-11.053 Z11.807 
N469 X-175.821 Y-11.164 Z11.679 
N470 X-175.821 Y-11.276 Z11.551 
N471 X-175.820 Y-11.387 Z11.423 
N472 X-175.819 Y-11.498 Z11.295 
N473 X-175.819 Y-11.610 Z11.167 
N474 X-175.818 Y-11.721 Z11.039 
N475 X-175.817 Y-11.832 Z10.911 
N476 X-175.816 Y-11.944 Z10.782 
N477 X-175.816 Y-12.055 Z10.654 
N478 X-175.815 Y-12.166 Z10.526 
N479 X-175.814 Y-12.277 Z10.398 
N480 X-175.813 Y-12.389 Z10.270 
N481 X-175.813 Y-12.500 Z10.142 
N482 X-175.812 Y-12.611 Z10.014 
N483 X-175.811 Y-12.723 Z9.886 
N484 X-175.811 Y-12.834 Z9.758 
N485 X-175.810 Y-12.945 Z9.630 
N486 X-175.809 Y-13.057 Z9.502 
N487 X-175.808 Y-13.168 Z9.374 
N488 X-175.808 Y-13.279 Z9.246 
N489 X-175.807 Y-13.391 Z9.118 
N490 X-175.806 Y-13.502 Z8.990 
N491 X-175.806 Y-13.613 Z8.862 
N492 X-175.805 Y-13.724 Z8.734 
N493 X-175.804 Y-13.836 Z8.606 
N494 X-175.803 Y-13.947 Z8.478 
N495 X-175.803 Y-14.058 Z8.350 
N496 X-175.802 Y-14.170 Z8.222 
N497 X-175.801 Y-14.281 Z8.094 
N498 X-175.800 Y-14.392 Z7.966 
N499 X-175.800 Y-14.504 Z7.837 
N500 X-175.799 Y-14.615 Z7.709 
N501 X-175.798 Y-14.726 Z7.581 
N502 X-175.798 Y-14.837 Z7.453 
N503 X-175.797 Y-14.949 Z7.325 
N504 X-175.796 Y-15.060 Z7.197 
N505 X-175.795 Y-15.171 Z7.069 
N506 X-175.795 Y-15.283 Z6.941 
N507 X-175.794 Y-15.394 Z6.813 
N508 X-175.793 Y-15.505 Z6.685 
N509 X-175.791 Y-15.617 Z6.557 
N510 X-175.788 Y-15.728 Z6.429 
N511 X-175.785 Y-15.839 Z6.301 
N512 X-175.783 Y-15.951 Z6.173 
N513 X-175.780 Y-16.062 Z6.045 
N514 X-175.778 Y-16.173 Z5.917 
N515 X-175.775 Y-16.284 Z5.789 
N516 X-175.773 Y-16.396 Z5.661 
N517 X-175.770 Y-16.507 Z5.533 
N518 X-175.768 Y-16.618 Z5.405 
N519 X-175.765 Y-16.730 Z5.277 
N520 X-175.763 Y-16.841 Z5.149 
N521 X-175.760 Y-16.952 Z5.021 
N522 X-175.757 Y-17.063 Z4.893 
N523 X-175.755 Y-17.175 Z4.765 
N524 X-175.752 Y-17.286 Z4.637 
N525 X-175.750 Y-17.397 Z4.509 
N526 X-175.747 Y-17.509 Z4.381 
N527 X-175.745 Y-17.620 Z4.253 
N528 X-175.742 Y-17.731 Z4.125 
N529 X-175.740 Y-17.843 Z3.996 
N530 X-175.737 Y-17.954 Z3.868 
N531 X-175.735 Y-18.065 Z3.740 
N532 X-175.732 Y-18.176 Z3.612 
N533 X-175.730 Y-18.288 Z3.484 
N534 X-175.727 Y-18.399 Z3.356 
N535 X-175.724 Y-18.510 Z3.228 
N536 X-175.722 Y-18.622 Z3.100 
N537 X-175.719 Y-18.733 Z2.972 
N538 X-175.717 Y-18.844 Z2.844 
N539 X-175.714 Y-18.955 Z2.716 
N540 X-175.712 Y-19.067 Z2.588 
N541 X-175.709 Y-19.178 Z2.460 
N542 X-175.707 Y-19.289 Z2.332 
N543 X-175.704 Y-19.401 Z2.204 
N544 X-175.702 Y-19.512 Z2.076 
N545 X-175.699 Y-19.623 Z1.948 
N546 X-175.696 Y-19.735 Z1.820 
N547 X-175.694 Y-19.846 Z1.692 
N548 X-175.691 Y-19.957 Z1.564 
N549 X-175.689 Y-20.068 Z1.436 
N550 X-175.686 Y-20.180 Z1.308 
N551 X-175.684 Y-20.291 Z1.180 
N552 X-175.681 Y-20.402 Z1.052 
N553 X-175.679 Y-20.514 Z0.924 
N554 X-175.676 Y-20.625 Z0.796 
N555 X-175.673 Y-20.736 Z0.668 
N556 X-175.669 Y-20.847 Z0.540 
N557 X-175.664 Y-20.959 Z0.412 
N558 X-175.660 Y-21.070 Z0.284 
N559 X-175.656 Y-21.181 Z0.156 
N560 X-175.652 Y-21.293 Z0.028 
N561 X-175.648 Y-21.404 Z-0.100 
N562 X-175.644 Y-21.515 Z-0.228 
N563 X-175.640 Y-21.626 Z-0.356 
N564 X-175.636 Y-21.738 Z-0.484 
N565 X-175.632 Y-21.849 Z-0.612 
N566 X-175.627 Y-21.960 Z-0.740 
N567 X-175.623 Y-22.071 Z-0.868 
N568 X-175.619 Y-22.183 Z-0.996 
N569 X-175.615 Y-22.294 Z-1.124 
N570 X-175.611 Y-22.405 Z-1.252 
N571 X-175.607 Y-22.517 Z-1.380 
N572 X-175.603 Y-22.628 Z-1.508 
N573 X-175.599 Y-22.739 Z-1.636 
N574 X-175.594 Y-22.850 Z-1.764 
N575 X-175.590 Y-22.962 Z-1.892 
N576 X-175.586 Y-23.073 Z-2.020 
N577 X-175.582 Y-23.184 Z-2.148 
N578 X-175.578 Y-23.295 Z-2.276 
N579 X-175.574 Y-23.407 Z-2.404 
N580 X-175.570 Y-23.518 Z-2.532 
N581 X-175.566 Y-23.629 Z-2.660 
N582 X-175.562 Y-23.741 Z-2.788 
N583 X-175.557 Y-23.852 Z-2.916 
N584 X-175.553 Y-23.963 Z-3.044 
N585 X-175.549 Y-24.074 Z-3.172 
N586 X-175.545 Y-24.186 Z-3.300 
N587 X-175.541 Y-24.297 Z-3.428 
N588 X-175.537 Y-24.408 Z-3.556 
N589 X-175.533 Y-24.519 Z-3.684 
N590 X-175.529 Y-24.631 Z-3.812 
N591 X-175.524 Y-24.742 Z-3.940 
N592 X-175.520 Y-24.853 Z-4.069 
N593 X-175.516 Y-24.965 Z-4.197 
N594 X-175.512 Y-25.076 Z-4.325 
N595 X-175.507 Y-25.187 Z-4.452 
N596 X-175.501 Y-25.298 Z-4.580 
N597 X-175.496 Y-25.410 Z-4.708 
N598 X-175.491 Y-25.521 Z-4.836 
N599 X-175.485 Y-25.632 Z-4.964 
N600 X-175.480 Y-25.743 Z-5.092 
N601 X-175.474 Y-25.855 Z-5.220 
N602 X-175.469 Y-25.966 Z-5.348 
N603 X-175.463 Y-26.077 Z-5.476 
N604 X-175.458 Y-26.188 Z-5.604 
N605 X-175.452 Y-26.300 Z-5.732 
N606 X-175.447 Y-26.411 Z-5.860 
N607 X-175.441 Y-26.522 Z-5.988 
N608 X-175.436 Y-26.633 Z-6.116 
N609 X-175.430 Y-26.745 Z-6.244 
N610 X-175.425 Y-26.856 Z-6.372 
N611 X-175.419 Y-26.967 Z-6.500 
N612 X-175.414 Y-27.078 Z-6.628 
N613 X-175.408 Y-27.190 Z-6.756 
N614 X-175.403 Y-27.301 Z-6.884 
N615 X-175.397 Y-27.412 Z-7.012 
N616 X-175.392 Y-27.523 Z-7.140 
N617 X-175.386 Y-27.635 Z-7.268 
N618 X-175.381 Y-27.746 Z-7.396 
N619 X-175.375 Y-27.857 Z-7.524 
N620 X-175.370 Y-27.968 Z-7.652 
N621 X-175.364 Y-28.080 Z-7.780 
N622 X-175.359 Y-28.191 Z-7.908 
N623 X-175.353 Y-28.302 Z-8.036 
N624 X-175.348 Y-28.413 Z-8.164 
N625 X-175.343 Y-28.525 Z-8.292 
N626 X-175.337 Y-28.636 Z-8.420 
N627 X-175.332 Y-28.747 Z-8.548 
N628 X-175.326 Y-28.858 Z-8.676 
N629 X-175.321 Y-28.970 Z-8.804 
N630 X-175.315 Y-29.074 Z-8.924 
N631 X-175.310 Y-29.179 Z-9.045 
N632 X-175.305 Y-29.284 Z-9.166 
N633 X-175.300 Y-29.389 Z-9.286 
N634 X-175.295 Y-29.494 Z-9.407 
N635 G40 X-175.036 Y-34.740 Z-15.442 F509
N636 X-175.036 Y-34.740 Z-15.442 
N637 G00 X-175.036 Y-46.064 Z-5.605 
N638 X-182.273 Y-14.495 Z30.711 
N639 X-182.273 Y-3.171 Z20.874 
N640 ;FSHE - BH od wlotu
N641 G01 G41 X-182.239 Y-8.419 Z14.836 F509
N642 G01 X-182.239 Y-8.419 Z14.836 F509 
N643 X-182.239 Y-8.529 Z14.711 
N644 X-182.238 Y-8.638 Z14.585 
N645 X-182.237 Y-8.748 Z14.459 
N646 X-182.236 Y-8.857 Z14.333 
N647 X-182.236 Y-8.966 Z14.208 
N648 X-182.235 Y-9.076 Z14.082 
N649 X-182.234 Y-9.181 Z13.961 
N650 X-182.234 Y-9.285 Z13.840 
N651 X-182.233 Y-9.390 Z13.719 
N652 X-182.232 Y-9.495 Z13.599 
N653 X-182.232 Y-9.600 Z13.478 
N654 X-182.231 Y-9.712 Z13.350 
N655 X-182.230 Y-9.824 Z13.221 
N656 X-182.229 Y-9.935 Z13.093 
N657 X-182.229 Y-10.047 Z12.965 
N658 X-182.228 Y-10.158 Z12.836 
N659 X-182.227 Y-10.270 Z12.708 
N660 X-182.226 Y-10.381 Z12.580 
N661 X-182.226 Y-10.493 Z12.451 
N662 X-182.225 Y-10.604 Z12.323 
N663 X-182.224 Y-10.716 Z12.195 
N664 X-182.224 Y-10.828 Z12.066 
N665 X-182.223 Y-10.939 Z11.938 
N666 X-182.222 Y-11.051 Z11.810 
N667 X-182.221 Y-11.162 Z11.681 
N668 X-182.221 Y-11.274 Z11.553 
N669 X-182.220 Y-11.385 Z11.424 
N670 X-182.219 Y-11.497 Z11.296 
N671 X-182.219 Y-11.609 Z11.168 
N672 X-182.218 Y-11.720 Z11.039 
N673 X-182.217 Y-11.832 Z10.911 
N674 X-182.216 Y-11.943 Z10.783 
N675 X-182.216 Y-12.055 Z10.654 
N676 X-182.215 Y-12.166 Z10.526 
N677 X-182.214 Y-12.278 Z10.398 
N678 X-182.213 Y-12.390 Z10.269 
N679 X-182.213 Y-12.501 Z10.141 
N680 X-182.212 Y-12.613 Z10.013 
N681 X-182.211 Y-12.724 Z9.884 
N682 X-182.211 Y-12.836 Z9.756 
N683 X-182.210 Y-12.947 Z9.628 
N684 X-182.209 Y-13.059 Z9.499 
N685 X-182.208 Y-13.170 Z9.371 
N686 X-182.208 Y-13.282 Z9.243 
N687 X-182.207 Y-13.394 Z9.114 
N688 X-182.206 Y-13.505 Z8.986 
N689 X-182.205 Y-13.617 Z8.858 
N690 X-182.205 Y-13.728 Z8.729 
N691 X-182.204 Y-13.840 Z8.601 
N692 X-182.203 Y-13.951 Z8.473 
N693 X-182.203 Y-14.063 Z8.344 
N694 X-182.202 Y-14.175 Z8.216 
N695 X-182.201 Y-14.286 Z8.088 
N696 X-182.200 Y-14.398 Z7.959 
N697 X-182.200 Y-14.509 Z7.831 
N698 X-182.199 Y-14.621 Z7.703 
N699 X-182.198 Y-14.732 Z7.574 
N700 X-182.197 Y-14.844 Z7.446 
N701 X-182.197 Y-14.956 Z7.318 
N702 X-182.196 Y-15.067 Z7.189 
N703 X-182.195 Y-15.179 Z7.061 
N704 X-182.195 Y-15.290 Z6.933 
N705 X-182.194 Y-15.402 Z6.804 
N706 X-182.193 Y-15.513 Z6.676 
N707 X-182.191 Y-15.625 Z6.548 
N708 X-182.188 Y-15.736 Z6.419 
N709 X-182.186 Y-15.848 Z6.291 
N710 X-182.183 Y-15.960 Z6.163 
N711 X-182.181 Y-16.071 Z6.034 
N712 X-182.178 Y-16.183 Z5.906 
N713 X-182.176 Y-16.294 Z5.778 
N714 X-182.173 Y-16.406 Z5.649 
N715 X-182.171 Y-16.517 Z5.521 
N716 X-182.168 Y-16.629 Z5.393 
N717 X-182.165 Y-16.740 Z5.264 
N718 X-182.163 Y-16.852 Z5.136 
N719 X-182.160 Y-16.964 Z5.008 
N720 X-182.158 Y-17.075 Z4.879 
N721 X-182.155 Y-17.187 Z4.751 
N722 X-182.153 Y-17.298 Z4.623 
N723 X-182.150 Y-17.410 Z4.494 
N724 X-182.148 Y-17.521 Z4.366 
N725 X-182.145 Y-17.633 Z4.238 
N726 X-182.143 Y-17.744 Z4.109 
N727 X-182.140 Y-17.856 Z3.981 
N728 X-182.137 Y-17.968 Z3.853 
N729 X-182.135 Y-18.079 Z3.724 
N730 X-182.132 Y-18.191 Z3.596 
N731 X-182.130 Y-18.302 Z3.468 
N732 X-182.127 Y-18.414 Z3.339 
N733 X-182.125 Y-18.525 Z3.211 
N734 X-182.122 Y-18.637 Z3.083 
N735 X-182.120 Y-18.748 Z2.954 
N736 X-182.117 Y-18.860 Z2.826 
N737 X-182.115 Y-18.972 Z2.698 
N738 X-182.112 Y-19.083 Z2.569 
N739 X-182.109 Y-19.195 Z2.441 
N740 X-182.107 Y-19.306 Z2.313 
N741 X-182.104 Y-19.418 Z2.184 
N742 X-182.102 Y-19.529 Z2.056 
N743 X-182.099 Y-19.641 Z1.928 
N744 X-182.097 Y-19.752 Z1.799 
N745 X-182.094 Y-19.864 Z1.671 
N746 X-182.092 Y-19.976 Z1.543 
N747 X-182.089 Y-20.087 Z1.414 
N748 X-182.087 Y-20.199 Z1.286 
N749 X-182.084 Y-20.310 Z1.158 
N750 X-182.081 Y-20.422 Z1.029 
N751 X-182.079 Y-20.533 Z0.901 
N752 X-182.076 Y-20.645 Z0.773 
N753 X-182.074 Y-20.756 Z0.644 
N754 X-182.070 Y-20.868 Z0.516 
N755 X-182.066 Y-20.980 Z0.388 
N756 X-182.061 Y-21.091 Z0.259 
N757 X-182.057 Y-21.203 Z0.131 
N758 X-182.053 Y-21.314 Z0.003 
N759 X-182.049 Y-21.426 Z-0.125 
N760 X-182.045 Y-21.537 Z-0.254 
N761 X-182.041 Y-21.649 Z-0.382 
N762 X-182.037 Y-21.760 Z-0.510 
N763 X-182.033 Y-21.872 Z-0.639 
N764 X-182.028 Y-21.983 Z-0.767 
N765 X-182.024 Y-22.095 Z-0.895 
N766 X-182.020 Y-22.206 Z-1.024 
N767 X-182.016 Y-22.318 Z-1.152 
N768 X-182.012 Y-22.429 Z-1.280 
N769 X-182.008 Y-22.541 Z-1.409 
N770 X-182.004 Y-22.653 Z-1.537 
N771 X-182.000 Y-22.764 Z-1.665 
N772 X-181.995 Y-22.876 Z-1.793 
N773 X-181.991 Y-22.987 Z-1.922 
N774 X-181.987 Y-23.099 Z-2.050 
N775 X-181.983 Y-23.210 Z-2.178 
N776 X-181.979 Y-23.322 Z-2.307 
N777 X-181.975 Y-23.433 Z-2.435 
N778 X-181.971 Y-23.545 Z-2.563 
N779 X-181.966 Y-23.656 Z-2.692 
N780 X-181.962 Y-23.768 Z-2.820 
N781 X-181.958 Y-23.879 Z-2.948 
N782 X-181.954 Y-23.991 Z-3.076 
N783 X-181.950 Y-24.102 Z-3.205 
N784 X-181.946 Y-24.214 Z-3.333 
N785 X-181.942 Y-24.326 Z-3.461 
N786 X-181.938 Y-24.437 Z-3.590 
N787 X-181.933 Y-24.549 Z-3.718 
N788 X-181.929 Y-24.660 Z-3.846 
N789 X-181.925 Y-24.772 Z-3.975 
N790 X-181.921 Y-24.883 Z-4.103 
N791 X-181.917 Y-24.995 Z-4.231 
N792 X-181.913 Y-25.106 Z-4.360 
N793 X-181.909 Y-25.218 Z-4.488 
N794 X-181.903 Y-25.329 Z-4.616 
N795 X-181.898 Y-25.441 Z-4.744 
N796 X-181.892 Y-25.552 Z-4.873 
N797 X-181.887 Y-25.664 Z-5.001 
N798 X-181.881 Y-25.775 Z-5.129 
N799 X-181.876 Y-25.887 Z-5.258 
N800 X-181.870 Y-25.998 Z-5.386 
N801 X-181.865 Y-26.110 Z-5.514 
N802 X-181.859 Y-26.221 Z-5.642 
N803 X-181.854 Y-26.333 Z-5.771 
N804 X-181.848 Y-26.444 Z-5.899 
N805 X-181.843 Y-26.556 Z-6.027 
N806 X-181.837 Y-26.667 Z-6.155 
N807 X-181.832 Y-26.779 Z-6.284 
N808 X-181.826 Y-26.890 Z-6.412 
N809 X-181.821 Y-27.002 Z-6.540 
N810 X-181.815 Y-27.113 Z-6.669 
N811 X-181.810 Y-27.225 Z-6.797 
N812 X-181.804 Y-27.336 Z-6.925 
N813 X-181.799 Y-27.448 Z-7.053 
N814 X-181.793 Y-27.560 Z-7.182 
N815 X-181.788 Y-27.671 Z-7.310 
N816 X-181.782 Y-27.783 Z-7.438 
N817 X-181.777 Y-27.894 Z-7.566 
N818 X-181.771 Y-28.006 Z-7.695 
N819 X-181.766 Y-28.117 Z-7.823 
N820 X-181.760 Y-28.229 Z-7.951 
N821 X-181.755 Y-28.340 Z-8.080 
N822 X-181.749 Y-28.452 Z-8.208 
N823 X-181.744 Y-28.563 Z-8.336 
N824 X-181.738 Y-28.675 Z-8.464 
N825 X-181.733 Y-28.786 Z-8.593 
N826 X-181.727 Y-28.898 Z-8.721 
N827 X-181.722 Y-29.009 Z-8.849 
N828 X-181.716 Y-29.121 Z-8.978 
N829 X-181.711 Y-29.226 Z-9.098 
N830 X-181.706 Y-29.330 Z-9.219 
N831 X-181.701 Y-29.435 Z-9.340 
N832 X-181.696 Y-29.540 Z-9.460 
N833 X-181.691 Y-29.645 Z-9.581 
N834 G40 X-181.432 Y-34.891 Z-15.615 F509
N835 X-181.432 Y-34.891 Z-15.615 
N836 G00 X-181.432 Y-46.215 Z-5.779 
;RAPORT("TB000000","Side Milling:159 End")
;trailer : concat=None
; points cnt = 770
N838 MSG (" --- GROUPED OF SUBPROGRAM --- ")
N839 FGROUP()
N840 TRAFOOF
; PROGRAM NAME: B00000052
; ORDER       : B000000
; OPER. NAME  : Side Milling:160
; OPER. DESCR.: BH Chamfer Finish milling MFBBE
; OPER. TYPE  : sideMill
; GEO. OPTION : 1
; MACHINE     : HSTM_500_SIM840D_Py
;             : HSTM500 - HAMUEL: 5-axis milling machine - SIM840D Traori PP_Script
; CONTROL     : SINUMERIK 840D
; created:   2021-11-15 10:01:36.459170
;-------DODATKOWE DANE-------------------
; PROGRAMISTA : Mariusz Malec
; PARTID      : 139T001534P1001_-
;  ap         : 0.05
;  ae         : 10.0
;  lean_angle : 0.02
;  fin_offset : 0.0
;----------------------------------------
;RAPORT("TB000000","Side Milling:160")
N10 TRAFOOF
N11 D0
N12 G90 G94
N13 G0 G53 D0 Z550 B0
N14 STOPRE
M9 ; chlodziwo wyl
; --- Side Milling:160 - BH Chamfer Finish milling MFBBE ---
N16 ;ToolChange : concat=None ,current_tdmid=None, PP.tdmId=958024
N17 TRAFOOF
N18 G0 G53 D0 Z550 B0
N19 STOPRE
N20 MSG(" TLID=958024 D=16.0 R=3.175 Ang=0.0 Len=115.0 ")
N21 S3183 M03
N22 STOPRE
N23 CYCLE832(0.01,1,1)
N24 G0 G53 A45.4731 B-0.0000
N25 TRAORI
N26 G54 D3
;tol5=0.03
N27 D3 
STOPRE
E_ZDARZ=300004
;ACS_FINISH_BH_C5=7758024
STOPRE
;UWAGA : ZMIENIONA TOLERANCJA OSI A i B, ruchy osi A i B beda usuniete : TOL5=0.03
N28 ; DELTA A > 40.1
N29 TRAFOOF
N30 D3
N31 STOPRE
N32 G00 G54 Z271.000
N33 G01 A45.4731 F10000
N34 TRAORI
N35 G54 D3
N36 STOPRE
N37 TRANS 
N38 G00 X-175.830 Y-31.987 Z61.747 A45.4731 
N39 M342 ; chlodziwo woda
N40 X-175.830 Y3.659 Z26.685 
N41 ;MFBBE - faza na BH od wlotu
N42 G01 G41 X-175.830 Y-1.953 Z20.984 F509
N43 G01 X-175.830 Y-1.953 Z20.984 F509 
N44 X-175.830 Y-2.070 Z20.865 
N45 X-175.830 Y-2.186 Z20.746 
N46 X-175.830 Y-2.303 Z20.627 
N47 X-175.830 Y-2.420 Z20.509 
N48 X-175.830 Y-2.537 Z20.390 
N49 X-175.830 Y-2.654 Z20.271 
N50 X-175.830 Y-2.774 Z20.150 
N51 X-175.830 Y-2.893 Z20.028 
N52 X-175.830 Y-3.012 Z19.907 
N53 X-175.830 Y-3.132 Z19.786 
N54 X-175.830 Y-3.251 Z19.664 
N55 X-175.830 Y-3.371 Z19.543 
N56 X-175.830 Y-3.490 Z19.422 
N57 X-175.830 Y-3.609 Z19.301 
N58 X-175.830 Y-3.729 Z19.179 
N59 X-175.830 Y-3.848 Z19.058 
N60 X-175.830 Y-3.968 Z18.937 
N61 X-175.830 Y-4.087 Z18.815 
N62 X-175.830 Y-4.206 Z18.694 
N63 X-175.830 Y-4.326 Z18.573 
N64 X-175.830 Y-4.445 Z18.451 
N65 X-175.830 Y-4.565 Z18.330 
N66 X-175.830 Y-4.684 Z18.209 
N67 X-175.830 Y-4.803 Z18.087 
N68 X-175.830 Y-4.923 Z17.966 
N69 X-175.830 Y-5.042 Z17.845 
N70 X-175.830 Y-5.162 Z17.724 
N71 X-175.830 Y-5.281 Z17.602 
N72 X-175.830 Y-5.400 Z17.481 
N73 X-175.830 Y-5.520 Z17.360 
N74 X-175.830 Y-5.639 Z17.238 
N75 X-175.830 Y-5.759 Z17.117 
N76 X-175.830 Y-5.878 Z16.996 
N77 X-175.830 Y-5.997 Z16.874 
N78 X-175.830 Y-6.117 Z16.753 
N79 X-175.830 Y-6.236 Z16.632 
N80 X-175.830 Y-6.356 Z16.510 
N81 X-175.830 Y-6.475 Z16.389 
N82 X-175.830 Y-6.594 Z16.268 
N83 X-175.830 Y-6.714 Z16.147 
N84 X-175.830 Y-6.833 Z16.025 
N85 X-175.830 Y-6.953 Z15.904 
N86 X-175.830 Y-7.072 Z15.783 
N87 X-175.830 Y-7.191 Z15.661 
N88 X-175.830 Y-7.311 Z15.540 
N89 X-175.830 Y-7.430 Z15.419 
N90 X-175.830 Y-7.550 Z15.297 
N91 X-175.830 Y-7.669 Z15.176 
N92 X-175.830 Y-7.788 Z15.055 
N93 X-175.830 Y-7.908 Z14.934 
N94 X-175.830 Y-8.027 Z14.812 
N95 X-175.830 Y-8.147 Z14.691 
N96 X-175.830 Y-8.266 Z14.570 
N97 X-175.830 Y-8.384 Z14.450 
N98 X-175.830 Y-8.501 Z14.331 
N99 X-175.830 Y-8.619 Z14.211 
N100 X-175.830 Y-8.737 Z14.091 
N101 X-175.830 Y-8.854 Z13.972 
N102 X-175.830 Y-8.972 Z13.852 
N103 X-175.830 Y-9.090 Z13.733 
N104 X-175.830 Y-9.207 Z13.613 
N105 X-175.830 Y-9.325 Z13.494 
N106 X-175.830 Y-9.443 Z13.374 
N107 X-175.830 Y-9.560 Z13.255 
N108 X-175.830 Y-9.678 Z13.135 
N109 X-175.830 Y-9.796 Z13.016 
N110 X-175.830 Y-9.913 Z12.896 
N111 X-175.830 Y-10.031 Z12.777 
N112 X-175.830 Y-10.149 Z12.657 
N113 X-175.830 Y-10.266 Z12.538 
N114 X-175.830 Y-10.384 Z12.418 
N115 X-175.830 Y-10.501 Z12.299 
N116 X-175.830 Y-10.619 Z12.179 
N117 X-175.830 Y-10.737 Z12.059 
N118 X-175.830 Y-10.854 Z11.940 
N119 X-175.830 Y-10.972 Z11.820 
N120 X-175.830 Y-11.090 Z11.701 
N121 X-175.830 Y-11.207 Z11.581 
N122 X-175.830 Y-11.325 Z11.462 
N123 X-175.830 Y-11.443 Z11.342 
N124 X-175.830 Y-11.560 Z11.223 
N125 X-175.830 Y-11.678 Z11.103 
N126 X-175.830 Y-11.796 Z10.984 
N127 X-175.830 Y-11.913 Z10.864 
N128 X-175.830 Y-12.038 Z10.737 
N129 X-175.830 Y-12.163 Z10.611 
N130 X-175.830 Y-12.287 Z10.484 
N131 X-175.830 Y-12.412 Z10.357 
N132 X-175.830 Y-12.537 Z10.231 
N133 X-175.830 Y-12.662 Z10.104 
N134 X-175.830 Y-12.786 Z9.977 
N135 X-175.830 Y-12.911 Z9.851 
N136 X-175.830 Y-13.036 Z9.724 
N137 G40 X-175.830 Y-13.737 Z9.011 F509
N138 X-175.830 Y-13.737 Z9.011 
N139 G00 X-175.830 Y-24.431 Z19.530 
N140 X-182.230 Y-7.034 Z37.204 
N141 X-182.230 Y3.659 Z26.685 
N142 ;MFBBE - faza na BH od wlotu
N143 G01 G41 X-182.230 Y-1.953 Z20.984 F509
N144 G01 X-182.230 Y-1.953 Z20.984 F509 
N145 X-182.230 Y-2.070 Z20.865 
N146 X-182.230 Y-2.186 Z20.746 
N147 X-182.230 Y-2.303 Z20.627 
N148 X-182.230 Y-2.420 Z20.509 
N149 X-182.230 Y-2.537 Z20.390 
N150 X-182.230 Y-2.654 Z20.271 
N151 X-182.230 Y-2.774 Z20.150 
N152 X-182.230 Y-2.893 Z20.028 
N153 X-182.230 Y-3.012 Z19.907 
N154 X-182.230 Y-3.132 Z19.786 
N155 X-182.230 Y-3.251 Z19.664 
N156 X-182.230 Y-3.371 Z19.543 
N157 X-182.230 Y-3.490 Z19.422 
N158 X-182.230 Y-3.609 Z19.301 
N159 X-182.230 Y-3.729 Z19.179 
N160 X-182.230 Y-3.848 Z19.058 
N161 X-182.230 Y-3.968 Z18.937 
N162 X-182.230 Y-4.087 Z18.815 
N163 X-182.230 Y-4.206 Z18.694 
N164 X-182.230 Y-4.326 Z18.573 
N165 X-182.230 Y-4.445 Z18.451 
N166 X-182.230 Y-4.565 Z18.330 
N167 X-182.230 Y-4.684 Z18.209 
N168 X-182.230 Y-4.803 Z18.087 
N169 X-182.230 Y-4.923 Z17.966 
N170 X-182.230 Y-5.042 Z17.845 
N171 X-182.230 Y-5.162 Z17.724 
N172 X-182.230 Y-5.281 Z17.602 
N173 X-182.230 Y-5.400 Z17.481 
N174 X-182.230 Y-5.520 Z17.360 
N175 X-182.230 Y-5.639 Z17.238 
N176 X-182.230 Y-5.759 Z17.117 
N177 X-182.230 Y-5.878 Z16.996 
N178 X-182.230 Y-5.997 Z16.874 
N179 X-182.230 Y-6.117 Z16.753 
N180 X-182.230 Y-6.236 Z16.632 
N181 X-182.230 Y-6.356 Z16.510 
N182 X-182.230 Y-6.475 Z16.389 
N183 X-182.230 Y-6.594 Z16.268 
N184 X-182.230 Y-6.714 Z16.147 
N185 X-182.230 Y-6.833 Z16.025 
N186 X-182.230 Y-6.953 Z15.904 
N187 X-182.230 Y-7.072 Z15.783 
N188 X-182.230 Y-7.191 Z15.661 
N189 X-182.230 Y-7.311 Z15.540 
N190 X-182.230 Y-7.430 Z15.419 
N191 X-182.230 Y-7.550 Z15.297 
N192 X-182.230 Y-7.669 Z15.176 
N193 X-182.230 Y-7.788 Z15.055 
N194 X-182.230 Y-7.908 Z14.934 
N195 X-182.230 Y-8.027 Z14.812 
N196 X-182.230 Y-8.147 Z14.691 
N197 X-182.230 Y-8.266 Z14.570 
N198 X-182.230 Y-8.384 Z14.450 
N199 X-182.230 Y-8.501 Z14.331 
N200 X-182.230 Y-8.619 Z14.211 
N201 X-182.230 Y-8.737 Z14.091 
N202 X-182.230 Y-8.854 Z13.972 
N203 X-182.230 Y-8.972 Z13.852 
N204 X-182.230 Y-9.090 Z13.733 
N205 X-182.230 Y-9.207 Z13.613 
N206 X-182.230 Y-9.325 Z13.494 
N207 X-182.230 Y-9.443 Z13.374 
N208 X-182.230 Y-9.560 Z13.255 
N209 X-182.230 Y-9.678 Z13.135 
N210 X-182.230 Y-9.796 Z13.016 
N211 X-182.230 Y-9.913 Z12.896 
N212 X-182.230 Y-10.031 Z12.777 
N213 X-182.230 Y-10.149 Z12.657 
N214 X-182.230 Y-10.266 Z12.538 
N215 X-182.230 Y-10.384 Z12.418 
N216 X-182.230 Y-10.501 Z12.299 
N217 X-182.230 Y-10.619 Z12.179 
N218 X-182.230 Y-10.737 Z12.059 
N219 X-182.230 Y-10.854 Z11.940 
N220 X-182.230 Y-10.972 Z11.820 
N221 X-182.230 Y-11.090 Z11.701 
N222 X-182.230 Y-11.207 Z11.581 
N223 X-182.230 Y-11.325 Z11.462 
N224 X-182.230 Y-11.443 Z11.342 
N225 X-182.230 Y-11.560 Z11.223 
N226 X-182.230 Y-11.678 Z11.103 
N227 X-182.230 Y-11.796 Z10.984 
N228 X-182.230 Y-11.913 Z10.864 
N229 X-182.230 Y-12.038 Z10.737 
N230 X-182.230 Y-12.163 Z10.611 
N231 X-182.230 Y-12.287 Z10.484 
N232 X-182.230 Y-12.412 Z10.357 
N233 X-182.230 Y-12.537 Z10.231 
N234 X-182.230 Y-12.662 Z10.104 
N235 X-182.230 Y-12.786 Z9.977 
N236 X-182.230 Y-12.911 Z9.851 
N237 X-182.230 Y-13.036 Z9.724 
N238 G40 X-182.230 Y-13.737 Z9.011 F509
N239 X-182.230 Y-13.737 Z9.011 
N240 G00 X-182.230 Y-24.431 Z19.530 
;RAPORT("TB000000","Side Milling:160 End")
;trailer : concat=None
; points cnt = 190
N242 MSG (" --- GROUPED OF SUBPROGRAM --- ")
N243 FGROUP()
N244 TRAFOOF
; PROGRAM NAME: B00000052
; ORDER       : B000000
; OPER. NAME  : Side Milling:161
; OPER. DESCR.: BH Finish milling FSHA
; OPER. TYPE  : sideMill
; GEO. OPTION : 1
; MACHINE     : HSTM_500_SIM840D_Py
;             : HSTM500 - HAMUEL: 5-axis milling machine - SIM840D Traori PP_Script
; CONTROL     : SINUMERIK 840D
; created:   2021-11-15 10:01:39.855849
;-------DODATKOWE DANE-------------------
; PROGRAMISTA : Mariusz Malec
; PARTID      : 139T001534P1001_-
;  ap         : 0.05
;  ae         : 10.0
;  lean_angle : 0.02
;  fin_offset : 0.0
;----------------------------------------
;RAPORT("TB000000","Side Milling:161")
N10 TRAFOOF
N11 D0
N12 G90 G94
N13 G0 G53 D0 Z550 B0
N14 STOPRE
M9 ; chlodziwo wyl
; --- Side Milling:161 - BH Finish milling FSHA ---
N16 ;ToolChange : concat=None ,current_tdmid=None, PP.tdmId=958024
N17 TRAFOOF
N18 G0 G53 D0 Z550 B0
N19 STOPRE
N20 MSG(" TLID=958024 D=16.0 R=3.175 Ang=0.0 Len=115.0 ")
N21 S3183 M03
N22 STOPRE
N23 CYCLE832(0.01,1,1)
N24 G0 G53 A229.0200 B-0.0001
N25 TRAORI
N26 G54 D2
;tol5=0.03
N27 D2 
STOPRE
E_ZDARZ=300004
;ACS_FINISH_BH_C5=7758024
STOPRE
;UWAGA : ZMIENIONA TOLERANCJA OSI A i B, ruchy osi A i B beda usuniete : TOL5=0.03
N28 ; DELTA A > 40.1
N29 TRAFOOF
N30 D2
N31 STOPRE
N32 G00 G54 Z271.000
N33 G01 A229.0200 F10000
N34 TRAORI
N35 G54 D2
N36 STOPRE
N37 TRANS 
N38 G00 X-175.849 Y40.295 Z-48.097 A229.0200 
N39 M342 ; chlodziwo woda
N40 X-175.849 Y2.549 Z-15.307 
N41 ;FSHA - BH od wylotu
N42 G01 G41 X-175.831 Y7.797 Z-9.269 F509
N43 G01 X-175.831 Y7.797 Z-9.269 F509 
N44 X-175.831 Y7.906 Z-9.143 
N45 X-175.831 Y8.016 Z-9.017 
N46 X-175.830 Y8.125 Z-8.892 
N47 X-175.830 Y8.234 Z-8.766 
N48 X-175.829 Y8.344 Z-8.640 
N49 X-175.829 Y8.453 Z-8.514 
N50 X-175.829 Y8.558 Z-8.394 
N51 X-175.828 Y8.663 Z-8.273 
N52 X-175.828 Y8.768 Z-8.152 
N53 X-175.828 Y8.873 Z-8.031 
N54 X-175.827 Y8.978 Z-7.911 
N55 X-175.827 Y9.089 Z-7.783 
N56 X-175.827 Y9.201 Z-7.654 
N57 X-175.826 Y9.312 Z-7.526 
N58 X-175.826 Y9.423 Z-7.398 
N59 X-175.825 Y9.535 Z-7.270 
N60 X-175.825 Y9.646 Z-7.142 
N61 X-175.825 Y9.757 Z-7.014 
N62 X-175.824 Y9.869 Z-6.886 
N63 X-175.824 Y9.980 Z-6.758 
N64 X-175.824 Y10.091 Z-6.630 
N65 X-175.823 Y10.203 Z-6.502 
N66 X-175.823 Y10.314 Z-6.374 
N67 X-175.822 Y10.425 Z-6.246 
N68 X-175.822 Y10.537 Z-6.117 
N69 X-175.822 Y10.648 Z-5.989 
N70 X-175.821 Y10.759 Z-5.861 
N71 X-175.821 Y10.871 Z-5.733 
N72 X-175.821 Y10.982 Z-5.605 
N73 X-175.820 Y11.093 Z-5.477 
N74 X-175.820 Y11.205 Z-5.349 
N75 X-175.819 Y11.316 Z-5.221 
N76 X-175.819 Y11.427 Z-5.093 
N77 X-175.819 Y11.539 Z-4.965 
N78 X-175.818 Y11.650 Z-4.837 
N79 X-175.818 Y11.761 Z-4.709 
N80 X-175.818 Y11.873 Z-4.581 
N81 X-175.817 Y11.984 Z-4.452 
N82 X-175.817 Y12.095 Z-4.324 
N83 X-175.817 Y12.207 Z-4.196 
N84 X-175.816 Y12.318 Z-4.068 
N85 X-175.816 Y12.429 Z-3.940 
N86 X-175.815 Y12.541 Z-3.812 
N87 X-175.815 Y12.652 Z-3.684 
N88 X-175.815 Y12.763 Z-3.556 
N89 X-175.814 Y12.875 Z-3.428 
N90 X-175.814 Y12.986 Z-3.300 
N91 X-175.814 Y13.097 Z-3.172 
N92 X-175.813 Y13.209 Z-3.044 
N93 X-175.813 Y13.320 Z-2.916 
N94 X-175.812 Y13.431 Z-2.787 
N95 X-175.812 Y13.543 Z-2.659 
N96 X-175.812 Y13.654 Z-2.531 
N97 X-175.811 Y13.765 Z-2.403 
N98 X-175.811 Y13.877 Z-2.275 
N99 X-175.811 Y13.988 Z-2.147 
N100 X-175.810 Y14.099 Z-2.019 
N101 X-175.810 Y14.211 Z-1.891 
N102 X-175.809 Y14.322 Z-1.763 
N103 X-175.809 Y14.433 Z-1.635 
N104 X-175.809 Y14.545 Z-1.507 
N105 X-175.808 Y14.656 Z-1.379 
N106 X-175.808 Y14.767 Z-1.251 
N107 X-175.808 Y14.879 Z-1.122 
N108 X-175.807 Y14.990 Z-0.994 
N109 X-175.804 Y15.101 Z-0.866 
N110 X-175.802 Y15.213 Z-0.738 
N111 X-175.800 Y15.324 Z-0.610 
N112 X-175.798 Y15.435 Z-0.482 
N113 X-175.795 Y15.547 Z-0.354 
N114 X-175.793 Y15.658 Z-0.226 
N115 X-175.791 Y15.769 Z-0.098 
N116 X-175.789 Y15.881 Z0.030 
N117 X-175.787 Y15.992 Z0.158 
N118 X-175.784 Y16.103 Z0.286 
N119 X-175.782 Y16.215 Z0.414 
N120 X-175.780 Y16.326 Z0.542 
N121 X-175.778 Y16.437 Z0.670 
N122 X-175.776 Y16.549 Z0.799 
N123 X-175.773 Y16.660 Z0.927 
N124 X-175.771 Y16.771 Z1.055 
N125 X-175.769 Y16.883 Z1.183 
N126 X-175.767 Y16.994 Z1.311 
N127 X-175.764 Y17.105 Z1.439 
N128 X-175.762 Y17.217 Z1.567 
N129 X-175.760 Y17.328 Z1.695 
N130 X-175.758 Y17.439 Z1.823 
N131 X-175.756 Y17.551 Z1.951 
N132 X-175.753 Y17.662 Z2.079 
N133 X-175.751 Y17.773 Z2.207 
N134 X-175.749 Y17.885 Z2.335 
N135 X-175.747 Y17.996 Z2.463 
N136 X-175.745 Y18.107 Z2.591 
N137 X-175.742 Y18.219 Z2.720 
N138 X-175.740 Y18.330 Z2.848 
N139 X-175.738 Y18.441 Z2.976 
N140 X-175.736 Y18.553 Z3.104 
N141 X-175.733 Y18.664 Z3.232 
N142 X-175.731 Y18.775 Z3.360 
N143 X-175.729 Y18.887 Z3.488 
N144 X-175.727 Y18.998 Z3.616 
N145 X-175.725 Y19.109 Z3.744 
N146 X-175.722 Y19.221 Z3.872 
N147 X-175.720 Y19.332 Z4.000 
N148 X-175.718 Y19.443 Z4.128 
N149 X-175.716 Y19.554 Z4.256 
N150 X-175.714 Y19.666 Z4.384 
N151 X-175.711 Y19.777 Z4.513 
N152 X-175.709 Y19.888 Z4.641 
N153 X-175.707 Y20.000 Z4.769 
N154 X-175.705 Y20.111 Z4.897 
N155 X-175.702 Y20.222 Z5.025 
N156 X-175.698 Y20.334 Z5.153 
N157 X-175.694 Y20.445 Z5.281 
N158 X-175.691 Y20.556 Z5.409 
N159 X-175.687 Y20.668 Z5.537 
N160 X-175.683 Y20.779 Z5.665 
N161 X-175.679 Y20.890 Z5.793 
N162 X-175.675 Y21.002 Z5.921 
N163 X-175.672 Y21.113 Z6.049 
N164 X-175.668 Y21.224 Z6.177 
N165 X-175.664 Y21.336 Z6.305 
N166 X-175.660 Y21.447 Z6.433 
N167 X-175.656 Y21.558 Z6.561 
N168 X-175.653 Y21.669 Z6.689 
N169 X-175.649 Y21.781 Z6.817 
N170 X-175.645 Y21.892 Z6.945 
N171 X-175.641 Y22.003 Z7.074 
N172 X-175.637 Y22.115 Z7.202 
N173 X-175.634 Y22.226 Z7.330 
N174 X-175.630 Y22.337 Z7.458 
N175 X-175.626 Y22.449 Z7.586 
N176 X-175.622 Y22.560 Z7.714 
N177 X-175.618 Y22.671 Z7.842 
N178 X-175.615 Y22.783 Z7.970 
N179 X-175.611 Y22.894 Z8.098 
N180 X-175.607 Y23.005 Z8.226 
N181 X-175.603 Y23.116 Z8.354 
N182 X-175.599 Y23.228 Z8.482 
N183 X-175.596 Y23.339 Z8.610 
N184 X-175.592 Y23.450 Z8.738 
N185 X-175.588 Y23.562 Z8.866 
N186 X-175.584 Y23.673 Z8.994 
N187 X-175.581 Y23.784 Z9.122 
N188 X-175.577 Y23.896 Z9.250 
N189 X-175.573 Y24.007 Z9.378 
N190 X-175.569 Y24.118 Z9.506 
N191 X-175.565 Y24.230 Z9.634 
N192 X-175.562 Y24.341 Z9.762 
N193 X-175.558 Y24.452 Z9.891 
N194 X-175.554 Y24.563 Z10.019 
N195 X-175.549 Y24.675 Z10.147 
N196 X-175.544 Y24.786 Z10.275 
N197 X-175.539 Y24.897 Z10.403 
N198 X-175.533 Y25.009 Z10.531 
N199 X-175.528 Y25.120 Z10.659 
N200 X-175.523 Y25.231 Z10.787 
N201 X-175.518 Y25.342 Z10.915 
N202 X-175.513 Y25.454 Z11.043 
N203 X-175.508 Y25.565 Z11.171 
N204 X-175.503 Y25.676 Z11.299 
N205 X-175.498 Y25.788 Z11.427 
N206 X-175.492 Y25.899 Z11.555 
N207 X-175.487 Y26.010 Z11.683 
N208 X-175.482 Y26.121 Z11.811 
N209 X-175.477 Y26.233 Z11.939 
N210 X-175.472 Y26.344 Z12.067 
N211 X-175.467 Y26.455 Z12.195 
N212 X-175.462 Y26.567 Z12.323 
N213 X-175.456 Y26.678 Z12.451 
N214 X-175.451 Y26.789 Z12.579 
N215 X-175.446 Y26.900 Z12.707 
N216 X-175.441 Y27.012 Z12.835 
N217 X-175.436 Y27.123 Z12.963 
N218 X-175.431 Y27.234 Z13.091 
N219 X-175.426 Y27.346 Z13.219 
N220 X-175.421 Y27.457 Z13.347 
N221 X-175.415 Y27.568 Z13.475 
N222 X-175.410 Y27.679 Z13.603 
N223 X-175.405 Y27.791 Z13.731 
N224 X-175.400 Y27.902 Z13.859 
N225 X-175.395 Y28.013 Z13.987 
N226 X-175.390 Y28.125 Z14.115 
N227 X-175.385 Y28.236 Z14.243 
N228 X-175.379 Y28.347 Z14.371 
N229 X-175.375 Y28.452 Z14.492 
N230 X-175.370 Y28.557 Z14.613 
N231 X-175.365 Y28.662 Z14.733 
N232 X-175.360 Y28.767 Z14.854 
N233 X-175.355 Y28.872 Z14.975 
N234 G40 X-175.113 Y34.118 Z21.010 F509
N235 X-175.113 Y34.118 Z21.010 
N236 G00 X-175.113 Y45.442 Z11.173 
N237 X-182.249 Y13.858 Z-25.161 
N238 X-182.249 Y2.534 Z-15.324 
N239 ;FSHA - BH od wylotu
N240 G01 G41 X-182.231 Y7.782 Z-9.286 F509
N241 G01 X-182.231 Y7.782 Z-9.286 F509 
N242 X-182.231 Y7.892 Z-9.160 
N243 X-182.231 Y8.001 Z-9.034 
N244 X-182.230 Y8.110 Z-8.909 
N245 X-182.230 Y8.220 Z-8.783 
N246 X-182.229 Y8.329 Z-8.657 
N247 X-182.229 Y8.438 Z-8.531 
N248 X-182.229 Y8.543 Z-8.411 
N249 X-182.228 Y8.648 Z-8.290 
N250 X-182.228 Y8.753 Z-8.169 
N251 X-182.228 Y8.858 Z-8.048 
N252 X-182.227 Y8.963 Z-7.928 
N253 X-182.227 Y9.075 Z-7.799 
N254 X-182.227 Y9.186 Z-7.671 
N255 X-182.226 Y9.298 Z-7.542 
N256 X-182.226 Y9.410 Z-7.414 
N257 X-182.225 Y9.521 Z-7.286 
N258 X-182.225 Y9.633 Z-7.157 
N259 X-182.225 Y9.744 Z-7.029 
N260 X-182.224 Y9.856 Z-6.901 
N261 X-182.224 Y9.968 Z-6.772 
N262 X-182.224 Y10.079 Z-6.644 
N263 X-182.223 Y10.191 Z-6.515 
N264 X-182.223 Y10.302 Z-6.387 
N265 X-182.222 Y10.414 Z-6.259 
N266 X-182.222 Y10.526 Z-6.130 
N267 X-182.222 Y10.637 Z-6.002 
N268 X-182.221 Y10.749 Z-5.874 
N269 X-182.221 Y10.860 Z-5.745 
N270 X-182.221 Y10.972 Z-5.617 
N271 X-182.220 Y11.084 Z-5.488 
N272 X-182.220 Y11.195 Z-5.360 
N273 X-182.219 Y11.307 Z-5.232 
N274 X-182.219 Y11.418 Z-5.103 
N275 X-182.219 Y11.530 Z-4.975 
N276 X-182.218 Y11.641 Z-4.846 
N277 X-182.218 Y11.753 Z-4.718 
N278 X-182.218 Y11.865 Z-4.590 
N279 X-182.217 Y11.976 Z-4.461 
N280 X-182.217 Y12.088 Z-4.333 
N281 X-182.216 Y12.199 Z-4.205 
N282 X-182.216 Y12.311 Z-4.076 
N283 X-182.216 Y12.423 Z-3.948 
N284 X-182.215 Y12.534 Z-3.819 
N285 X-182.215 Y12.646 Z-3.691 
N286 X-182.215 Y12.757 Z-3.563 
N287 X-182.214 Y12.869 Z-3.434 
N288 X-182.214 Y12.981 Z-3.306 
N289 X-182.213 Y13.092 Z-3.178 
N290 X-182.213 Y13.204 Z-3.049 
N291 X-182.213 Y13.315 Z-2.921 
N292 X-182.212 Y13.427 Z-2.792 
N293 X-182.212 Y13.539 Z-2.664 
N294 X-182.212 Y13.650 Z-2.536 
N295 X-182.211 Y13.762 Z-2.407 
N296 X-182.211 Y13.873 Z-2.279 
N297 X-182.210 Y13.985 Z-2.151 
N298 X-182.210 Y14.097 Z-2.022 
N299 X-182.210 Y14.208 Z-1.894 
N300 X-182.209 Y14.320 Z-1.765 
N301 X-182.209 Y14.431 Z-1.637 
N302 X-182.209 Y14.543 Z-1.509 
N303 X-182.208 Y14.655 Z-1.380 
N304 X-182.208 Y14.766 Z-1.252 
N305 X-182.207 Y14.878 Z-1.124 
N306 X-182.207 Y14.989 Z-0.995 
N307 X-182.205 Y15.101 Z-0.867 
N308 X-182.203 Y15.213 Z-0.738 
N309 X-182.200 Y15.324 Z-0.610 
N310 X-182.198 Y15.436 Z-0.482 
N311 X-182.196 Y15.547 Z-0.353 
N312 X-182.194 Y15.659 Z-0.225 
N313 X-182.191 Y15.770 Z-0.097 
N314 X-182.189 Y15.882 Z0.032 
N315 X-182.187 Y15.994 Z0.160 
N316 X-182.185 Y16.105 Z0.288 
N317 X-182.183 Y16.217 Z0.417 
N318 X-182.180 Y16.328 Z0.545 
N319 X-182.178 Y16.440 Z0.674 
N320 X-182.176 Y16.552 Z0.802 
N321 X-182.174 Y16.663 Z0.930 
N322 X-182.171 Y16.775 Z1.059 
N323 X-182.169 Y16.886 Z1.187 
N324 X-182.167 Y16.998 Z1.315 
N325 X-182.165 Y17.110 Z1.444 
N326 X-182.163 Y17.221 Z1.572 
N327 X-182.160 Y17.333 Z1.701 
N328 X-182.158 Y17.444 Z1.829 
N329 X-182.156 Y17.556 Z1.957 
N330 X-182.154 Y17.667 Z2.086 
N331 X-182.152 Y17.779 Z2.214 
N332 X-182.149 Y17.891 Z2.342 
N333 X-182.147 Y18.002 Z2.471 
N334 X-182.145 Y18.114 Z2.599 
N335 X-182.143 Y18.225 Z2.727 
N336 X-182.140 Y18.337 Z2.856 
N337 X-182.138 Y18.449 Z2.984 
N338 X-182.136 Y18.560 Z3.113 
N339 X-182.134 Y18.672 Z3.241 
N340 X-182.132 Y18.783 Z3.369 
N341 X-182.129 Y18.895 Z3.498 
N342 X-182.127 Y19.007 Z3.626 
N343 X-182.125 Y19.118 Z3.754 
N344 X-182.123 Y19.230 Z3.883 
N345 X-182.120 Y19.341 Z4.011 
N346 X-182.118 Y19.453 Z4.139 
N347 X-182.116 Y19.564 Z4.268 
N348 X-182.114 Y19.676 Z4.396 
N349 X-182.112 Y19.788 Z4.525 
N350 X-182.109 Y19.899 Z4.653 
N351 X-182.107 Y20.011 Z4.781 
N352 X-182.105 Y20.122 Z4.910 
N353 X-182.103 Y20.234 Z5.038 
N354 X-182.099 Y20.346 Z5.166 
N355 X-182.095 Y20.457 Z5.295 
N356 X-182.092 Y20.569 Z5.423 
N357 X-182.088 Y20.680 Z5.551 
N358 X-182.084 Y20.792 Z5.680 
N359 X-182.080 Y20.903 Z5.808 
N360 X-182.076 Y21.015 Z5.936 
N361 X-182.073 Y21.127 Z6.065 
N362 X-182.069 Y21.238 Z6.193 
N363 X-182.065 Y21.350 Z6.322 
N364 X-182.061 Y21.461 Z6.450 
N365 X-182.057 Y21.573 Z6.578 
N366 X-182.054 Y21.684 Z6.707 
N367 X-182.050 Y21.796 Z6.835 
N368 X-182.046 Y21.908 Z6.963 
N369 X-182.042 Y22.019 Z7.092 
N370 X-182.038 Y22.131 Z7.220 
N371 X-182.035 Y22.242 Z7.348 
N372 X-182.031 Y22.354 Z7.477 
N373 X-182.027 Y22.465 Z7.605 
N374 X-182.023 Y22.577 Z7.733 
N375 X-182.019 Y22.689 Z7.862 
N376 X-182.016 Y22.800 Z7.990 
N377 X-182.012 Y22.912 Z8.118 
N378 X-182.008 Y23.023 Z8.247 
N379 X-182.004 Y23.135 Z8.375 
N380 X-182.000 Y23.246 Z8.503 
N381 X-181.997 Y23.358 Z8.632 
N382 X-181.993 Y23.470 Z8.760 
N383 X-181.989 Y23.581 Z8.888 
N384 X-181.985 Y23.693 Z9.017 
N385 X-181.981 Y23.804 Z9.145 
N386 X-181.978 Y23.916 Z9.273 
N387 X-181.974 Y24.027 Z9.402 
N388 X-181.970 Y24.139 Z9.530 
N389 X-181.966 Y24.250 Z9.658 
N390 X-181.962 Y24.362 Z9.787 
N391 X-181.959 Y24.474 Z9.915 
N392 X-181.955 Y24.585 Z10.044 
N393 X-181.951 Y24.697 Z10.172 
N394 X-181.946 Y24.808 Z10.300 
N395 X-181.940 Y24.920 Z10.429 
N396 X-181.935 Y25.031 Z10.557 
N397 X-181.930 Y25.143 Z10.685 
N398 X-181.925 Y25.254 Z10.813 
N399 X-181.920 Y25.366 Z10.942 
N400 X-181.915 Y25.478 Z11.070 
N401 X-181.910 Y25.589 Z11.198 
N402 X-181.904 Y25.701 Z11.327 
N403 X-181.899 Y25.812 Z11.455 
N404 X-181.894 Y25.924 Z11.583 
N405 X-181.889 Y26.035 Z11.712 
N406 X-181.884 Y26.147 Z11.840 
N407 X-181.879 Y26.258 Z11.968 
N408 X-181.874 Y26.370 Z12.097 
N409 X-181.868 Y26.481 Z12.225 
N410 X-181.863 Y26.593 Z12.353 
N411 X-181.858 Y26.705 Z12.482 
N412 X-181.853 Y26.816 Z12.610 
N413 X-181.848 Y26.928 Z12.738 
N414 X-181.843 Y27.039 Z12.867 
N415 X-181.838 Y27.151 Z12.995 
N416 X-181.832 Y27.262 Z13.123 
N417 X-181.827 Y27.374 Z13.252 
N418 X-181.822 Y27.485 Z13.380 
N419 X-181.817 Y27.597 Z13.508 
N420 X-181.812 Y27.709 Z13.636 
N421 X-181.807 Y27.820 Z13.765 
N422 X-181.802 Y27.932 Z13.893 
N423 X-181.796 Y28.043 Z14.021 
N424 X-181.791 Y28.155 Z14.150 
N425 X-181.786 Y28.266 Z14.278 
N426 X-181.781 Y28.378 Z14.406 
N427 X-181.776 Y28.489 Z14.535 
N428 X-181.771 Y28.594 Z14.655 
N429 X-181.766 Y28.699 Z14.776 
N430 X-181.761 Y28.804 Z14.897 
N431 X-181.756 Y28.909 Z15.018 
N432 X-181.752 Y29.014 Z15.138 
N433 G40 X-181.510 Y34.260 Z21.173 F509
N434 X-181.510 Y34.260 Z21.173 
N435 G00 X-181.509 Y45.584 Z11.336 
N436 X-175.849 Y13.835 Z-25.111 
N437 X-175.849 Y2.511 Z-15.274 
N438 ;FSHA - BH od wylotu
N439 G01 G41 X-175.831 Y7.759 Z-9.236 F509
N440 G01 X-175.831 Y7.759 Z-9.236 F509 
N441 X-175.831 Y7.869 Z-9.110 
N442 X-175.831 Y7.978 Z-8.985 
N443 X-175.830 Y8.087 Z-8.859 
N444 X-175.830 Y8.197 Z-8.733 
N445 X-175.829 Y8.306 Z-8.607 
N446 X-175.829 Y8.415 Z-8.482 
N447 X-175.829 Y8.520 Z-8.361 
N448 X-175.828 Y8.625 Z-8.240 
N449 X-175.828 Y8.730 Z-8.119 
N450 X-175.828 Y8.835 Z-7.999 
N451 X-175.827 Y8.940 Z-7.878 
N452 X-175.827 Y9.052 Z-7.750 
N453 X-175.827 Y9.163 Z-7.622 
N454 X-175.826 Y9.274 Z-7.494 
N455 X-175.826 Y9.386 Z-7.365 
N456 X-175.825 Y9.497 Z-7.237 
N457 X-175.825 Y9.608 Z-7.109 
N458 X-175.825 Y9.720 Z-6.981 
N459 X-175.824 Y9.831 Z-6.853 
N460 X-175.824 Y9.942 Z-6.725 
N461 X-175.824 Y10.054 Z-6.597 
N462 X-175.823 Y10.165 Z-6.469 
N463 X-175.823 Y10.276 Z-6.341 
N464 X-175.822 Y10.388 Z-6.213 
N465 X-175.822 Y10.499 Z-6.085 
N466 X-175.822 Y10.610 Z-5.957 
N467 X-175.821 Y10.722 Z-5.829 
N468 X-175.821 Y10.833 Z-5.700 
N469 X-175.821 Y10.944 Z-5.572 
N470 X-175.820 Y11.056 Z-5.444 
N471 X-175.820 Y11.167 Z-5.316 
N472 X-175.819 Y11.278 Z-5.188 
N473 X-175.819 Y11.390 Z-5.060 
N474 X-175.819 Y11.501 Z-4.932 
N475 X-175.818 Y11.612 Z-4.804 
N476 X-175.818 Y11.724 Z-4.676 
N477 X-175.818 Y11.835 Z-4.548 
N478 X-175.817 Y11.946 Z-4.420 
N479 X-175.817 Y12.058 Z-4.292 
N480 X-175.817 Y12.169 Z-4.164 
N481 X-175.816 Y12.280 Z-4.035 
N482 X-175.816 Y12.392 Z-3.907 
N483 X-175.815 Y12.503 Z-3.779 
N484 X-175.815 Y12.614 Z-3.651 
N485 X-175.815 Y12.726 Z-3.523 
N486 X-175.814 Y12.837 Z-3.395 
N487 X-175.814 Y12.948 Z-3.267 
N488 X-175.814 Y13.060 Z-3.139 
N489 X-175.813 Y13.171 Z-3.011 
N490 X-175.813 Y13.282 Z-2.883 
N491 X-175.812 Y13.394 Z-2.755 
N492 X-175.812 Y13.505 Z-2.627 
N493 X-175.812 Y13.616 Z-2.499 
N494 X-175.811 Y13.728 Z-2.370 
N495 X-175.811 Y13.839 Z-2.242 
N496 X-175.811 Y13.950 Z-2.114 
N497 X-175.810 Y14.062 Z-1.986 
N498 X-175.810 Y14.173 Z-1.858 
N499 X-175.809 Y14.284 Z-1.730 
N500 X-175.809 Y14.396 Z-1.602 
N501 X-175.809 Y14.507 Z-1.474 
N502 X-175.808 Y14.618 Z-1.346 
N503 X-175.808 Y14.730 Z-1.218 
N504 X-175.808 Y14.841 Z-1.090 
N505 X-175.807 Y14.952 Z-0.962 
N506 X-175.804 Y15.064 Z-0.834 
N507 X-175.802 Y15.175 Z-0.705 
N508 X-175.800 Y15.286 Z-0.577 
N509 X-175.798 Y15.398 Z-0.449 
N510 X-175.795 Y15.509 Z-0.321 
N511 X-175.793 Y15.620 Z-0.193 
N512 X-175.791 Y15.732 Z-0.065 
N513 X-175.789 Y15.843 Z0.063 
N514 X-175.787 Y15.954 Z0.191 
N515 X-175.784 Y16.066 Z0.319 
N516 X-175.782 Y16.177 Z0.447 
N517 X-175.780 Y16.288 Z0.575 
N518 X-175.778 Y16.400 Z0.703 
N519 X-175.776 Y16.511 Z0.831 
N520 X-175.773 Y16.622 Z0.959 
N521 X-175.771 Y16.734 Z1.087 
N522 X-175.769 Y16.845 Z1.216 
N523 X-175.767 Y16.956 Z1.344 
N524 X-175.764 Y17.068 Z1.472 
N525 X-175.762 Y17.179 Z1.600 
N526 X-175.760 Y17.290 Z1.728 
N527 X-175.758 Y17.402 Z1.856 
N528 X-175.756 Y17.513 Z1.984 
N529 X-175.753 Y17.624 Z2.112 
N530 X-175.751 Y17.736 Z2.240 
N531 X-175.749 Y17.847 Z2.368 
N532 X-175.747 Y17.958 Z2.496 
N533 X-175.745 Y18.070 Z2.624 
N534 X-175.742 Y18.181 Z2.752 
N535 X-175.740 Y18.292 Z2.880 
N536 X-175.738 Y18.403 Z3.009 
N537 X-175.736 Y18.515 Z3.137 
N538 X-175.733 Y18.626 Z3.265 
N539 X-175.731 Y18.737 Z3.393 
N540 X-175.729 Y18.849 Z3.521 
N541 X-175.727 Y18.960 Z3.649 
N542 X-175.725 Y19.071 Z3.777 
N543 X-175.722 Y19.183 Z3.905 
N544 X-175.720 Y19.294 Z4.033 
N545 X-175.718 Y19.405 Z4.161 
N546 X-175.716 Y19.517 Z4.289 
N547 X-175.714 Y19.628 Z4.417 
N548 X-175.711 Y19.739 Z4.545 
N549 X-175.709 Y19.851 Z4.673 
N550 X-175.707 Y19.962 Z4.801 
N551 X-175.705 Y20.073 Z4.930 
N552 X-175.702 Y20.185 Z5.058 
N553 X-175.698 Y20.296 Z5.186 
N554 X-175.694 Y20.407 Z5.314 
N555 X-175.691 Y20.519 Z5.442 
N556 X-175.687 Y20.630 Z5.570 
N557 X-175.683 Y20.741 Z5.698 
N558 X-175.679 Y20.853 Z5.826 
N559 X-175.675 Y20.964 Z5.954 
N560 X-175.672 Y21.075 Z6.082 
N561 X-175.668 Y21.186 Z6.210 
N562 X-175.664 Y21.298 Z6.338 
N563 X-175.660 Y21.409 Z6.466 
N564 X-175.656 Y21.520 Z6.594 
N565 X-175.653 Y21.632 Z6.722 
N566 X-175.649 Y21.743 Z6.850 
N567 X-175.645 Y21.854 Z6.978 
N568 X-175.641 Y21.966 Z7.106 
N569 X-175.637 Y22.077 Z7.234 
N570 X-175.634 Y22.188 Z7.362 
N571 X-175.630 Y22.300 Z7.490 
N572 X-175.626 Y22.411 Z7.618 
N573 X-175.622 Y22.522 Z7.747 
N574 X-175.618 Y22.634 Z7.875 
N575 X-175.615 Y22.745 Z8.003 
N576 X-175.611 Y22.856 Z8.131 
N577 X-175.607 Y22.967 Z8.259 
N578 X-175.603 Y23.079 Z8.387 
N579 X-175.599 Y23.190 Z8.515 
N580 X-175.596 Y23.301 Z8.643 
N581 X-175.592 Y23.413 Z8.771 
N582 X-175.588 Y23.524 Z8.899 
N583 X-175.584 Y23.635 Z9.027 
N584 X-175.581 Y23.747 Z9.155 
N585 X-175.577 Y23.858 Z9.283 
N586 X-175.573 Y23.969 Z9.411 
N587 X-175.569 Y24.081 Z9.539 
N588 X-175.565 Y24.192 Z9.667 
N589 X-175.562 Y24.303 Z9.795 
N590 X-175.558 Y24.414 Z9.923 
N591 X-175.554 Y24.526 Z10.051 
N592 X-175.549 Y24.637 Z10.179 
N593 X-175.544 Y24.748 Z10.307 
N594 X-175.539 Y24.860 Z10.435 
N595 X-175.533 Y24.971 Z10.563 
N596 X-175.528 Y25.082 Z10.691 
N597 X-175.523 Y25.193 Z10.819 
N598 X-175.518 Y25.305 Z10.948 
N599 X-175.513 Y25.416 Z11.076 
N600 X-175.508 Y25.527 Z11.204 
N601 X-175.503 Y25.639 Z11.332 
N602 X-175.498 Y25.750 Z11.460 
N603 X-175.492 Y25.861 Z11.588 
N604 X-175.487 Y25.972 Z11.716 
N605 X-175.482 Y26.084 Z11.844 
N606 X-175.477 Y26.195 Z11.972 
N607 X-175.472 Y26.306 Z12.100 
N608 X-175.467 Y26.418 Z12.228 
N609 X-175.462 Y26.529 Z12.356 
N610 X-175.456 Y26.640 Z12.484 
N611 X-175.451 Y26.751 Z12.612 
N612 X-175.446 Y26.863 Z12.740 
N613 X-175.441 Y26.974 Z12.868 
N614 X-175.436 Y27.085 Z12.996 
N615 X-175.431 Y27.197 Z13.124 
N616 X-175.426 Y27.308 Z13.252 
N617 X-175.421 Y27.419 Z13.380 
N618 X-175.415 Y27.530 Z13.508 
N619 X-175.410 Y27.642 Z13.636 
N620 X-175.405 Y27.753 Z13.764 
N621 X-175.400 Y27.864 Z13.892 
N622 X-175.395 Y27.976 Z14.020 
N623 X-175.390 Y28.087 Z14.148 
N624 X-175.385 Y28.198 Z14.276 
N625 X-175.379 Y28.309 Z14.404 
N626 X-175.375 Y28.414 Z14.525 
N627 X-175.370 Y28.519 Z14.645 
N628 X-175.365 Y28.624 Z14.766 
N629 X-175.360 Y28.729 Z14.887 
N630 X-175.355 Y28.834 Z15.008 
N631 G40 X-175.113 Y34.080 Z21.042 F509
N632 X-175.113 Y34.080 Z21.042 
N633 G00 X-175.113 Y45.404 Z11.206 
N634 X-182.249 Y13.820 Z-25.128 
N635 X-182.249 Y2.496 Z-15.291 
N636 ;FSHA - BH od wylotu
N637 G01 G41 X-182.231 Y7.745 Z-9.253 F509
N638 G01 X-182.231 Y7.745 Z-9.253 F509 
N639 X-182.231 Y7.854 Z-9.127 
N640 X-182.231 Y7.963 Z-9.002 
N641 X-182.230 Y8.073 Z-8.876 
N642 X-182.230 Y8.182 Z-8.750 
N643 X-182.229 Y8.291 Z-8.624 
N644 X-182.229 Y8.401 Z-8.499 
N645 X-182.229 Y8.506 Z-8.378 
N646 X-182.228 Y8.611 Z-8.257 
N647 X-182.228 Y8.715 Z-8.136 
N648 X-182.228 Y8.820 Z-8.016 
N649 X-182.227 Y8.925 Z-7.895 
N650 X-182.227 Y9.037 Z-7.766 
N651 X-182.227 Y9.149 Z-7.638 
N652 X-182.226 Y9.260 Z-7.510 
N653 X-182.226 Y9.372 Z-7.381 
N654 X-182.225 Y9.483 Z-7.253 
N655 X-182.225 Y9.595 Z-7.124 
N656 X-182.225 Y9.707 Z-6.996 
N657 X-182.224 Y9.818 Z-6.868 
N658 X-182.224 Y9.930 Z-6.739 
N659 X-182.224 Y10.041 Z-6.611 
N660 X-182.223 Y10.153 Z-6.483 
N661 X-182.223 Y10.265 Z-6.354 
N662 X-182.222 Y10.376 Z-6.226 
N663 X-182.222 Y10.488 Z-6.097 
N664 X-182.222 Y10.599 Z-5.969 
N665 X-182.221 Y10.711 Z-5.841 
N666 X-182.221 Y10.823 Z-5.712 
N667 X-182.221 Y10.934 Z-5.584 
N668 X-182.220 Y11.046 Z-5.456 
N669 X-182.220 Y11.157 Z-5.327 
N670 X-182.219 Y11.269 Z-5.199 
N671 X-182.219 Y11.381 Z-5.070 
N672 X-182.219 Y11.492 Z-4.942 
N673 X-182.218 Y11.604 Z-4.814 
N674 X-182.218 Y11.715 Z-4.685 
N675 X-182.218 Y11.827 Z-4.557 
N676 X-182.217 Y11.939 Z-4.429 
N677 X-182.217 Y12.050 Z-4.300 
N678 X-182.216 Y12.162 Z-4.172 
N679 X-182.216 Y12.273 Z-4.043 
N680 X-182.216 Y12.385 Z-3.915 
N681 X-182.215 Y12.497 Z-3.787 
N682 X-182.215 Y12.608 Z-3.658 
N683 X-182.215 Y12.720 Z-3.530 
N684 X-182.214 Y12.831 Z-3.402 
N685 X-182.214 Y12.943 Z-3.273 
N686 X-182.213 Y13.055 Z-3.145 
N687 X-182.213 Y13.166 Z-3.016 
N688 X-182.213 Y13.278 Z-2.888 
N689 X-182.212 Y13.389 Z-2.760 
N690 X-182.212 Y13.501 Z-2.631 
N691 X-182.212 Y13.612 Z-2.503 
N692 X-182.211 Y13.724 Z-2.375 
N693 X-182.211 Y13.836 Z-2.246 
N694 X-182.210 Y13.947 Z-2.118 
N695 X-182.210 Y14.059 Z-1.989 
N696 X-182.210 Y14.170 Z-1.861 
N697 X-182.209 Y14.282 Z-1.733 
N698 X-182.209 Y14.394 Z-1.604 
N699 X-182.209 Y14.505 Z-1.476 
N700 X-182.208 Y14.617 Z-1.348 
N701 X-182.208 Y14.728 Z-1.219 
N702 X-182.207 Y14.840 Z-1.091 
N703 X-182.207 Y14.952 Z-0.962 
N704 X-182.205 Y15.063 Z-0.834 
N705 X-182.203 Y15.175 Z-0.706 
N706 X-182.200 Y15.286 Z-0.577 
N707 X-182.198 Y15.398 Z-0.449 
N708 X-182.196 Y15.510 Z-0.321 
N709 X-182.194 Y15.621 Z-0.192 
N710 X-182.191 Y15.733 Z-0.064 
N711 X-182.189 Y15.844 Z0.065 
N712 X-182.187 Y15.956 Z0.193 
N713 X-182.185 Y16.068 Z0.321 
N714 X-182.183 Y16.179 Z0.450 
N715 X-182.180 Y16.291 Z0.578 
N716 X-182.178 Y16.402 Z0.706 
N717 X-182.176 Y16.514 Z0.835 
N718 X-182.174 Y16.625 Z0.963 
N719 X-182.171 Y16.737 Z1.091 
N720 X-182.169 Y16.849 Z1.220 
N721 X-182.167 Y16.960 Z1.348 
N722 X-182.165 Y17.072 Z1.477 
N723 X-182.163 Y17.183 Z1.605 
N724 X-182.160 Y17.295 Z1.733 
N725 X-182.158 Y17.407 Z1.862 
N726 X-182.156 Y17.518 Z1.990 
N727 X-182.154 Y17.630 Z2.118 
N728 X-182.152 Y17.741 Z2.247 
N729 X-182.149 Y17.853 Z2.375 
N730 X-182.147 Y17.965 Z2.504 
N731 X-182.145 Y18.076 Z2.632 
N732 X-182.143 Y18.188 Z2.760 
N733 X-182.140 Y18.299 Z2.889 
N734 X-182.138 Y18.411 Z3.017 
N735 X-182.136 Y18.522 Z3.145 
N736 X-182.134 Y18.634 Z3.274 
N737 X-182.132 Y18.746 Z3.402 
N738 X-182.129 Y18.857 Z3.530 
N739 X-182.127 Y18.969 Z3.659 
N740 X-182.125 Y19.080 Z3.787 
N741 X-182.123 Y19.192 Z3.916 
N742 X-182.120 Y19.304 Z4.044 
N743 X-182.118 Y19.415 Z4.172 
N744 X-182.116 Y19.527 Z4.301 
N745 X-182.114 Y19.638 Z4.429 
N746 X-182.112 Y19.750 Z4.557 
N747 X-182.109 Y19.862 Z4.686 
N748 X-182.107 Y19.973 Z4.814 
N749 X-182.105 Y20.085 Z4.942 
N750 X-182.103 Y20.196 Z5.071 
N751 X-182.099 Y20.308 Z5.199 
N752 X-182.095 Y20.419 Z5.328 
N753 X-182.092 Y20.531 Z5.456 
N754 X-182.088 Y20.643 Z5.584 
N755 X-182.084 Y20.754 Z5.713 
N756 X-182.080 Y20.866 Z5.841 
N757 X-182.076 Y20.977 Z5.969 
N758 X-182.073 Y21.089 Z6.098 
N759 X-182.069 Y21.200 Z6.226 
N760 X-182.065 Y21.312 Z6.354 
N761 X-182.061 Y21.424 Z6.483 
N762 X-182.057 Y21.535 Z6.611 
N763 X-182.054 Y21.647 Z6.739 
N764 X-182.050 Y21.758 Z6.868 
N765 X-182.046 Y21.870 Z6.996 
N766 X-182.042 Y21.981 Z7.124 
N767 X-182.038 Y22.093 Z7.253 
N768 X-182.035 Y22.205 Z7.381 
N769 X-182.031 Y22.316 Z7.509 
N770 X-182.027 Y22.428 Z7.638 
N771 X-182.023 Y22.539 Z7.766 
N772 X-182.019 Y22.651 Z7.894 
N773 X-182.016 Y22.762 Z8.023 
N774 X-182.012 Y22.874 Z8.151 
N775 X-182.008 Y22.985 Z8.280 
N776 X-182.004 Y23.097 Z8.408 
N777 X-182.000 Y23.209 Z8.536 
N778 X-181.997 Y23.320 Z8.665 
N779 X-181.993 Y23.432 Z8.793 
N780 X-181.989 Y23.543 Z8.921 
N781 X-181.985 Y23.655 Z9.050 
N782 X-181.981 Y23.766 Z9.178 
N783 X-181.978 Y23.878 Z9.306 
N784 X-181.974 Y23.990 Z9.435 
N785 X-181.970 Y24.101 Z9.563 
N786 X-181.966 Y24.213 Z9.691 
N787 X-181.962 Y24.324 Z9.820 
N788 X-181.959 Y24.436 Z9.948 
N789 X-181.955 Y24.547 Z10.076 
N790 X-181.951 Y24.659 Z10.205 
N791 X-181.946 Y24.771 Z10.333 
N792 X-181.940 Y24.882 Z10.461 
N793 X-181.935 Y24.994 Z10.590 
N794 X-181.930 Y25.105 Z10.718 
N795 X-181.925 Y25.217 Z10.846 
N796 X-181.920 Y25.328 Z10.975 
N797 X-181.915 Y25.440 Z11.103 
N798 X-181.910 Y25.551 Z11.231 
N799 X-181.904 Y25.663 Z11.360 
N800 X-181.899 Y25.774 Z11.488 
N801 X-181.894 Y25.886 Z11.616 
N802 X-181.889 Y25.998 Z11.745 
N803 X-181.884 Y26.109 Z11.873 
N804 X-181.879 Y26.221 Z12.001 
N805 X-181.874 Y26.332 Z12.129 
N806 X-181.868 Y26.444 Z12.258 
N807 X-181.863 Y26.555 Z12.386 
N808 X-181.858 Y26.667 Z12.514 
N809 X-181.853 Y26.778 Z12.643 
N810 X-181.848 Y26.890 Z12.771 
N811 X-181.843 Y27.001 Z12.899 
N812 X-181.838 Y27.113 Z13.028 
N813 X-181.832 Y27.225 Z13.156 
N814 X-181.827 Y27.336 Z13.284 
N815 X-181.822 Y27.448 Z13.413 
N816 X-181.817 Y27.559 Z13.541 
N817 X-181.812 Y27.671 Z13.669 
N818 X-181.807 Y27.782 Z13.798 
N819 X-181.802 Y27.894 Z13.926 
N820 X-181.796 Y28.005 Z14.054 
N821 X-181.791 Y28.117 Z14.183 
N822 X-181.786 Y28.228 Z14.311 
N823 X-181.781 Y28.340 Z14.439 
N824 X-181.776 Y28.452 Z14.568 
N825 X-181.771 Y28.557 Z14.688 
N826 X-181.766 Y28.661 Z14.809 
N827 X-181.761 Y28.766 Z14.930 
N828 X-181.756 Y28.871 Z15.050 
N829 X-181.752 Y28.976 Z15.171 
N830 G40 X-181.510 Y34.222 Z21.206 F509
N831 X-181.510 Y34.222 Z21.206 
N832 G00 X-181.509 Y45.546 Z11.369 
;RAPORT("TB000000","Side Milling:161 End")
;trailer : concat=None
; points cnt = 770
N834 MSG (" --- GROUPED OF SUBPROGRAM --- ")
N835 FGROUP()
N836 TRAFOOF
; PROGRAM NAME: B00000052
; ORDER       : B000000
; OPER. NAME  : Side Milling:162
; OPER. DESCR.: BH Chamfer Finish milling MFBBA
; OPER. TYPE  : sideMill
; GEO. OPTION : 1
; MACHINE     : HSTM_500_SIM840D_Py
;             : HSTM500 - HAMUEL: 5-axis milling machine - SIM840D Traori PP_Script
; CONTROL     : SINUMERIK 840D
; created:   2021-11-15 10:01:43.912226
;-------DODATKOWE DANE-------------------
; PROGRAMISTA : Mariusz Malec
; PARTID      : 139T001534P1001_-
;  ap         : 0.05
;  ae         : 10.0
;  lean_angle : 0.02
;  fin_offset : 0.0
;----------------------------------------
;RAPORT("TB000000","Side Milling:162")
N10 TRAFOOF
N11 D0
N12 G90 G94
N13 G0 G53 D0 Z550 B0
N14 STOPRE
M9 ; chlodziwo wyl
; --- Side Milling:162 - BH Chamfer Finish milling MFBBA ---
N16 ;ToolChange : concat=None ,current_tdmid=None, PP.tdmId=958024
N17 TRAFOOF
N18 G0 G53 D0 Z550 B0
N19 STOPRE
N20 MSG(" TLID=958024 D=16.0 R=3.175 Ang=0.0 Len=115.0 ")
N21 S3183 M03
N22 STOPRE
N23 CYCLE832(0.01,1,1)
N24 G0 G53 A225.4731 B-0.0000
N25 TRAORI
N26 G54 D4
;tol5=0.03
N27 D4 
STOPRE
E_ZDARZ=300004
;ACS_FINISH_BH_C5=7758024
STOPRE
;UWAGA : ZMIENIONA TOLERANCJA OSI A i B, ruchy osi A i B beda usuniete : TOL5=0.03
N28 ; DELTA A > 40.1
N29 TRAFOOF
N30 D4
N31 STOPRE
N32 G00 G54 Z271.000
N33 G01 A225.4731 F10000
N34 TRAORI
N35 G54 D4
N36 STOPRE
N37 TRANS 
N38 G00 X-175.832 Y31.312 Z-56.165 A225.4731 
N39 M342 ; chlodziwo woda
N40 X-175.832 Y-4.334 Z-21.103 
N41 ;MFBBA - faza na BH od wylotu
N42 G01 G41 X-175.832 Y1.278 Z-15.401 F509
N43 G01 X-175.832 Y1.278 Z-15.401 F509 
N44 X-175.832 Y1.395 Z-15.283 
N45 X-175.832 Y1.511 Z-15.164 
N46 X-175.832 Y1.628 Z-15.045 
N47 X-175.832 Y1.745 Z-14.926 
N48 X-175.832 Y1.862 Z-14.807 
N49 X-175.832 Y1.979 Z-14.689 
N50 X-175.832 Y2.099 Z-14.567 
N51 X-175.832 Y2.218 Z-14.446 
N52 X-175.832 Y2.337 Z-14.325 
N53 X-175.832 Y2.457 Z-14.203 
N54 X-175.832 Y2.576 Z-14.082 
N55 X-175.832 Y2.696 Z-13.961 
N56 X-175.832 Y2.815 Z-13.840 
N57 X-175.832 Y2.934 Z-13.718 
N58 X-175.832 Y3.054 Z-13.597 
N59 X-175.832 Y3.173 Z-13.476 
N60 X-175.832 Y3.293 Z-13.354 
N61 X-175.832 Y3.412 Z-13.233 
N62 X-175.832 Y3.531 Z-13.112 
N63 X-175.832 Y3.651 Z-12.990 
N64 X-175.832 Y3.770 Z-12.869 
N65 X-175.832 Y3.890 Z-12.748 
N66 X-175.832 Y4.009 Z-12.626 
N67 X-175.832 Y4.128 Z-12.505 
N68 X-175.832 Y4.248 Z-12.384 
N69 X-175.832 Y4.367 Z-12.263 
N70 X-175.832 Y4.487 Z-12.141 
N71 X-175.832 Y4.606 Z-12.020 
N72 X-175.832 Y4.725 Z-11.899 
N73 X-175.832 Y4.845 Z-11.777 
N74 X-175.832 Y4.964 Z-11.656 
N75 X-175.832 Y5.084 Z-11.535 
N76 X-175.832 Y5.203 Z-11.413 
N77 X-175.832 Y5.322 Z-11.292 
N78 X-175.832 Y5.442 Z-11.171 
N79 X-175.832 Y5.561 Z-11.050 
N80 X-175.832 Y5.681 Z-10.928 
N81 X-175.832 Y5.800 Z-10.807 
N82 X-175.832 Y5.919 Z-10.686 
N83 X-175.832 Y6.039 Z-10.564 
N84 X-175.832 Y6.158 Z-10.443 
N85 X-175.832 Y6.278 Z-10.322 
N86 X-175.832 Y6.397 Z-10.200 
N87 X-175.832 Y6.516 Z-10.079 
N88 X-175.832 Y6.636 Z-9.958 
N89 X-175.832 Y6.755 Z-9.836 
N90 X-175.832 Y6.875 Z-9.715 
N91 X-175.832 Y6.994 Z-9.594 
N92 X-175.832 Y7.113 Z-9.473 
N93 X-175.832 Y7.233 Z-9.351 
N94 X-175.832 Y7.352 Z-9.230 
N95 X-175.832 Y7.472 Z-9.109 
N96 X-175.832 Y7.591 Z-8.987 
N97 X-175.832 Y7.709 Z-8.868 
N98 X-175.832 Y7.826 Z-8.749 
N99 X-175.832 Y7.943 Z-8.629 
N100 X-175.832 Y8.061 Z-8.510 
N101 X-175.832 Y8.178 Z-8.391 
N102 X-175.832 Y8.296 Z-8.271 
N103 X-175.832 Y8.413 Z-8.152 
N104 X-175.832 Y8.531 Z-8.033 
N105 X-175.832 Y8.648 Z-7.914 
N106 X-175.832 Y8.765 Z-7.794 
N107 X-175.832 Y8.883 Z-7.675 
N108 X-175.832 Y9.000 Z-7.556 
N109 X-175.832 Y9.118 Z-7.436 
N110 X-175.832 Y9.235 Z-7.317 
N111 X-175.832 Y9.353 Z-7.198 
N112 X-175.832 Y9.470 Z-7.078 
N113 X-175.832 Y9.588 Z-6.959 
N114 X-175.832 Y9.705 Z-6.840 
N115 X-175.832 Y9.822 Z-6.720 
N116 X-175.832 Y9.940 Z-6.601 
N117 X-175.832 Y10.057 Z-6.482 
N118 X-175.832 Y10.175 Z-6.363 
N119 X-175.832 Y10.292 Z-6.243 
N120 X-175.832 Y10.410 Z-6.124 
N121 X-175.832 Y10.527 Z-6.005 
N122 X-175.832 Y10.644 Z-5.885 
N123 X-175.832 Y10.762 Z-5.766 
N124 X-175.832 Y10.879 Z-5.647 
N125 X-175.832 Y10.997 Z-5.527 
N126 X-175.832 Y11.114 Z-5.408 
N127 X-175.832 Y11.232 Z-5.289 
N128 X-175.832 Y11.356 Z-5.162 
N129 X-175.832 Y11.481 Z-5.035 
N130 X-175.832 Y11.606 Z-4.909 
N131 X-175.832 Y11.730 Z-4.782 
N132 X-175.832 Y11.855 Z-4.655 
N133 X-175.832 Y11.980 Z-4.529 
N134 X-175.832 Y12.105 Z-4.402 
N135 X-175.832 Y12.229 Z-4.275 
N136 X-175.832 Y12.354 Z-4.148 
N137 G40 X-175.832 Y13.055 Z-3.436 F509
N138 X-175.832 Y13.055 Z-3.436 
N139 G00 X-175.832 Y23.749 Z-13.954 
N140 X-182.232 Y6.360 Z-31.621 
N141 X-182.232 Y-4.334 Z-21.103 
N142 ;MFBBA - faza na BH od wylotu
N143 G01 G41 X-182.232 Y1.278 Z-15.401 F509
N144 G01 X-182.232 Y1.278 Z-15.401 F509 
N145 X-182.232 Y1.395 Z-15.283 
N146 X-182.232 Y1.511 Z-15.164 
N147 X-182.232 Y1.628 Z-15.045 
N148 X-182.232 Y1.745 Z-14.926 
N149 X-182.232 Y1.862 Z-14.807 
N150 X-182.232 Y1.979 Z-14.689 
N151 X-182.232 Y2.099 Z-14.567 
N152 X-182.232 Y2.218 Z-14.446 
N153 X-182.232 Y2.337 Z-14.325 
N154 X-182.232 Y2.457 Z-14.203 
N155 X-182.232 Y2.576 Z-14.082 
N156 X-182.232 Y2.696 Z-13.961 
N157 X-182.232 Y2.815 Z-13.840 
N158 X-182.232 Y2.934 Z-13.718 
N159 X-182.232 Y3.054 Z-13.597 
N160 X-182.232 Y3.173 Z-13.476 
N161 X-182.232 Y3.293 Z-13.354 
N162 X-182.232 Y3.412 Z-13.233 
N163 X-182.232 Y3.531 Z-13.112 
N164 X-182.232 Y3.651 Z-12.990 
N165 X-182.232 Y3.770 Z-12.869 
N166 X-182.232 Y3.890 Z-12.748 
N167 X-182.232 Y4.009 Z-12.626 
N168 X-182.232 Y4.128 Z-12.505 
N169 X-182.232 Y4.248 Z-12.384 
N170 X-182.232 Y4.367 Z-12.263 
N171 X-182.232 Y4.487 Z-12.141 
N172 X-182.232 Y4.606 Z-12.020 
N173 X-182.232 Y4.725 Z-11.899 
N174 X-182.232 Y4.845 Z-11.777 
N175 X-182.232 Y4.964 Z-11.656 
N176 X-182.232 Y5.084 Z-11.535 
N177 X-182.232 Y5.203 Z-11.413 
N178 X-182.232 Y5.322 Z-11.292 
N179 X-182.232 Y5.442 Z-11.171 
N180 X-182.232 Y5.561 Z-11.050 
N181 X-182.232 Y5.681 Z-10.928 
N182 X-182.232 Y5.800 Z-10.807 
N183 X-182.232 Y5.919 Z-10.686 
N184 X-182.232 Y6.039 Z-10.564 
N185 X-182.232 Y6.158 Z-10.443 
N186 X-182.232 Y6.278 Z-10.322 
N187 X-182.232 Y6.397 Z-10.200 
N188 X-182.232 Y6.516 Z-10.079 
N189 X-182.232 Y6.636 Z-9.958 
N190 X-182.232 Y6.755 Z-9.836 
N191 X-182.232 Y6.875 Z-9.715 
N192 X-182.232 Y6.994 Z-9.594 
N193 X-182.232 Y7.113 Z-9.473 
N194 X-182.232 Y7.233 Z-9.351 
N195 X-182.232 Y7.352 Z-9.230 
N196 X-182.232 Y7.472 Z-9.109 
N197 X-182.232 Y7.591 Z-8.987 
N198 X-182.232 Y7.709 Z-8.868 
N199 X-182.232 Y7.826 Z-8.749 
N200 X-182.232 Y7.943 Z-8.629 
N201 X-182.232 Y8.061 Z-8.510 
N202 X-182.232 Y8.178 Z-8.391 
N203 X-182.232 Y8.296 Z-8.271 
N204 X-182.232 Y8.413 Z-8.152 
N205 X-182.232 Y8.531 Z-8.033 
N206 X-182.232 Y8.648 Z-7.914 
N207 X-182.232 Y8.765 Z-7.794 
N208 X-182.232 Y8.883 Z-7.675 
N209 X-182.232 Y9.000 Z-7.556 
N210 X-182.232 Y9.118 Z-7.436 
N211 X-182.232 Y9.235 Z-7.317 
N212 X-182.232 Y9.353 Z-7.198 
N213 X-182.232 Y9.470 Z-7.078 
N214 X-182.232 Y9.588 Z-6.959 
N215 X-182.232 Y9.705 Z-6.840 
N216 X-182.232 Y9.822 Z-6.720 
N217 X-182.232 Y9.940 Z-6.601 
N218 X-182.232 Y10.057 Z-6.482 
N219 X-182.232 Y10.175 Z-6.363 
N220 X-182.232 Y10.292 Z-6.243 
N221 X-182.232 Y10.410 Z-6.124 
N222 X-182.232 Y10.527 Z-6.005 
N223 X-182.232 Y10.644 Z-5.885 
N224 X-182.232 Y10.762 Z-5.766 
N225 X-182.232 Y10.879 Z-5.647 
N226 X-182.232 Y10.997 Z-5.527 
N227 X-182.232 Y11.114 Z-5.408 
N228 X-182.232 Y11.232 Z-5.289 
N229 X-182.232 Y11.356 Z-5.162 
N230 X-182.232 Y11.481 Z-5.035 
N231 X-182.232 Y11.606 Z-4.909 
N232 X-182.232 Y11.730 Z-4.782 
N233 X-182.232 Y11.855 Z-4.655 
N234 X-182.232 Y11.980 Z-4.529 
N235 X-182.232 Y12.105 Z-4.402 
N236 X-182.232 Y12.229 Z-4.275 
N237 X-182.232 Y12.354 Z-4.148 
N238 G40 X-182.232 Y13.055 Z-3.436 F509
N239 X-182.232 Y13.055 Z-3.436 
N240 G00 X-182.232 Y23.749 Z-13.954 
;RAPORT("TB000000","Side Milling:162 End")
;trailer : concat=None
; points cnt = 190
N242 M9 ; chlodziwo wyl.
N243 MSG (" --- KONIEC PODPROGRAMU --- ")
N244 FGROUP()
N245 TRAFOOF
N246 STOPRE
N247 G0 G53 D0 Z550.0 M9 M5
N248 G0 G53 Y150 A0 B0
N249 M17
