; PROGRAM NAME: B00000114
; ORDER       : B000001
; OPER. NAME  : Spiral Rough Rhombic:105
; OPER. DESCR.: spiral roughing rhombic/bandaz zgr
; OPER. TYPE  : rouRoot
; GEO. OPTION : 4
; MACHINE     : HSTM_500_SIM840D_Py
;             : HSTM500 - HAMUEL: 5-axis milling machine - SIM840D Traori PP_Script
; CONTROL     : SINUMERIK 840D
; created:   2021-10-27 08:51:42.528975
;-------DODATKOWE DANE-------------------
; PROGRAMISTA : Mariusz Malec
; PARTID      : 137T000339P1001_-
;  ap         : 2.5
;  ae         : 30.0
;  lean_angle : 1.0
;  fin_offset : 0.6
;----------------------------------------
;RAPORT("TB000001","Spiral Rough Rhombic:105")
N10 TRAFOOF
N11 D0
N12 G90 G94
N13 G0 G53 D0 Z550 B0
N14 STOPRE
M9 ; chlodziwo wyl
; --- Spiral Rough Rhombic:105 - spiral roughing rhombic/bandaz zgr ---
N16 ;ToolChange : concat=None ,current_tdmid=None, PP.tdmId=941290
N17 TRAFOOF
N18 G0 G53 D0 X-200 Y150 Z550 B0
N19 T="7741290"
;RAPORT("TB000001","ToolChangeStart 7741290")
N20 M6
;RAPORT("TB000001","ToolChangeEnd")
N21 STOPRE
N22 MSG(" TLID=941290 D=50.0 R=6.0 Ang=0.0 Len=90.0 ")
N23 ; (Preloading tool)
N24 T="7741292"
N25 S1718 M03
N26 STOPRE
N27 CYCLE832(0.1,3,1)
N28 G0 G53 A270.8368 B0.1461
N29 TRAORI
N30 G54 D1
N31 D1 
N32 ; DELTA A > 40.1
N33 TRAFOOF
N34 D1
N35 STOPRE
N36 G00 G54 Z296.000
N37 G01 A270.8368 F10000
N38 TRAORI
N39 G54 D1
N40 STOPRE
N41 TRANS 
N42 G00 X-341.283 Y110.322 Z-51.901 A270.8368 B0.1461 
N43 M348 ; chlodziwo mgla
N44 X-341.411 Y60.327 Z-52.631 
N45 G01 X-341.418 Y57.239 Z-52.133 F2834 
N46 X-341.426 Y54.455 Z-50.705 
N47 X-341.431 Y52.249 Z-48.486 
N48 X-341.435 Y50.837 Z-45.694 
N49 X-341.436 Y50.356 Z-42.603 
N50 X-341.436 Y50.376 Z-38.125 A270.8604 B0.1150 
N51 X-341.436 Y50.389 Z-33.722 A270.8699 B0.0941 
N52 X-341.437 Y50.399 Z-29.466 A270.8700 B0.0751 
N53 X-341.437 Y50.408 Z-25.417 B0.0546 
N54 X-341.437 Y50.417 Z-21.631 B0.0311 
N55 X-341.437 Y50.424 Z-18.148 B0.0142 
N56 X-341.437 Y50.432 Z-14.995 B0.0045 
N57 X-341.437 Y50.438 Z-12.187 B0.0008 
N58 X-341.437 Y50.444 Z-9.724 B0.0000 
N59 X-341.437 Y50.448 Z-7.597 B0.0000 
N60 X-341.437 Y50.453 Z-5.786 A270.8713 
N61 X-341.437 Y50.485 Z-4.264 A270.9606 
N62 X-341.437 Y50.663 Z-2.999 A271.5030 
N63 X-341.437 Y51.108 Z-1.947 A272.9002 
N64 X-341.437 Y51.822 Z-1.053 A275.1756 
N65 X-341.437 Y52.713 Z-0.266 A278.0622 B0.0000 
N66 X-341.437 Y53.687 Z0.455 A281.2750 B0.0001 
N67 X-341.437 Y54.670 Z1.132 A284.5811 B0.0004 
N68 X-341.437 Y55.609 Z1.777 A287.8043 B0.0010 
N69 X-341.437 Y56.470 Z2.388 A290.8323 B0.0017 
N70 X-341.437 Y57.242 Z2.965 A293.6177 B0.0023 
N71 X-341.437 Y57.929 Z3.510 A296.1627 B0.0029 
N72 X-341.437 Y58.542 Z4.026 A298.4974 B0.0033 
N73 X-341.437 Y59.094 Z4.521 A300.6628 B0.0035 
N74 X-341.437 Y59.600 Z5.000 A302.6993 B0.0035 
N75 X-341.437 Y60.068 Z5.470 A304.6420 B0.0032 
N76 X-341.437 Y60.506 Z5.936 A306.5194 B0.0029 
N77 X-341.437 Y60.921 Z6.403 A308.3534 B0.0023 
N78 X-341.437 Y61.317 Z6.875 A310.1600 B0.0017 
N79 X-341.437 Y61.695 Z7.353 A311.9512 B0.0009 
N80 X-341.437 Y62.057 Z7.840 A313.7355 B0.0001 
N81 X-341.437 Y62.405 Z8.337 A315.5188 B-0.0007 
N82 X-341.437 Y62.738 Z8.845 A317.3057 B-0.0015 
N83 X-341.437 Y63.056 Z9.366 A319.1002 B-0.0022 
N84 X-341.437 Y63.359 Z9.900 A320.9068 B-0.0028 
N85 X-341.437 Y63.647 Z10.450 A322.7311 B-0.0033 
N86 X-341.437 Y63.920 Z11.018 A324.5812 B-0.0036 
N87 X-341.437 Y64.177 Z11.607 A326.4685 B-0.0038 
N88 X-341.437 Y64.418 Z12.224 A328.4093 B-0.0037 
N89 X-341.437 Y64.643 Z12.875 A330.4252 B-0.0035 
N90 X-341.437 Y64.848 Z13.570 A332.5445 B-0.0031 
N91 X-341.437 Y65.032 Z14.322 A334.8013 B-0.0026 
N92 X-341.437 Y65.186 Z15.144 A337.2329 B-0.0019 
N93 X-341.437 Y65.298 Z16.050 A339.8733 B-0.0013 
N94 X-341.437 Y65.349 Z17.048 A342.7432 B-0.0007 
N95 X-341.437 Y65.311 Z18.136 A345.8376 B-0.0003 
N96 X-341.437 Y65.152 Z19.297 A349.1124 B-0.0001 
N97 X-341.437 Y64.833 Z20.485 A352.4517 B-0.0000 
N98 X-341.437 Y64.318 Z21.608 A355.6120 
N99 X-341.437 Y63.585 Z22.527 A358.2086 
N100 X-341.437 Y62.628 Z23.120 A359.8929 
N101 X-341.437 Y61.441 Z23.396 A0.6822 
N102 X-341.437 Y60.001 Z23.487 A0.9434 
N103 X-341.437 Y58.272 Z23.507 A1.0023 
N104 X-341.437 Y56.224 Z23.508 A1.0066 
N105 X-341.437 Y53.831 Z23.508 
N106 X-341.437 Y51.075 Z23.508 
N107 X-341.437 Y47.949 Z23.507 
N108 X-341.437 Y44.458 Z23.507 
N109 X-341.437 Y40.621 Z23.507 
N110 X-341.437 Y36.471 Z23.506 
N111 X-341.437 Y32.055 Z23.506 
N112 X-341.437 Y27.432 Z23.505 
N113 X-341.437 Y22.672 Z23.505 
N114 X-341.437 Y17.851 Z23.504 
N115 X-341.437 Y13.049 Z23.503 
N116 X-341.437 Y8.343 Z23.503 
N117 X-341.437 Y3.808 Z23.502 
N118 X-341.437 Y-0.492 Z23.502 
N119 X-341.437 Y-4.501 Z23.501 
N120 X-341.437 Y-8.181 Z23.501 
N121 X-341.437 Y-11.503 Z23.501 
N122 X-341.437 Y-14.455 Z23.500 
N123 X-341.437 Y-17.038 Z23.500 
N124 X-341.437 Y-19.264 Z23.500 
N125 X-341.437 Y-21.155 Z23.499 
N126 X-341.437 Y-22.740 Z23.507 A1.0306 
N127 X-341.437 Y-24.052 Z23.610 A1.3497 
N128 X-341.437 Y-25.137 Z23.970 A2.4748 
N129 X-341.437 Y-26.047 Z24.634 A4.5794 
N130 X-341.437 Y-26.842 Z25.513 A7.4109 
N131 X-341.437 Y-27.563 Z26.494 A10.6236 
N132 X-341.437 Y-28.239 Z27.491 A13.9510 
N133 X-341.437 Y-28.878 Z28.444 A17.2019 
N134 X-341.437 Y-29.484 Z29.322 A20.2619 
N135 X-341.437 Y-30.056 Z30.112 A23.0860 
N136 X-341.437 Y-30.596 Z30.819 A25.6753 
N137 X-341.437 Y-31.109 Z31.452 A28.0562 
N138 X-341.437 Y-31.601 Z32.025 A30.2654 
N139 X-341.437 Y-32.076 Z32.548 A32.3408 
N140 X-341.437 Y-32.542 Z33.033 A34.3166 
N141 X-341.437 Y-33.004 Z33.487 A36.2210 
N142 X-341.437 Y-33.465 Z33.916 A38.0770 
N143 X-341.437 Y-33.930 Z34.324 A39.9013 
N144 X-341.437 Y-34.401 Z34.715 A41.7075 
N145 X-341.437 Y-34.881 Z35.091 A43.5055 
N146 X-341.437 Y-35.372 Z35.452 A45.3034 
N147 X-341.437 Y-35.875 Z35.799 A47.1085 
N148 X-341.437 Y-36.393 Z36.133 A48.9275 
N149 X-341.437 Y-36.926 Z36.454 A50.7657 
N150 X-341.437 Y-37.477 Z36.762 A52.6285 
N151 X-341.437 Y-38.047 Z37.055 A54.5220 
N152 X-341.437 Y-38.640 Z37.333 A56.4541 
N153 X-341.437 Y-39.260 Z37.594 A58.4362 
N154 X-341.437 Y-39.911 Z37.838 A60.4847 
N155 X-341.437 Y-40.602 Z38.062 A62.6202 
N156 X-341.437 Y-41.343 Z38.263 A64.8700 
N157 X-341.437 Y-42.144 Z38.435 A67.2663 
N158 X-341.437 Y-43.016 Z38.569 A69.8401 
N159 X-341.437 Y-43.968 Z38.650 A72.6096 
N160 X-341.437 Y-44.996 Z38.658 A75.5653 
N161 X-341.437 Y-46.077 Z38.565 A78.6477 
N162 X-341.437 Y-47.162 Z38.345 A81.7223 
N163 X-341.437 Y-48.179 Z37.976 A84.5974 
N164 X-341.437 Y-49.057 Z37.449 A87.0792 
N165 X-341.437 Y-49.730 Z36.764 A88.9916 
N166 X-341.437 Y-50.155 Z35.925 A90.2092 
N167 X-341.437 Y-50.346 Z34.933 A90.7579 
N168 X-341.437 Y-50.393 Z33.782 A90.8895 
N169 X-341.437 Y-50.398 Z32.465 A90.8969 
N170 X-341.437 Y-50.401 Z30.980 
N171 X-341.437 Y-50.404 Z29.333 
N172 X-341.437 Y-50.407 Z27.536 
N173 X-341.437 Y-50.410 Z25.608 
N174 X-341.437 Y-50.414 Z23.574 
N175 X-341.437 Y-50.418 Z21.467 
N176 X-341.437 Y-50.422 Z19.321 
N177 X-341.437 Y-50.425 Z17.175 
N178 X-341.437 Y-50.429 Z15.065 
N179 X-341.437 Y-50.433 Z13.027 
N180 X-341.437 Y-50.436 Z11.092 
N181 X-341.437 Y-50.440 Z9.287 
N182 X-341.437 Y-50.443 Z7.631 
N183 X-341.437 Y-50.445 Z6.136 A90.8971 
N184 X-341.437 Y-50.457 Z4.807 A90.9258 
N185 X-341.437 Y-50.531 Z3.642 A91.1491 
N186 X-341.437 Y-50.762 Z2.631 A91.8655 
N187 X-341.437 Y-51.210 Z1.754 A93.2748 
N188 X-341.437 Y-51.859 Z0.980 A95.3505 
N189 X-341.437 Y-52.651 Z0.279 A97.9189 B-0.0000 
N190 X-341.437 Y-53.524 Z-0.374 A100.7938 B-0.0002 
N191 X-341.437 Y-54.424 Z-0.998 A103.8063 B-0.0006 
N192 X-341.437 Y-55.306 Z-1.599 A106.8138 B-0.0014 
N193 X-341.437 Y-56.136 Z-2.179 A109.7089 B-0.0026 
N194 X-341.437 Y-56.898 Z-2.735 A112.4294 B-0.0038 
N195 X-341.437 Y-57.589 Z-3.268 A114.9550 B-0.0049 
N196 X-341.437 Y-58.211 Z-3.777 A117.2949 B-0.0058 
N197 X-341.437 Y-58.776 Z-4.267 A119.4747 B-0.0064 
N198 X-341.437 Y-59.293 Z-4.742 A121.5259 B-0.0066 
N199 X-341.437 Y-59.771 Z-5.208 A123.4795 B-0.0065 
N200 X-341.437 Y-60.219 Z-5.669 A125.3623 B-0.0060 
N201 X-341.437 Y-60.642 Z-6.130 A127.1965 B-0.0053 
N202 X-341.437 Y-61.045 Z-6.594 A128.9997 B-0.0042 
N203 X-341.437 Y-61.430 Z-7.064 A130.7848 B-0.0029 
N204 X-341.437 Y-61.800 Z-7.542 A132.5622 B-0.0014 
N205 X-341.437 Y-62.156 Z-8.031 A134.3392 B0.0003 
N206 X-341.437 Y-62.498 Z-8.531 A136.1211 B0.0021 
N207 X-341.437 Y-62.827 Z-9.044 A137.9120 B0.0039 
N208 X-341.437 Y-63.141 Z-9.571 A139.7156 B0.0057 
N209 X-341.437 Y-63.441 Z-10.112 A141.5359 B0.0074 
N210 X-341.437 Y-63.726 Z-10.671 A143.3786 B0.0090 
N211 X-341.437 Y-63.995 Z-11.248 A145.2517 B0.0103 
N212 X-341.437 Y-64.249 Z-11.850 A147.1672 B0.0114 
N213 X-341.437 Y-64.486 Z-12.480 A149.1415 B0.0121 
N214 X-341.437 Y-64.706 Z-13.147 A151.1975 B0.0124 
N215 X-341.437 Y-64.905 Z-13.862 A153.3641 B0.0123 
N216 X-341.437 Y-65.079 Z-14.636 A155.6769 B0.0117 
N217 X-341.437 Y-65.219 Z-15.485 A158.1728 B0.0105 
N218 X-341.437 Y-65.311 Z-16.420 A160.8833 B0.0088 
N219 X-341.437 Y-65.333 Z-17.446 A163.8235 B0.0066 
N220 X-341.437 Y-65.257 Z-18.559 A166.9788 B0.0043 
N221 X-341.437 Y-65.047 Z-19.735 A170.2889 B0.0022 
N222 X-341.437 Y-64.664 Z-20.913 A173.5997 B0.0008 
N223 X-341.437 Y-64.075 Z-21.983 A176.6145 B0.0002 
N224 X-341.437 Y-63.266 Z-22.797 A178.9203 B0.0000 
N225 X-341.437 Y-62.233 Z-23.271 A180.2737 B0.0000 
N226 X-341.437 Y-60.964 Z-23.469 A180.8417 
N227 X-341.437 Y-59.429 Z-23.528 A181.0130 
N228 X-341.437 Y-57.596 Z-23.537 A181.0442 
N229 X-341.437 Y-55.434 Z-23.536 A181.0451 
N230 X-341.437 Y-52.920 Z-23.534 B0.0001 
N231 X-341.437 Y-50.040 Z-23.531 B0.0012 
N232 X-341.437 Y-46.790 Z-23.529 B0.0064 
N233 X-341.437 Y-43.181 Z-23.526 B0.0179 
N234 X-341.437 Y-39.236 Z-23.523 B0.0336 
N235 X-341.437 Y-34.992 Z-23.519 B0.0448 
N236 X-341.437 Y-30.502 Z-23.516 B0.0529 
N237 X-341.437 Y-25.828 Z-23.512 B0.0619 
N238 X-341.437 Y-21.043 Z-23.508 B0.0721 
N239 X-341.436 Y-16.223 Z-23.505 B0.0833 
N240 X-341.436 Y-11.449 Z-23.501 B0.0953 
N241 X-341.436 Y-6.797 Z-23.497 B0.1059 
N242 X-341.436 Y-2.339 Z-23.494 B0.1126 
N243 X-341.436 Y1.864 Z-23.490 B0.1183 
N244 X-341.436 Y5.763 Z-23.487 B0.1235 
N245 X-341.436 Y9.321 Z-23.485 B0.1283 
N246 X-341.436 Y12.516 Z-23.482 B0.1325 
N247 X-341.436 Y15.340 Z-23.480 B0.1363 
N248 X-341.436 Y17.799 Z-23.478 B0.1396 
N249 X-341.436 Y19.908 Z-23.476 B0.1424 
N250 X-341.436 Y21.692 Z-23.475 A181.0455 B0.1448 
N251 X-341.436 Y23.180 Z-23.498 A181.1184 B0.1471 
N252 X-341.436 Y24.410 Z-23.670 A181.6573 B0.1522 
N253 X-341.436 Y25.430 Z-24.138 A183.1282 B0.1654 
N254 X-341.436 Y26.297 Z-24.893 A185.5345 B0.1901 
N255 X-341.436 Y27.066 Z-25.822 A188.5465 B0.2258 
N256 X-341.435 Y27.773 Z-26.820 A191.8377 B0.2693 
N257 X-341.435 Y28.439 Z-27.810 A195.1686 B0.3170 
N258 X-341.435 Y29.071 Z-28.742 A198.3751 B0.3655 
N259 X-341.435 Y29.669 Z-29.592 A201.3676 B0.4126 
N260 X-341.434 Y30.234 Z-30.353 A204.1169 B0.4568 
N261 X-341.434 Y30.768 Z-31.033 A206.6333 B0.4973 
N262 X-341.434 Y31.275 Z-31.641 A208.9482 B0.5340 
N263 X-341.434 Y31.761 Z-32.192 A211.0998 B0.5670 
N264 X-341.433 Y32.233 Z-32.696 A213.1261 B0.5965 
N265 X-341.433 Y32.697 Z-33.164 A215.0606 B0.6225 
N266 X-341.433 Y33.157 Z-33.603 A216.9310 B0.6450 
N267 X-341.433 Y33.618 Z-34.019 A218.7594 B0.6642 
N268 X-341.433 Y34.083 Z-34.416 A220.5622 B0.6797 
N269 X-341.433 Y34.556 Z-34.797 A222.3527 B0.6916 
N270 X-341.433 Y35.039 Z-35.164 A224.1412 B0.6995 
N271 X-341.433 Y35.534 Z-35.518 A225.9355 B0.7032 
N272 X-341.433 Y36.043 Z-35.859 A227.7431 B0.7027 
N273 X-341.433 Y36.567 Z-36.188 A229.5696 B0.6978 
N274 X-341.433 Y37.108 Z-36.504 A231.4191 B0.6886 
N275 X-341.433 Y37.667 Z-36.806 A233.2954 B0.6752 
N276 X-341.433 Y38.247 Z-37.093 A235.2031 B0.6575 
N277 X-341.433 Y38.848 Z-37.363 A237.1481 B0.6357 
N278 X-341.433 Y39.476 Z-37.616 A239.1403 B0.6099 
N279 X-341.434 Y40.134 Z-37.849 A241.1942 B0.5802 
N280 X-341.434 Y40.830 Z-38.061 A243.3294 B0.5467 
N281 X-341.434 Y41.573 Z-38.247 A245.5735 B0.5093 
N282 X-341.434 Y42.375 Z-38.402 A247.9586 B0.4682 
N283 X-341.434 Y43.247 Z-38.516 A250.5149 B0.4238 
N284 X-341.435 Y44.194 Z-38.575 A253.2585 B0.3768 
N285 X-341.435 Y45.213 Z-38.558 A256.1779 B0.3286 
N286 X-341.435 Y46.280 Z-38.440 A259.2127 B0.2811 
N287 X-341.436 Y47.349 Z-38.193 A262.2358 B0.2369 
N288 X-341.436 Y48.354 Z-37.799 A265.0778 B0.1985 
N289 X-341.436 Y49.226 Z-37.247 A267.5499 B0.1682 
N290 X-341.436 Y49.887 Z-36.538 A269.4434 B0.1470 
N291 X-341.436 Y50.287 Z-35.677 A270.6024 B0.1339 
N292 X-341.436 Y50.448 Z-34.664 A271.0776 B0.1259 
N293 X-341.436 Y50.477 Z-33.495 A271.1733 B0.1185 
N294 X-341.436 Y50.474 Z-32.161 A271.1764 B0.1082 
N295 X-341.436 Y50.469 Z-30.662 B0.0938 
N296 X-341.437 Y50.464 Z-29.005 B0.0764 
N297 X-341.437 Y50.458 Z-27.202 A271.1765 B0.0583 
N298 X-341.437 Y50.453 Z-25.274 A271.1772 B0.0417 
N299 X-341.437 Y50.448 Z-23.247 A271.1813 B0.0283 
N300 X-341.437 Y50.445 Z-21.154 A271.1944 B0.0185 
N301 X-341.437 Y50.445 Z-19.029 A271.2170 B0.0115 
N302 X-341.437 Y50.445 Z-16.910 A271.2426 B0.0063 
N303 X-341.437 Y50.444 Z-14.833 A271.2663 B0.0028 
N304 X-341.437 Y50.440 Z-12.833 A271.2848 B0.0008 
N305 X-341.437 Y50.434 Z-10.940 A271.2953 B0.0001 
N306 X-341.437 Y50.426 Z-9.179 A271.2988 B0.0000 
N307 X-341.437 Y50.418 Z-7.568 A271.2993 B0.0000 
N308 X-341.437 Y50.411 Z-6.117 A271.2999 
N309 X-341.437 Y50.418 Z-4.830 A271.3430 
N310 X-341.437 Y50.503 Z-3.703 A271.6244 
N311 X-341.437 Y50.764 Z-2.725 A272.4567 B0.0000 
N312 X-341.437 Y51.251 Z-1.871 A274.0120 B0.0001 
N313 X-341.437 Y51.936 Z-1.111 A276.2230 B0.0003 
N314 X-341.437 Y52.751 Z-0.416 A278.8883 B0.0010 
N315 X-341.437 Y53.632 Z0.237 A281.8131 B0.0020 
N316 X-341.437 Y54.526 Z0.862 A284.8314 B0.0034 
N317 X-341.437 Y55.391 Z1.464 A287.8113 B0.0048 
N318 X-341.437 Y56.200 Z2.045 A290.6603 B0.0062 
N319 X-341.437 Y56.940 Z2.601 A293.3298 B0.0073 
N320 X-341.437 Y57.609 Z3.133 A295.8088 B0.0081 
N321 X-341.437 Y58.215 Z3.643 A298.1117 B0.0085 
N322 X-341.437 Y58.766 Z4.135 A300.2657 
N323 X-341.437 Y59.272 Z4.613 A302.3015 B0.0081 
N324 X-341.437 Y59.743 Z5.084 A304.2481 B0.0074 
N325 X-341.437 Y60.184 Z5.552 A306.1302 B0.0065 
N326 X-341.437 Y60.601 Z6.020 A307.9677 B0.0053 
N327 X-341.437 Y60.997 Z6.491 A309.7761 B0.0038 
N328 X-341.437 Y61.377 Z6.969 A311.5669 B0.0023 
N329 X-341.437 Y61.740 Z7.456 A313.3490 B0.0006 
N330 X-341.437 Y62.088 Z7.952 A315.1286 B-0.0011 
N331 X-341.437 Y62.421 Z8.459 A316.9107 B-0.0028 
N332 X-341.437 Y62.739 Z8.978 A318.6992 B-0.0044 
N333 X-341.437 Y63.042 Z9.510 A320.4986 B-0.0059 
N334 X-341.437 Y63.331 Z10.057 A322.3140 B-0.0072 
N335 X-341.437 Y63.603 Z10.621 A324.1529 B-0.0082 
N336 X-341.437 Y63.860 Z11.206 A326.0258 B-0.0090 
N337 X-341.437 Y64.101 Z11.816 A327.9476 B-0.0095 
N338 X-341.437 Y64.326 Z12.459 A329.9384 B-0.0096 
N339 X-341.437 Y64.532 Z13.143 A332.0248 B-0.0094 
N340 X-341.437 Y64.716 Z13.881 A334.2396 B-0.0088 
N341 X-341.437 Y64.872 Z14.686 A336.6202 B-0.0078 
N342 X-341.437 Y64.990 Z15.571 A339.2024 B-0.0065 
N343 X-341.437 Y65.051 Z16.548 A342.0123 B-0.0050 
N344 X-341.437 Y65.031 Z17.617 A345.0535 B-0.0034 
N345 X-341.437 Y64.897 Z18.765 A348.2930 B-0.0019 
N346 X-341.437 Y64.610 Z19.955 A351.6337 B-0.0008 
N347 X-341.437 Y64.135 Z21.104 A354.8569 B-0.0002 
N348 X-341.437 Y63.444 Z22.076 A357.5945 B-0.0000 
N349 X-341.437 Y62.530 Z22.734 A359.4556 B-0.0000 
N350 X-341.437 Y61.389 Z23.061 A0.3773 
N351 X-341.437 Y60.001 Z23.178 A0.6954 
N352 X-341.437 Y58.335 Z23.211 A0.7722 
N353 X-341.437 Y56.357 Z23.221 A0.7801 
N354 X-341.437 Y54.043 Z23.230 
N355 X-341.437 Y51.372 Z23.240 
N356 X-341.437 Y48.336 Z23.252 
N357 X-341.437 Y44.938 Z23.265 A0.7801 
N358 X-341.437 Y41.193 Z23.282 A0.7871 
N359 X-341.437 Y37.131 Z23.317 A0.8523 
N360 X-341.437 Y32.796 Z23.368 A0.9874 
N361 X-341.437 Y28.243 Z23.392 A1.0695 
N362 X-341.437 Y23.541 Z23.389 A1.0787 
N363 X-341.437 Y18.763 Z23.382 
N364 X-341.437 Y13.986 Z23.376 
N365 X-341.437 Y9.289 Z23.369 
N366 X-341.437 Y4.744 Z23.363 
N367 X-341.437 Y0.420 Z23.357 
N368 X-341.437 Y-3.629 Z23.352 
N369 X-341.437 Y-7.358 Z23.347 
N370 X-341.437 Y-10.739 Z23.342 
N371 X-341.437 Y-13.755 Z23.338 
N372 X-341.437 Y-16.404 Z23.334 
N373 X-341.437 Y-18.696 Z23.331 
N374 X-341.437 Y-20.649 Z23.328 
N375 X-341.437 Y-22.292 Z23.328 A1.0860 
N376 X-341.437 Y-23.656 Z23.388 A1.2747 
N377 X-341.437 Y-24.781 Z23.658 A2.1209 
N378 X-341.437 Y-25.719 Z24.228 A3.9240 
N379 X-341.437 Y-26.527 Z25.044 A6.5406 
N380 X-341.437 Y-27.253 Z26.001 A9.6538 
N381 X-341.437 Y-27.931 Z27.006 A12.9839 
N382 X-341.437 Y-28.575 Z27.990 A16.3071 
N383 X-341.437 Y-29.188 Z28.906 A19.4693 
N384 X-341.437 Y-29.770 Z29.734 A22.3985 
N385 X-341.437 Y-30.319 Z30.473 A25.0813 
N386 X-341.437 Y-30.839 Z31.133 A27.5384 
N387 X-341.437 Y-31.336 Z31.726 A29.8060 
N388 X-341.437 Y-31.815 Z32.266 A31.9238 
N389 X-341.437 Y-32.282 Z32.762 A33.9287 
N390 X-341.437 Y-32.743 Z33.225 A35.8518 
N391 X-341.437 Y-33.202 Z33.661 A37.7179 
N392 X-341.437 Y-33.663 Z34.075 A39.5463 
N393 X-341.437 Y-34.130 Z34.470 A41.3513 
N394 X-341.437 Y-34.605 Z34.849 A43.1439 
N395 X-341.437 Y-35.089 Z35.212 A44.9330 
N396 X-341.437 Y-35.584 Z35.562 A46.7254 
N397 X-341.437 Y-36.093 Z35.899 A48.5279 
N398 X-341.437 Y-36.616 Z36.222 A50.3460 
N399 X-341.437 Y-37.155 Z36.532 A52.1836 
N400 X-341.437 Y-37.712 Z36.828 A54.0445 
N401 X-341.437 Y-38.287 Z37.108 A55.9341 
N402 X-341.437 Y-38.884 Z37.371 A57.8597 
N403 X-341.437 Y-39.505 Z37.618 A59.8321 
N404 X-341.437 Y-40.158 Z37.846 A61.8683 
N405 X-341.437 Y-40.849 Z38.053 A63.9900 
N406 X-341.437 Y-41.589 Z38.236 A66.2266 
N407 X-341.437 Y-42.390 Z38.390 A68.6121 
N408 X-341.437 Y-43.262 Z38.504 A71.1770 
N409 X-341.437 Y-44.211 Z38.565 A73.9378 
N410 X-341.437 Y-45.234 Z38.552 A76.8819 
N411 X-341.437 Y-46.306 Z38.438 A79.9456 
N412 X-341.437 Y-47.376 Z38.199 A82.9948 
N413 X-341.437 Y-48.379 Z37.815 A85.8535 
N414 X-341.437 Y-49.245 Z37.279 A88.3376 
N415 X-341.437 Y-49.905 Z36.593 A90.2587 
N416 X-341.437 Y-50.309 Z35.762 A91.4690 
N417 X-341.437 Y-50.471 Z34.788 A91.9944 
N418 X-341.437 Y-50.489 Z33.663 A92.1113 
N419 X-341.437 Y-50.466 Z32.378 A92.1165 
N420 X-341.437 Y-50.437 Z30.932 
N421 X-341.437 Y-50.406 Z29.330 
N422 X-341.437 Y-50.372 Z27.583 A92.1172 
N423 X-341.437 Y-50.338 Z25.712 A92.1231 
N424 X-341.437 Y-50.304 Z23.741 A92.1391 
N425 X-341.437 Y-50.271 Z21.700 A92.1635 
N426 X-341.437 Y-50.238 Z19.624 A92.1920 
N427 X-341.437 Y-50.204 Z17.549 A92.2211 
N428 X-341.437 Y-50.169 Z15.511 A92.2483 
N429 X-341.437 Y-50.135 Z13.545 A92.2743 B-0.0001 
N430 X-341.437 Y-50.104 Z11.680 A92.3065 B-0.0004 
N431 X-341.437 Y-50.075 Z9.940 A92.3428 B-0.0015 
N432 X-341.437 Y-50.046 Z8.345 A92.3688 B-0.0035 
N433 X-341.437 Y-50.016 Z6.905 A92.3815 B-0.0062 
N434 X-341.437 Y-49.999 Z5.625 A92.4248 B-0.0093 
N435 X-341.437 Y-50.056 Z4.501 A92.6859 B-0.0129 
N436 X-341.437 Y-50.284 Z3.519 A93.4719 B-0.0172 
N437 X-341.437 Y-50.736 Z2.657 A94.9683 B-0.0222 
N438 X-341.437 Y-51.393 Z1.885 A97.1313 B-0.0280 
N439 X-341.437 Y-52.191 Z1.174 A99.7799 B-0.0340 
N440 X-341.437 Y-53.067 Z0.501 A102.7218 B-0.0394 
N441 X-341.437 Y-53.962 Z-0.147 A105.7809 B-0.0436 
N442 X-341.437 Y-54.831 Z-0.775 A108.8093 B-0.0460 
N443 X-341.437 Y-55.641 Z-1.380 A111.7032 B-0.0466 
N444 X-341.437 Y-56.379 Z-1.960 A114.4081 B-0.0456 
N445 X-341.437 Y-57.043 Z-2.514 A116.9114 B-0.0434 
N446 X-341.437 Y-57.640 Z-3.044 A119.2279 B-0.0402 
N447 X-341.437 Y-58.179 Z-3.553 A121.3862 B-0.0363 
N448 X-341.437 Y-58.671 Z-4.047 A123.4190 B-0.0319 
N449 X-341.437 Y-59.126 Z-4.531 A125.3570 B-0.0271 
N450 X-341.437 Y-59.550 Z-5.011 A127.2269 B-0.0220 
N451 X-341.437 Y-59.949 Z-5.491 A129.0499 B-0.0165 
N452 X-341.437 Y-60.328 Z-5.973 A130.8428 B-0.0108 
N453 X-341.437 Y-60.689 Z-6.461 A132.6185 B-0.0048 
N454 X-341.437 Y-61.033 Z-6.958 A134.3867 B0.0014 
N455 X-341.437 Y-61.362 Z-7.465 A136.1548 B0.0077 
N456 X-341.437 Y-61.677 Z-7.983 A137.9284 B0.0141 
N457 X-341.437 Y-61.976 Z-8.514 A139.7122 B0.0206 
N458 X-341.437 Y-62.261 Z-9.059 A141.5108 B0.0271 
N459 X-341.437 Y-62.530 Z-9.621 A143.3302 B0.0337 
N460 X-341.437 Y-62.782 Z-10.201 A145.1785 B0.0401 
N461 X-341.437 Y-63.018 Z-10.804 A147.0677 B0.0465 
N462 X-341.437 Y-63.237 Z-11.436 A149.0146 B0.0528 
N463 X-341.437 Y-63.437 Z-12.104 A151.0425 B0.0591 
N464 X-341.437 Y-63.615 Z-12.821 A153.1824 B0.0653 
N465 X-341.437 Y-63.767 Z-13.598 A155.4720 B0.0715 
N466 X-341.436 Y-63.884 Z-14.452 A157.9513 B0.0777 
N467 X-341.436 Y-63.952 Z-15.396 A160.6554 B0.0837 
N468 X-341.436 Y-63.947 Z-16.435 A163.6023 B0.0897 
N469 X-341.436 Y-63.840 Z-17.565 A166.7759 B0.0954 
N470 X-341.436 Y-63.593 Z-18.752 A170.0918 B0.1010 
N471 X-341.436 Y-63.165 Z-19.919 A173.3412 B0.1062 
N472 X-341.436 Y-62.527 Z-20.934 A176.1649 B0.1113 
N473 X-341.436 Y-61.667 Z-21.660 A178.1714 B0.1163 
N474 X-341.436 Y-60.583 Z-22.065 A179.2612 B0.1218 
N475 X-341.436 Y-59.261 Z-22.246 A179.7016 B0.1285 
N476 X-341.436 Y-57.675 Z-22.321 A179.8259 B0.1369 
N477 X-341.436 Y-55.794 Z-22.365 A179.8407 B0.1467 
N478 X-341.436 Y-53.595 Z-22.409 A179.8407 B0.1583 
N479 X-341.436 Y-51.056 Z-22.461 B0.1716 
N480 X-341.436 Y-48.167 Z-22.519 B0.1868 
N481 X-341.436 Y-44.927 Z-22.588 A179.8518 B0.2039 
N482 X-341.436 Y-41.350 Z-22.701 A179.9859 B0.2258 
N483 X-341.436 Y-37.458 Z-22.904 A180.4270 B0.2468 
N484 X-341.436 Y-33.289 Z-23.085 A180.9015 B0.2487 
N485 X-341.435 Y-28.895 Z-23.149 A181.0991 B0.2497 
N486 X-341.435 Y-24.338 Z-23.149 A181.1266 B0.2533 
N487 X-341.435 Y-19.684 Z-23.139 A181.1266 B0.2572 
N488 X-341.435 Y-15.009 Z-23.128 B0.2611 
N489 X-341.435 Y-10.385 Z-23.118 B0.2650 
N490 X-341.435 Y-5.886 Z-23.108 B0.2687 
N491 X-341.435 Y-1.579 Z-23.098 B0.2723 
N492 X-341.435 Y2.479 Z-23.090 B0.2757 
N493 X-341.435 Y6.242 Z-23.081 B0.2789 
N494 X-341.435 Y9.676 Z-23.074 B0.2817 
N495 X-341.435 Y12.760 Z-23.067 B0.2843 
N496 X-341.435 Y15.487 Z-23.061 B0.2866 
N497 X-341.435 Y17.862 Z-23.056 B0.2886 
N498 X-341.435 Y19.900 Z-23.051 A181.1275 B0.2903 
N499 X-341.435 Y21.623 Z-23.052 A181.1416 B0.2922 
N500 X-341.435 Y23.062 Z-23.086 A181.2570 B0.2960 
N501 X-341.435 Y24.251 Z-23.257 A181.7990 B0.3056 
N502 X-341.435 Y25.236 Z-23.678 A183.1311 B0.3252 
N503 X-341.435 Y26.067 Z-24.355 A185.2959 B0.3562 
N504 X-341.435 Y26.799 Z-25.226 A188.1092 B0.3972 
N505 X-341.434 Y27.474 Z-26.209 A191.3285 B0.4455 
N506 X-341.434 Y28.118 Z-27.224 A194.7085 B0.4973 
N507 X-341.434 Y28.740 Z-28.203 A198.0352 B0.5495 
N508 X-341.433 Y29.338 Z-29.106 A201.1734 B0.5994 
N509 X-341.433 Y29.908 Z-29.917 A204.0654 B0.6456 
N510 X-341.433 Y30.450 Z-30.639 A206.7074 B0.6875 
N511 X-341.433 Y30.965 Z-31.281 A209.1250 B0.7250 
N512 X-341.433 Y31.459 Z-31.857 A211.3562 B0.7585 
N513 X-341.432 Y31.936 Z-32.379 A213.4401 B0.7883 
N514 X-341.432 Y32.403 Z-32.859 A215.4128 B0.8145 
N515 X-341.432 Y32.864 Z-33.305 A217.3036 B0.8375 
N516 X-341.432 Y33.323 Z-33.724 A219.1358 B0.8571 
N517 X-341.432 Y33.784 Z-34.119 A220.9274 B0.8733 
N518 X-341.432 Y34.249 Z-34.495 A222.6921 B0.8860 
N519 X-341.432 Y34.720 Z-34.853 A224.4410 B0.8949 
N520 X-341.432 Y35.201 Z-35.196 A226.1840 B0.8998 
N521 X-341.432 Y35.692 Z-35.525 A227.9297 B0.9006 
N522 X-341.432 Y36.196 Z-35.842 A229.6870 B0.8970 
N523 X-341.432 Y36.715 Z-36.146 A231.4629 B0.8891 
N524 X-341.432 Y37.250 Z-36.437 A233.2627 B0.8769 
N525 X-341.432 Y37.803 Z-36.715 A235.0911 B0.8604 
N526 X-341.432 Y38.376 Z-36.979 A236.9539 B0.8398 
N527 X-341.432 Y38.972 Z-37.228 A238.8589 B0.8152 
N528 X-341.432 Y39.595 Z-37.460 A240.8174 B0.7868 
N529 X-341.433 Y40.250 Z-37.674 A242.8469 B0.7546 
N530 X-341.433 Y40.946 Z-37.868 A244.9704 B0.7187 
N531 X-341.433 Y41.694 Z-38.039 A247.2201 B0.6790 
N532 X-341.433 Y42.505 Z-38.180 A249.6289 B0.6355 
N533 X-341.434 Y43.389 Z-38.280 A252.2245 B0.5885 
N534 X-341.434 Y44.351 Z-38.325 A255.0168 B0.5386 
N535 X-341.434 Y45.380 Z-38.291 A257.9825 B0.4870 
N536 X-341.434 Y46.449 Z-38.154 A261.0449 B0.4358 
N537 X-341.435 Y47.507 Z-37.891 A264.0691 B0.3875 
N538 X-341.435 Y48.491 Z-37.486 A266.8923 B0.3446 
N539 X-341.435 Y49.332 Z-36.934 A269.3304 B0.3095 
N540 X-341.435 Y49.955 Z-36.238 A271.1741 B0.2834 
N541 X-341.435 Y50.313 Z-35.405 A272.2822 B0.2663 
N542 X-341.435 Y50.436 Z-34.435 A272.7300 B0.2562 
N543 X-341.435 Y50.434 Z-33.320 A272.8300 B0.2496 
N544 X-341.436 Y50.401 Z-32.050 A272.8521 B0.2437 
N545 X-341.436 Y50.366 Z-30.624 A272.8865 B0.2374 
N546 X-341.436 Y50.329 Z-29.048 A272.9340 B0.2306 
N547 X-341.436 Y50.283 Z-27.336 A272.9702 B0.2235 
N548 X-341.436 Y50.227 Z-25.506 A272.9936 B0.2162 
N549 X-341.436 Y50.168 Z-23.584 A273.0184 B0.2086 
N550 X-341.436 Y50.107 Z-21.599 A273.0463 B0.2009 
N551 X-341.436 Y50.044 Z-19.586 A273.0748 B0.1932 
N552 X-341.436 Y49.980 Z-17.579 A273.1021 B0.1857 
N553 X-341.436 Y49.915 Z-15.614 A273.1257 B0.1785 
N554 X-341.436 Y49.853 Z-13.721 A273.1526 B0.1716 
N555 X-341.436 Y49.801 Z-11.929 A273.2004 B0.1650 
N556 X-341.436 Y49.756 Z-10.262 A273.2598 B0.1587 
N557 X-341.436 Y49.710 Z-8.736 A273.3037 B0.1530 
N558 X-341.436 Y49.667 Z-7.361 A273.3426 B0.1478 
N559 X-341.436 Y49.655 Z-6.139 A273.4595 B0.1431 
N560 X-341.436 Y49.741 Z-5.064 A273.8642 B0.1383 
N561 X-341.436 Y50.010 Z-4.119 A274.8320 B0.1330 
N562 X-341.436 Y50.498 Z-3.280 A276.4905 B0.1268 
N563 X-341.436 Y51.175 Z-2.518 A278.7697 B0.1197 
N564 X-341.436 Y51.981 Z-1.805 A281.4956 B0.1118 
N565 X-341.436 Y52.855 Z-1.123 A284.4835 B0.1034 
N566 X-341.436 Y53.739 Z-0.461 A287.5566 B0.0945 
N567 X-341.436 Y54.585 Z0.181 A290.5678 B0.0854 
N568 X-341.437 Y55.368 Z0.799 A293.4224 B0.0765 
N569 X-341.437 Y56.075 Z1.390 A296.0785 B0.0678 
N570 X-341.437 Y56.709 Z1.954 A298.5336 B0.0594 
N571 X-341.437 Y57.279 Z2.494 A300.8090 B0.0514 
N572 X-341.437 Y57.794 Z3.014 A302.9360 B0.0436 
N573 X-341.437 Y58.264 Z3.521 A304.9473 B0.0360 
N574 X-341.437 Y58.699 Z4.019 A306.8719 B0.0286 
N575 X-341.437 Y59.105 Z4.513 A308.7339 B0.0212 
N576 X-341.437 Y59.485 Z5.007 A310.5522 B0.0140 
N577 X-341.437 Y59.845 Z5.505 A312.3416 B0.0067 
N578 X-341.437 Y60.185 Z6.009 A314.1131 B-0.0005 
N579 X-341.437 Y60.508 Z6.520 A315.8756 B-0.0076 
N580 X-341.437 Y60.815 Z7.041 A317.6358 B-0.0146 
N581 X-341.437 Y61.104 Z7.573 A319.4000 B-0.0214 
N582 X-341.437 Y61.378 Z8.118 A321.1744 B-0.0281 
N583 X-341.437 Y61.635 Z8.678 A322.9665 B-0.0346 
N584 X-341.437 Y61.876 Z9.257 A324.7864 B-0.0408 
N585 X-341.437 Y62.101 Z9.858 A326.6483 B-0.0468 
N586 X-341.437 Y62.308 Z10.490 A328.5710 B-0.0526 
N587 X-341.437 Y62.496 Z11.159 A330.5806 B-0.0580 
N588 X-341.437 Y62.664 Z11.879 A332.7103 B-0.0632 
N589 X-341.437 Y62.806 Z12.664 A334.9988 B-0.0679 
N590 X-341.437 Y62.912 Z13.528 A337.4862 B-0.0720 
N591 X-341.437 Y62.968 Z14.484 A340.2057 B-0.0751 
N592 X-341.437 Y62.949 Z15.538 A343.1708 B-0.0767 
N593 X-341.437 Y62.824 Z16.679 A346.3533 B-0.0761 
N594 X-341.437 Y62.554 Z17.865 A349.6401 B-0.0725 
N595 X-341.437 Y62.099 Z19.007 A352.7860 B-0.0660 
N596 X-341.437 Y61.432 Z19.967 A355.4083 B-0.0574 
N597 X-341.437 Y60.544 Z20.631 A357.1806 B-0.0478 
N598 X-341.437 Y59.434 Z21.002 A358.1009 B-0.0382 
N599 X-341.437 Y58.086 Z21.186 A358.4610 B-0.0289 
N600 X-341.437 Y56.479 Z21.285 A358.5507 B-0.0197 
N601 X-341.437 Y54.587 Z21.368 A358.5573 B-0.0109 
N602 X-341.437 Y52.386 Z21.462 B-0.0041 
N603 X-341.437 Y49.861 Z21.570 B-0.0006 
N604 X-341.437 Y47.001 Z21.692 A358.5574 B-0.0000 
N605 X-341.437 Y43.809 Z21.838 A358.5903 B0.0000 
N606 X-341.437 Y40.298 Z22.077 A358.8819 
N607 X-341.437 Y36.489 Z22.480 A359.7477 
N608 X-341.437 Y32.415 Z22.829 A0.6304 
N609 X-341.437 Y28.125 Z22.975 A1.0387 
N610 X-341.437 Y23.681 Z22.985 A1.0870 
N611 X-341.437 Y19.145 Z22.978 A1.0870 
N612 X-341.437 Y14.586 Z22.971 
N613 X-341.437 Y10.076 Z22.964 
N614 X-341.437 Y5.683 Z22.958 
N615 X-341.437 Y1.469 Z22.951 
N616 X-341.437 Y-2.508 Z22.945 
N617 X-341.437 Y-6.204 Z22.939 
N618 X-341.437 Y-9.585 Z22.934 
N619 X-341.437 Y-12.630 Z22.930 
N620 X-341.437 Y-15.331 Z22.926 
N621 X-341.437 Y-17.690 Z22.922 
N622 X-341.437 Y-19.720 Z22.919 
N623 X-341.437 Y-21.443 Z22.916 A1.0872 
N624 X-341.437 Y-22.885 Z22.932 A1.1416 
N625 X-341.437 Y-24.079 Z23.069 A1.5717 
N626 X-341.437 Y-25.068 Z23.461 A2.8033 
N627 X-341.437 Y-25.902 Z24.125 A4.9119 
N628 X-341.437 Y-26.635 Z24.989 A7.6945 
N629 X-341.437 Y-27.308 Z25.969 A10.8917 
N630 X-341.437 Y-27.949 Z26.982 A14.2539 
N631 X-341.437 Y-28.565 Z27.960 A17.5622 
N632 X-341.437 Y-29.156 Z28.859 A20.6780 
N633 X-341.437 Y-29.718 Z29.667 A23.5460 
N634 X-341.437 Y-30.250 Z30.387 A26.1654 
N635 X-341.437 Y-30.756 Z31.029 A28.5642 
N636 X-341.437 Y-31.241 Z31.606 A30.7823 
N637 X-341.437 Y-31.710 Z32.133 A32.8600 
N638 X-341.437 Y-32.169 Z32.619 A34.8335 
N639 X-341.437 Y-32.624 Z33.074 A36.7323 
N640 X-341.437 Y-33.079 Z33.503 A38.5794 
N641 X-341.437 Y-33.537 Z33.911 A40.3924 
N642 X-341.437 Y-34.001 Z34.301 A42.1846 
N643 X-341.437 Y-34.473 Z34.675 A43.9656 
N644 X-341.437 Y-34.955 Z35.034 A45.7439 
N645 X-341.437 Y-35.448 Z35.380 A47.5261 
N646 X-341.437 Y-35.954 Z35.712 A49.3179 
N647 X-341.437 Y-36.475 Z36.030 A51.1240 
N648 X-341.437 Y-37.010 Z36.335 A52.9469 
N649 X-341.437 Y-37.560 Z36.625 A54.7884 
N650 X-341.437 Y-38.127 Z36.899 A56.6510 
N651 X-341.437 Y-38.711 Z37.157 A58.5396 
N652 X-341.437 Y-39.316 Z37.396 A60.4619 
N653 X-341.437 Y-39.946 Z37.617 A62.4311 
N654 X-341.437 Y-40.607 Z37.817 A64.4670 
N655 X-341.437 Y-41.308 Z37.996 A66.5963 
N656 X-341.437 Y-42.061 Z38.149 A68.8536 
N657 X-341.437 Y-42.878 Z38.271 A71.2718 
N658 X-341.437 Y-43.767 Z38.349 A73.8772 
N659 X-341.437 Y-44.731 Z38.368 A76.6762 
N660 X-341.437 Y-45.758 Z38.305 A79.6402 
N661 X-341.437 Y-46.817 Z38.137 A82.6848 
N662 X-341.437 Y-47.856 Z37.843 A85.6751 
N663 X-341.437 Y-48.814 Z37.410 A88.4537 
N664 X-341.437 Y-49.621 Z36.834 A90.8356 
N665 X-341.437 Y-50.199 Z36.123 A92.6003 
N666 X-341.437 Y-50.503 Z35.283 A93.6060 
N667 X-341.437 Y-50.574 Z34.314 A93.9620 
N668 X-341.437 Y-50.534 Z33.203 A94.0175 
N669 X-341.437 Y-50.472 Z31.941 A94.0332 
N670 X-341.437 Y-50.410 Z30.525 A94.0735 
N671 X-341.437 Y-50.343 Z28.964 A94.1250 B-0.0000 
N672 X-341.437 Y-50.262 Z27.271 A94.1609 B-0.0003 
N673 X-341.437 Y-50.170 Z25.467 A94.1855 B-0.0018 
N674 X-341.437 Y-50.074 Z23.575 A94.2136 B-0.0067 
N675 X-341.437 Y-49.974 Z21.627 A94.2450 B-0.0160 
N676 X-341.437 Y-49.873 Z19.655 A94.2769 B-0.0288 
N677 X-341.437 Y-49.770 Z17.694 A94.3071 B-0.0442 
N678 X-341.437 Y-49.667 Z15.776 A94.3332 B-0.0614 
N679 X-341.437 Y-49.571 Z13.934 A94.3673 B-0.0789 
N680 X-341.437 Y-49.489 Z12.194 A94.4294 B-0.0942 
N681 X-341.438 Y-49.415 Z10.577 A94.5013 B-0.1055 
N682 X-341.438 Y-49.341 Z9.099 A94.5533 B-0.1135 
N683 X-341.438 Y-49.278 Z7.770 A94.6124 B-0.1196 
N684 X-341.438 Y-49.262 Z6.588 A94.7945 B-0.1247 
N685 X-341.438 Y-49.370 Z5.544 A95.3364 B-0.1285 
N686 X-341.438 Y-49.679 Z4.617 A96.4942 B-0.1305 
N687 X-341.438 Y-50.205 Z3.781 A98.3409 B-0.1303 
N688 X-341.438 Y-50.907 Z3.010 A100.7637 B-0.1277 
N689 X-341.438 Y-51.720 Z2.279 A103.5781 B-0.1230 
N690 X-341.438 Y-52.582 Z1.574 A106.6006 B-0.1164 
N691 X-341.438 Y-53.439 Z0.889 A109.6621 B-0.1083 
N692 X-341.438 Y-54.250 Z0.227 A112.6289 B-0.0993 
N693 X-341.437 Y-54.991 Z-0.409 A115.4211 B-0.0897 
N694 X-341.437 Y-55.657 Z-1.014 A118.0089 B-0.0799 
N695 X-341.437 Y-56.252 Z-1.590 A120.3977 B-0.0701 
N696 X-341.437 Y-56.784 Z-2.142 A122.6130 B-0.0603 
N697 X-341.437 Y-57.265 Z-2.673 A124.6881 B-0.0506 
N698 X-341.437 Y-57.705 Z-3.191 A126.6555 B-0.0408 
N699 X-341.437 Y-58.110 Z-3.701 A128.5440 B-0.0309 
N700 X-341.437 Y-58.488 Z-4.207 A130.3772 B-0.0208 
N701 X-341.437 Y-58.843 Z-4.715 A132.1736 B-0.0107 
N702 X-341.437 Y-59.178 Z-5.226 A133.9481 B-0.0003 
N703 X-341.437 Y-59.495 Z-5.745 A135.7118 B0.0102 
N704 X-341.437 Y-59.795 Z-6.273 A137.4735 B0.0209 
N705 X-341.437 Y-60.079 Z-6.813 A139.2405 B0.0317 
N706 X-341.437 Y-60.347 Z-7.366 A141.0192 B0.0427 
N707 X-341.437 Y-60.598 Z-7.934 A142.8171 B0.0537 
N708 X-341.437 Y-60.832 Z-8.521 A144.6435 B0.0647 
N709 X-341.437 Y-61.049 Z-9.131 A146.5118 B0.0759 
N710 X-341.436 Y-61.247 Z-9.771 A148.4405 B0.0872 
N711 X-341.436 Y-61.425 Z-10.450 A150.4556 B0.0987 
N712 X-341.436 Y-61.581 Z-11.179 A152.5906 B0.1106 
N713 X-341.436 Y-61.710 Z-11.973 A154.8842 B0.1230 
N714 X-341.436 Y-61.800 Z-12.846 A157.3754 B0.1360 
N715 X-341.436 Y-61.837 Z-13.811 A160.0956 B0.1497 
N716 X-341.436 Y-61.796 Z-14.871 A163.0547 B0.1642 
N717 X-341.436 Y-61.645 Z-16.013 A166.2132 B0.1794 
N718 X-341.436 Y-61.345 Z-17.184 A169.4316 B0.1949 
N719 X-341.436 Y-60.857 Z-18.286 A172.4318 B0.2099 
N720 X-341.436 Y-60.158 Z-19.183 A174.8360 B0.2236 
N721 X-341.436 Y-59.241 Z-19.795 A176.4128 B0.2356 
N722 X-341.436 Y-58.103 Z-20.151 A177.2310 B0.2465 
N723 X-341.435 Y-56.732 Z-20.341 A177.5429 B0.2576 
N724 X-341.435 Y-55.106 Z-20.458 A177.6052 B0.2695 
N725 X-341.435 Y-53.203 Z-20.572 A177.6072 B0.2832 
N726 X-341.435 Y-51.002 Z-20.702 B0.2990 
N727 X-341.435 Y-48.490 Z-20.851 A177.6075 B0.3171 
N728 X-341.435 Y-45.658 Z-21.023 A177.6180 B0.3379 
N729 X-341.435 Y-42.510 Z-21.272 A177.8177 B0.3648 
N730 X-341.435 Y-39.062 Z-21.720 A178.6518 B0.4005 
N731 X-341.435 Y-35.326 Z-22.270 A179.9729 B0.4164 
N732 X-341.435 Y-31.333 Z-22.598 A180.8454 B0.4116 
N733 X-341.435 Y-27.139 Z-22.686 A181.1129 B0.4132 
N734 X-341.435 Y-22.798 Z-22.682 A181.1313 B0.4169 
N735 X-341.435 Y-18.371 Z-22.672 B0.4207 
N736 X-341.434 Y-13.923 Z-22.662 B0.4244 
N737 X-341.434 Y-9.522 Z-22.652 B0.4282 
N738 X-341.434 Y-5.234 Z-22.642 B0.4319 
N739 X-341.434 Y-1.120 Z-22.633 B0.4354 
N740 X-341.434 Y2.767 Z-22.624 B0.4387 
N741 X-341.434 Y6.382 Z-22.616 B0.4418 
N742 X-341.434 Y9.693 Z-22.608 B0.4446 
N743 X-341.434 Y12.677 Z-22.601 B0.4471 
N744 X-341.434 Y15.327 Z-22.595 B0.4494 
N745 X-341.434 Y17.643 Z-22.590 B0.4514 
N746 X-341.434 Y19.639 Z-22.585 A181.1319 B0.4531 
N747 X-341.434 Y21.333 Z-22.586 A181.1453 B0.4549 
N748 X-341.434 Y22.752 Z-22.613 A181.2406 B0.4585 
N749 X-341.434 Y23.928 Z-22.751 A181.6777 B0.4679 
N750 X-341.434 Y24.900 Z-23.102 A182.7906 B0.4875 
N751 X-341.434 Y25.716 Z-23.698 A184.6896 B0.5195 
N752 X-341.434 Y26.426 Z-24.509 A187.2929 B0.5629 
N753 X-341.433 Y27.078 Z-25.469 A190.4135 B0.6146 
N754 X-341.433 Y27.704 Z-26.499 A193.8049 B0.6707 
N755 X-341.433 Y28.316 Z-27.515 A197.2142 B0.7271 
N756 X-341.432 Y28.909 Z-28.462 A200.4626 B0.7808 
N757 X-341.432 Y29.479 Z-29.315 A203.4649 B0.8300 
N758 X-341.432 Y30.022 Z-30.073 A206.2031 B0.8741 
N759 X-341.432 Y30.539 Z-30.745 A208.6983 B0.9132 
N760 X-341.431 Y31.033 Z-31.345 A210.9895 B0.9478 
N761 X-341.431 Y31.510 Z-31.887 A213.1199 B0.9783 
N762 X-341.431 Y31.975 Z-32.383 A215.1283 B1.0051 
N763 X-341.431 Y32.434 Z-32.843 A217.0478 B1.0287 
N764 X-341.431 Y32.891 Z-33.273 A218.9038 B1.0489 
N765 X-341.431 Y33.349 Z-33.680 A220.7153 B1.0660 
N766 X-341.431 Y33.811 Z-34.066 A222.4971 B1.0797 
N767 X-341.431 Y34.280 Z-34.434 A224.2598 B1.0899 
N768 X-341.431 Y34.756 Z-34.785 A226.0121 B1.0963 
N769 X-341.431 Y35.243 Z-35.122 A227.7618 B1.0988 
N770 X-341.431 Y35.740 Z-35.444 A229.5154 B1.0972 
N771 X-341.431 Y36.250 Z-35.753 A231.2788 B1.0913 
N772 X-341.431 Y36.773 Z-36.047 A233.0562 B1.0812 
N773 X-341.431 Y37.311 Z-36.327 A234.8504 B1.0668 
N774 X-341.431 Y37.865 Z-36.592 A236.6641 B1.0483 
N775 X-341.431 Y38.434 Z-36.841 A238.5016 B1.0258 
N776 X-341.431 Y39.023 Z-37.073 A240.3698 B0.9995 
N777 X-341.431 Y39.634 Z-37.287 A242.2795 B0.9694 
N778 X-341.432 Y40.273 Z-37.482 A244.2488 B0.9357 
N779 X-341.432 Y40.948 Z-37.658 A246.3029 B0.8984 
N780 X-341.432 Y41.671 Z-37.811 A248.4750 B0.8573 
N781 X-341.432 Y42.454 Z-37.937 A250.7998 B0.8122 
N782 X-341.433 Y43.307 Z-38.026 A253.3061 B0.7633 
N783 X-341.433 Y44.234 Z-38.063 A256.0074 B0.7109 
N784 X-341.433 Y45.230 Z-38.031 A258.8881 B0.6560 
N785 X-341.433 Y46.270 Z-37.905 A261.8868 B0.6004 
N786 X-341.434 Y47.314 Z-37.663 A264.8950 B0.5464 
N787 X-341.434 Y48.308 Z-37.292 A267.7766 B0.4969 
N788 X-341.434 Y49.187 Z-36.783 A270.3625 B0.4545 
N789 X-341.434 Y49.872 Z-36.140 A272.4340 B0.4215 
N790 X-341.435 Y50.300 Z-35.372 A273.8064 B0.3993 
N791 X-341.435 Y50.476 Z-34.484 A274.4828 B0.3863 
N792 X-341.435 Y50.490 Z-33.466 A274.7166 B0.3789 
N793 X-341.435 Y50.439 Z-32.308 A274.7915 B0.3732 
N794 X-341.435 Y50.374 Z-31.003 A274.8569 B0.3671 
N795 X-341.435 Y50.304 Z-29.554 A274.9447 B0.3600 
N796 X-341.435 Y50.217 Z-27.974 A275.0121 B0.3522 
N797 X-341.435 Y50.107 Z-26.278 A275.0425 B0.3438 
N798 X-341.435 Y49.989 Z-24.489 A275.0664 B0.3346 
N799 X-341.435 Y49.866 Z-22.632 A275.0957 B0.3248 
N800 X-341.435 Y49.740 Z-20.738 A275.1265 B0.3145 
N801 X-341.435 Y49.613 Z-18.841 A275.1561 B0.3041 
N802 X-341.435 Y49.485 Z-16.971 A275.1814 B0.2937 
N803 X-341.435 Y49.362 Z-15.162 A275.2099 B0.2834 
N804 X-341.435 Y49.255 Z-13.438 A275.2730 B0.2733 
N805 X-341.435 Y49.166 Z-11.823 A275.3706 B0.2633 
N806 X-341.435 Y49.079 Z-10.336 A275.4536 B0.2540 
N807 X-341.436 Y48.997 Z-8.988 A275.5256 B0.2455 
N808 X-341.436 Y48.953 Z-7.781 A275.6838 B0.2375 
N809 X-341.436 Y49.009 Z-6.707 A276.1253 B0.2289 
N810 X-341.436 Y49.246 Z-5.750 A277.1094 B0.2188 
N811 X-341.436 Y49.701 Z-4.884 A278.7742 B0.2065 
N812 X-341.436 Y50.345 Z-4.083 A281.0538 B0.1922 
N813 X-341.436 Y51.115 Z-3.325 A283.7654 B0.1765 
N814 X-341.436 Y51.947 Z-2.595 A286.7228 B0.1600 
N815 X-341.436 Y52.787 Z-1.886 A289.7571 B0.1431 
N816 X-341.436 Y53.589 Z-1.199 A292.7281 B0.1265 
N817 X-341.436 Y54.329 Z-0.540 A295.5442 B0.1106 
N818 X-341.436 Y54.995 Z0.088 A298.1647 B0.0956 
N819 X-341.436 Y55.590 Z0.687 A300.5881 B0.0814 
N820 X-341.437 Y56.122 Z1.258 A302.8363 B0.0681 
N821 X-341.437 Y56.602 Z1.809 A304.9409 B0.0555 
N822 X-341.437 Y57.038 Z2.344 A306.9343 B0.0434 
N823 X-341.437 Y57.440 Z2.870 A308.8446 B0.0317 
N824 X-341.437 Y57.813 Z3.391 A310.6955 B0.0203 
N825 X-341.437 Y58.161 Z3.912 A312.5056 B0.0091 
N826 X-341.437 Y58.487 Z4.437 A314.2897 B-0.0018 
N827 X-341.437 Y58.794 Z4.967 A316.0595 B-0.0125 
N828 X-341.437 Y59.083 Z5.507 A317.8250 B-0.0229 
N829 X-341.437 Y59.355 Z6.057 A319.5948 B-0.0331 
N830 X-341.437 Y59.609 Z6.622 A321.3781 B-0.0431 
N831 X-341.437 Y59.846 Z7.204 A323.1858 B-0.0528 
N832 X-341.437 Y60.066 Z7.808 A325.0314 B-0.0622 
N833 X-341.437 Y60.269 Z8.441 A326.9333 B-0.0713 
N834 X-341.437 Y60.452 Z9.110 A328.9154 B-0.0801 
N835 X-341.437 Y60.614 Z9.827 A331.0084 B-0.0888 
N836 X-341.438 Y60.750 Z10.604 A333.2473 B-0.0972 
N837 X-341.438 Y60.851 Z11.456 A335.6680 B-0.1055 
N838 X-341.438 Y60.904 Z12.393 A338.3009 B-0.1134 
N839 X-341.438 Y60.886 Z13.422 A341.1590 B-0.1208 
N840 X-341.438 Y60.771 Z14.533 A344.2160 B-0.1273 
N841 X-341.438 Y60.519 Z15.687 A347.3597 B-0.1326 
N842 X-341.438 Y60.092 Z16.799 A350.3521 B-0.1358 
N843 X-341.438 Y59.463 Z17.744 A352.8439 B-0.1363 
N844 X-341.438 Y58.620 Z18.432 A354.5753 B-0.1337 
N845 X-341.438 Y57.564 Z18.865 A355.5448 B-0.1281 
N846 X-341.438 Y56.286 Z19.119 A355.9542 B-0.1194 
N847 X-341.438 Y54.773 Z19.284 A356.0529 B-0.1064 
N848 X-341.437 Y53.006 Z19.438 A356.0585 B-0.0867 
N849 X-341.437 Y50.968 Z19.615 B-0.0598 
N850 X-341.437 Y48.644 Z19.816 A356.0585 B-0.0317 
N851 X-341.437 Y46.023 Z20.043 A356.0598 B-0.0110 
N852 X-341.437 Y43.106 Z20.322 A356.1433 B-0.0017 
N853 X-341.437 Y39.908 Z20.788 A356.7674 B-0.0000 
N854 X-341.437 Y36.440 Z21.533 A358.3640 B0.0000 
N855 X-341.437 Y32.703 Z22.213 A0.0639 
N856 X-341.437 Y28.740 Z22.533 A0.9375 
N857 X-341.437 Y24.609 Z22.581 A1.0927 
N858 X-341.437 Y20.363 Z22.575 A1.0936 
N859 X-341.437 Y16.059 Z22.568 
N860 X-341.437 Y11.758 Z22.561 
N861 X-341.437 Y7.522 Z22.554 
N862 X-341.437 Y3.412 Z22.547 
N863 X-341.437 Y-0.517 Z22.541 
N864 X-341.437 Y-4.217 Z22.535 
N865 X-341.437 Y-7.648 Z22.529 
N866 X-341.437 Y-10.781 Z22.524 
N867 X-341.437 Y-13.599 Z22.519 
N868 X-341.437 Y-16.095 Z22.515 
N869 X-341.437 Y-18.273 Z22.512 
N870 X-341.437 Y-20.146 Z22.509 
N871 X-341.437 Y-21.733 Z22.507 A1.0957 
N872 X-341.437 Y-23.062 Z22.538 A1.1997 
N873 X-341.437 Y-24.163 Z22.719 A1.7669 
N874 X-341.437 Y-25.077 Z23.155 A3.1384 
N875 X-341.437 Y-25.853 Z23.842 A5.3223 
N876 X-341.437 Y-26.542 Z24.717 A8.1387 
N877 X-341.437 Y-27.183 Z25.705 A11.3583 
N878 X-341.437 Y-27.800 Z26.725 A14.7356 
N879 X-341.437 Y-28.399 Z27.706 A18.0477 
N880 X-341.437 Y-28.976 Z28.606 A21.1595 
N881 X-341.437 Y-29.527 Z29.414 A24.0194 
N882 X-341.437 Y-30.050 Z30.132 A26.6290 
N883 X-341.437 Y-30.548 Z30.772 A29.0180 
N884 X-341.437 Y-31.026 Z31.349 A31.2271 
N885 X-341.437 Y-31.490 Z31.875 A33.2977 
N886 X-341.437 Y-31.945 Z32.361 A35.2652 
N887 X-341.437 Y-32.396 Z32.815 A37.1593 
N888 X-341.437 Y-32.847 Z33.245 A39.0026 
N889 X-341.437 Y-33.302 Z33.653 A40.8120 
N890 X-341.437 Y-33.763 Z34.043 A42.6006 
N891 X-341.437 Y-34.232 Z34.417 A44.3780 
N892 X-341.437 Y-34.710 Z34.777 A46.1517 
N893 X-341.437 Y-35.200 Z35.122 A47.9286 
N894 X-341.437 Y-35.702 Z35.454 A49.7141 
N895 X-341.437 Y-36.217 Z35.773 A51.5119 
N896 X-341.437 Y-36.747 Z36.078 A53.3238 
N897 X-341.437 Y-37.291 Z36.368 A55.1502 
N898 X-341.437 Y-37.848 Z36.641 A56.9912 
N899 X-341.437 Y-38.420 Z36.897 A58.8479 
N900 X-341.437 Y-39.008 Z37.135 A60.7253 
N901 X-341.437 Y-39.614 Z37.353 A62.6312 
N902 X-341.437 Y-40.243 Z37.552 A64.5802 
N903 X-341.437 Y-40.901 Z37.731 A66.5946 
N904 X-341.437 Y-41.600 Z37.887 A68.7033 
N905 X-341.437 Y-42.348 Z38.018 A70.9392 
N906 X-341.437 Y-43.158 Z38.115 A73.3327 
N907 X-341.437 Y-44.036 Z38.169 A75.9057 
N908 X-341.437 Y-44.983 Z38.162 A78.6609 
N909 X-341.437 Y-45.986 Z38.076 A81.5674 
N910 X-341.437 Y-47.015 Z37.889 A84.5477 
N911 X-341.437 Y-48.027 Z37.583 A87.4927 
N912 X-341.437 Y-48.969 Z37.148 A90.2702 
N913 X-341.437 Y-49.774 Z36.581 A92.7000 
N914 X-341.437 Y-50.356 Z35.889 A94.5431 
N915 X-341.437 Y-50.663 Z35.085 A95.6367 
N916 X-341.437 Y-50.732 Z34.169 A96.0761 
N917 X-341.437 Y-50.676 Z33.123 A96.1913 B-0.0000 
N918 X-341.437 Y-50.584 Z31.936 A96.2397 B-0.0003 
N919 X-341.437 Y-50.485 Z30.605 A96.3104 B-0.0014 
N920 X-341.437 Y-50.375 Z29.136 A96.3935 B-0.0050 
N921 X-341.437 Y-50.241 Z27.543 A96.4445 B-0.0134 
N922 X-341.437 Y-50.087 Z25.844 A96.4716 B-0.0285 
N923 X-341.437 Y-49.926 Z24.062 A96.5011 B-0.0497 
N924 X-341.437 Y-49.760 Z22.224 A96.5349 B-0.0732 
N925 X-341.437 Y-49.590 Z20.361 A96.5692 B-0.0941 
N926 X-341.438 Y-49.420 Z18.505 A96.6015 B-0.1104 
N927 X-341.438 Y-49.250 Z16.688 A96.6295 B-0.1236 
N928 X-341.438 Y-49.091 Z14.940 A96.6706 B-0.1351 
N929 X-341.438 Y-48.953 Z13.283 A96.7532 B-0.1458 
N930 X-341.438 Y-48.829 Z11.740 A96.8520 B-0.1558 
N931 X-341.438 Y-48.709 Z10.326 A96.9290 B-0.1652 
N932 X-341.438 Y-48.612 Z9.049 A97.0363 B-0.1736 
N933 X-341.438 Y-48.586 Z7.905 A97.3259 B-0.1806 
N934 X-341.438 Y-48.705 Z6.881 A98.0352 B-0.1853 
N935 X-341.438 Y-49.034 Z5.953 A99.3859 B-0.1865 
N936 X-341.438 Y-49.576 Z5.096 A101.4058 B-0.1837 
N937 X-341.438 Y-50.274 Z4.286 A103.9456 B-0.1773 
N938 X-341.438 Y-51.061 Z3.510 A106.8088 B-0.1677 
N939 X-341.438 Y-51.877 Z2.756 A109.8182 B-0.1555 
N940 X-341.438 Y-52.674 Z2.026 A112.8207 B-0.1415 
N941 X-341.438 Y-53.418 Z1.323 A115.7016 B-0.1267 
N942 X-341.438 Y-54.091 Z0.653 A118.3977 B-0.1115 
N943 X-341.438 Y-54.691 Z0.017 A120.8913 B-0.0964 
N944 X-341.437 Y-55.223 Z-0.587 A123.1956 B-0.0815 
N945 X-341.437 Y-55.699 Z-1.165 A125.3404 B-0.0668 
N946 X-341.437 Y-56.129 Z-1.724 A127.3595 B-0.0523 
N947 X-341.437 Y-56.520 Z-2.268 A129.2846 B-0.0378 
N948 X-341.437 Y-56.881 Z-2.806 A131.1429 B-0.0233 
N949 X-341.437 Y-57.217 Z-3.342 A132.9567 B-0.0086 
N950 X-341.437 Y-57.530 Z-3.880 A134.7437 B0.0062 
N951 X-341.437 Y-57.824 Z-4.424 A136.5182 B0.0212 
N952 X-341.437 Y-58.100 Z-4.978 A138.2914 B0.0364 
N953 X-341.437 Y-58.358 Z-5.543 A140.0731 B0.0519 
N954 X-341.437 Y-58.600 Z-6.124 A141.8730 B0.0675 
N955 X-341.436 Y-58.823 Z-6.725 A143.7023 B0.0834 
N956 X-341.436 Y-59.029 Z-7.349 A145.5758 B0.0995 
N957 X-341.436 Y-59.215 Z-8.005 A147.5132 B0.1161 
N958 X-341.436 Y-59.380 Z-8.701 A149.5415 B0.1333 
N959 X-341.436 Y-59.521 Z-9.450 A151.6933 B0.1513 
N960 X-341.436 Y-59.631 Z-10.265 A154.0042 B0.1703 
N961 X-341.436 Y-59.699 Z-11.158 A156.5073 B0.1907 
N962 X-341.436 Y-59.710 Z-12.138 A159.2247 B0.2126 
N963 X-341.436 Y-59.637 Z-13.205 A162.1504 B0.2361 
N964 X-341.435 Y-59.449 Z-14.332 A165.2106 B0.2607 
N965 X-341.435 Y-59.107 Z-15.455 A168.2230 B0.2856 
N966 X-341.435 Y-58.576 Z-16.468 A170.8884 B0.3090 
N967 X-341.435 Y-57.842 Z-17.270 A172.9215 B0.3297 
N968 X-341.435 Y-56.899 Z-17.827 A174.2160 B0.3473 
N969 X-341.435 Y-55.746 Z-18.172 A174.8597 B0.3627 
N970 X-341.435 Y-54.372 Z-18.384 A175.0597 B0.3771 
N971 X-341.435 Y-52.764 Z-18.558 A175.0816 B0.3924 
N972 X-341.435 Y-50.907 Z-18.751 A175.0816 B0.4099 
N973 X-341.434 Y-48.785 Z-18.971 A175.0816 B0.4299 
N974 X-341.434 Y-46.386 Z-19.223 A175.0910 B0.4526 
N975 X-341.434 Y-43.706 Z-19.538 A175.2087 B0.4796 
N976 X-341.434 Y-40.757 Z-20.052 A175.8947 B0.5179 
N977 X-341.434 Y-37.544 Z-20.865 A177.5991 B0.5653 
N978 X-341.434 Y-34.052 Z-21.697 A179.6708 B0.5783 
N979 X-341.434 Y-30.312 Z-22.123 A180.8166 B0.5735 
N980 X-341.434 Y-26.381 Z-22.223 A181.1203 B0.5758 
N981 X-341.434 Y-22.304 Z-22.218 A181.1357 B0.5793 
N982 X-341.434 Y-18.133 Z-22.208 B0.5828 
N983 X-341.434 Y-13.925 Z-22.198 B0.5863 
N984 X-341.434 Y-9.739 Z-22.189 B0.5897 
N985 X-341.434 Y-5.635 Z-22.179 B0.5932 
N986 X-341.433 Y-1.670 Z-22.169 B0.5965 
N987 X-341.433 Y2.104 Z-22.161 B0.5996 
N988 X-341.433 Y5.641 Z-22.152 B0.6025 
N989 X-341.433 Y8.907 Z-22.144 B0.6053 
N990 X-341.433 Y11.875 Z-22.137 A181.1357 B0.6077 
N991 X-341.433 Y14.532 Z-22.131 B0.6099 
N992 X-341.433 Y16.874 Z-22.126 A181.1359 B0.6119 
N993 X-341.433 Y18.908 Z-22.121 A181.1381 B0.6137 
N994 X-341.433 Y20.648 Z-22.121 A181.1505 B0.6158 
N995 X-341.433 Y22.115 Z-22.134 A181.2023 B0.6191 
N996 X-341.433 Y23.337 Z-22.210 A181.4471 B0.6265 
N997 X-341.433 Y24.346 Z-22.443 A182.1856 B0.6428 
N998 X-341.433 Y25.184 Z-22.898 A183.6300 B0.6715 
N999 X-341.433 Y25.898 Z-23.586 A185.8247 B0.7131 
N1000 X-341.433 Y26.538 Z-24.473 A188.6779 B0.7658 
N1001 X-341.432 Y27.146 Z-25.489 A191.9777 B0.8253 
N1002 X-341.432 Y27.744 Z-26.541 A195.4518 B0.8868 
N1003 X-341.431 Y28.335 Z-27.553 A198.8588 B0.9459 
N1004 X-341.431 Y28.910 Z-28.480 A202.0565 B1.0003 
N1005 X-341.431 Y29.464 Z-29.309 A204.9880 B1.0487 
N1006 X-341.431 Y29.992 Z-30.042 A207.6539 B1.0912 
N1007 X-341.430 Y30.497 Z-30.692 A210.0855 B1.1284 
N1008 X-341.430 Y30.982 Z-31.274 A212.3259 B1.1608 
N1009 X-341.430 Y31.452 Z-31.802 A214.4184 B1.1892 
N1010 X-341.430 Y31.913 Z-32.287 A216.4001 B1.2140 
N1011 X-341.430 Y32.369 Z-32.738 A218.3010 B1.2356 
N1012 X-341.430 Y32.825 Z-33.161 A220.1436 B1.2540 
N1013 X-341.430 Y33.283 Z-33.560 A221.9444 B1.2692 
N1014 X-341.430 Y33.745 Z-33.939 A223.7156 B1.2812 
N1015 X-341.429 Y34.213 Z-34.299 A225.4665 B1.2897 
N1016 X-341.429 Y34.689 Z-34.642 A227.2043 B1.2946 
N1017 X-341.429 Y35.173 Z-34.969 A228.9362 B1.2956 
N1018 X-341.429 Y35.667 Z-35.282 A230.6692 B1.2926 
N1019 X-341.429 Y36.173 Z-35.580 A232.4087 B1.2855 
N1020 X-341.430 Y36.691 Z-35.864 A234.1591 B1.2742 
N1021 X-341.430 Y37.222 Z-36.133 A235.9233 B1.2587 
N1022 X-341.430 Y37.767 Z-36.387 A237.7041 B1.2392 
N1023 X-341.430 Y38.327 Z-36.625 A239.5046 B1.2157 
N1024 X-341.430 Y38.903 Z-36.847 A241.3310 B1.1885 
N1025 X-341.430 Y39.499 Z-37.051 A243.1925 B1.1577 
N1026 X-341.430 Y40.119 Z-37.238 A245.1038 B1.1234 
N1027 X-341.431 Y40.770 Z-37.406 A247.0877 B1.0855 
N1028 X-341.431 Y41.462 Z-37.553 A249.1723 B1.0439 
N1029 X-341.431 Y42.206 Z-37.675 A251.3887 B0.9984 
N1030 X-341.431 Y43.010 Z-37.766 A253.7639 B0.9489 
N1031 X-341.432 Y43.882 Z-37.813 A256.3165 B0.8954 
N1032 X-341.432 Y44.819 Z-37.802 A259.0453 B0.8384 
N1033 X-341.432 Y45.810 Z-37.714 A261.9192 B0.7792 
N1034 X-341.433 Y46.827 Z-37.529 A264.8702 B0.7195 
N1035 X-341.433 Y47.832 Z-37.229 A267.8029 B0.6620 
N1036 X-341.433 Y48.773 Z-36.805 A270.5878 B0.6093 
N1037 X-341.434 Y49.581 Z-36.253 A273.0353 B0.5648 
N1038 X-341.434 Y50.172 Z-35.583 A274.9123 B0.5312 
N1039 X-341.434 Y50.503 Z-34.806 A276.0890 B0.5096 
N1040 X-341.434 Y50.611 Z-33.922 A276.6607 B0.4976 
N1041 X-341.434 Y50.587 Z-32.917 A276.8956 B0.4905 
N1042 X-341.434 Y50.509 Z-31.779 A277.0163 B0.4844 
N1043 X-341.434 Y50.413 Z-30.504 A277.1339 B0.4775 
N1044 X-341.434 Y50.299 Z-29.098 A277.2495 B0.4693 
N1045 X-341.434 Y50.152 Z-27.574 A277.3123 B0.4605 
N1046 X-341.434 Y49.981 Z-25.949 A277.3383 B0.4507 
N1047 X-341.434 Y49.800 Z-24.243 A277.3656 B0.4396 
N1048 X-341.434 Y49.614 Z-22.482 A277.3981 B0.4275 
N1049 X-341.435 Y49.424 Z-20.696 A277.4310 B0.4148 
N1050 X-341.435 Y49.233 Z-18.915 A277.4615 B0.4017 
N1051 X-341.435 Y49.044 Z-17.170 A277.4881 B0.3886 
N1052 X-341.435 Y48.867 Z-15.487 A277.5335 B0.3754 
N1053 X-341.435 Y48.716 Z-13.889 A277.6331 B0.3621 
N1054 X-341.435 Y48.583 Z-12.398 A277.7556 B0.3490 
N1055 X-341.435 Y48.452 Z-11.029 A277.8536 B0.3369 
N1056 X-341.435 Y48.350 Z-9.789 A277.9960 B0.3255 
N1057 X-341.435 Y48.331 Z-8.673 A278.3573 B0.3136 
N1058 X-341.435 Y48.467 Z-7.664 A279.1678 B0.2995 
N1059 X-341.435 Y48.815 Z-6.741 A280.6227 B0.2821 
N1060 X-341.435 Y49.367 Z-5.878 A282.7283 B0.2613 
N1061 X-341.436 Y50.064 Z-5.056 A285.3183 B0.2381 
N1062 X-341.436 Y50.835 Z-4.263 A288.1891 B0.2137 
N1063 X-341.436 Y51.625 Z-3.494 A291.1700 B0.1888 
N1064 X-341.436 Y52.388 Z-2.750 A294.1207 B0.1645 
N1065 X-341.436 Y53.095 Z-2.035 A296.9403 B0.1413 
N1066 X-341.436 Y53.733 Z-1.355 A299.5759 B0.1196 
N1067 X-341.436 Y54.301 Z-0.710 A302.0166 B0.0994 
N1068 X-341.436 Y54.806 Z-0.095 A304.2794 B0.0807 
N1069 X-341.437 Y55.258 Z0.494 A306.3951 B0.0630 
N1070 X-341.437 Y55.666 Z1.065 A308.3961 B0.0464 
N1071 X-341.437 Y56.038 Z1.624 A310.3119 B0.0304 
N1072 X-341.437 Y56.380 Z2.177 A312.1675 B0.0150 
N1073 X-341.437 Y56.698 Z2.728 A313.9834 B0.0001 
N1074 X-341.437 Y56.993 Z3.284 A315.7768 B-0.0143 
N1075 X-341.437 Y57.268 Z3.847 A317.5621 B-0.0284 
N1076 X-341.437 Y57.525 Z4.421 A319.3521 B-0.0422 
N1077 X-341.437 Y57.764 Z5.011 A321.1600 B-0.0555 
N1078 X-341.437 Y57.984 Z5.622 A323.0002 B-0.0685 
N1079 X-341.437 Y58.187 Z6.258 A324.8904 B-0.0812 
N1080 X-341.437 Y58.369 Z6.930 A326.8527 B-0.0936 
N1081 X-341.438 Y58.530 Z7.645 A328.9146 B-0.1058 
N1082 X-341.438 Y58.665 Z8.417 A331.1073 B-0.1178 
N1083 X-341.438 Y58.766 Z9.257 A333.4624 B-0.1296 
N1084 X-341.438 Y58.821 Z10.175 A336.0059 B-0.1410 
N1085 X-341.438 Y58.812 Z11.177 A338.7488 B-0.1520 
N1086 X-341.438 Y58.712 Z12.254 A341.6642 B-0.1620 
N1087 X-341.438 Y58.487 Z13.370 A344.6463 B-0.1703 
N1088 X-341.438 Y58.102 Z14.451 A347.4812 B-0.1760 
N1089 X-341.438 Y57.526 Z15.392 A349.8756 B-0.1779 
N1090 X-341.438 Y56.750 Z16.121 A351.6154 B-0.1756 
N1091 X-341.438 Y55.773 Z16.624 A352.6601 B-0.1694 
N1092 X-341.438 Y54.592 Z16.948 A353.1242 B-0.1598 
N1093 X-341.438 Y53.202 Z17.176 A353.2369 B-0.1473 
N1094 X-341.438 Y51.596 Z17.398 A353.2455 B-0.1323 
N1095 X-341.438 Y49.761 Z17.651 A353.2559 B-0.1126 
N1096 X-341.437 Y47.684 Z17.939 A353.2733 B-0.0833 
N1097 X-341.437 Y45.355 Z18.261 A353.2902 B-0.0459 
N1098 X-341.437 Y42.772 Z18.647 A353.4059 B-0.0148 
N1099 X-341.437 Y39.953 Z19.257 A354.1455 B-0.0021 
N1100 X-341.437 Y36.907 Z20.254 A356.1723 B-0.0001 
N1101 X-341.437 Y33.596 Z21.343 A358.8346 B-0.0000 
N1102 X-341.437 Y30.030 Z21.987 A0.5443 
N1103 X-341.437 Y26.275 Z22.171 A1.0731 
N1104 X-341.437 Y22.376 Z22.173 A1.1007 
N1105 X-341.437 Y18.377 Z22.166 
N1106 X-341.437 Y14.326 Z22.159 
N1107 X-341.437 Y10.277 Z22.152 
N1108 X-341.437 Y6.285 Z22.145 
N1109 X-341.437 Y2.405 Z22.138 
N1110 X-341.437 Y-1.313 Z22.132 
N1111 X-341.437 Y-4.823 Z22.126 
N1112 X-341.437 Y-8.088 Z22.120 
N1113 X-341.437 Y-11.078 Z22.115 
N1114 X-341.437 Y-13.776 Z22.110 
N1115 X-341.437 Y-16.173 Z22.106 
N1116 X-341.437 Y-18.271 Z22.102 
N1117 X-341.437 Y-20.079 Z22.099 
N1118 X-341.437 Y-21.616 Z22.097 A1.1030 
N1119 X-341.437 Y-22.904 Z22.126 A1.2006 
N1120 X-341.437 Y-23.973 Z22.294 A1.7246 
N1121 X-341.437 Y-24.860 Z22.699 A2.9980 
N1122 X-341.437 Y-25.612 Z23.349 A5.0614 
N1123 X-341.437 Y-26.276 Z24.200 A7.7878 
N1124 X-341.437 Y-26.896 Z25.182 A10.9722 
N1125 X-341.437 Y-27.496 Z26.214 A14.3662 
N1126 X-341.437 Y-28.085 Z27.216 A17.7268 
N1127 X-341.437 Y-28.655 Z28.141 A20.8993 
N1128 X-341.437 Y-29.202 Z28.972 A23.8192 
N1129 X-341.437 Y-29.724 Z29.711 A26.4808 
N1130 X-341.437 Y-30.221 Z30.368 A28.9115 
N1131 X-341.437 Y-30.697 Z30.958 A31.1521 
N1132 X-341.437 Y-31.159 Z31.494 A33.2453 
N1133 X-341.437 Y-31.611 Z31.989 A35.2288 
N1134 X-341.437 Y-32.058 Z32.450 A37.1333 
N1135 X-341.437 Y-32.505 Z32.885 A38.9829 
N1136 X-341.437 Y-32.955 Z33.298 A40.7957 
N1137 X-341.437 Y-33.411 Z33.693 A42.5846 
N1138 X-341.437 Y-33.875 Z34.071 A44.3603 
N1139 X-341.437 Y-34.348 Z34.434 A46.1304 
N1140 X-341.437 Y-34.831 Z34.784 A47.9010 
N1141 X-341.437 Y-35.326 Z35.119 A49.6782 
N1142 X-341.437 Y-35.835 Z35.442 A51.4662 
N1143 X-341.437 Y-36.356 Z35.750 A53.2662 
N1144 X-341.437 Y-36.891 Z36.044 A55.0779 
N1145 X-341.437 Y-37.439 Z36.321 A56.9004 
N1146 X-341.437 Y-37.998 Z36.581 A58.7323 
N1147 X-341.437 Y-38.570 Z36.823 A60.5737 
N1148 X-341.437 Y-39.154 Z37.046 A62.4286 
N1149 X-341.437 Y-39.754 Z37.249 A64.3049 
N1150 X-341.437 Y-40.373 Z37.432 A66.2166 
N1151 X-341.437 Y-41.019 Z37.595 A68.1865 
N1152 X-341.437 Y-41.700 Z37.736 A70.2411 
N1153 X-341.437 Y-42.427 Z37.852 A72.4102 
N1154 X-341.437 Y-43.208 Z37.937 A74.7215 
N1155 X-341.437 Y-44.050 Z37.981 A77.1965 
N1156 X-341.437 Y-44.956 Z37.971 A79.8423 
N1157 X-341.437 Y-45.916 Z37.890 A82.6400 
N1158 X-341.437 Y-46.909 Z37.720 A85.5361 
N1159 X-341.437 Y-47.903 Z37.443 A88.4534 
N1160 X-341.437 Y-48.857 Z37.048 A91.2930 
N1161 X-341.437 Y-49.713 Z36.530 A93.9065 
N1162 X-341.437 Y-50.388 Z35.895 A96.0600 
N1163 X-341.437 Y-50.804 Z35.158 A97.5291 B-0.0000 
N1164 X-341.437 Y-50.956 Z34.328 A98.2839 B-0.0001 
N1165 X-341.437 Y-50.932 Z33.390 A98.5753 B-0.0003 
N1166 X-341.437 Y-50.827 Z32.327 A98.6885 B-0.0014 
N1167 X-341.437 Y-50.695 Z31.130 A98.7783 B-0.0052 
N1168 X-341.437 Y-50.547 Z29.800 A98.8822 B-0.0149 
N1169 X-341.437 Y-50.370 Z28.349 A98.9582 B-0.0330 
N1170 X-341.437 Y-50.164 Z26.791 A98.9936 B-0.0582 
N1171 X-341.437 Y-49.942 Z25.144 A99.0225 B-0.0841 
N1172 X-341.438 Y-49.712 Z23.432 A99.0576 B-0.1046 
N1173 X-341.438 Y-49.476 Z21.683 A99.0947 B-0.1208 
N1174 X-341.438 Y-49.238 Z19.927 A99.1308 B-0.1359 
N1175 X-341.438 Y-49.001 Z18.193 A99.1628 B-0.1508 
N1176 X-341.438 Y-48.771 Z16.510 A99.1992 B-0.1654 
N1177 X-341.438 Y-48.564 Z14.900 A99.2755 B-0.1793 
N1178 X-341.438 Y-48.381 Z13.387 A99.3915 B-0.1923 
N1179 X-341.438 Y-48.208 Z11.988 A99.4932 B-0.2046 
N1180 X-341.438 Y-48.057 Z10.713 A99.6127 B-0.2157 
N1181 X-341.438 Y-47.979 Z9.557 A99.9099 B-0.2249 
N1182 X-341.438 Y-48.044 Z8.507 A100.6057 B-0.2308 
N1183 X-341.438 Y-48.314 Z7.540 A101.9150 B-0.2319 
N1184 X-341.438 Y-48.797 Z6.632 A103.8928 B-0.2276 
N1185 X-341.438 Y-49.441 Z5.763 A106.3999 B-0.2179 
N1186 X-341.438 Y-50.172 Z4.924 A109.2255 B-0.2040 
N1187 X-341.438 Y-50.930 Z4.109 A112.1903 B-0.1867 
N1188 X-341.438 Y-51.669 Z3.320 A115.1477 B-0.1673 
N1189 X-341.438 Y-52.357 Z2.564 A117.9868 B-0.1469 
N1190 X-341.438 Y-52.976 Z1.845 A120.6442 B-0.1262 
N1191 X-341.438 Y-53.524 Z1.166 A123.1015 B-0.1057 
N1192 X-341.437 Y-54.008 Z0.522 A125.3731 B-0.0857 
N1193 X-341.437 Y-54.437 Z-0.093 A127.4900 B-0.0660 
N1194 X-341.437 Y-54.821 Z-0.686 A129.4873 B-0.0466 
N1195 X-341.437 Y-55.169 Z-1.265 A131.3975 B-0.0273 
N1196 X-341.437 Y-55.488 Z-1.837 A133.2488 B-0.0080 
N1197 X-341.437 Y-55.782 Z-2.408 A135.0646 B0.0115 
N1198 X-341.437 Y-56.055 Z-2.984 A136.8641 B0.0312 
N1199 X-341.437 Y-56.309 Z-3.569 A138.6632 B0.0512 
N1200 X-341.437 Y-56.543 Z-4.167 A140.4758 B0.0716 
N1201 X-341.436 Y-56.759 Z-4.785 A142.3164 B0.0924 
N1202 X-341.436 Y-56.956 Z-5.427 A144.2013 B0.1137 
N1203 X-341.436 Y-57.133 Z-6.102 A146.1516 B0.1358 
N1204 X-341.436 Y-57.288 Z-6.818 A148.1942 B0.1589 
N1205 X-341.436 Y-57.416 Z-7.587 A150.3601 B0.1833 
N1206 X-341.436 Y-57.511 Z-8.422 A152.6811 B0.2094 
N1207 X-341.436 Y-57.563 Z-9.332 A155.1831 B0.2375 
N1208 X-341.435 Y-57.552 Z-10.324 A157.8773 B0.2678 
N1209 X-341.435 Y-57.455 Z-11.387 A160.7351 B0.3002 
N1210 X-341.435 Y-57.238 Z-12.488 A163.6507 B0.3338 
N1211 X-341.435 Y-56.867 Z-13.553 A166.4202 B0.3670 
N1212 X-341.435 Y-56.314 Z-14.493 A168.7806 B0.3977 
N1213 X-341.434 Y-55.569 Z-15.238 A170.5368 B0.4245 
N1214 X-341.434 Y-54.628 Z-15.767 A171.6166 B0.4469 
N1215 X-341.434 Y-53.491 Z-16.110 A172.0928 B0.4658 
N1216 X-341.434 Y-52.156 Z-16.355 A172.2024 B0.4833 
N1217 X-341.434 Y-50.621 Z-16.596 A172.2149 B0.5021 
N1218 X-341.434 Y-48.874 Z-16.877 A172.2470 B0.5234 
N1219 X-341.434 Y-46.902 Z-17.196 A172.2980 B0.5464 
N1220 X-341.434 Y-44.695 Z-17.552 A172.3528 B0.5710 
N1221 X-341.433 Y-42.253 Z-18.011 A172.6259 B0.6019 
N1222 X-341.433 Y-39.599 Z-18.782 A173.8266 B0.6525 
N1223 X-341.433 Y-36.717 Z-19.924 A176.3287 B0.7158 
N1224 X-341.433 Y-33.558 Z-21.038 A179.1387 B0.7371 
N1225 X-341.433 Y-30.144 Z-21.608 A180.6747 B0.7349 
N1226 X-341.433 Y-26.538 Z-21.754 A181.1058 B0.7377 
N1227 X-341.433 Y-22.778 Z-21.756 A181.1359 B0.7410 
N1228 X-341.433 Y-18.902 Z-21.746 B0.7443 
N1229 X-341.433 Y-14.957 Z-21.737 B0.7476 
N1230 X-341.433 Y-10.993 Z-21.728 B0.7509 
N1231 X-341.433 Y-7.064 Z-21.718 B0.7542 
N1232 X-341.433 Y-3.223 Z-21.709 B0.7574 
N1233 X-341.433 Y0.477 Z-21.701 B0.7604 
N1234 X-341.433 Y3.989 Z-21.692 A181.1359 B0.7634 
N1235 X-341.432 Y7.273 Z-21.684 B0.7661 
N1236 X-341.432 Y10.297 Z-21.677 B0.7686 
N1237 X-341.432 Y13.039 Z-21.671 B0.7709 
N1238 X-341.432 Y15.486 Z-21.665 A181.1359 B0.7730 
N1239 X-341.432 Y17.637 Z-21.661 A181.1398 B0.7748 
N1240 X-341.432 Y19.498 Z-21.665 A181.1673 B0.7770 
N1241 X-341.432 Y21.085 Z-21.679 A181.2241 B0.7801 
N1242 X-341.432 Y22.418 Z-21.705 A181.3191 B0.7849 
N1243 X-341.432 Y23.525 Z-21.801 A181.6325 B0.7947 
N1244 X-341.432 Y24.439 Z-22.061 A182.4609 B0.8150 
N1245 X-341.432 Y25.198 Z-22.548 A184.0044 B0.8492 
N1246 X-341.432 Y25.853 Z-23.278 A186.3290 B0.8978 
N1247 X-341.431 Y26.452 Z-24.212 A189.3224 B0.9578 
N1248 X-341.431 Y27.034 Z-25.266 A192.7391 B1.0239 
N1249 X-341.431 Y27.616 Z-26.340 A196.2793 B1.0902 
N1250 X-341.430 Y28.195 Z-27.359 A199.7083 B1.1523 
N1251 X-341.430 Y28.760 Z-28.284 A202.8984 B1.2079 
N1252 X-341.430 Y29.303 Z-29.105 A205.8062 B1.2565 
N1253 X-341.429 Y29.823 Z-29.829 A208.4423 B1.2985 
N1254 X-341.429 Y30.319 Z-30.471 A210.8450 B1.3347 
N1255 X-341.429 Y30.796 Z-31.046 A213.0613 B1.3660 
N1256 X-341.429 Y31.261 Z-31.569 A215.1358 B1.3932 
N1257 X-341.429 Y31.718 Z-32.050 A217.1060 B1.4168 
N1258 X-341.429 Y32.172 Z-32.499 A219.0008 B1.4371 
N1259 X-341.429 Y32.626 Z-32.921 A220.8419 B1.4543 
N1260 X-341.428 Y33.083 Z-33.321 A222.6446 B1.4685 
N1261 X-341.428 Y33.546 Z-33.699 A224.4196 B1.4795 
N1262 X-341.428 Y34.014 Z-34.060 A226.1751 B1.4872 
N1263 X-341.428 Y34.490 Z-34.403 A227.9174 B1.4914 
N1264 X-341.428 Y34.974 Z-34.730 A229.6515 B1.4919 
N1265 X-341.428 Y35.468 Z-35.041 A231.3831 B1.4885 
N1266 X-341.428 Y35.971 Z-35.337 A233.1170 B1.4811 
N1267 X-341.428 Y36.486 Z-35.618 A234.8560 B1.4697 
N1268 X-341.429 Y37.011 Z-35.883 A236.6020 B1.4541 
N1269 X-341.429 Y37.548 Z-36.133 A238.3571 B1.4345 
N1270 X-341.429 Y38.096 Z-36.365 A240.1230 B1.4111 
N1271 X-341.429 Y38.657 Z-36.581 A241.9034 B1.3839 
N1272 X-341.429 Y39.232 Z-36.780 A243.7055 B1.3532 
N1273 X-341.429 Y39.825 Z-36.960 A245.5404 B1.3191 
N1274 X-341.430 Y40.442 Z-37.123 A247.4256 B1.2816 
N1275 X-341.430 Y41.090 Z-37.267 A249.3859 B1.2406 
N1276 X-341.430 Y41.778 Z-37.389 A251.4474 B1.1958 
N1277 X-341.430 Y42.515 Z-37.487 A253.6375 B1.1471 
N1278 X-341.431 Y43.309 Z-37.551 A255.9791 B1.0941 
N1279 X-341.431 Y44.165 Z-37.573 A258.4871 B1.0370 
N1280 X-341.431 Y45.080 Z-37.536 A261.1597 B0.9762 
N1281 X-341.432 Y46.044 Z-37.425 A263.9717 B0.9127 
N1282 X-341.432 Y47.035 Z-37.221 A266.8733 B0.8481 
N1283 X-341.432 Y48.022 Z-36.911 A269.7876 B0.7848 
N1284 X-341.433 Y48.955 Z-36.483 A272.5923 B0.7257 
N1285 X-341.433 Y49.760 Z-35.937 A275.0863 B0.6747 
N1286 X-341.433 Y50.353 Z-35.287 A277.0317 B0.6355 
N1287 X-341.433 Y50.691 Z-34.544 A278.3008 B0.6098 
N1288 X-341.433 Y50.807 Z-33.709 A278.9801 B0.5952 
N1289 X-341.434 Y50.781 Z-32.767 A279.3052 B0.5867 
N1290 X-341.434 Y50.685 Z-31.706 A279.4850 B0.5799 
N1291 X-341.434 Y50.560 Z-30.518 A279.6437 B0.5722 
N1292 X-341.434 Y50.407 Z-29.207 A279.7871 B0.5632 
N1293 X-341.434 Y50.211 Z-27.787 A279.8614 B0.5536 
N1294 X-341.434 Y49.984 Z-26.271 A279.8893 B0.5429 
N1295 X-341.434 Y49.744 Z-24.678 A279.9179 B0.5305 
N1296 X-341.434 Y49.497 Z-23.030 A279.9527 B0.5167 
N1297 X-341.434 Y49.244 Z-21.355 A279.9881 B0.5019 
N1298 X-341.434 Y48.990 Z-19.682 A280.0213 B0.4867 
N1299 X-341.434 Y48.740 Z-18.038 A280.0535 B0.4712 
N1300 X-341.434 Y48.505 Z-16.448 A280.1093 B0.4554 
N1301 X-341.434 Y48.299 Z-14.933 A280.2241 B0.4392 
N1302 X-341.434 Y48.114 Z-13.514 A280.3631 B0.4233 
N1303 X-341.435 Y47.937 Z-12.207 A280.4804 B0.4085 
N1304 X-341.435 Y47.803 Z-11.014 A280.6808 B0.3939 
N1305 X-341.435 Y47.782 Z-9.925 A281.1800 B0.3776 
N1306 X-341.435 Y47.939 Z-8.922 A282.1964 B0.3577 
N1307 X-341.435 Y48.310 Z-7.981 A283.8703 B0.3328 
N1308 X-341.435 Y48.871 Z-7.080 A286.1534 B0.3035 
N1309 X-341.435 Y49.549 Z-6.208 A288.8463 B0.2715 
N1310 X-341.436 Y50.277 Z-5.362 A291.7433 B0.2386 
N1311 X-341.436 Y51.001 Z-4.541 A294.6860 B0.2060 
N1312 X-341.436 Y51.687 Z-3.751 A297.5533 B0.1747 
N1313 X-341.436 Y52.311 Z-2.998 A300.2651 B0.1453 
N1314 X-341.436 Y52.866 Z-2.285 A302.7861 B0.1182 
N1315 X-341.436 Y53.355 Z-1.609 A305.1192 B0.0933 
N1316 X-341.437 Y53.787 Z-0.966 A307.2909 B0.0701 
N1317 X-341.437 Y54.172 Z-0.346 A309.3348 B0.0485 
N1318 X-341.437 Y54.518 Z0.256 A311.2838 B0.0280 
N1319 X-341.437 Y54.833 Z0.850 A313.1671 B0.0085 
N1320 X-341.437 Y55.120 Z1.442 A315.0102 B-0.0102 
N1321 X-341.437 Y55.385 Z2.038 A316.8351 B-0.0284 
N1322 X-341.437 Y55.629 Z2.644 A318.6613 B-0.0459 
N1323 X-341.437 Y55.853 Z3.267 A320.5074 B-0.0630 
N1324 X-341.437 Y56.058 Z3.914 A322.3930 B-0.0797 
N1325 X-341.438 Y56.242 Z4.591 A324.3398 B-0.0959 
N1326 X-341.438 Y56.404 Z5.309 A326.3734 B-0.1119 
N1327 X-341.438 Y56.540 Z6.078 A328.5227 B-0.1276 
N1328 X-341.438 Y56.644 Z6.910 A330.8165 B-0.1431 
N1329 X-341.438 Y56.705 Z7.815 A333.2779 B-0.1582 
N1330 X-341.438 Y56.706 Z8.795 A335.9156 B-0.1728 
N1331 X-341.438 Y56.625 Z9.846 A338.7038 B-0.1863 
N1332 X-341.438 Y56.431 Z10.933 A341.5457 B-0.1978 
N1333 X-341.438 Y56.089 Z11.994 A344.2538 B-0.2061 
N1334 X-341.438 Y55.572 Z12.943 A346.5829 B-0.2099 
N1335 X-341.438 Y54.869 Z13.715 A348.3421 B-0.2086 
N1336 X-341.438 Y53.977 Z14.282 A349.4486 B-0.2023 
N1337 X-341.438 Y52.899 Z14.669 A349.9565 B-0.1914 
N1338 X-341.438 Y51.640 Z14.956 A350.0841 B-0.1770 
N1339 X-341.438 Y50.205 Z15.238 A350.0997 B-0.1601 
N1340 X-341.438 Y48.589 Z15.561 A350.1347 B-0.1413 
N1341 X-341.438 Y46.782 Z15.928 A350.1985 B-0.1195 
N1342 X-341.437 Y44.772 Z16.327 A350.2453 B-0.0893 
N1343 X-341.437 Y42.555 Z16.776 A350.3302 B-0.0483 
N1344 X-341.437 Y40.152 Z17.424 A350.9377 B-0.0149 
N1345 X-341.437 Y37.586 Z18.505 A352.9059 B-0.0017 
N1346 X-341.437 Y34.805 Z19.955 A356.2919 B-0.0000 
N1347 X-341.437 Y31.738 Z21.123 A359.2978 B0.0000 
N1348 X-341.437 Y28.438 Z21.668 A0.7901 
N1349 X-341.437 Y24.966 Z21.772 A1.1028 
N1350 X-341.437 Y21.355 Z21.767 A1.1088 
N1351 X-341.437 Y17.636 Z21.760 
N1352 X-341.437 Y13.850 Z21.753 
N1353 X-341.437 Y10.043 Z21.746 
N1354 X-341.437 Y6.264 Z21.739 
N1355 X-341.437 Y2.563 Z21.732 
N1356 X-341.437 Y-1.010 Z21.725 
N1357 X-341.437 Y-4.411 Z21.718 
N1358 X-341.437 Y-7.598 Z21.712 
N1359 X-341.437 Y-10.541 Z21.707 
N1360 X-341.437 Y-13.215 Z21.702 
N1361 X-341.437 Y-15.609 Z21.697 
N1362 X-341.437 Y-17.717 Z21.693 
N1363 X-341.437 Y-19.546 Z21.690 
N1364 X-341.437 Y-21.109 Z21.687 A1.1090 
N1365 X-341.437 Y-22.425 Z21.699 A1.1537 
N1366 X-341.437 Y-23.520 Z21.804 A1.4857 
N1367 X-341.437 Y-24.427 Z22.111 A2.4469 
N1368 X-341.437 Y-25.187 Z22.659 A4.1785 
N1369 X-341.437 Y-25.846 Z23.433 A6.6427 
N1370 X-341.437 Y-26.452 Z24.379 A9.6819 
N1371 X-341.437 Y-27.039 Z25.415 A13.0564 
N1372 X-341.437 Y-27.618 Z26.454 A16.4937 
N1373 X-341.437 Y-28.186 Z27.428 A19.7903 
N1374 X-341.437 Y-28.736 Z28.311 A22.8452 
N1375 X-341.437 Y-29.263 Z29.096 A25.6317 
N1376 X-341.437 Y-29.764 Z29.792 A28.1666 
N1377 X-341.437 Y-30.244 Z30.412 A30.4889 
N1378 X-341.437 Y-30.707 Z30.973 A32.6427 
N1379 X-341.437 Y-31.158 Z31.487 A34.6695 
N1380 X-341.437 Y-31.602 Z31.963 A36.6041 
N1381 X-341.437 Y-32.045 Z32.411 A38.4733 
N1382 X-341.437 Y-32.490 Z32.834 A40.2979 
N1383 X-341.437 Y-32.939 Z33.238 A42.0932 
N1384 X-341.437 Y-33.396 Z33.625 A43.8700 
N1385 X-341.437 Y-33.860 Z33.996 A45.6371 
N1386 X-341.437 Y-34.335 Z34.352 A47.4015 
N1387 X-341.437 Y-34.820 Z34.695 A49.1685 
N1388 X-341.437 Y-35.318 Z35.024 A50.9432 
N1389 X-341.437 Y-35.828 Z35.340 A52.7291 
N1390 X-341.437 Y-36.352 Z35.641 A54.5261 
N1391 X-341.437 Y-36.887 Z35.928 A56.3326 
N1392 X-341.437 Y-37.434 Z36.197 A58.1464 
N1393 X-341.437 Y-37.992 Z36.449 A59.9652 
N1394 X-341.437 Y-38.559 Z36.682 A61.7877 
N1395 X-341.437 Y-39.136 Z36.896 A63.6158 
N1396 X-341.437 Y-39.725 Z37.089 A65.4564 
N1397 X-341.437 Y-40.329 Z37.263 A67.3207 
N1398 X-341.437 Y-40.954 Z37.417 A69.2278 
N1399 X-341.437 Y-41.607 Z37.550 A71.2008 
N1400 X-341.437 Y-42.296 Z37.660 A73.2636 
N1401 X-341.437 Y-43.029 Z37.743 A75.4418 
N1402 X-341.437 Y-43.814 Z37.792 A77.7577 
N1403 X-341.437 Y-44.654 Z37.796 A80.2265 
N1404 X-341.437 Y-45.549 Z37.743 A82.8485 
N1405 X-341.437 Y-46.488 Z37.618 A85.6013 
N1406 X-341.437 Y-47.452 Z37.403 A88.4417 
N1407 X-341.437 Y-48.415 Z37.087 A91.3124 
N1408 X-341.437 Y-49.339 Z36.657 A94.1235 
N1409 X-341.437 Y-50.161 Z36.113 A96.7089 
N1410 X-341.437 Y-50.790 Z35.467 A98.8119 B-0.0000 
N1411 X-341.437 Y-51.156 Z34.738 A100.2255 B-0.0001 
N1412 X-341.437 Y-51.270 Z33.930 A100.9694 B-0.0006 
N1413 X-341.437 Y-51.220 Z33.027 A101.2990 B-0.0026 
N1414 X-341.437 Y-51.087 Z32.010 A101.4582 B-0.0080 
N1415 X-341.437 Y-50.917 Z30.867 A101.5818 B-0.0195 
N1416 X-341.437 Y-50.719 Z29.602 A101.6995 B-0.0388 
N1417 X-341.437 Y-50.483 Z28.226 A101.7725 B-0.0632 
N1418 X-341.437 Y-50.213 Z26.751 A101.8063 B-0.0870 
N1419 X-341.438 Y-49.927 Z25.195 A101.8384 B-0.1076 
N1420 X-341.438 Y-49.630 Z23.580 A101.8769 B-0.1261 
N1421 X-341.438 Y-49.326 Z21.932 A101.9169 B-0.1437 
N1422 X-341.438 Y-49.020 Z20.279 A101.9557 B-0.1613 
N1423 X-341.438 Y-48.716 Z18.648 A101.9908 B-0.1788 
N1424 X-341.438 Y-48.424 Z17.066 A102.0376 B-0.1958 
N1425 X-341.438 Y-48.160 Z15.551 A102.1347 B-0.2119 
N1426 X-341.438 Y-47.922 Z14.126 A102.2653 B-0.2270 
N1427 X-341.438 Y-47.697 Z12.808 A102.3788 B-0.2412 
N1428 X-341.438 Y-47.516 Z11.600 A102.5677 B-0.2536 
N1429 X-341.438 Y-47.451 Z10.489 A103.0557 B-0.2626 
N1430 X-341.438 Y-47.567 Z9.456 A104.0659 B-0.2664 
N1431 X-341.438 Y-47.901 Z8.477 A105.7394 B-0.2632 
N1432 X-341.438 Y-48.426 Z7.532 A108.0279 B-0.2529 
N1433 X-341.438 Y-49.070 Z6.612 A110.7286 B-0.2364 
N1434 X-341.438 Y-49.761 Z5.716 A113.6320 B-0.2152 
N1435 X-341.438 Y-50.448 Z4.849 A116.5766 B-0.1910 
N1436 X-341.438 Y-51.094 Z4.016 A119.4373 B-0.1650 
N1437 X-341.438 Y-51.676 Z3.225 A122.1311 B-0.1386 
N1438 X-341.438 Y-52.188 Z2.479 A124.6243 B-0.1125 
N1439 X-341.437 Y-52.633 Z1.776 A126.9243 B-0.0870 
N1440 X-341.437 Y-53.022 Z1.108 A129.0626 B-0.0620 
N1441 X-341.437 Y-53.366 Z0.466 A131.0773 B-0.0374 
N1442 X-341.437 Y-53.674 Z-0.160 A133.0051 B-0.0129 
N1443 X-341.437 Y-53.951 Z-0.778 A134.8787 B0.0116 
N1444 X-341.437 Y-54.204 Z-1.397 A136.7257 B0.0364 
N1445 X-341.437 Y-54.435 Z-2.025 A138.5692 B0.0616 
N1446 X-341.436 Y-54.645 Z-2.667 A140.4298 B0.0874 
N1447 X-341.436 Y-54.834 Z-3.332 A142.3278 B0.1139 
N1448 X-341.436 Y-55.002 Z-4.027 A144.2860 B0.1416 
N1449 X-341.436 Y-55.146 Z-4.764 A146.3320 B0.1706 
N1450 X-341.436 Y-55.263 Z-5.552 A148.4962 B0.2014 
N1451 X-341.436 Y-55.346 Z-6.404 A150.8075 B0.2346 
N1452 X-341.435 Y-55.383 Z-7.327 A153.2861 B0.2704 
N1453 X-341.435 Y-55.358 Z-8.325 A155.9323 B0.3090 
N1454 X-341.435 Y-55.245 Z-9.381 A158.6983 B0.3499 
N1455 X-341.435 Y-55.012 Z-10.455 A161.4608 B0.3919 
N1456 X-341.434 Y-54.630 Z-11.479 A164.0205 B0.4328 
N1457 X-341.434 Y-54.075 Z-12.379 A166.1627 B0.4700 
N1458 X-341.434 Y-53.340 Z-13.097 A167.7210 B0.5018 
N1459 X-341.434 Y-52.422 Z-13.611 A168.6160 B0.5274 
N1460 X-341.434 Y-51.329 Z-13.961 A168.9495 B0.5479 
N1461 X-341.434 Y-50.069 Z-14.249 A169.0073 B0.5668 
N1462 X-341.434 Y-48.649 Z-14.558 A169.0316 B0.5875 
N1463 X-341.433 Y-47.062 Z-14.919 A169.1048 B0.6106 
N1464 X-341.433 Y-45.296 Z-15.321 A169.1972 B0.6352 
N1465 X-341.433 Y-43.341 Z-15.759 A169.2902 B0.6612 
N1466 X-341.433 Y-41.206 Z-16.333 A169.6923 B0.6957 
N1467 X-341.433 Y-38.924 Z-17.286 A171.2352 B0.7571 
N1468 X-341.432 Y-36.463 Z-18.676 A174.2920 B0.8422 
N1469 X-341.432 Y-33.732 Z-20.123 A177.9301 B0.8895 
N1470 X-341.432 Y-30.722 Z-20.979 A180.2178 B0.8947 
N1471 X-341.432 Y-27.507 Z-21.263 A181.0203 B0.8985 
N1472 X-341.432 Y-24.124 Z-21.295 A181.1355 B0.9021 
N1473 X-341.432 Y-20.598 Z-21.287 A181.1363 B0.9050 
N1474 X-341.432 Y-16.962 Z-21.278 B0.9081 
N1475 X-341.432 Y-13.254 Z-21.269 B0.9112 
N1476 X-341.432 Y-9.521 Z-21.260 B0.9143 
N1477 X-341.432 Y-5.811 Z-21.252 B0.9174 
N1478 X-341.432 Y-2.175 Z-21.243 B0.9204 
N1479 X-341.432 Y1.338 Z-21.235 A181.1363 B0.9234 
N1480 X-341.432 Y4.681 Z-21.227 B0.9262 
N1481 X-341.432 Y7.814 Z-21.219 B0.9288 
N1482 X-341.432 Y10.705 Z-21.212 B0.9312 
N1483 X-341.432 Y13.330 Z-21.206 B0.9334 
N1484 X-341.432 Y15.676 Z-21.201 A181.1364 B0.9354 
N1485 X-341.432 Y17.740 Z-21.198 A181.1450 B0.9373 
N1486 X-341.431 Y19.528 Z-21.210 A181.1949 B0.9399 
N1487 X-341.431 Y21.052 Z-21.233 A181.2836 B0.9438 
N1488 X-341.431 Y22.333 Z-21.261 A181.3895 B0.9492 
N1489 X-341.431 Y23.395 Z-21.342 A181.6581 B0.9592 
N1490 X-341.431 Y24.269 Z-21.564 A182.3695 B0.9793 
N1491 X-341.431 Y24.993 Z-22.010 A183.7806 B1.0144 
N1492 X-341.431 Y25.615 Z-22.719 A186.0257 B1.0660 
N1493 X-341.430 Y26.186 Z-23.654 A189.0063 B1.1309 
N1494 X-341.430 Y26.747 Z-24.728 A192.4638 B1.2028 
N1495 X-341.430 Y27.314 Z-25.831 A196.0743 B1.2746 
N1496 X-341.429 Y27.884 Z-26.881 A199.5847 B1.3413 
N1497 X-341.429 Y28.445 Z-27.836 A202.8537 B1.4003 
N1498 X-341.429 Y28.988 Z-28.682 A205.8296 B1.4511 
N1499 X-341.428 Y29.507 Z-29.427 A208.5203 B1.4943 
N1500 X-341.428 Y30.003 Z-30.084 A210.9650 B1.5311 
N1501 X-341.428 Y30.481 Z-30.671 A213.2132 B1.5625 
N1502 X-341.428 Y30.945 Z-31.204 A215.3119 B1.5895 
N1503 X-341.428 Y31.400 Z-31.693 A217.3007 B1.6127 
N1504 X-341.427 Y31.853 Z-32.149 A219.2103 B1.6327 
N1505 X-341.427 Y32.306 Z-32.577 A221.0628 B1.6495 
N1506 X-341.427 Y32.762 Z-32.981 A222.8740 B1.6634 
N1507 X-341.427 Y33.222 Z-33.364 A224.6548 B1.6742 
N1508 X-341.427 Y33.688 Z-33.727 A226.4122 B1.6819 
N1509 X-341.427 Y34.160 Z-34.073 A228.1520 B1.6863 
N1510 X-341.427 Y34.639 Z-34.401 A229.8791 B1.6872 
N1511 X-341.427 Y35.126 Z-34.713 A231.5979 B1.6844 
N1512 X-341.427 Y35.621 Z-35.009 A233.3134 B1.6779 
N1513 X-341.427 Y36.126 Z-35.289 A235.0297 B1.6674 
N1514 X-341.427 Y36.641 Z-35.554 A236.7494 B1.6529 
N1515 X-341.427 Y37.165 Z-35.803 A238.4743 B1.6345 
N1516 X-341.428 Y37.700 Z-36.036 A240.2065 B1.6122 
N1517 X-341.428 Y38.245 Z-36.253 A241.9485 B1.5861 
N1518 X-341.428 Y38.802 Z-36.453 A243.7042 B1.5563 
N1519 X-341.428 Y39.373 Z-36.636 A245.4806 B1.5232 
N1520 X-341.428 Y39.960 Z-36.801 A247.2889 B1.4867 
N1521 X-341.429 Y40.569 Z-36.949 A249.1449 B1.4468 
N1522 X-341.429 Y41.206 Z-37.079 A251.0696 B1.4035 
N1523 X-341.429 Y41.879 Z-37.188 A253.0838 B1.3565 
N1524 X-341.429 Y42.594 Z-37.272 A255.2096 B1.3056 
N1525 X-341.430 Y43.357 Z-37.325 A257.4667 B1.2506 
N1526 X-341.430 Y44.175 Z-37.338 A259.8703 B1.1912 
N1527 X-341.430 Y45.046 Z-37.300 A262.4260 B1.1277 
N1528 X-341.431 Y45.966 Z-37.196 A265.1258 B1.0606 
N1529 X-341.431 Y46.923 Z-37.011 A267.9456 B0.9911 
N1530 X-341.432 Y47.895 Z-36.731 A270.8371 B0.9210 
N1531 X-341.432 Y48.844 Z-36.343 A273.7078 B0.8529 
N1532 X-341.432 Y49.703 Z-35.844 A276.3874 B0.7907 
N1533 X-341.433 Y50.389 Z-35.246 A278.6372 B0.7394 
N1534 X-341.433 Y50.841 Z-34.565 A280.2795 B0.7023 
N1535 X-341.433 Y51.054 Z-33.809 A281.2986 B0.6790 
N1536 X-341.433 Y51.087 Z-32.969 A281.8590 B0.6655 
N1537 X-341.433 Y51.006 Z-32.029 A282.1604 B0.6567 
N1538 X-341.433 Y50.868 Z-30.975 A282.3711 B0.6484 
N1539 X-341.433 Y50.695 Z-29.805 A282.5618 B0.6389 
N1540 X-341.433 Y50.475 Z-28.529 A282.6859 B0.6288 
N1541 X-341.433 Y50.206 Z-27.158 A282.7310 B0.6180 
N1542 X-341.433 Y49.913 Z-25.706 A282.7575 B0.6055 
N1543 X-341.434 Y49.609 Z-24.189 A282.7927 B0.5911 
N1544 X-341.434 Y49.296 Z-22.632 A282.8311 B0.5752 
N1545 X-341.434 Y48.979 Z-21.061 A282.8682 B0.5585 
N1546 X-341.434 Y48.663 Z-19.501 A282.9043 B0.5413 
N1547 X-341.434 Y48.358 Z-17.978 A282.9523 B0.5237 
N1548 X-341.434 Y48.079 Z-16.511 A283.0488 B0.5055 
N1549 X-341.434 Y47.831 Z-15.120 A283.1968 B0.4872 
N1550 X-341.434 Y47.598 Z-13.825 A283.3407 B0.4696 
N1551 X-341.434 Y47.402 Z-12.630 A283.5353 B0.4523 
N1552 X-341.434 Y47.311 Z-11.525 A283.9997 B0.4327 
N1553 X-341.435 Y47.394 Z-10.490 A284.9620 B0.4083 
N1554 X-341.435 Y47.688 Z-9.502 A286.5691 B0.3776 
N1555 X-341.435 Y48.178 Z-8.541 A288.8011 B0.3410 
N1556 X-341.435 Y48.793 Z-7.600 A291.4675 B0.3008 
N1557 X-341.435 Y49.457 Z-6.682 A294.3429 B0.2595 
N1558 X-341.436 Y50.117 Z-5.791 A297.2602 B0.2189 
N1559 X-341.436 Y50.737 Z-4.935 A300.0972 B0.1802 
N1560 X-341.436 Y51.294 Z-4.122 A302.7731 B0.1444 
N1561 X-341.436 Y51.781 Z-3.355 A305.2543 B0.1116 
N1562 X-341.436 Y52.205 Z-2.629 A307.5493 B0.0816 
N1563 X-341.437 Y52.573 Z-1.938 A309.6905 B0.0540 
N1564 X-341.437 Y52.897 Z-1.272 A311.7160 B0.0283 
N1565 X-341.437 Y53.185 Z-0.619 A313.6623 B0.0041 
N1566 X-341.437 Y53.443 Z0.029 A315.5632 B-0.0189 
N1567 X-341.437 Y53.675 Z0.682 A317.4485 B-0.0410 
N1568 X-341.437 Y53.884 Z1.349 A319.3454 B-0.0623 
N1569 X-341.437 Y54.070 Z2.039 A321.2799 B-0.0830 
N1570 X-341.438 Y54.233 Z2.762 A323.2789 B-0.1032 
N1571 X-341.438 Y54.371 Z3.530 A325.3711 B-0.1230 
N1572 X-341.438 Y54.477 Z4.353 A327.5860 B-0.1424 
N1573 X-341.438 Y54.545 Z5.240 A329.9478 B-0.1614 
N1574 X-341.438 Y54.561 Z6.199 A332.4677 B-0.1798 
N1575 X-341.438 Y54.506 Z7.225 A335.1284 B-0.1970 
N1576 X-341.438 Y54.351 Z8.293 A337.8523 B-0.2122 
N1577 X-341.438 Y54.065 Z9.352 A340.4835 B-0.2239 
N1578 X-341.438 Y53.619 Z10.330 A342.8113 B-0.2306 
N1579 X-341.438 Y53.000 Z11.162 A344.6459 B-0.2314 
N1580 X-341.438 Y52.202 Z11.805 A345.8565 B-0.2260 
N1581 X-341.438 Y51.232 Z12.264 A346.4419 B-0.2149 
N1582 X-341.438 Y50.104 Z12.610 A346.6041 B-0.1995 
N1583 X-341.438 Y48.837 Z12.944 A346.6292 B-0.1817 
N1584 X-341.438 Y47.435 Z13.318 A346.6754 B-0.1623 
N1585 X-341.438 Y45.893 Z13.743 A346.7681 B-0.1411 
N1586 X-341.438 Y44.202 Z14.199 A346.8505 B-0.1161 
N1587 X-341.437 Y42.353 Z14.684 A346.9089 B-0.0835 
N1588 X-341.437 Y40.362 Z15.291 A347.2352 B-0.0450 
N1589 X-341.437 Y38.272 Z16.266 A348.6517 B-0.0132 
N1590 X-341.437 Y36.070 Z17.763 A351.8139 B-0.0011 
N1591 X-341.437 Y33.636 Z19.487 A356.0514 B-0.0000 
N1592 X-341.437 Y30.900 Z20.720 A359.2912 
N1593 X-341.437 Y27.940 Z21.265 A0.8008 
N1594 X-341.437 Y24.811 Z21.368 A1.1110 
N1595 X-341.437 Y21.532 Z21.364 A1.1179 
N1596 X-341.437 Y18.124 Z21.357 
N1597 X-341.437 Y14.618 Z21.349 
N1598 X-341.437 Y11.051 Z21.342 
N1599 X-341.437 Y7.465 Z21.335 
N1600 X-341.437 Y3.909 Z21.327 
N1601 X-341.437 Y0.431 Z21.320 
N1602 X-341.437 Y-2.922 Z21.313 
N1603 X-341.437 Y-6.106 Z21.307 
N1604 X-341.437 Y-9.082 Z21.301 
N1605 X-341.437 Y-11.821 Z21.295 
N1606 X-341.437 Y-14.300 Z21.290 
N1607 X-341.437 Y-16.510 Z21.285 
N1608 X-341.437 Y-18.447 Z21.281 
N1609 X-341.437 Y-20.120 Z21.278 
N1610 X-341.437 Y-21.541 Z21.276 A1.1223 
N1611 X-341.437 Y-22.733 Z21.308 A1.2277 
N1612 X-341.437 Y-23.720 Z21.464 A1.7157 
N1613 X-341.437 Y-24.538 Z21.829 A2.8617 
N1614 X-341.437 Y-25.227 Z22.435 A4.7753 
N1615 X-341.437 Y-25.836 Z23.267 A7.4221 
N1616 X-341.437 Y-26.410 Z24.263 A10.6178 
N1617 X-341.437 Y-26.977 Z25.329 A14.0883 
N1618 X-341.437 Y-27.543 Z26.374 A17.5530 
N1619 X-341.437 Y-28.099 Z27.343 A20.8335 
N1620 X-341.437 Y-28.638 Z28.212 A23.8499 
N1621 X-341.437 Y-29.153 Z28.982 A26.5901 
N1622 X-341.437 Y-29.645 Z29.663 A29.0799 
N1623 X-341.437 Y-30.116 Z30.272 A31.3628 
N1624 X-341.437 Y-30.572 Z30.822 A33.4847 
N1625 X-341.437 Y-31.017 Z31.328 A35.4865 
N1626 X-341.437 Y-31.458 Z31.798 A37.4018 
N1627 X-341.437 Y-31.897 Z32.241 A39.2567 
N1628 X-341.437 Y-32.340 Z32.660 A41.0701 
N1629 X-341.437 Y-32.787 Z33.060 A42.8564 
N1630 X-341.437 Y-33.241 Z33.444 A44.6262 
N1631 X-341.437 Y-33.704 Z33.812 A46.3866 
N1632 X-341.437 Y-34.177 Z34.165 A48.1444 
N1633 X-341.437 Y-34.661 Z34.505 A49.9055 
N1634 X-341.437 Y-35.157 Z34.832 A51.6740 
N1635 X-341.437 Y-35.665 Z35.145 A53.4527 
N1636 X-341.437 Y-36.186 Z35.444 A55.2427 
N1637 X-341.437 Y-36.720 Z35.728 A57.0418 
N1638 X-341.437 Y-37.263 Z35.996 A58.8467 
N1639 X-341.437 Y-37.817 Z36.245 A60.6542 
N1640 X-341.437 Y-38.379 Z36.476 A62.4623 
N1641 X-341.437 Y-38.948 Z36.688 A64.2701 
N1642 X-341.437 Y-39.526 Z36.879 A66.0806 
N1643 X-341.437 Y-40.114 Z37.051 A67.9025 
N1644 X-341.437 Y-40.717 Z37.203 A69.7484 
N1645 X-341.437 Y-41.339 Z37.335 A71.6360 
N1646 X-341.437 Y-41.986 Z37.447 A73.5845 
N1647 X-341.437 Y-42.666 Z37.534 A75.6135 
N1648 X-341.437 Y-43.383 Z37.594 A77.7440 
N1649 X-341.437 Y-44.145 Z37.621 A79.9955 
N1650 X-341.437 Y-44.956 Z37.604 A82.3823 
N1651 X-341.437 Y-45.814 Z37.535 A84.9088 
N1652 X-341.437 Y-46.713 Z37.398 A87.5641 
N1653 X-341.437 Y-47.643 Z37.181 A90.3265 
N1654 X-341.437 Y-48.584 Z36.869 A93.1624 
N1655 X-341.437 Y-49.507 Z36.452 A96.0053 
N1656 X-341.437 Y-50.355 Z35.927 A98.7095 
N1657 X-341.437 Y-51.038 Z35.307 A101.0228 B-0.0000 
N1658 X-341.437 Y-51.476 Z34.614 A102.7061 B-0.0001 
N1659 X-341.437 Y-51.652 Z33.861 A103.7040 B-0.0009 
N1660 X-341.437 Y-51.636 Z33.035 A104.2131 B-0.0039 
N1661 X-341.437 Y-51.505 Z32.112 A104.4704 B-0.0117 
N1662 X-341.437 Y-51.312 Z31.078 A104.6364 B-0.0265 
N1663 X-341.437 Y-51.080 Z29.929 A104.7769 B-0.0478 
N1664 X-341.437 Y-50.803 Z28.673 A104.8703 B-0.0722 
N1665 X-341.437 Y-50.483 Z27.321 A104.9127 B-0.0950 
N1666 X-341.438 Y-50.139 Z25.887 A104.9450 B-0.1146 
N1667 X-341.438 Y-49.780 Z24.387 A104.9851 B-0.1333 
N1668 X-341.438 Y-49.410 Z22.846 A105.0284 B-0.1523 
N1669 X-341.438 Y-49.035 Z21.290 A105.0712 B-0.1717 
N1670 X-341.438 Y-48.661 Z19.743 A105.1112 B-0.1911 
N1671 X-341.438 Y-48.295 Z18.231 A105.1552 B-0.2101 
N1672 X-341.438 Y-47.955 Z16.773 A105.2368 B-0.2282 
N1673 X-341.438 Y-47.646 Z15.388 A105.3654 B-0.2451 
N1674 X-341.438 Y-47.361 Z14.094 A105.5053 B-0.2608 
N1675 X-341.439 Y-47.126 Z12.895 A105.7310 B-0.2746 
N1676 X-341.439 Y-47.012 Z11.776 A106.2659 B-0.2843 
N1677 X-341.439 Y-47.083 Z10.715 A107.3338 B-0.2874 
N1678 X-341.439 Y-47.371 Z9.687 A109.0683 B-0.2817 
N1679 X-341.438 Y-47.848 Z8.676 A111.4142 B-0.2670 
N1680 X-341.438 Y-48.434 Z7.681 A114.1523 B-0.2449 
N1681 X-341.438 Y-49.056 Z6.710 A117.0613 B-0.2175 
N1682 X-341.438 Y-49.662 Z5.770 A119.9770 B-0.1867 
N1683 X-341.438 Y-50.218 Z4.873 A122.7765 B-0.1545 
N1684 X-341.438 Y-50.706 Z4.027 A125.3861 B-0.1222 
N1685 X-341.437 Y-51.123 Z3.234 A127.7883 B-0.0905 
N1686 X-341.437 Y-51.478 Z2.485 A130.0090 B-0.0595 
N1687 X-341.437 Y-51.783 Z1.769 A132.0910 B-0.0291 
N1688 X-341.437 Y-52.049 Z1.075 A134.0792 B0.0012 
N1689 X-341.437 Y-52.283 Z0.388 A136.0144 B0.0317 
N1690 X-341.437 Y-52.489 Z-0.301 A137.9314 B0.0627 
N1691 X-341.436 Y-52.671 Z-1.003 A139.8602 B0.0945 
N1692 X-341.436 Y-52.829 Z-1.729 A141.8290 B0.1276 
N1693 X-341.436 Y-52.960 Z-2.490 A143.8683 B0.1622 
N1694 X-341.436 Y-53.064 Z-3.298 A146.0114 B0.1991 
N1695 X-341.436 Y-53.134 Z-4.165 A148.2882 B0.2388 
N1696 X-341.435 Y-53.160 Z-5.099 A150.7177 B0.2817 
N1697 X-341.435 Y-53.126 Z-6.100 A153.2947 B0.3281 
N1698 X-341.435 Y-53.007 Z-7.151 A155.9614 B0.3771 
N1699 X-341.434 Y-52.772 Z-8.210 A158.5871 B0.4270 
N1700 X-341.434 Y-52.394 Z-9.212 A160.9819 B0.4749 
N1701 X-341.434 Y-51.853 Z-10.094 A162.9562 B0.5183 
N1702 X-341.434 Y-51.143 Z-10.804 A164.3559 B0.5547 
N1703 X-341.434 Y-50.266 Z-11.327 A165.1302 B0.5831 
N1704 X-341.433 Y-49.239 Z-11.718 A165.4252 B0.6055 
N1705 X-341.433 Y-48.080 Z-12.069 A165.5097 B0.6258 
N1706 X-341.433 Y-46.801 Z-12.442 A165.5647 B0.6468 
N1707 X-341.433 Y-45.399 Z-12.857 A165.6483 B0.6694 
N1708 X-341.433 Y-43.866 Z-13.307 A165.7361 B0.6931 
N1709 X-341.433 Y-42.195 Z-13.797 A165.8401 B0.7185 
N1710 X-341.433 Y-40.403 Z-14.425 A166.2679 B0.7533 
N1711 X-341.432 Y-38.531 Z-15.430 A167.8267 B0.8182 
N1712 X-341.432 Y-36.556 Z-16.926 A171.0226 B0.9223 
N1713 X-341.431 Y-34.358 Z-18.678 A175.3305 B1.0156 
N1714 X-341.431 Y-31.852 Z-20.034 A178.9018 B1.0481 
N1715 X-341.431 Y-29.103 Z-20.655 A180.6064 B1.0565 
N1716 X-341.431 Y-26.169 Z-20.821 A181.0928 B1.0620 
N1717 X-341.431 Y-23.069 Z-20.829 A181.1371 B1.0651 
N1718 X-341.431 Y-19.817 Z-20.821 A181.1371 B1.0678 
N1719 X-341.431 Y-16.439 Z-20.813 B1.0706 
N1720 X-341.431 Y-12.968 Z-20.805 B1.0735 
N1721 X-341.431 Y-9.443 Z-20.797 B1.0765 
N1722 X-341.431 Y-5.912 Z-20.788 B1.0795 
N1723 X-341.431 Y-2.422 Z-20.780 B1.0824 
N1724 X-341.431 Y0.976 Z-20.772 A181.1371 B1.0853 
N1725 X-341.431 Y4.234 Z-20.764 B1.0880 
N1726 X-341.431 Y7.310 Z-20.757 B1.0906 
N1727 X-341.431 Y10.168 Z-20.750 B1.0930 
N1728 X-341.431 Y12.779 Z-20.743 B1.0952 
N1729 X-341.431 Y15.127 Z-20.738 A181.1371 B1.0971 
N1730 X-341.431 Y17.204 Z-20.735 A181.1429 B1.0990 
N1731 X-341.431 Y19.011 Z-20.746 A181.1906 B1.1016 
N1732 X-341.431 Y20.560 Z-20.775 A181.2966 B1.1059 
N1733 X-341.430 Y21.865 Z-20.804 A181.4095 B1.1114 
N1734 X-341.430 Y22.950 Z-20.850 A181.5733 B1.1194 
N1735 X-341.430 Y23.842 Z-20.981 A182.0019 B1.1347 
N1736 X-341.430 Y24.575 Z-21.303 A183.0220 B1.1641 
N1737 X-341.430 Y25.192 Z-21.902 A184.9097 B1.2126 
N1738 X-341.430 Y25.746 Z-22.773 A187.6612 B1.2785 
N1739 X-341.429 Y26.284 Z-23.834 A191.0431 B1.3552 
N1740 X-341.429 Y26.833 Z-24.968 A194.7112 B1.4340 
N1741 X-341.428 Y27.394 Z-26.074 A198.3574 B1.5082 
N1742 X-341.428 Y27.955 Z-27.092 A201.7921 B1.5738 
N1743 X-341.427 Y28.503 Z-27.997 A204.9295 B1.6300 
N1744 X-341.427 Y29.029 Z-28.792 A207.7594 B1.6771 
N1745 X-341.427 Y29.531 Z-29.490 A210.3149 B1.7167 
N1746 X-341.427 Y30.013 Z-30.108 A212.6468 B1.7499 
N1747 X-341.427 Y30.479 Z-30.665 A214.8072 B1.7781 
N1748 X-341.426 Y30.935 Z-31.174 A216.8410 B1.8021 
N1749 X-341.426 Y31.386 Z-31.645 A218.7836 B1.8226 
N1750 X-341.426 Y31.836 Z-32.087 A220.6616 B1.8400 
N1751 X-341.426 Y32.288 Z-32.503 A222.4931 B1.8543 
N1752 X-341.426 Y32.745 Z-32.897 A224.2905 B1.8657 
N1753 X-341.426 Y33.207 Z-33.272 A226.0623 B1.8741 
N1754 X-341.426 Y33.676 Z-33.627 A227.8137 B1.8794 
N1755 X-341.426 Y34.150 Z-33.965 A229.5486 B1.8815 
N1756 X-341.426 Y34.632 Z-34.286 A231.2706 B1.8802 
N1757 X-341.426 Y35.120 Z-34.589 A232.9838 B1.8754 
N1758 X-341.426 Y35.617 Z-34.877 A234.6917 B1.8669 
N1759 X-341.426 Y36.122 Z-35.149 A236.3975 B1.8546 
N1760 X-341.426 Y36.635 Z-35.404 A238.1038 B1.8384 
N1761 X-341.426 Y37.157 Z-35.644 A239.8120 B1.8184 
N1762 X-341.427 Y37.687 Z-35.868 A241.5239 B1.7945 
N1763 X-341.427 Y38.227 Z-36.074 A243.2420 B1.7669 
N1764 X-341.427 Y38.776 Z-36.265 A244.9698 B1.7358 
N1765 X-341.427 Y39.337 Z-36.438 A246.7129 B1.7012 
N1766 X-341.427 Y39.911 Z-36.595 A248.4807 B1.6634 
N1767 X-341.428 Y40.503 Z-36.734 A250.2862 B1.6222 
N1768 X-341.428 Y41.118 Z-36.856 A252.1448 B1.5777 
N1769 X-341.428 Y41.761 Z-36.958 A254.0733 B1.5298 
N1770 X-341.428 Y42.436 Z-37.038 A256.0876 B1.4781 
N1771 X-341.429 Y43.150 Z-37.091 A258.2053 B1.4225 
N1772 X-341.429 Y43.908 Z-37.111 A260.4422 B1.3627 
N1773 X-341.429 Y44.712 Z-37.090 A262.8125 B1.2986 
N1774 X-341.430 Y45.565 Z-37.017 A265.3251 B1.2302 
N1775 X-341.430 Y46.463 Z-36.879 A267.9823 B1.1578 
N1776 X-341.431 Y47.399 Z-36.663 A270.7711 B1.0823 
N1777 X-341.431 Y48.352 Z-36.355 A273.6492 B1.0053 
N1778 X-341.432 Y49.282 Z-35.944 A276.5193 B0.9297 
N1779 X-341.432 Y50.119 Z-35.433 A279.1958 B0.8602 
N1780 X-341.432 Y50.782 Z-34.835 A281.4509 B0.8023 
N1781 X-341.433 Y51.219 Z-34.170 A283.1308 B0.7596 
N1782 X-341.433 Y51.431 Z-33.444 A284.2297 B0.7316 
N1783 X-341.433 Y51.462 Z-32.648 A284.8828 B0.7144 
N1784 X-341.433 Y51.370 Z-31.766 A285.2588 B0.7032 
N1785 X-341.433 Y51.209 Z-30.783 A285.5222 B0.6930 
N1786 X-341.433 Y51.001 Z-29.694 A285.7442 B0.6816 
N1787 X-341.433 Y50.733 Z-28.508 A285.8793 B0.6702 
N1788 X-341.433 Y50.411 Z-27.236 A285.9262 B0.6591 
N1789 X-341.433 Y50.060 Z-25.886 A285.9543 B0.6467 
N1790 X-341.433 Y49.696 Z-24.474 A285.9922 B0.6320 
N1791 X-341.433 Y49.320 Z-23.020 A286.0338 B0.6153 
N1792 X-341.433 Y48.939 Z-21.551 A286.0742 B0.5974 
N1793 X-341.434 Y48.558 Z-20.088 A286.1150 B0.5790 
N1794 X-341.434 Y48.189 Z-18.654 A286.1700 B0.5600 
N1795 X-341.434 Y47.847 Z-17.267 A286.2716 B0.5402 
N1796 X-341.434 Y47.538 Z-15.946 A286.4248 B0.5201 
N1797 X-341.434 Y47.254 Z-14.706 A286.5999 B0.5004 
N1798 X-341.434 Y47.030 Z-13.550 A286.8915 B0.4797 
N1799 X-341.434 Y46.938 Z-12.458 A287.5394 B0.4548 
N1800 X-341.434 Y47.040 Z-11.408 A288.7566 B0.4227 
N1801 X-341.435 Y47.355 Z-10.376 A290.6413 B0.3825 
N1802 X-341.435 Y47.843 Z-9.350 A293.1025 B0.3357 
N1803 X-341.435 Y48.419 Z-8.335 A295.9009 B0.2860 
N1804 X-341.436 Y49.013 Z-7.344 A298.8162 B0.2364 
N1805 X-341.436 Y49.577 Z-6.387 A301.6940 B0.1890 
N1806 X-341.436 Y50.082 Z-5.476 A304.4269 B0.1452 
N1807 X-341.436 Y50.515 Z-4.618 A306.9618 B0.1054 
N1808 X-341.437 Y50.881 Z-3.808 A309.3025 B0.0694 
N1809 X-341.437 Y51.190 Z-3.037 A311.4872 B0.0366 
N1810 X-341.437 Y51.453 Z-2.290 A313.5627 B0.0063 
N1811 X-341.437 Y51.678 Z-1.554 A315.5748 B-0.0222 
N1812 X-341.437 Y51.873 Z-0.815 A317.5658 B-0.0491 
N1813 X-341.437 Y52.038 Z-0.059 A319.5732 B-0.0749 
N1814 X-341.438 Y52.175 Z0.726 A321.6324 B-0.0997 
N1815 X-341.438 Y52.281 Z1.553 A323.7785 B-0.1237 
N1816 X-341.438 Y52.352 Z2.436 A326.0436 B-0.1471 
N1817 X-341.438 Y52.379 Z3.382 A328.4484 B-0.1698 
N1818 X-341.438 Y52.345 Z4.394 A330.9902 B-0.1913 
N1819 X-341.438 Y52.228 Z5.456 A333.6163 B-0.2108 
N1820 X-341.438 Y51.996 Z6.527 A336.1969 B-0.2267 
N1821 X-341.438 Y51.620 Z7.542 A338.5383 B-0.2373 
N1822 X-341.438 Y51.081 Z8.439 A340.4498 B-0.2412 
N1823 X-341.438 Y50.372 Z9.169 A341.7873 B-0.2380 
N1824 X-341.438 Y49.501 Z9.722 A342.5172 B-0.2280 
N1825 X-341.438 Y48.490 Z10.154 A342.7947 B-0.2132 
N1826 X-341.438 Y47.365 Z10.551 A342.8743 B-0.1956 
N1827 X-341.438 Y46.143 Z10.968 A342.9236 B-0.1766 
N1828 X-341.438 Y44.829 Z11.423 A343.0017 B-0.1563 
N1829 X-341.438 Y43.417 Z11.910 A343.0867 B-0.1347 
N1830 X-341.438 Y41.902 Z12.418 A343.1407 B-0.1110 
N1831 X-341.437 Y40.290 Z12.981 A343.2693 B-0.0820 
N1832 X-341.437 Y38.619 Z13.763 A344.0048 B-0.0457 
N1833 X-341.437 Y36.932 Z14.998 A346.1661 B-0.0147 
N1834 X-341.437 Y35.172 Z16.749 A350.0992 B-0.0021 
N1835 X-341.437 Y33.175 Z18.667 A354.9081 B-0.0001 
N1836 X-341.437 Y30.864 Z20.073 A358.6240 B-0.0000 
N1837 X-341.437 Y28.316 Z20.768 A0.5412 
N1838 X-341.437 Y25.591 Z20.956 A1.0900 
N1839 X-341.437 Y22.702 Z20.963 A1.1279 
N1840 X-341.437 Y19.656 Z20.956 
N1841 X-341.437 Y16.471 Z20.949 
N1842 X-341.437 Y13.175 Z20.941 
N1843 X-341.437 Y9.802 Z20.934 
N1844 X-341.437 Y6.394 Z20.926 
N1845 X-341.437 Y3.000 Z20.919 
N1846 X-341.437 Y-0.333 Z20.911 
N1847 X-341.437 Y-3.554 Z20.904 
N1848 X-341.437 Y-6.620 Z20.897 
N1849 X-341.437 Y-9.490 Z20.891 
N1850 X-341.437 Y-12.133 Z20.885 
N1851 X-341.437 Y-14.528 Z20.880 
N1852 X-341.437 Y-16.661 Z20.875 A1.1279 
N1853 X-341.437 Y-18.531 Z20.871 A1.1280 
N1854 X-341.437 Y-20.143 Z20.867 A1.1283 
N1855 X-341.437 Y-21.512 Z20.866 A1.1343 
N1856 X-341.437 Y-22.657 Z20.898 A1.2390 
N1857 X-341.437 Y-23.605 Z21.041 A1.6907 
N1858 X-341.437 Y-24.386 Z21.381 A2.7562 
N1859 X-341.437 Y-25.042 Z21.967 A4.6013 
N1860 X-341.437 Y-25.623 Z22.798 A7.2311 
N1861 X-341.437 Y-26.174 Z23.808 A10.4570 
N1862 X-341.437 Y-26.725 Z24.898 A13.9826 
N1863 X-341.437 Y-27.280 Z25.967 A17.5090 
N1864 X-341.437 Y-27.829 Z26.959 A20.8483 
N1865 X-341.437 Y-28.364 Z27.847 A23.9152 
N1866 X-341.437 Y-28.877 Z28.632 A26.6951 
N1867 X-341.437 Y-29.367 Z29.326 A29.2144 
N1868 X-341.437 Y-29.836 Z29.943 A31.5176 
N1869 X-341.437 Y-30.288 Z30.500 A33.6528 
N1870 X-341.437 Y-30.731 Z31.011 A35.6627 
N1871 X-341.437 Y-31.168 Z31.485 A37.5821 
N1872 X-341.437 Y-31.604 Z31.930 A39.4382 
N1873 X-341.437 Y-32.042 Z32.352 A41.2511 
N1874 X-341.437 Y-32.485 Z32.755 A43.0349 
N1875 X-341.437 Y-32.935 Z33.140 A44.8002 
N1876 X-341.437 Y-33.393 Z33.510 A46.5552 
N1877 X-341.437 Y-33.861 Z33.865 A48.3055 
N1878 X-341.437 Y-34.339 Z34.206 A50.0564 
N1879 X-341.437 Y-34.829 Z34.534 A51.8137 
N1880 X-341.437 Y-35.331 Z34.849 A53.5807 
N1881 X-341.437 Y-35.845 Z35.150 A55.3583 
N1882 X-341.437 Y-36.372 Z35.437 A57.1464 
N1883 X-341.437 Y-36.909 Z35.708 A58.9424 
N1884 X-341.437 Y-37.457 Z35.962 A60.7425 
N1885 X-341.437 Y-38.013 Z36.198 A62.5426 
N1886 X-341.437 Y-38.576 Z36.415 A64.3407 
N1887 X-341.437 Y-39.145 Z36.612 A66.1363 
N1888 X-341.437 Y-39.721 Z36.790 A67.9312 
N1889 X-341.437 Y-40.306 Z36.948 A69.7336 
N1890 X-341.437 Y-40.902 Z37.086 A71.5551 
N1891 X-341.437 Y-41.514 Z37.205 A73.4081 
N1892 X-341.437 Y-42.145 Z37.303 A75.3074 
N1893 X-341.437 Y-42.801 Z37.378 A77.2675 
N1894 X-341.437 Y-43.486 Z37.427 A79.3047 
N1895 X-341.437 Y-44.206 Z37.446 A81.4363 
N1896 X-341.437 Y-44.964 Z37.428 A83.6781 
N1897 X-341.437 Y-45.763 Z37.364 A86.0424 
N1898 X-341.437 Y-46.603 Z37.246 A88.5342 
N1899 X-341.437 Y-47.480 Z37.059 A91.1522 
N1900 X-341.437 Y-48.386 Z36.793 A93.8896 
N1901 X-341.437 Y-49.305 Z36.433 A96.7210 B-0.0000 
N1902 X-341.437 Y-50.204 Z35.971 A99.5698 B-0.0001 
N1903 X-341.437 Y-51.013 Z35.410 A102.2523 B-0.0002 
N1904 X-341.437 Y-51.640 Z34.771 A104.5013 B-0.0006 
N1905 X-341.437 Y-52.015 Z34.080 A106.1073 B-0.0017 
N1906 X-341.437 Y-52.145 Z33.345 A107.0759 B-0.0045 
N1907 X-341.437 Y-52.095 Z32.547 A107.6077 B-0.0111 
N1908 X-341.437 Y-51.932 Z31.664 A107.9042 B-0.0238 
N1909 X-341.437 Y-51.699 Z30.679 A108.1008 B-0.0424 
N1910 X-341.437 Y-51.415 Z29.591 A108.2492 B-0.0637 
N1911 X-341.437 Y-51.075 Z28.405 A108.3337 B-0.0845 
N1912 X-341.438 Y-50.690 Z27.132 A108.3719 B-0.1041 
N1913 X-341.438 Y-50.280 Z25.780 A108.4079 B-0.1231 
N1914 X-341.438 Y-49.852 Z24.368 A108.4524 B-0.1424 
N1915 X-341.438 Y-49.412 Z22.918 A108.4995 B-0.1624 
N1916 X-341.438 Y-48.965 Z21.452 A108.5461 B-0.1827 
N1917 X-341.438 Y-48.520 Z19.996 A108.5899 B-0.2030 
N1918 X-341.438 Y-48.085 Z18.570 A108.6414 B-0.2229 
N1919 X-341.438 Y-47.678 Z17.192 A108.7334 B-0.2418 
N1920 X-341.438 Y-47.305 Z15.879 A108.8724 B-0.2593 
N1921 X-341.439 Y-46.971 Z14.644 A109.0626 B-0.2752 
N1922 X-341.439 Y-46.724 Z13.480 A109.4507 B-0.2877 
N1923 X-341.439 Y-46.637 Z12.365 A110.2821 B-0.2936 
N1924 X-341.439 Y-46.760 Z11.270 A111.7491 B-0.2900 
N1925 X-341.439 Y-47.093 Z10.177 A113.8935 B-0.2751 
N1926 X-341.438 Y-47.570 Z9.083 A116.5398 B-0.2501 
N1927 X-341.438 Y-48.101 Z8.004 A119.4272 B-0.2178 
N1928 X-341.438 Y-48.624 Z6.956 A122.3543 B-0.1810 
N1929 X-341.438 Y-49.097 Z5.956 A125.1714 B-0.1423 
N1930 X-341.438 Y-49.498 Z5.015 A127.7883 B-0.1034 
N1931 X-341.437 Y-49.826 Z4.133 A130.1917 B-0.0653 
N1932 X-341.437 Y-50.092 Z3.297 A132.4225 B-0.0278 
N1933 X-341.437 Y-50.311 Z2.492 A134.5368 B0.0097 
N1934 X-341.437 Y-50.491 Z1.700 A136.5891 B0.0475 
N1935 X-341.436 Y-50.639 Z0.906 A138.6254 B0.0861 
N1936 X-341.436 Y-50.755 Z0.093 A140.6858 B0.1263 
N1937 X-341.436 Y-50.841 Z-0.751 A142.8112 B0.1687 
N1938 X-341.436 Y-50.894 Z-1.644 A145.0420 B0.2141 
N1939 X-341.435 Y-50.905 Z-2.595 A147.4055 B0.2632 
N1940 X-341.435 Y-50.863 Z-3.607 A149.9033 B0.3164 
N1941 X-341.435 Y-50.744 Z-4.666 A152.4820 B0.3728 
N1942 X-341.434 Y-50.517 Z-5.731 A155.0105 B0.4303 
N1943 X-341.434 Y-50.153 Z-6.740 A157.3014 B0.4852 
N1944 X-341.434 Y-49.635 Z-7.633 A159.1742 B0.5343 
N1945 X-341.434 Y-48.958 Z-8.365 A160.4906 B0.5749 
N1946 X-341.433 Y-48.129 Z-8.931 A161.2318 B0.6059 
N1947 X-341.433 Y-47.174 Z-9.384 A161.5516 B0.6300 
N1948 X-341.433 Y-46.118 Z-9.797 A161.6682 B0.6510 
N1949 X-341.433 Y-44.976 Z-10.218 A161.7266 B0.6715 
N1950 X-341.433 Y-43.753 Z-10.668 A161.7924 B0.6928 
N1951 X-341.433 Y-42.448 Z-11.146 A161.8604 B0.7145 
N1952 X-341.433 Y-41.058 Z-11.661 A161.9582 B0.7378 
N1953 X-341.432 Y-39.602 Z-12.291 A162.3315 B0.7697 
N1954 X-341.432 Y-38.126 Z-13.230 A163.6302 B0.8291 
N1955 X-341.432 Y-36.639 Z-14.654 A166.5034 B0.9358 
N1956 X-341.431 Y-35.030 Z-16.475 A170.7982 B1.0698 
N1957 X-341.430 Y-33.158 Z-18.350 A175.6187 B1.1680 
N1958 X-341.430 Y-30.973 Z-19.627 A179.0460 B1.2043 
N1959 X-341.430 Y-28.563 Z-20.196 A180.6211 B1.2174 
N1960 X-341.430 Y-25.970 Z-20.355 A181.0883 B1.2241 
N1961 X-341.430 Y-23.202 Z-20.366 A181.1383 B1.2271 
N1962 X-341.430 Y-20.262 Z-20.359 A181.1384 B1.2296 
N1963 X-341.430 Y-17.168 Z-20.351 B1.2322 
N1964 X-341.430 Y-13.945 Z-20.344 B1.2349 
N1965 X-341.430 Y-10.628 Z-20.336 B1.2377 
N1966 X-341.430 Y-7.257 Z-20.328 B1.2405 
N1967 X-341.430 Y-3.882 Z-20.319 A181.1384 B1.2434 
N1968 X-341.430 Y-0.551 Z-20.311 B1.2462 
N1969 X-341.430 Y2.683 Z-20.304 B1.2489 
N1970 X-341.430 Y5.774 Z-20.296 B1.2515 
N1971 X-341.430 Y8.680 Z-20.289 B1.2540 
N1972 X-341.430 Y11.366 Z-20.283 B1.2562 
N1973 X-341.430 Y13.808 Z-20.277 A181.1384 B1.2583 
N1974 X-341.430 Y15.990 Z-20.272 A181.1390 B1.2601 
N1975 X-341.430 Y17.908 Z-20.273 A181.1577 B1.2622 
N1976 X-341.430 Y19.566 Z-20.295 A181.2388 B1.2658 
N1977 X-341.430 Y20.977 Z-20.331 A181.3688 B1.2713 
N1978 X-341.430 Y22.159 Z-20.365 A181.4986 B1.2779 
N1979 X-341.429 Y23.134 Z-20.412 A181.6682 B1.2869 
N1980 X-341.429 Y23.931 Z-20.551 A182.1198 B1.3043 
N1981 X-341.429 Y24.584 Z-20.920 A183.2836 B1.3394 
N1982 X-341.429 Y25.143 Z-21.604 A185.4240 B1.3972 
N1983 X-341.428 Y25.660 Z-22.560 A188.4353 B1.4734 
N1984 X-341.428 Y26.179 Z-23.683 A192.0107 B1.5586 
N1985 X-341.427 Y26.719 Z-24.848 A195.7752 B1.6429 
N1986 X-341.427 Y27.274 Z-25.959 A199.4453 B1.7197 
N1987 X-341.427 Y27.828 Z-26.967 A202.8578 B1.7860 
N1988 X-341.426 Y28.367 Z-27.857 A205.9501 B1.8415 
N1989 X-341.426 Y28.885 Z-28.634 A208.7285 B1.8873 
N1990 X-341.426 Y29.379 Z-29.317 A211.2361 B1.9252 
N1991 X-341.426 Y29.853 Z-29.922 A213.5282 B1.9568 
N1992 X-341.425 Y30.313 Z-30.469 A215.6578 B1.9832 
N1993 X-341.425 Y30.765 Z-30.970 A217.6695 B2.0056 
N1994 X-341.425 Y31.213 Z-31.436 A219.5969 B2.0244 
N1995 X-341.425 Y31.661 Z-31.873 A221.4647 B2.0401 
N1996 X-341.425 Y32.113 Z-32.286 A223.2899 B2.0528 
N1997 X-341.425 Y32.569 Z-32.678 A225.0834 B2.0626 
N1998 X-341.425 Y33.031 Z-33.050 A226.8520 B2.0695 
N1999 X-341.425 Y33.499 Z-33.404 A228.6003 B2.0735 
N2000 X-341.425 Y33.973 Z-33.739 A230.3313 B2.0743 
N2001 X-341.425 Y34.453 Z-34.056 A232.0472 B2.0720 
N2002 X-341.425 Y34.939 Z-34.357 A233.7512 B2.0663 
N2003 X-341.425 Y35.432 Z-34.641 A235.4476 B2.0571 
N2004 X-341.425 Y35.932 Z-34.909 A237.1390 B2.0443 
N2005 X-341.425 Y36.440 Z-35.161 A238.8281 B2.0278 
N2006 X-341.425 Y36.956 Z-35.398 A240.5178 B2.0076 
N2007 X-341.425 Y37.479 Z-35.618 A242.2098 B1.9836 
N2008 X-341.426 Y38.011 Z-35.822 A243.9065 B1.9559 
N2009 X-341.426 Y38.552 Z-36.011 A245.6111 B1.9246 
N2010 X-341.426 Y39.102 Z-36.183 A247.3278 B1.8897 
N2011 X-341.426 Y39.664 Z-36.339 A249.0624 B1.8515 
N2012 X-341.426 Y40.240 Z-36.478 A250.8235 B1.8099 
N2013 X-341.427 Y40.832 Z-36.600 A252.6222 B1.7650 
N2014 X-341.427 Y41.445 Z-36.704 A254.4685 B1.7169 
N2015 X-341.427 Y42.081 Z-36.788 A256.3735 B1.6653 
N2016 X-341.428 Y42.743 Z-36.849 A258.3478 B1.6102 
N2017 X-341.428 Y43.436 Z-36.884 A260.4042 B1.5515 
N2018 X-341.428 Y44.163 Z-36.888 A262.5571 B1.4887 
N2019 X-341.429 Y44.929 Z-36.853 A264.8219 B1.4218 
N2020 X-341.429 Y45.737 Z-36.773 A267.2159 B1.3503 
N2021 X-341.430 Y46.590 Z-36.635 A269.7540 B1.2743 
N2022 X-341.430 Y47.485 Z-36.428 A272.4412 B1.1939 
N2023 X-341.431 Y48.410 Z-36.139 A275.2566 B1.1101 
N2024 X-341.431 Y49.336 Z-35.756 A278.1335 B1.0253 
N2025 X-341.431 Y50.205 Z-35.277 A280.9267 B0.9437 
N2026 X-341.432 Y50.942 Z-34.715 A283.4241 B0.8713 
N2027 X-341.432 Y51.486 Z-34.089 A285.4494 B0.8130 
N2028 X-341.432 Y51.812 Z-33.414 A286.9240 B0.7708 
N2029 X-341.433 Y51.939 Z-32.690 A287.9040 B0.7427 
N2030 X-341.433 Y51.905 Z-31.905 A288.5077 B0.7246 
N2031 X-341.433 Y51.763 Z-31.040 A288.8889 B0.7114 
N2032 X-341.433 Y51.552 Z-30.081 A289.1794 B0.6988 
N2033 X-341.433 Y51.279 Z-29.031 A289.3899 B0.6862 
N2034 X-341.433 Y50.934 Z-27.898 A289.4846 B0.6747 
N2035 X-341.433 Y50.541 Z-26.687 A289.5172 B0.6632 
N2036 X-341.433 Y50.123 Z-25.406 A289.5519 B0.6496 
N2037 X-341.433 Y49.690 Z-24.071 A289.5956 B0.6336 
N2038 X-341.433 Y49.245 Z-22.704 A289.6408 B0.6159 
N2039 X-341.433 Y48.796 Z-21.326 A289.6851 B0.5972 
N2040 X-341.434 Y48.350 Z-19.958 A289.7346 B0.5779 
N2041 X-341.434 Y47.922 Z-18.618 A289.8120 B0.5578 
N2042 X-341.434 Y47.526 Z-17.322 A289.9455 B0.5367 
N2043 X-341.434 Y47.165 Z-16.086 A290.1310 B0.5152 
N2044 X-341.434 Y46.857 Z-14.915 A290.4166 B0.4925 
N2045 X-341.434 Y46.667 Z-13.793 A291.0152 B0.4651 
N2046 X-341.434 Y46.666 Z-12.692 A292.1699 B0.4290 
N2047 X-341.435 Y46.882 Z-11.586 A294.0128 B0.3826 
N2048 X-341.435 Y47.279 Z-10.464 A296.4784 B0.3277 
N2049 X-341.435 Y47.768 Z-9.340 A299.3108 B0.2689 
N2050 X-341.436 Y48.268 Z-8.236 A302.2581 B0.2106 
N2051 X-341.436 Y48.726 Z-7.170 A305.1419 B0.1559 
N2052 X-341.436 Y49.113 Z-6.159 A307.8459 B0.1062 
N2053 X-341.437 Y49.421 Z-5.206 A310.3370 B0.0620 
N2054 X-341.437 Y49.662 Z-4.300 A312.6530 B0.0223 
N2055 X-341.437 Y49.849 Z-3.421 A314.8541 B-0.0138 
N2056 X-341.437 Y49.991 Z-2.550 A317.0009 B-0.0472 
N2057 X-341.437 Y50.095 Z-1.670 A319.1473 B-0.0784 
N2058 X-341.438 Y50.161 Z-0.761 A321.3411 B-0.1078 
N2059 X-341.438 Y50.188 Z0.191 A323.6260 B-0.1359 
N2060 X-341.438 Y50.166 Z1.199 A326.0280 B-0.1626 
N2061 X-341.438 Y50.082 Z2.261 A328.5387 B-0.1874 
N2062 X-341.438 Y49.909 Z3.356 A331.0809 B-0.2092 
N2063 X-341.438 Y49.614 Z4.433 A333.4899 B-0.2258 
N2064 X-341.438 Y49.168 Z5.426 A335.5619 B-0.2354 
N2065 X-341.438 Y48.560 Z6.279 A337.1296 B-0.2370 
N2066 X-341.438 Y47.792 Z6.965 A338.1067 B-0.2306 
N2067 X-341.438 Y46.887 Z7.511 A338.5740 B-0.2180 
N2068 X-341.438 Y45.879 Z7.987 A338.7473 B-0.2017 
N2069 X-341.438 Y44.796 Z8.453 A338.8114 B-0.1836 
N2070 X-341.438 Y43.654 Z8.938 A338.8663 B-0.1645 
N2071 X-341.438 Y42.458 Z9.448 A338.9351 B-0.1447 
N2072 X-341.438 Y41.208 Z9.973 A338.9882 B-0.1239 
N2073 X-341.438 Y39.904 Z10.518 A339.0383 B-0.1012 
N2074 X-341.437 Y38.567 Z11.144 A339.2883 B-0.0744 
N2075 X-341.437 Y37.253 Z12.033 A340.3443 B-0.0444 
N2076 X-341.437 Y35.990 Z13.362 A342.8346 B-0.0192 
N2077 X-341.437 Y34.706 Z15.166 A346.9537 B-0.0055 
N2078 X-341.437 Y33.234 Z17.221 A352.1205 B-0.0009 
N2079 X-341.437 Y31.445 Z18.950 A356.6708 B-0.0000 
N2080 X-341.437 Y29.381 Z20.009 A359.5483 B-0.0000 
N2081 X-341.437 Y27.118 Z20.464 A0.8330 
N2082 X-341.437 Y24.680 Z20.560 A1.1238 
N2083 X-341.437 Y22.063 Z20.558 A1.1357 
N2084 X-341.437 Y19.271 Z20.551 
N2085 X-341.437 Y16.317 Z20.544 
N2086 X-341.437 Y13.223 Z20.537 
N2087 X-341.437 Y10.024 Z20.529 
N2088 X-341.437 Y6.760 Z20.521 
N2089 X-341.437 Y3.478 Z20.514 
N2090 X-341.437 Y0.229 Z20.506 
N2091 X-341.437 Y-2.936 Z20.498 
N2092 X-341.437 Y-5.970 Z20.491 
N2093 X-341.437 Y-8.829 Z20.484 
N2094 X-341.437 Y-11.478 Z20.478 
N2095 X-341.437 Y-13.892 Z20.473 
N2096 X-341.437 Y-16.054 Z20.467 A1.1358 
N2097 X-341.437 Y-17.958 Z20.464 A1.1381 
N2098 X-341.437 Y-19.607 Z20.463 A1.1482 
N2099 X-341.437 Y-21.013 Z20.464 A1.1638 
N2100 X-341.437 Y-22.192 Z20.478 A1.2169 
N2101 X-341.437 Y-23.169 Z20.557 A1.4683 
N2102 X-341.437 Y-23.971 Z20.784 A2.1826 
N2103 X-341.437 Y-24.635 Z21.246 A3.6289 
N2104 X-341.437 Y-25.207 Z21.982 A5.9434 
N2105 X-341.437 Y-25.740 Z22.948 A8.9993 
N2106 X-341.437 Y-26.270 Z24.044 A12.5076 
N2107 X-341.437 Y-26.811 Z25.156 A16.1287 
N2108 X-341.437 Y-27.356 Z26.207 A19.6191 
N2109 X-341.437 Y-27.894 Z27.157 A22.8521 
N2110 X-341.437 Y-28.413 Z27.999 A25.7861 
