; PROGRAM NAME: B00000014
; ORDER       : B000000
; OPER. NAME  : Spiral Rough Rhombic:105
; OPER. DESCR.: spiral roughing rhombic/bandaz zgr
; OPER. TYPE  : rouRoot
; GEO. OPTION : 4
; MACHINE     : HSTM_500_SIM840D_Py
;             : HSTM500 - HAMUEL: 5-axis milling machine - SIM840D Traori PP_Script
; CONTROL     : SINUMERIK 840D
; created:   2021-11-15 09:58:17.295907
;-------DODATKOWE DANE-------------------
; PROGRAMISTA : Mariusz Malec
; PARTID      : 139T001534P1001_-
;  ap         : 2.5
;  ae         : 30.0
;  lean_angle : 1.0
;  fin_offset : 0.6
;----------------------------------------
;RAPORT("TB000000","Spiral Rough Rhombic:105")
N10 TRAFOOF
N11 D0
N12 G90 G94
N13 G0 G53 D0 Z550 B0
N14 STOPRE
M9 ; chlodziwo wyl
; --- Spiral Rough Rhombic:105 - spiral roughing rhombic/bandaz zgr ---
N16 ;ToolChange : concat=None ,current_tdmid=None, PP.tdmId=941290
N17 TRAFOOF
N18 G0 G53 D0 X-200 Y150 Z550 B0
N19 T="7741290"
;RAPORT("TB000000","ToolChangeStart 7741290")
N20 M6
;RAPORT("TB000000","ToolChangeEnd")
N21 STOPRE
N22 MSG(" TLID=941290 D=50.0 R=6.0 Ang=0.0 Len=90.0 ")
N23 ; (Preloading tool)
N24 T="7740626"
N25 S1718 M03
N26 STOPRE
N27 CYCLE832(0.1,3,1)
N28 G0 G53 A271.3809 B0.0000
N29 TRAORI
N30 G54 D1
N31 D1 
N32 ; DELTA A > 40.1
N33 TRAFOOF
N34 D1
N35 STOPRE
N36 G00 G54 Z296.000
N37 G01 A271.3809 F10000
N38 TRAORI
N39 G54 D1
N40 STOPRE
N41 TRANS 
N42 G00 X-298.138 Y104.697 Z-46.328 A271.3809 
N43 M348 ; chlodziwo mgla
N44 X-298.138 Y54.712 Z-47.532 
N45 G01 X-298.138 Y51.618 Z-47.064 F2834 
N46 X-298.138 Y48.821 Z-45.662 
N47 X-298.138 Y46.594 Z-43.464 
N48 X-298.138 Y45.155 Z-40.686 
N49 X-298.138 Y44.646 Z-37.599 
N50 X-298.138 Y44.622 Z-33.992 
N51 X-298.138 Y44.598 Z-30.448 
N52 X-298.138 Y44.575 Z-27.026 
N53 X-298.138 Y44.554 Z-23.778 
N54 X-298.138 Y44.534 Z-20.749 
N55 X-298.138 Y44.515 Z-17.971 
N56 X-298.138 Y44.498 Z-15.465 
N57 X-298.138 Y44.484 Z-13.243 
N58 X-298.138 Y44.471 Z-11.302 
N59 X-298.138 Y44.460 Z-9.633 
N60 X-298.138 Y44.463 Z-8.218 A271.4206 
N61 X-298.138 Y44.615 Z-7.030 A271.9127 
N62 X-298.138 Y45.125 Z-6.025 A273.5256 
N63 X-298.138 Y46.011 Z-5.143 A276.3532 
N64 X-298.138 Y47.131 Z-4.323 A279.9898 
N65 X-298.138 Y48.351 Z-3.521 A284.0404 
N66 X-298.138 Y49.585 Z-2.716 A288.2421 
N67 X-298.138 Y50.766 Z-1.905 A292.3901 
N68 X-298.138 Y51.839 Z-1.101 A296.3011 
N69 X-298.138 Y52.778 Z-0.324 A299.8716 
N70 X-298.138 Y53.585 Z0.414 A303.0799 
N71 X-298.138 Y54.274 Z1.111 A305.9574 
N72 X-298.138 Y54.870 Z1.770 A308.5685 
N73 X-298.138 Y55.395 Z2.405 A310.9896 
N74 X-298.138 Y55.870 Z3.030 A313.2950 
N75 X-298.138 Y56.312 Z3.659 A315.5554 
N76 X-298.138 Y56.736 Z4.311 A317.8433 
N77 X-298.138 Y57.155 Z5.009 A320.2393 
N78 X-298.138 Y57.580 Z5.782 A322.8398 
N79 X-298.138 Y58.019 Z6.665 A325.7524 
N80 X-298.138 Y58.468 Z7.694 A329.0685 
N81 X-298.138 Y58.896 Z8.878 A332.7873 
N82 X-298.138 Y59.246 Z10.172 A336.7317 
N83 X-298.138 Y59.467 Z11.518 A340.7226 
N84 X-298.138 Y59.542 Z12.922 A344.7943 
N85 X-298.138 Y59.447 Z14.393 A349.0067 
N86 X-298.138 Y59.140 Z15.853 A353.1652 
N87 X-298.138 Y58.588 Z17.103 A356.7239 
N88 X-298.138 Y57.799 Z17.950 A359.1393 
N89 X-298.138 Y56.791 Z18.398 A0.4254 
N90 X-298.138 Y55.557 Z18.579 A0.9510 
N91 X-298.138 Y54.070 Z18.620 A1.0774 
N92 X-298.138 Y52.299 Z18.620 A1.0847 
N93 X-298.138 Y50.219 Z18.617 
N94 X-298.138 Y47.812 Z18.613 
N95 X-298.138 Y45.070 Z18.609 
N96 X-298.138 Y41.996 Z18.605 
N97 X-298.138 Y38.604 Z18.600 
N98 X-298.138 Y34.925 Z18.594 
N99 X-298.138 Y31.000 Z18.588 
N100 X-298.138 Y26.883 Z18.582 
N101 X-298.138 Y22.636 Z18.576 
N102 X-298.138 Y18.330 Z18.570 
N103 X-298.138 Y14.038 Z18.563 
N104 X-298.138 Y9.831 Z18.557 
N105 X-298.138 Y5.777 Z18.551 
N106 X-298.138 Y1.936 Z18.545 
N107 X-298.138 Y-1.643 Z18.540 
N108 X-298.138 Y-4.922 Z18.535 
N109 X-298.138 Y-7.879 Z18.531 
N110 X-298.138 Y-10.502 Z18.527 
N111 X-298.138 Y-12.794 Z18.524 
N112 X-298.138 Y-14.765 Z18.521 A1.0861 
N113 X-298.138 Y-16.438 Z18.536 A1.1398 
N114 X-298.138 Y-17.840 Z18.630 A1.4416 
N115 X-298.138 Y-19.008 Z18.927 A2.3805 
N116 X-298.138 Y-19.996 Z19.575 A4.4405 B-0.0000 
N117 X-298.138 Y-20.877 Z20.581 A7.6739 B-0.0002 
N118 X-298.138 Y-21.712 Z21.779 A11.5990 B-0.0008 
N119 X-298.138 Y-22.528 Z23.008 A15.7340 B-0.0021 
N120 X-298.138 Y-23.334 Z24.187 A19.8156 B-0.0041 
N121 X-298.138 Y-24.126 Z25.275 A23.7109 B-0.0065 
N122 X-298.138 Y-24.899 Z26.254 A27.3438 B-0.0087 
N123 X-298.138 Y-25.646 Z27.122 A30.6937 B-0.0102 
N124 X-298.138 Y-26.367 Z27.888 A33.7820 B-0.0109 
N125 X-298.138 Y-27.066 Z28.570 A36.6513 B-0.0106 
N126 X-298.138 Y-27.749 Z29.181 A39.3500 B-0.0095 
N127 X-298.138 Y-28.425 Z29.736 A41.9255 B-0.0078 
N128 X-298.138 Y-29.101 Z30.246 A44.4202 B-0.0057 
N129 X-298.138 Y-29.787 Z30.717 A46.8716 B-0.0032 
N130 X-298.138 Y-30.489 Z31.157 A49.3137 B-0.0007 
N131 X-298.138 Y-31.218 Z31.570 A51.7791 B0.0018 
N132 X-298.138 Y-31.983 Z31.956 A54.3011 B0.0040 
N133 X-298.138 Y-32.794 Z32.318 A56.9141 B0.0058 
N134 X-298.138 Y-33.665 Z32.651 A59.6528 B0.0071 
N135 X-298.138 Y-34.607 Z32.950 A62.5491 B0.0076 
N136 X-298.138 Y-35.628 Z33.204 A65.6254 B0.0075 
N137 X-298.138 Y-36.731 Z33.395 A68.8845 B0.0066 
N138 X-298.138 Y-37.907 Z33.500 A72.3016 B0.0051 
N139 X-298.138 Y-39.135 Z33.494 A75.8225 B0.0034 
N140 X-298.138 Y-40.384 Z33.353 A79.3698 B0.0019 
N141 X-298.138 Y-41.600 Z33.057 A82.8119 B0.0008 
N142 X-298.138 Y-42.696 Z32.595 A85.9193 B0.0002 
N143 X-298.138 Y-43.561 Z31.970 A88.3854 B0.0001 
N144 X-298.138 Y-44.129 Z31.201 A90.0206 B0.0000 
N145 X-298.138 Y-44.432 Z30.304 A90.9059 
N146 X-298.138 Y-44.561 Z29.283 A91.3001 B0.0001 
N147 X-298.138 Y-44.597 Z28.138 A91.4339 B0.0003 
N148 X-298.138 Y-44.596 Z26.873 A91.4597 B0.0010 
N149 X-298.138 Y-44.585 Z25.494 A91.4606 B0.0030 
N150 X-298.138 Y-44.573 Z24.017 B0.0067 
N151 X-298.138 Y-44.561 Z22.459 B0.0121 
N152 X-298.138 Y-44.548 Z20.845 B0.0189 
N153 X-298.137 Y-44.535 Z19.200 B0.0270 
N154 X-298.137 Y-44.521 Z17.553 B0.0364 
N155 X-298.137 Y-44.508 Z15.932 B0.0467 
N156 X-298.137 Y-44.496 Z14.362 B0.0566 
N157 X-298.137 Y-44.484 Z12.870 B0.0649 
N158 X-298.137 Y-44.473 Z11.473 A91.4607 B0.0710 
N159 X-298.137 Y-44.464 Z10.187 A91.4666 B0.0752 
N160 X-298.137 Y-44.469 Z9.022 A91.5095 B0.0787 
N161 X-298.137 Y-44.523 Z7.980 A91.7032 B0.0829 
N162 X-298.137 Y-44.726 Z7.056 A92.3585 B0.0895 
N163 X-298.137 Y-45.194 Z6.234 A93.8478 B0.1003 
N164 X-298.137 Y-45.942 Z5.481 A96.2443 B0.1164 
N165 X-298.137 Y-46.887 Z4.763 A99.3096 B0.1381 
N166 X-298.137 Y-47.925 Z4.057 A102.7435 B0.1645 
N167 X-298.136 Y-48.986 Z3.351 A106.3307 B0.1944 
N168 X-298.136 Y-50.021 Z2.642 A109.9254 B0.2262 
N169 X-298.136 Y-50.999 Z1.931 A113.4223 B0.2584 
N170 X-298.136 Y-51.899 Z1.227 A116.7489 B0.2897 
N171 X-298.136 Y-52.713 Z0.536 A119.8696 B0.3190 
N172 X-298.136 Y-53.443 Z-0.138 A122.7805 B0.3456 
N173 X-298.135 Y-54.099 Z-0.795 A125.5054 B0.3691 
N174 X-298.135 Y-54.693 Z-1.442 A128.0869 B0.3892 
N175 X-298.135 Y-55.241 Z-2.087 A130.5752 B0.4057 
N176 X-298.135 Y-55.754 Z-2.741 A133.0211 B0.4183 
N177 X-298.135 Y-56.242 Z-3.416 A135.4751 B0.4266 
N178 X-298.135 Y-56.713 Z-4.125 A137.9842 B0.4303 
N179 X-298.135 Y-57.170 Z-4.880 A140.5871 B0.4288 
N180 X-298.135 Y-57.611 Z-5.691 A143.3093 B0.4215 
N181 X-298.135 Y-58.028 Z-6.565 A146.1645 B0.4079 
N182 X-298.135 Y-58.410 Z-7.510 A149.1619 B0.3876 
N183 X-298.136 Y-58.747 Z-8.534 A152.3263 B0.3605 
N184 X-298.136 Y-59.026 Z-9.655 A155.7028 B0.3272 
N185 X-298.136 Y-59.225 Z-10.885 A159.3241 B0.2886 
N186 X-298.136 Y-59.311 Z-12.220 A163.1831 B0.2470 
N187 X-298.136 Y-59.244 Z-13.632 A167.2051 B0.2053 
N188 X-298.137 Y-58.978 Z-15.050 A171.2079 B0.1667 
N189 X-298.137 Y-58.480 Z-16.352 A174.8756 B0.1347 
N190 X-298.137 Y-57.740 Z-17.404 A177.8453 B0.1115 
N191 X-298.137 Y-56.764 Z-18.107 A179.8476 B0.0978 
N192 X-298.137 Y-55.555 Z-18.433 A180.7902 B0.0919 
N193 X-298.137 Y-54.100 Z-18.505 A181.0003 B0.0897 
N194 X-298.137 Y-52.367 Z-18.507 A181.0084 B0.0879 
N195 X-298.137 Y-50.332 Z-18.507 B0.0859 
N196 X-298.137 Y-47.974 Z-18.507 B0.0836 
N197 X-298.137 Y-45.286 Z-18.506 B0.0809 
N198 X-298.137 Y-42.266 Z-18.506 B0.0779 
N199 X-298.137 Y-38.929 Z-18.505 B0.0746 
N200 X-298.137 Y-35.302 Z-18.505 B0.0710 
N201 X-298.137 Y-31.423 Z-18.504 B0.0671 
N202 X-298.137 Y-27.345 Z-18.504 B0.0630 
N203 X-298.137 Y-23.129 Z-18.503 B0.0577 
N204 X-298.137 Y-18.843 Z-18.502 B0.0510 
N205 X-298.137 Y-14.559 Z-18.502 B0.0446 
N206 X-298.137 Y-10.350 Z-18.501 B0.0387 
N207 X-298.137 Y-6.284 Z-18.501 B0.0299 
N208 X-298.138 Y-2.421 Z-18.500 B0.0168 
N209 X-298.138 Y1.188 Z-18.499 B0.0065 
N210 X-298.138 Y4.503 Z-18.499 B0.0012 
N211 X-298.138 Y7.500 Z-18.499 B0.0001 
N212 X-298.138 Y10.165 Z-18.498 B0.0000 
N213 X-298.138 Y12.499 Z-18.498 
N214 X-298.138 Y14.512 Z-18.498 A181.0089 
N215 X-298.138 Y16.223 Z-18.510 A181.0470 
N216 X-298.138 Y17.659 Z-18.590 A181.2968 
N217 X-298.138 Y18.856 Z-18.850 A182.1158 
N218 X-298.138 Y19.864 Z-19.442 A183.9943 
N219 X-298.138 Y20.753 Z-20.403 A187.0714 
N220 X-298.138 Y21.588 Z-21.581 A190.9176 
N221 X-298.138 Y22.401 Z-22.808 A195.0221 B0.0000 
N222 X-298.138 Y23.200 Z-23.989 A199.0875 B0.0002 
N223 X-298.138 Y23.985 Z-25.081 A202.9704 B0.0005 
N224 X-298.138 Y24.749 Z-26.066 A206.6000 B0.0008 
N225 X-298.138 Y25.490 Z-26.945 A209.9625 B0.0011 
N226 X-298.138 Y26.209 Z-27.729 A213.0831 B0.0013 
N227 X-298.138 Y26.910 Z-28.432 A216.0011 B0.0014 
N228 X-298.138 Y27.598 Z-29.066 A218.7580 B0.0013 
N229 X-298.138 Y28.280 Z-29.644 A221.3941 B0.0011 
N230 X-298.138 Y28.964 Z-30.174 A223.9461 B0.0008 
N231 X-298.138 Y29.655 Z-30.665 A226.4465 B0.0005 
N232 X-298.138 Y30.362 Z-31.120 A228.9248 B0.0001 
N233 X-298.138 Y31.090 Z-31.544 A231.4102 B-0.0002 
N234 X-298.138 Y31.850 Z-31.939 A233.9338 B-0.0004 
N235 X-298.138 Y32.652 Z-32.306 A236.5290 B-0.0006 
N236 X-298.138 Y33.507 Z-32.644 A239.2311 B-0.0007 
N237 X-298.138 Y34.428 Z-32.948 A242.0755 B-0.0007 
N238 X-298.138 Y35.425 Z-33.210 A245.0918 B-0.0005 
N239 X-298.138 Y36.504 Z-33.413 A248.2944 B-0.0004 
N240 X-298.138 Y37.663 Z-33.537 A251.6717 B-0.0002 
N241 X-298.138 Y38.883 Z-33.556 A255.1795 B-0.0001 
N242 X-298.138 Y40.135 Z-33.447 A258.7457 B-0.0000 
N243 X-298.138 Y41.372 Z-33.185 A262.2535 B-0.0000 
N244 X-298.138 Y42.513 Z-32.758 A265.4911 
N245 X-298.138 Y43.443 Z-32.164 A268.1473 
N246 X-298.138 Y44.072 Z-31.422 A269.9621 
N247 X-298.138 Y44.410 Z-30.550 A270.9550 
N248 X-298.138 Y44.552 Z-29.553 A271.3918 
N249 X-298.138 Y44.594 Z-28.431 A271.5447 
N250 X-298.138 Y44.593 Z-27.186 A271.5795 
N251 X-298.138 Y44.580 Z-25.824 A271.5817 
N252 X-298.138 Y44.565 Z-24.358 
N253 X-298.138 Y44.549 Z-22.806 
N254 X-298.138 Y44.533 Z-21.190 
N255 X-298.138 Y44.516 Z-19.536 
N256 X-298.138 Y44.499 Z-17.873 
N257 X-298.138 Y44.482 Z-16.229 
N258 X-298.138 Y44.466 Z-14.631 
N259 X-298.138 Y44.451 Z-13.105 
N260 X-298.138 Y44.436 Z-11.671 
N261 X-298.138 Y44.423 Z-10.347 
N262 X-298.138 Y44.411 Z-9.143 A271.5823 
N263 X-298.138 Y44.419 Z-8.065 A271.6421 
N264 X-298.138 Y44.543 Z-7.109 A272.0519 
N265 X-298.138 Y44.913 Z-6.262 A273.2307 
N266 X-298.138 Y45.571 Z-5.497 A275.3300 
N267 X-298.138 Y46.455 Z-4.779 A278.1806 
N268 X-298.138 Y47.471 Z-4.080 A281.5135 
N269 X-298.138 Y48.547 Z-3.378 A285.1149 
N270 X-298.138 Y49.631 Z-2.665 A288.8283 
N271 X-298.138 Y50.677 Z-1.938 A292.5171 
N272 X-298.138 Y51.648 Z-1.210 A296.0550 
N273 X-298.138 Y52.521 Z-0.494 A299.3608 
N274 X-298.138 Y53.293 Z0.200 A302.4045 
N275 X-298.138 Y53.968 Z0.867 A305.1929 
N276 X-298.138 Y54.562 Z1.509 A307.7600 
N277 X-298.138 Y55.091 Z2.131 A310.1578 
N278 X-298.138 Y55.571 Z2.743 A312.4435 
N279 X-298.138 Y56.016 Z3.358 A314.6759 
N280 X-298.138 Y56.440 Z3.992 A316.9166 
N281 X-298.138 Y56.855 Z4.662 A319.2368 
N282 X-298.138 Y57.273 Z5.394 A321.7220 
N283 X-298.138 Y57.704 Z6.222 A324.4753 
N284 X-298.138 Y58.149 Z7.182 A327.6000 
N285 X-298.138 Y58.592 Z8.299 A331.1505 
N286 X-298.138 Y58.985 Z9.555 A335.0318 
N287 X-298.138 Y59.269 Z10.886 A339.0282 
N288 X-298.138 Y59.415 Z12.271 A343.0852 
N289 X-298.138 Y59.401 Z13.722 A347.2622 
N290 X-298.138 Y59.194 Z15.199 A351.4796 
N291 X-298.138 Y58.755 Z16.556 A355.3447 
N292 X-298.138 Y58.076 Z17.584 A358.2761 
N293 X-298.138 Y57.176 Z18.197 A0.0332 
N294 X-298.138 Y56.062 Z18.483 A0.8652 
N295 X-298.138 Y54.712 Z18.574 A1.1405 
N296 X-298.138 Y53.098 Z18.582 A1.1788 
N297 X-298.138 Y51.191 Z18.576 A1.1790 
N298 X-298.138 Y48.973 Z18.569 
N299 X-298.138 Y46.429 Z18.561 
N300 X-298.138 Y43.559 Z18.552 
N301 X-298.138 Y40.371 Z18.542 
N302 X-298.138 Y36.887 Z18.532 
N303 X-298.138 Y33.143 Z18.520 
N304 X-298.138 Y29.184 Z18.508 
N305 X-298.138 Y25.070 Z18.495 
N306 X-298.138 Y20.863 Z18.482 
N307 X-298.138 Y16.634 Z18.468 
N308 X-298.138 Y12.453 Z18.455 A1.1793 
N309 X-298.138 Y8.387 Z18.449 A1.2005 
N310 X-298.138 Y4.499 Z18.485 A1.3615 
N311 X-298.138 Y0.839 Z18.554 A1.6653 
N312 X-298.138 Y-2.547 Z18.599 A1.9444 
N313 X-298.138 Y-5.631 Z18.599 A2.1110 
N314 X-298.138 Y-8.393 Z18.564 A2.1738 
N315 X-298.138 Y-10.831 Z18.520 A2.1911 
N316 X-298.138 Y-12.951 Z18.477 A2.1952 
N317 X-298.138 Y-14.768 Z18.442 A2.2049 
N318 X-298.138 Y-16.307 Z18.459 A2.3569 B-0.0001 
N319 X-298.138 Y-17.601 Z18.630 A2.9777 B-0.0005 
N320 X-298.138 Y-18.695 Z19.071 A4.4472 B-0.0019 
N321 X-298.138 Y-19.648 Z19.852 A7.0126 B-0.0049 
N322 X-298.138 Y-20.528 Z20.907 A10.4995 B-0.0098 
N323 X-298.138 Y-21.377 Z22.075 A14.4375 B-0.0159 
N324 X-298.138 Y-22.209 Z23.236 A18.4597 B-0.0219 
N325 X-298.138 Y-23.026 Z24.331 A22.3696 B-0.0266 
N326 X-298.138 Y-23.823 Z25.329 A26.0656 B-0.0292 
N327 X-298.138 Y-24.596 Z26.223 A29.5016 B-0.0296 
N328 X-298.138 Y-25.341 Z27.015 A32.6790 B-0.0283 
N329 X-298.138 Y-26.062 Z27.719 A35.6304 B-0.0256 
N330 X-298.138 Y-26.764 Z28.350 A38.3992 B-0.0220 
N331 X-298.138 Y-27.456 Z28.920 A41.0307 B-0.0178 
N332 X-298.138 Y-28.144 Z29.441 A43.5673 B-0.0132 
N333 X-298.138 Y-28.838 Z29.921 A46.0474 B-0.0083 
N334 X-298.138 Y-29.546 Z30.366 A48.5057 B-0.0032 
N335 X-298.138 Y-30.276 Z30.782 A50.9754 B0.0021 
N336 X-298.138 Y-31.039 Z31.171 A53.4897 B0.0073 
N337 X-298.138 Y-31.845 Z31.533 A56.0822 B0.0126 
N338 X-298.138 Y-32.706 Z31.867 A58.7877 B0.0179 
N339 X-298.137 Y-33.633 Z32.167 A61.6385 B0.0230 
N340 X-298.137 Y-34.637 Z32.424 A64.6597 B0.0279 
N341 X-298.137 Y-35.720 Z32.621 A67.8598 B0.0324 
N342 X-298.137 Y-36.878 Z32.737 A71.2205 B0.0363 
N343 X-298.137 Y-38.092 Z32.747 A74.6934 B0.0394 
N344 X-298.137 Y-39.332 Z32.628 A78.2031 B0.0415 
N345 X-298.137 Y-40.547 Z32.357 A81.6279 B0.0426 
N346 X-298.137 Y-41.660 Z31.923 A84.7613 B0.0433 
N347 X-298.137 Y-42.568 Z31.325 A87.3212 B0.0447 
N348 X-298.137 Y-43.199 Z30.579 A89.1064 B0.0478 
N349 X-298.137 Y-43.566 Z29.702 A90.1474 B0.0528 
N350 X-298.137 Y-43.743 Z28.702 A90.6482 B0.0592 
N351 X-298.137 Y-43.807 Z27.583 A90.8271 B0.0656 
N352 X-298.137 Y-43.822 Z26.347 A90.8624 B0.0713 
N353 X-298.137 Y-43.826 Z25.004 A90.8638 B0.0763 
N354 X-298.137 Y-43.829 Z23.566 B0.0813 
N355 X-298.137 Y-43.833 Z22.052 B0.0864 
N356 X-298.137 Y-43.836 Z20.485 B0.0918 
N357 X-298.137 Y-43.840 Z18.889 B0.0973 
N358 X-298.137 Y-43.844 Z17.293 B0.1027 
N359 X-298.137 Y-43.848 Z15.724 B0.1081 
N360 X-298.137 Y-43.851 Z14.206 B0.1133 
N361 X-298.137 Y-43.855 Z12.763 B0.1182 
N362 X-298.137 Y-43.858 Z11.414 A90.8639 B0.1228 
N363 X-298.137 Y-43.864 Z10.173 A90.8718 B0.1271 
N364 X-298.137 Y-43.886 Z9.048 A90.9322 B0.1314 
N365 X-298.137 Y-43.965 Z8.043 A91.1702 B0.1365 
N366 X-298.137 Y-44.195 Z7.154 A91.8840 B0.1444 
N367 X-298.137 Y-44.690 Z6.362 A93.4329 B0.1571 
N368 X-298.137 Y-45.466 Z5.637 A95.8913 B0.1759 
N369 X-298.136 Y-46.438 Z4.942 A99.0206 B0.2007 
N370 X-298.136 Y-47.500 Z4.255 A102.5064 B0.2303 
N371 X-298.136 Y-48.575 Z3.564 A106.1221 B0.2631 
N372 X-298.136 Y-49.616 Z2.869 A109.7144 B0.2973 
N373 X-298.136 Y-50.590 Z2.175 A113.1794 B0.3315 
N374 X-298.136 Y-51.480 Z1.489 A116.4537 B0.3643 
N375 X-298.135 Y-52.283 Z0.818 A119.5129 B0.3948 
N376 X-298.135 Y-53.003 Z0.165 A122.3628 B0.4223 
N377 X-298.135 Y-53.650 Z-0.474 A125.0313 B0.4466 
N378 X-298.135 Y-54.239 Z-1.102 A127.5614 B0.4674 
N379 X-298.135 Y-54.783 Z-1.728 A130.0015 B0.4846 
N380 X-298.135 Y-55.294 Z-2.363 A132.4012 B0.4978 
N381 X-298.135 Y-55.782 Z-3.018 A134.8087 B0.5069 
N382 X-298.135 Y-56.255 Z-3.706 A137.2710 B0.5114 
N383 X-298.135 Y-56.716 Z-4.439 A139.8283 B0.5107 
N384 X-298.135 Y-57.165 Z-5.229 A142.5099 B0.5044 
N385 X-298.135 Y-57.596 Z-6.084 A145.3354 B0.4919 
N386 X-298.135 Y-57.999 Z-7.012 A148.3191 B0.4728 
N387 X-298.135 Y-58.365 Z-8.025 A151.4869 B0.4471 
N388 X-298.135 Y-58.679 Z-9.138 A154.8826 B0.4149 
N389 X-298.135 Y-58.921 Z-10.363 A158.5317 B0.3772 
N390 X-298.136 Y-59.057 Z-11.693 A162.4116 B0.3357 
N391 X-298.136 Y-59.046 Z-13.094 A166.4324 B0.2931 
N392 X-298.136 Y-58.848 Z-14.502 A170.4275 B0.2524 
N393 X-298.136 Y-58.431 Z-15.816 A174.1360 B0.2171 
N394 X-298.137 Y-57.783 Z-16.910 A177.2280 B0.1899 
N395 X-298.137 Y-56.910 Z-17.690 A179.4492 B0.1726 
N396 X-298.137 Y-55.818 Z-18.113 A180.6720 B0.1647 
N397 X-298.137 Y-54.498 Z-18.245 A181.0604 B0.1630 
N398 X-298.137 Y-52.924 Z-18.255 A181.0989 B0.1632 
N399 X-298.137 Y-51.072 Z-18.252 A181.0989 B0.1637 
N400 X-298.137 Y-48.919 Z-18.248 B0.1643 
N401 X-298.137 Y-46.456 Z-18.244 B0.1650 
N402 X-298.137 Y-43.680 Z-18.239 B0.1658 
N403 X-298.137 Y-40.598 Z-18.234 B0.1666 
N404 X-298.137 Y-37.232 Z-18.228 B0.1675 
N405 X-298.137 Y-33.613 Z-18.222 B0.1685 
N406 X-298.137 Y-29.785 Z-18.215 B0.1695 
N407 X-298.137 Y-25.801 Z-18.208 B0.1706 
N408 X-298.137 Y-21.722 Z-18.201 B0.1717 
N409 X-298.137 Y-17.613 Z-18.194 B0.1729 
N410 X-298.137 Y-13.540 Z-18.205 A181.1568 B0.1741 
N411 X-298.137 Y-9.565 Z-18.341 A181.6365 B0.1772 
N412 X-298.137 Y-5.747 Z-18.509 A182.3377 B0.1725 
N413 X-298.137 Y-2.140 Z-18.603 A182.9318 B0.1538 
N414 X-298.137 Y1.208 Z-18.573 A183.2076 B0.1370 
N415 X-298.137 Y4.268 Z-18.478 A183.2850 B0.1244 
N416 X-298.137 Y7.025 Z-18.382 A183.3301 B0.1140 
N417 X-298.137 Y9.472 Z-18.290 A183.3527 B0.1053 
N418 X-298.137 Y11.613 Z-18.202 A183.3556 B0.0979 
N419 X-298.137 Y13.460 Z-18.127 A183.3574 B0.0914 
N420 X-298.137 Y15.035 Z-18.090 A183.4435 B0.0859 
N421 X-298.137 Y16.368 Z-18.190 A183.9246 B0.0809 
N422 X-298.137 Y17.502 Z-18.536 A185.1649 B0.0761 
N423 X-298.137 Y18.490 Z-19.192 A187.3936 B0.0714 
N424 X-298.137 Y19.394 Z-20.133 A190.5586 B0.0664 
N425 X-298.137 Y20.262 Z-21.235 A194.3133 B0.0612 
N426 X-298.137 Y21.116 Z-22.376 A198.2881 B0.0556 
N427 X-298.137 Y21.958 Z-23.474 A202.2304 B0.0500 
N428 X-298.137 Y22.783 Z-24.484 A205.9880 B0.0443 
N429 X-298.137 Y23.581 Z-25.388 A209.4871 B0.0387 
N430 X-298.137 Y24.350 Z-26.187 A212.7182 B0.0331 
N431 X-298.137 Y25.091 Z-26.895 A215.7124 B0.0277 
N432 X-298.137 Y25.811 Z-27.526 A218.5139 B0.0224 
N433 X-298.138 Y26.517 Z-28.093 A221.1675 B0.0172 
N434 X-298.138 Y27.216 Z-28.609 A223.7158 B0.0121 
N435 X-298.138 Y27.919 Z-29.081 A226.1985 B0.0072 
N436 X-298.138 Y28.633 Z-29.518 A228.6530 B0.0025 
N437 X-298.138 Y29.368 Z-29.924 A231.1161 B-0.0020 
N438 X-298.138 Y30.136 Z-30.303 A233.6256 B-0.0061 
N439 X-298.138 Y30.949 Z-30.656 A236.2207 B-0.0099 
N440 X-298.138 Y31.820 Z-30.982 A238.9413 B-0.0131 
N441 X-298.138 Y32.764 Z-31.276 A241.8247 B-0.0156 
N442 X-298.138 Y33.789 Z-31.526 A244.8983 B-0.0173 
N443 X-298.138 Y34.900 Z-31.714 A248.1659 B-0.0179 
N444 X-298.138 Y36.087 Z-31.816 A251.5968 B-0.0173 
N445 X-298.138 Y37.322 Z-31.806 A255.1201 B-0.0156 
N446 X-298.138 Y38.565 Z-31.658 A258.6287 B-0.0131 
N447 X-298.138 Y39.755 Z-31.354 A261.9680 B-0.0101 
N448 X-298.138 Y40.811 Z-30.885 A264.9269 B-0.0071 
N449 X-298.138 Y41.648 Z-30.258 A267.2720 B-0.0044 
N450 X-298.138 Y42.226 Z-29.488 A268.8877 B-0.0023 
N451 X-298.138 Y42.565 Z-28.591 A269.8311 B-0.0010 
N452 X-298.138 Y42.727 Z-27.574 A270.2680 B-0.0003 
N453 X-298.138 Y42.784 Z-26.441 A270.3998 B-0.0001 
N454 X-298.138 Y42.802 Z-25.198 A270.4165 B-0.0000 
N455 X-298.138 Y42.816 Z-23.854 A270.4166 B-0.0000 
N456 X-298.138 Y42.830 Z-22.425 
N457 X-298.138 Y42.846 Z-20.931 
N458 X-298.138 Y42.861 Z-19.394 
N459 X-298.138 Y42.877 Z-17.839 
N460 X-298.138 Y42.893 Z-16.294 
N461 X-298.138 Y42.908 Z-14.784 
N462 X-298.138 Y42.923 Z-13.334 
N463 X-298.138 Y42.937 Z-11.964 
N464 X-298.138 Y42.950 Z-10.690 A270.4170 
N465 X-298.138 Y42.964 Z-9.526 A270.4246 
N466 X-298.138 Y42.991 Z-8.477 A270.4731 
N467 X-298.138 Y43.094 Z-7.545 A270.7616 
N468 X-298.138 Y43.411 Z-6.722 A271.7194 
N469 X-298.138 Y44.036 Z-5.986 A273.6541 
N470 X-298.138 Y44.929 Z-5.299 A276.4703 
N471 X-298.138 Y45.978 Z-4.628 A279.8404 
N472 X-298.138 Y47.084 Z-3.955 A283.4732 
N473 X-298.138 Y48.182 Z-3.271 A287.1712 
N474 X-298.138 Y49.231 Z-2.579 A290.8052 
N475 X-298.138 Y50.203 Z-1.887 A294.2788 
N476 X-298.138 Y51.080 Z-1.204 A297.5290 
N477 X-298.138 Y51.861 Z-0.540 A300.5325 
N478 X-298.138 Y52.551 Z0.101 A303.2963 
N479 X-298.138 Y53.161 Z0.720 A305.8462 
N480 X-298.138 Y53.704 Z1.318 A308.2214 
N481 X-298.138 Y54.197 Z1.905 A310.4711 
N482 X-298.138 Y54.651 Z2.489 A312.6467 
N483 X-298.138 Y55.081 Z3.083 A314.8033 
N484 X-298.138 Y55.498 Z3.703 A317.0021 
N485 X-298.138 Y55.915 Z4.369 A319.3177 
N486 X-298.138 Y56.345 Z5.110 A321.8439 
N487 X-298.138 Y56.795 Z5.961 A324.6899 
N488 X-298.138 Y57.266 Z6.960 A327.9572 
N489 X-298.138 Y57.732 Z8.126 A331.6748 
N490 X-298.138 Y58.140 Z9.434 A335.7226 
N491 X-298.138 Y58.438 Z10.843 A339.9644 
N492 X-298.138 Y58.592 Z12.333 A344.3438 
N493 X-298.138 Y58.561 Z13.848 A348.7247 
N494 X-298.138 Y58.313 Z15.284 A352.8335 
N495 X-298.138 Y57.834 Z16.499 A356.2992 
N496 X-298.138 Y57.137 Z17.365 A358.7726 
N497 X-298.138 Y56.237 Z17.874 A0.2324 
N498 X-298.138 Y55.129 Z18.108 A0.9122 
N499 X-298.138 Y53.792 Z18.172 A1.1090 
N500 X-298.138 Y52.198 Z18.175 A1.1272 
N501 X-298.138 Y50.324 Z18.171 
N502 X-298.138 Y48.151 Z18.166 
N503 X-298.138 Y45.669 Z18.161 
N504 X-298.138 Y42.880 Z18.154 
N505 X-298.138 Y39.794 Z18.148 
N506 X-298.138 Y36.434 Z18.140 
N507 X-298.138 Y32.834 Z18.132 
N508 X-298.138 Y29.039 Z18.124 
N509 X-298.138 Y25.104 Z18.115 
N510 X-298.138 Y21.089 Z18.106 
N511 X-298.138 Y17.058 Z18.097 
N512 X-298.138 Y13.075 Z18.088 A1.1275 
N513 X-298.138 Y9.201 Z18.101 A1.1942 
N514 X-298.138 Y5.490 Z18.237 A1.6769 
N515 X-298.138 Y1.984 Z18.501 A2.6787 
N516 X-298.138 Y-1.273 Z18.703 A3.6578 
N517 X-298.138 Y-4.245 Z18.746 A4.2516 B-0.0001 
N518 X-298.138 Y-6.913 Z18.658 A4.4589 B-0.0012 
N519 X-298.138 Y-9.279 Z18.534 A4.5211 B-0.0064 
N520 X-298.138 Y-11.349 Z18.417 A4.5540 B-0.0168 
N521 X-298.138 Y-13.138 Z18.310 A4.5644 B-0.0301 
N522 X-298.138 Y-14.667 Z18.248 A4.6688 B-0.0439 
N523 X-298.138 Y-15.973 Z18.353 A5.2473 B-0.0563 
N524 X-298.138 Y-17.098 Z18.735 A6.6749 B-0.0652 
N525 X-298.138 Y-18.098 Z19.421 A9.0714 B-0.0701 
N526 X-298.138 Y-19.027 Z20.352 A12.2886 B-0.0717 
N527 X-298.138 Y-19.922 Z21.404 A15.9685 B-0.0711 
N528 X-298.138 Y-20.794 Z22.466 A19.7762 B-0.0689 
N529 X-298.138 Y-21.645 Z23.477 A23.5126 B-0.0653 
N530 X-298.138 Y-22.472 Z24.406 A27.0746 B-0.0607 
N531 X-298.138 Y-23.272 Z25.243 A30.4150 B-0.0551 
N532 X-298.138 Y-24.045 Z25.991 A33.5299 B-0.0489 
N533 X-298.138 Y-24.793 Z26.659 A36.4455 B-0.0421 
N534 X-298.138 Y-25.523 Z27.259 A39.2003 B-0.0349 
N535 X-298.138 Y-26.244 Z27.803 A41.8339 B-0.0272 
N536 X-298.138 Y-26.962 Z28.300 A44.3849 B-0.0191 
N537 X-298.138 Y-27.688 Z28.757 A46.8893 B-0.0108 
N538 X-298.138 Y-28.429 Z29.179 A49.3819 B-0.0022 
N539 X-298.138 Y-29.196 Z29.572 A51.8970 B0.0067 
N540 X-298.138 Y-30.000 Z29.935 A54.4689 B0.0157 
N541 X-298.137 Y-30.851 Z30.268 A57.1321 B0.0250 
N542 X-298.137 Y-31.762 Z30.567 A59.9194 B0.0344 
N543 X-298.137 Y-32.742 Z30.825 A62.8589 B0.0441 
N544 X-298.137 Y-33.799 Z31.027 A65.9649 B0.0539 
N545 X-298.137 Y-34.929 Z31.155 A69.2283 B0.0639 
N546 X-298.137 Y-36.118 Z31.184 A72.6102 B0.0739 
N547 X-298.137 Y-37.340 Z31.091 A76.0435 B0.0838 
N548 X-298.137 Y-38.551 Z30.854 A79.4178 B0.0934 
N549 X-298.137 Y-39.682 Z30.457 A82.5514 B0.1026 
N550 X-298.137 Y-40.640 Z29.897 A85.1969 B0.1110 
N551 X-298.137 Y-41.356 Z29.183 A87.1622 B0.1183 
N552 X-298.137 Y-41.820 Z28.335 A88.4123 B0.1248 
N553 X-298.137 Y-42.071 Z27.363 A89.0504 B0.1305 
N554 X-298.137 Y-42.178 Z26.278 A89.2707 B0.1358 
N555 X-298.137 Y-42.226 Z25.086 A89.3074 B0.1411 
N556 X-298.137 Y-42.264 Z23.796 A89.3082 B0.1467 
N557 X-298.137 Y-42.305 Z22.424 B0.1527 
N558 X-298.137 Y-42.347 Z20.986 B0.1589 
N559 X-298.137 Y-42.391 Z19.505 B0.1654 
N560 X-298.137 Y-42.436 Z18.005 B0.1719 
N561 X-298.137 Y-42.480 Z16.511 B0.1784 
N562 X-298.137 Y-42.523 Z15.048 B0.1848 
N563 X-298.137 Y-42.564 Z13.638 B0.1910 
N564 X-298.136 Y-42.604 Z12.304 B0.1968 
N565 X-298.136 Y-42.641 Z11.060 A89.3085 B0.2022 
N566 X-298.136 Y-42.681 Z9.920 A89.3290 B0.2073 
N567 X-298.136 Y-42.754 Z8.891 A89.4601 B0.2126 
N568 X-298.136 Y-42.917 Z7.975 A89.8824 B0.2196 
N569 X-298.136 Y-43.261 Z7.167 A90.8872 B0.2304 
N570 X-298.136 Y-43.875 Z6.448 A92.7547 B0.2474 
N571 X-298.136 Y-44.748 Z5.783 A95.4758 B0.2717 
N572 X-298.136 Y-45.784 Z5.137 A98.7689 B0.3021 
N573 X-298.136 Y-46.875 Z4.492 A102.3164 B0.3368 
N574 X-298.135 Y-47.953 Z3.841 A105.9090 B0.3737 
N575 X-298.135 Y-48.978 Z3.187 A109.4177 B0.4110 
N576 X-298.135 Y-49.928 Z2.535 A112.7643 B0.4474 
N577 X-298.135 Y-50.792 Z1.892 A115.9083 B0.4817 
N578 X-298.135 Y-51.571 Z1.263 A118.8419 B0.5132 
N579 X-298.134 Y-52.274 Z0.647 A121.5809 B0.5416 
N580 X-298.134 Y-52.910 Z0.045 A124.1565 B0.5667 
N581 X-298.134 Y-53.493 Z-0.551 A126.6089 B0.5883 
N582 X-298.134 Y-54.035 Z-1.147 A128.9820 B0.6064 
N583 X-298.134 Y-54.547 Z-1.753 A131.3199 B0.6207 
N584 X-298.134 Y-55.038 Z-2.379 A133.6670 B0.6309 
N585 X-298.134 Y-55.516 Z-3.036 A136.0666 B0.6366 
N586 X-298.134 Y-55.986 Z-3.736 A138.5596 B0.6375 
N587 X-298.134 Y-56.448 Z-4.492 A141.1791 B0.6328 
N588 X-298.134 Y-56.898 Z-5.314 A143.9495 B0.6222 
N589 X-298.134 Y-57.330 Z-6.211 A146.8917 B0.6052 
N590 X-298.134 Y-57.733 Z-7.196 A150.0319 B0.5815 
N591 X-298.134 Y-58.095 Z-8.285 A153.4140 B0.5512 
N592 X-298.135 Y-58.397 Z-9.491 A157.0665 B0.5147 
N593 X-298.135 Y-58.606 Z-10.807 A160.9638 B0.4731 
N594 X-298.135 Y-58.680 Z-12.201 A165.0106 B0.4288 
N595 X-298.135 Y-58.579 Z-13.613 A169.0494 B0.3847 
N596 X-298.136 Y-58.274 Z-14.957 A172.8633 B0.3441 
N597 X-298.136 Y-57.750 Z-16.120 A176.1561 B0.3104 
N598 X-298.136 Y-57.008 Z-17.000 A178.6559 B0.2863 
N599 X-298.136 Y-56.059 Z-17.549 A180.2285 B0.2725 
N600 X-298.136 Y-54.901 Z-17.786 A180.9181 B0.2673 
N601 X-298.136 Y-53.515 Z-17.833 A181.0599 B0.2665 
N602 X-298.136 Y-51.876 Z-17.832 A181.0645 B0.2667 
N603 X-298.136 Y-49.964 Z-17.830 B0.2669 
N604 X-298.136 Y-47.764 Z-17.828 B0.2671 
N605 X-298.136 Y-45.271 Z-17.825 B0.2674 
N606 X-298.136 Y-42.487 Z-17.822 B0.2677 
N607 X-298.136 Y-39.426 Z-17.818 B0.2680 
N608 X-298.136 Y-36.113 Z-17.815 B0.2684 
N609 X-298.136 Y-32.582 Z-17.811 B0.2688 
N610 X-298.136 Y-28.877 Z-17.806 B0.2692 
N611 X-298.136 Y-25.050 Z-17.802 B0.2696 
N612 X-298.136 Y-21.158 Z-17.798 B0.2700 
N613 X-298.136 Y-17.261 Z-17.794 A181.0672 B0.2705 
N614 X-298.136 Y-13.415 Z-17.844 A181.2401 B0.2722 
N615 X-298.136 Y-9.671 Z-18.155 A182.3061 B0.2778 
N616 X-298.136 Y-6.073 Z-18.534 A183.8300 B0.2725 
N617 X-298.136 Y-2.677 Z-18.749 A185.0984 B0.2472 
N618 X-298.136 Y0.461 Z-18.696 A185.6680 B0.2247 
N619 X-298.136 Y3.321 Z-18.497 A185.7801 B0.2079 
N620 X-298.137 Y5.902 Z-18.296 A185.8277 B0.1930 
N621 X-298.137 Y8.201 Z-18.112 A185.8623 B0.1797 
N622 X-298.137 Y10.221 Z-17.944 A185.8727 B0.1680 
N623 X-298.137 Y11.974 Z-17.795 A185.8752 B0.1578 
N624 X-298.137 Y13.481 Z-17.690 A185.9481 B0.1488 
N625 X-298.137 Y14.775 Z-17.737 A186.4334 B0.1402 
N626 X-298.137 Y15.901 Z-18.054 A187.7312 B0.1312 
N627 X-298.137 Y16.909 Z-18.676 A189.9882 B0.1213 
N628 X-298.137 Y17.852 Z-19.555 A193.0938 B0.1106 
N629 X-298.137 Y18.765 Z-20.577 A196.7253 B0.0994 
N630 X-298.137 Y19.661 Z-21.626 A200.5391 B0.0882 
N631 X-298.137 Y20.540 Z-22.633 A204.3123 B0.0773 
N632 X-298.137 Y21.397 Z-23.560 A207.9200 B0.0667 
N633 X-298.137 Y22.224 Z-24.392 A211.3008 B0.0568 
N634 X-298.137 Y23.021 Z-25.132 A214.4463 B0.0474 
N635 X-298.137 Y23.791 Z-25.789 A217.3854 B0.0385 
N636 X-298.137 Y24.541 Z-26.378 A220.1591 B0.0299 
N637 X-298.138 Y25.279 Z-26.909 A222.8082 B0.0217 
N638 X-298.138 Y26.014 Z-27.391 A225.3723 B0.0138 
N639 X-298.138 Y26.756 Z-27.833 A227.8894 B0.0062 
N640 X-298.138 Y27.514 Z-28.240 A230.3973 B-0.0011 
N641 X-298.138 Y28.300 Z-28.616 A232.9354 B-0.0083 
N642 X-298.138 Y29.126 Z-28.963 A235.5444 B-0.0151 
N643 X-298.138 Y30.007 Z-29.280 A238.2651 B-0.0217 
N644 X-298.138 Y30.955 Z-29.562 A241.1351 B-0.0281 
N645 X-298.138 Y31.981 Z-29.798 A244.1806 B-0.0341 
N646 X-298.138 Y33.087 Z-29.970 A247.4029 B-0.0397 
N647 X-298.138 Y34.262 Z-30.057 A250.7702 B-0.0447 
N648 X-298.138 Y35.482 Z-30.032 A254.2186 B-0.0488 
N649 X-298.138 Y36.710 Z-29.872 A257.6525 B-0.0518 
N650 X-298.138 Y37.887 Z-29.558 A260.9208 B-0.0530 
N651 X-298.138 Y38.932 Z-29.081 A263.8070 B-0.0520 
N652 X-298.138 Y39.765 Z-28.448 A266.0932 B-0.0486 
N653 X-298.138 Y40.348 Z-27.675 A267.6756 B-0.0433 
N654 X-298.138 Y40.693 Z-26.777 A268.5773 B-0.0368 
N655 X-298.138 Y40.854 Z-25.765 A268.9439 B-0.0298 
N656 X-298.138 Y40.920 Z-24.647 A269.0245 B-0.0227 
N657 X-298.138 Y40.964 Z-23.432 A269.0288 B-0.0160 
N658 X-298.138 Y41.008 Z-22.134 A269.0288 B-0.0100 
N659 X-298.138 Y41.055 Z-20.766 A269.0289 B-0.0052 
N660 X-298.138 Y41.104 Z-19.350 A269.0294 B-0.0021 
N661 X-298.138 Y41.155 Z-17.908 A269.0314 B-0.0006 
N662 X-298.138 Y41.206 Z-16.464 A269.0376 B-0.0001 
N663 X-298.138 Y41.260 Z-15.042 A269.0544 B-0.0000 
N664 X-298.138 Y41.317 Z-13.665 A269.0842 
N665 X-298.138 Y41.369 Z-12.355 A269.1115 
N666 X-298.138 Y41.414 Z-11.126 A269.1232 
N667 X-298.138 Y41.453 Z-9.994 A269.1308 
N668 X-298.138 Y41.503 Z-8.967 A269.1815 
N669 X-298.138 Y41.603 Z-8.049 A269.3955 
N670 X-298.138 Y41.852 Z-7.238 A270.0861 
N671 X-298.138 Y42.380 Z-6.523 A271.6621 
N672 X-298.138 Y43.210 Z-5.869 A274.2145 
N673 X-298.138 Y44.244 Z-5.239 A277.4613 
N674 X-298.138 Y45.354 Z-4.608 A281.0275 
N675 X-298.138 Y46.459 Z-3.970 A284.6650 
N676 X-298.138 Y47.516 Z-3.324 A288.2360 
N677 X-298.138 Y48.503 Z-2.676 A291.6669 
N678 X-298.138 Y49.407 Z-2.031 A294.9092 
N679 X-298.138 Y50.223 Z-1.397 A297.9379 
N680 X-298.138 Y50.955 Z-0.778 A300.7520 
N681 X-298.138 Y51.610 Z-0.175 A303.3671 
N682 X-298.138 Y52.197 Z0.411 A305.8081 
N683 X-298.138 Y52.729 Z0.985 A308.1082 
N684 X-298.138 Y53.216 Z1.552 A310.3087 
N685 X-298.138 Y53.670 Z2.122 A312.4549 
N686 X-298.138 Y54.104 Z2.705 A314.5969 
N687 X-298.138 Y54.529 Z3.317 A316.7943 
N688 X-298.138 Y54.957 Z3.979 A319.1215 
N689 X-298.138 Y55.400 Z4.721 A321.6755 
N690 X-298.138 Y55.868 Z5.578 A324.5674 
N691 X-298.138 Y56.359 Z6.588 A327.8962 
N692 X-298.138 Y56.843 Z7.767 A331.6729 
N693 X-298.138 Y57.267 Z9.084 A335.7688 
N694 X-298.138 Y57.582 Z10.510 A340.0763 
N695 X-298.138 Y57.752 Z12.016 A344.5206 
N696 X-298.138 Y57.734 Z13.535 A348.9261 
N697 X-298.138 Y57.499 Z14.958 A353.0097 
N698 X-298.138 Y57.040 Z16.148 A356.4095 
N699 X-298.138 Y56.372 Z16.988 A358.8125 
N700 X-298.138 Y55.510 Z17.481 A0.2275 
N701 X-298.138 Y54.451 Z17.705 A0.8792 
N702 X-298.138 Y53.174 Z17.765 A1.0588 
N703 X-298.138 Y51.654 Z17.768 A1.0734 
N704 X-298.138 Y49.868 Z17.766 
N705 X-298.138 Y47.801 Z17.763 
N706 X-298.138 Y45.445 Z17.760 
N707 X-298.138 Y42.799 Z17.757 
N708 X-298.138 Y39.874 Z17.753 
N709 X-298.138 Y36.693 Z17.749 
N710 X-298.138 Y33.288 Z17.745 
N711 X-298.138 Y29.698 Z17.740 
N712 X-298.138 Y25.975 Z17.735 
N713 X-298.138 Y22.172 Z17.730 
N714 X-298.138 Y18.348 Z17.725 
N715 X-298.138 Y14.560 Z17.721 
N716 X-298.138 Y10.866 Z17.724 A1.0996 
N717 X-298.138 Y7.311 Z17.847 A1.5137 
N718 X-298.138 Y3.931 Z18.241 A2.8906 
N719 X-298.138 Y0.753 Z18.698 A4.7277 
N720 X-298.138 Y-2.176 Z18.951 A6.1737 B-0.0006 
N721 X-298.138 Y-4.817 Z18.927 A6.8701 B-0.0064 
N722 X-298.138 Y-7.170 Z18.755 A7.0953 B-0.0230 
N723 X-298.138 Y-9.248 Z18.561 A7.1848 B-0.0464 
N724 X-298.138 Y-11.064 Z18.376 A7.2214 B-0.0672 
N725 X-298.138 Y-12.636 Z18.211 A7.2417 B-0.0814 
N726 X-298.138 Y-13.992 Z18.142 A7.4840 B-0.0908 
N727 X-298.138 Y-15.178 Z18.319 A8.4363 B-0.0971 
N728 X-298.138 Y-16.243 Z18.811 A10.3568 B-0.1008 
N729 X-298.138 Y-17.233 Z19.568 A13.1376 B-0.1019 
N730 X-298.138 Y-18.182 Z20.489 A16.4958 B-0.1004 
N731 X-298.138 Y-19.106 Z21.459 A20.0988 B-0.0967 
N732 X-298.138 Y-20.006 Z22.404 A23.7085 B-0.0912 
N733 X-298.138 Y-20.879 Z23.286 A27.2001 B-0.0842 
N734 X-298.138 Y-21.723 Z24.090 A30.5157 B-0.0762 
N735 X-298.138 Y-22.539 Z24.813 A33.6362 B-0.0673 
N736 X-298.138 Y-23.328 Z25.461 A36.5729 B-0.0577 
N737 X-298.138 Y-24.098 Z26.043 A39.3570 B-0.0475 
N738 X-298.138 Y-24.856 Z26.570 A42.0245 B-0.0367 
N739 X-298.138 Y-25.611 Z27.049 A44.6111 B-0.0254 
N740 X-298.138 Y-26.371 Z27.487 A47.1521 B-0.0137 
N741 X-298.138 Y-27.147 Z27.889 A49.6831 B-0.0015 
N742 X-298.138 Y-27.950 Z28.259 A52.2404 B0.0110 
N743 X-298.137 Y-28.791 Z28.597 A54.8600 B0.0240 
N744 X-298.137 Y-29.682 Z28.902 A57.5769 B0.0375 
N745 X-298.137 Y-30.635 Z29.167 A60.4229 B0.0515 
N746 X-298.137 Y-31.658 Z29.383 A63.4211 B0.0661 
N747 X-298.137 Y-32.755 Z29.533 A66.5753 B0.0812 
N748 X-298.137 Y-33.917 Z29.597 A69.8633 B0.0969 
N749 X-298.137 Y-35.126 Z29.551 A73.2373 B0.1129 
N750 X-298.137 Y-36.348 Z29.372 A76.6121 B0.1290 
N751 X-298.137 Y-37.523 Z29.039 A79.8322 B0.1448 
N752 X-298.137 Y-38.565 Z28.543 A82.6635 B0.1595 
N753 X-298.137 Y-39.393 Z27.887 A84.8838 B0.1724 
N754 X-298.137 Y-39.968 Z27.089 A86.3795 B0.1832 
N755 X-298.137 Y-40.300 Z26.165 A87.1705 B0.1919 
N756 X-298.136 Y-40.457 Z25.129 A87.4431 B0.1991 
N757 X-298.136 Y-40.542 Z23.994 A87.4867 B0.2059 
N758 X-298.136 Y-40.617 Z22.771 A87.4875 B0.2131 
N759 X-298.136 Y-40.696 Z21.474 B0.2206 
N760 X-298.136 Y-40.780 Z20.120 B0.2285 
N761 X-298.136 Y-40.865 Z18.730 B0.2366 
N762 X-298.136 Y-40.951 Z17.325 A87.4877 B0.2447 
N763 X-298.136 Y-41.039 Z15.930 A87.4944 B0.2528 
N764 X-298.136 Y-41.133 Z14.567 A87.5279 B0.2607 
N765 X-298.136 Y-41.233 Z13.257 A87.5902 B0.2678 
N766 X-298.136 Y-41.323 Z12.019 A87.6409 B0.2738 
N767 X-298.136 Y-41.397 Z10.867 A87.6593 B0.2788 
N768 X-298.136 Y-41.468 Z9.813 A87.6895 B0.2834 
N769 X-298.136 Y-41.582 Z8.864 A87.8686 B0.2888 
N770 X-298.136 Y-41.806 Z8.023 A88.4123 B0.2968 
N771 X-298.136 Y-42.225 Z7.286 A89.5872 B0.3102 
N772 X-298.136 Y-42.908 Z6.632 A91.6200 B0.3312 
N773 X-298.136 Y-43.838 Z6.027 A94.4698 B0.3604 
N774 X-298.135 Y-44.913 Z5.434 A97.8413 B0.3960 
N775 X-298.135 Y-46.024 Z4.837 A101.4029 B0.4351 
N776 X-298.135 Y-47.104 Z4.233 A104.9512 B0.4757 
N777 X-298.135 Y-48.120 Z3.625 A108.3790 B0.5159 
N778 X-298.134 Y-49.059 Z3.019 A111.6324 B0.5545 
N779 X-298.134 Y-49.914 Z2.419 A114.6882 B0.5906 
N780 X-298.134 Y-50.690 Z1.828 A117.5471 B0.6238 
N781 X-298.134 Y-51.394 Z1.248 A120.2271 B0.6537 
N782 X-298.134 Y-52.036 Z0.677 A122.7573 B0.6803 
N783 X-298.134 Y-52.628 Z0.109 A125.1726 B0.7035 
N784 X-298.133 Y-53.180 Z-0.460 A127.5108 B0.7233 
N785 X-298.133 Y-53.702 Z-1.038 A129.8103 B0.7395 
N786 X-298.133 Y-54.203 Z-1.633 A132.1093 B0.7519 
N787 X-298.133 Y-54.690 Z-2.256 A134.4473 B0.7600 
N788 X-298.133 Y-55.169 Z-2.918 A136.8635 B0.7636 
N789 X-298.133 Y-55.642 Z-3.630 A139.3946 B0.7620 
N790 X-298.133 Y-56.109 Z-4.403 A142.0705 B0.7547 
N791 X-298.133 Y-56.564 Z-5.249 A144.9162 B0.7413 
N792 X-298.133 Y-57.001 Z-6.180 A147.9585 B0.7212 
N793 X-298.134 Y-57.408 Z-7.212 A151.2362 B0.6943 
N794 X-298.134 Y-57.772 Z-8.361 A154.7928 B0.6606 
N795 X-298.134 Y-58.063 Z-9.631 A158.6250 B0.6206 
N796 X-298.134 Y-58.242 Z-10.998 A162.6595 B0.5758 
N797 X-298.135 Y-58.269 Z-12.414 A166.7586 B0.5289 
N798 X-298.135 Y-58.108 Z-13.806 A170.7407 B0.4829 
N799 X-298.135 Y-57.740 Z-15.080 A174.3621 B0.4415 
N800 X-298.135 Y-57.158 Z-16.118 A177.3111 B0.4084 
N801 X-298.135 Y-56.375 Z-16.844 A179.3804 B0.3860 
N802 X-298.135 Y-55.396 Z-17.248 A180.5444 B0.3743 
N803 X-298.135 Y-54.215 Z-17.394 A180.9695 B0.3705 
N804 X-298.135 Y-52.810 Z-17.414 A181.0317 B0.3700 
N805 X-298.135 Y-51.161 Z-17.413 A181.0323 B0.3700 
N806 X-298.135 Y-49.249 Z-17.412 B0.3699 
N807 X-298.135 Y-47.067 Z-17.411 B0.3699 
N808 X-298.135 Y-44.612 Z-17.410 B0.3699 
N809 X-298.135 Y-41.891 Z-17.408 B0.3698 
N810 X-298.135 Y-38.920 Z-17.406 B0.3698 
N811 X-298.135 Y-35.727 Z-17.405 B0.3697 
N812 X-298.135 Y-32.344 Z-17.403 B0.3697 
N813 X-298.135 Y-28.815 Z-17.401 B0.3696 
N814 X-298.135 Y-25.187 Z-17.399 B0.3696 
N815 X-298.135 Y-21.511 Z-17.397 B0.3695 
N816 X-298.135 Y-17.841 Z-17.396 A181.0351 B0.3695 
N817 X-298.135 Y-14.226 Z-17.440 A181.1824 B0.3705 
N818 X-298.135 Y-10.703 Z-17.825 A182.4651 B0.3747 
N819 X-298.135 Y-7.296 Z-18.444 A184.7769 B0.3720 
N820 X-298.136 Y-4.056 Z-18.902 A186.9800 B0.3420 
N821 X-298.136 Y-1.057 Z-18.971 A188.2342 B0.3096 
N822 X-298.136 Y1.664 Z-18.717 A188.5359 B0.2877 
N823 X-298.136 Y4.128 Z-18.408 A188.5885 B0.2690 
N824 X-298.136 Y6.342 Z-18.129 A188.6390 B0.2516 
N825 X-298.136 Y8.307 Z-17.877 A188.6764 B0.2358 
N826 X-298.136 Y10.033 Z-17.649 A188.6911 B0.2217 
N827 X-298.136 Y11.533 Z-17.453 A188.7096 B0.2094 
N828 X-298.136 Y12.836 Z-17.359 A188.9621 B0.1978 
N829 X-298.137 Y13.989 Z-17.515 A189.9279 B0.1853 
N830 X-298.137 Y15.040 Z-17.987 A191.8582 B0.1709 
N831 X-298.137 Y16.032 Z-18.727 A194.6544 B0.1550 
N832 X-298.137 Y16.997 Z-19.635 A198.0442 B0.1381 
N833 X-298.137 Y17.944 Z-20.597 A201.6918 B0.1212 
N834 X-298.137 Y18.873 Z-21.533 A205.3523 B0.1048 
N835 X-298.137 Y19.776 Z-22.405 A208.8929 B0.0893 
N836 X-298.137 Y20.651 Z-23.194 A212.2469 B0.0747 
N837 X-298.137 Y21.493 Z-23.899 A215.3918 B0.0612 
N838 X-298.137 Y22.306 Z-24.525 A218.3443 B0.0485 
N839 X-298.137 Y23.098 Z-25.085 A221.1417 B0.0366 
N840 X-298.137 Y23.878 Z-25.589 A223.8227 B0.0252 
N841 X-298.138 Y24.654 Z-26.045 A226.4258 B0.0144 
N842 X-298.138 Y25.438 Z-26.459 A228.9894 B0.0040 
N843 X-298.138 Y26.240 Z-26.837 A231.5534 B-0.0060 
N844 X-298.138 Y27.074 Z-27.183 A234.1606 B-0.0155 
N845 X-298.138 Y27.954 Z-27.495 A236.8548 B-0.0248 
N846 X-298.138 Y28.895 Z-27.772 A239.6769 B-0.0336 
N847 X-298.138 Y29.907 Z-28.005 A242.6578 B-0.0421 
N848 X-298.138 Y30.994 Z-28.178 A245.8052 B-0.0501 
N849 X-298.138 Y32.151 Z-28.271 A249.0967 B-0.0574 
N850 X-298.138 Y33.358 Z-28.259 A252.4849 B-0.0638 
N851 X-298.138 Y34.586 Z-28.120 A255.8918 B-0.0691 
N852 X-298.138 Y35.779 Z-27.833 A259.1715 B-0.0730 
N853 X-298.138 Y36.852 Z-27.384 A262.0981 B-0.0752 
N854 X-298.138 Y37.722 Z-26.779 A264.4433 B-0.0755 
N855 X-298.138 Y38.341 Z-26.031 A266.0704 B-0.0740 
N856 X-298.138 Y38.707 Z-25.159 A266.9620 B-0.0709 
N857 X-298.138 Y38.880 Z-24.179 A267.2826 B-0.0659 
N858 X-298.138 Y38.967 Z-23.102 A267.3372 B-0.0588 
N859 X-298.138 Y39.042 Z-21.940 A267.3384 B-0.0490 
N860 X-298.138 Y39.121 Z-20.707 A267.3396 B-0.0371 
N861 X-298.138 Y39.207 Z-19.419 A267.3503 B-0.0249 
N862 X-298.138 Y39.302 Z-18.095 A267.3841 B-0.0146 
N863 X-298.138 Y39.406 Z-16.756 A267.4440 B-0.0070 
N864 X-298.138 Y39.513 Z-15.424 A267.5185 B-0.0024 
N865 X-298.138 Y39.617 Z-14.120 A267.5949 B-0.0005 
N866 X-298.138 Y39.712 Z-12.866 A267.6590 B-0.0000 
N867 X-298.138 Y39.794 Z-11.678 A267.6968 B-0.0000 
N868 X-298.138 Y39.862 Z-10.571 A267.7095 
N869 X-298.138 Y39.927 Z-9.556 A267.7315 
N870 X-298.138 Y40.023 Z-8.641 A267.8644 
N871 X-298.138 Y40.213 Z-7.828 A268.3064 
N872 X-298.138 Y40.601 Z-7.116 A269.3879 
N873 X-298.138 Y41.283 Z-6.486 A271.4086 
N874 X-298.138 Y42.232 Z-5.900 A274.3080 
N875 X-298.138 Y43.328 Z-5.321 A277.7349 
N876 X-298.138 Y44.454 Z-4.735 A281.3351 
N877 X-298.138 Y45.544 Z-4.139 A284.9054 
N878 X-298.138 Y46.567 Z-3.537 A288.3481 
N879 X-298.138 Y47.514 Z-2.933 A291.6219 
N880 X-298.138 Y48.380 Z-2.334 A294.7062 
N881 X-298.138 Y49.166 Z-1.741 A297.5959 
N882 X-298.138 Y49.878 Z-1.159 A300.3001 
N883 X-298.138 Y50.522 Z-0.588 A302.8373 
N884 X-298.138 Y51.108 Z-0.026 A305.2290 
N885 X-298.138 Y51.644 Z0.528 A307.5019 
N886 X-298.138 Y52.139 Z1.080 A309.6886 
N887 X-298.138 Y52.604 Z1.636 A311.8278 
N888 X-298.138 Y53.048 Z2.207 A313.9632 
N889 X-298.138 Y53.483 Z2.806 A316.1492 
N890 X-298.138 Y53.920 Z3.452 A318.4560 
N891 X-298.138 Y54.372 Z4.174 A320.9764 
N892 X-298.138 Y54.849 Z5.006 A323.8234 
N893 X-298.138 Y55.353 Z5.989 A327.0990 
N894 X-298.138 Y55.857 Z7.138 A330.8240 
N895 X-298.138 Y56.310 Z8.430 A334.8832 
N896 X-298.138 Y56.665 Z9.837 A339.1745 
N897 X-298.138 Y56.882 Z11.334 A343.6234 
N898 X-298.138 Y56.921 Z12.856 A348.0633 
N899 X-298.138 Y56.751 Z14.303 A352.2334 
N900 X-298.138 Y56.360 Z15.541 A355.7808 
N901 X-298.138 Y55.762 Z16.446 A358.3706 
N902 X-298.138 Y54.977 Z17.001 A359.9638 
N903 X-298.138 Y54.004 Z17.270 A0.7427 
N904 X-298.138 Y52.830 Z17.352 A0.9817 
N905 X-298.138 Y51.430 Z17.362 A1.0124 
N906 X-298.138 Y49.783 Z17.364 A1.0197 
N907 X-298.138 Y47.872 Z17.364 A1.0225 
N908 X-298.138 Y45.690 Z17.364 A1.0227 
N909 X-298.138 Y43.236 Z17.363 
N910 X-298.138 Y40.519 Z17.362 
N911 X-298.138 Y37.557 Z17.360 
N912 X-298.138 Y34.380 Z17.359 
N913 X-298.138 Y31.023 Z17.358 
N914 X-298.138 Y27.531 Z17.356 
N915 X-298.138 Y23.954 Z17.355 
N916 X-298.138 Y20.342 Z17.354 
N917 X-298.138 Y16.750 Z17.352 
N918 X-298.138 Y13.227 Z17.351 A1.0231 
N919 X-298.138 Y9.818 Z17.386 A1.1377 
N920 X-298.138 Y6.558 Z17.657 A2.0312 
N921 X-298.138 Y3.457 Z18.291 A4.2656 
N922 X-298.138 Y0.533 Z18.932 A6.8822 B-0.0000 
N923 X-298.138 Y-2.154 Z19.255 A8.8133 B-0.0036 
N924 X-298.138 Y-4.554 Z19.208 A9.7166 B-0.0219 
N925 X-298.138 Y-6.682 Z18.983 A10.0393 B-0.0501 
N926 X-298.138 Y-8.564 Z18.723 A10.1622 B-0.0744 
N927 X-298.138 Y-10.216 Z18.470 A10.2049 B-0.0914 
N928 X-298.138 Y-11.657 Z18.244 A10.2268 B-0.1046 
N929 X-298.138 Y-12.918 Z18.123 A10.4802 B-0.1153 
N930 X-298.138 Y-14.051 Z18.265 A11.4850 B-0.1227 
N931 X-298.138 Y-15.106 Z18.734 A13.4868 B-0.1263 
N932 X-298.138 Y-16.116 Z19.447 A16.2891 B-0.1262 
N933 X-298.138 Y-17.100 Z20.292 A19.5707 B-0.1228 
N934 X-298.138 Y-18.062 Z21.169 A23.0364 B-0.1166 
N935 X-298.138 Y-18.999 Z22.014 A26.4872 B-0.1083 
N936 X-298.138 Y-19.906 Z22.798 A29.8219 B-0.0984 
N937 X-298.138 Y-20.784 Z23.510 A32.9969 B-0.0873 
N938 X-298.138 Y-21.631 Z24.150 A36.0007 B-0.0753 
N939 X-298.138 Y-22.454 Z24.722 A38.8481 B-0.0625 
N940 X-298.138 Y-23.259 Z25.237 A41.5713 B-0.0489 
N941 X-298.138 Y-24.057 Z25.702 A44.2057 B-0.0347 
N942 X-298.138 Y-24.856 Z26.123 A46.7867 B-0.0197 
N943 X-298.138 Y-25.667 Z26.506 A49.3512 B-0.0041 
N944 X-298.138 Y-26.503 Z26.854 A51.9379 B0.0123 
N945 X-298.137 Y-27.377 Z27.167 A54.5862 B0.0293 
N946 X-298.137 Y-28.301 Z27.445 A57.3339 B0.0471 
N947 X-298.137 Y-29.288 Z27.679 A60.2147 B0.0658 
N948 X-298.137 Y-30.347 Z27.860 A63.2503 B0.0856 
N949 X-298.137 Y-31.477 Z27.969 A66.4375 B0.1065 
N950 X-298.137 Y-32.668 Z27.984 A69.7462 B0.1284 
N951 X-298.137 Y-33.896 Z27.881 A73.1161 B0.1509 
N952 X-298.137 Y-35.117 Z27.637 A76.4285 B0.1736 
N953 X-298.136 Y-36.254 Z27.233 A79.4825 B0.1954 
N954 X-298.136 Y-37.221 Z26.665 A82.0349 B0.2151 
N955 X-298.136 Y-37.945 Z25.943 A83.8862 B0.2315 
N956 X-298.136 Y-38.396 Z25.086 A84.9396 B0.2441 
N957 X-298.136 Y-38.627 Z24.113 A85.3318 B0.2535 
N958 X-298.136 Y-38.755 Z23.044 A85.4019 B0.2616 
N959 X-298.136 Y-38.869 Z21.895 A85.4039 B0.2697 
N960 X-298.136 Y-38.988 Z20.678 B0.2784 
N961 X-298.136 Y-39.112 Z19.411 B0.2874 
N962 X-298.136 Y-39.239 Z18.111 B0.2966 
N963 X-298.136 Y-39.368 Z16.800 A85.4042 B0.3059 
N964 X-298.136 Y-39.500 Z15.499 A85.4171 B0.3152 
N965 X-298.136 Y-39.648 Z14.230 A85.4906 B0.3245 
N966 X-298.136 Y-39.814 Z13.013 A85.6406 B0.3331 
N967 X-298.136 Y-39.965 Z11.862 A85.7749 B0.3402 
N968 X-298.136 Y-40.081 Z10.790 A85.8292 B0.3455 
N969 X-298.136 Y-40.181 Z9.807 A85.8620 B0.3502 
N970 X-298.136 Y-40.321 Z8.924 A86.0480 B0.3558 
N971 X-298.136 Y-40.582 Z8.147 A86.6357 B0.3651 
N972 X-298.135 Y-41.039 Z7.472 A87.8695 B0.3808 
N973 X-298.135 Y-41.751 Z6.880 A89.9343 B0.4052 
N974 X-298.135 Y-42.702 Z6.337 A92.7966 B0.4387 
N975 X-298.135 Y-43.802 Z5.804 A96.1841 B0.4790 
N976 X-298.135 Y-44.934 Z5.263 A99.7530 B0.5226 
N977 X-298.134 Y-46.029 Z4.712 A103.2832 B0.5670 
N978 X-298.134 Y-47.054 Z4.154 A106.6707 B0.6104 
N979 X-298.134 Y-47.998 Z3.594 A109.8742 B0.6518 
N980 X-298.134 Y-48.861 Z3.038 A112.8825 B0.6903 
N981 X-298.133 Y-49.648 Z2.487 A115.7016 B0.7257 
N982 X-298.133 Y-50.364 Z1.943 A118.3504 B0.7578 
N983 X-298.133 Y-51.022 Z1.403 A120.8561 B0.7865 
N984 X-298.133 Y-51.630 Z0.866 A123.2499 B0.8120 
N985 X-298.133 Y-52.198 Z0.327 A125.5643 B0.8342 
N986 X-298.133 Y-52.736 Z-0.221 A127.8322 B0.8531 
N987 X-298.133 Y-53.250 Z-0.783 A130.0859 B0.8684 
N988 X-298.133 Y-53.748 Z-1.368 A132.3585 B0.8798 
N989 X-298.132 Y-54.236 Z-1.983 A134.6852 B0.8870 
N990 X-298.132 Y-54.718 Z-2.641 A137.1019 B0.8895 
N991 X-298.132 Y-55.196 Z-3.352 A139.6433 B0.8868 
N992 X-298.133 Y-55.669 Z-4.129 A142.3396 B0.8783 
N993 X-298.133 Y-56.133 Z-4.983 A145.2202 B0.8636 
N994 X-298.133 Y-56.579 Z-5.928 A148.3189 B0.8421 
N995 X-298.133 Y-56.999 Z-6.984 A151.6836 B0.8136 
N996 X-298.133 Y-57.374 Z-8.167 A155.3509 B0.7778 
N997 X-298.133 Y-57.671 Z-9.471 A159.2921 B0.7355 
N998 X-298.134 Y-57.847 Z-10.863 A163.4039 B0.6881 
N999 X-298.134 Y-57.863 Z-12.286 A167.5308 B0.6384 
N1000 X-298.134 Y-57.688 Z-13.666 A171.4851 B0.5898 
N1001 X-298.134 Y-57.308 Z-14.902 A175.0097 B0.5462 
N1002 X-298.135 Y-56.722 Z-15.876 A177.7837 B0.5119 
N1003 X-298.135 Y-55.944 Z-16.523 A179.6356 B0.4893 
N1004 X-298.135 Y-54.982 Z-16.864 A180.6176 B0.4778 
N1005 X-298.135 Y-53.824 Z-16.980 A180.9543 B0.4741 
N1006 X-298.135 Y-52.453 Z-16.995 A180.9997 B0.4735 
N1007 X-298.135 Y-50.848 Z-16.995 A180.9999 B0.4732 
N1008 X-298.135 Y-48.996 Z-16.995 B0.4730 
N1009 X-298.135 Y-46.891 Z-16.995 B0.4727 
N1010 X-298.135 Y-44.532 Z-16.995 B0.4724 
N1011 X-298.135 Y-41.930 Z-16.995 B0.4720 
N1012 X-298.135 Y-39.102 Z-16.995 B0.4716 
N1013 X-298.135 Y-36.074 Z-16.995 B0.4712 
N1014 X-298.135 Y-32.879 Z-16.995 B0.4708 
N1015 X-298.135 Y-29.557 Z-16.995 B0.4703 
N1016 X-298.135 Y-26.150 Z-16.995 B0.4698 
N1017 X-298.135 Y-22.705 Z-16.995 B0.4694 
N1018 X-298.135 Y-19.266 Z-16.995 A181.0003 B0.4689 
N1019 X-298.135 Y-15.879 Z-17.008 A181.0402 B0.4687 
N1020 X-298.135 Y-12.577 Z-17.243 A181.7939 B0.4700 
N1021 X-298.135 Y-9.365 Z-17.983 A184.3360 B0.4706 
N1022 X-298.135 Y-6.253 Z-18.809 A187.6139 B0.4472 
N1023 X-298.135 Y-3.315 Z-19.282 A190.2455 B0.4005 
N1024 X-298.136 Y-0.650 Z-19.217 A191.4371 B0.3657 
N1025 X-298.136 Y1.742 Z-18.845 A191.6572 B0.3424 
N1026 X-298.136 Y3.910 Z-18.451 A191.7023 B0.3221 
N1027 X-298.136 Y5.864 Z-18.099 A191.7560 B0.3029 
N1028 X-298.136 Y7.609 Z-17.781 A191.7969 B0.2852 
N1029 X-298.136 Y9.153 Z-17.493 A191.8168 B0.2693 
N1030 X-298.136 Y10.509 Z-17.250 A191.8648 B0.2551 
N1031 X-298.136 Y11.711 Z-17.137 A192.2197 B0.2408 
N1032 X-298.136 Y12.812 Z-17.299 A193.3662 B0.2242 
N1033 X-298.136 Y13.858 Z-17.777 A195.4847 B0.2046 
N1034 X-298.137 Y14.877 Z-18.494 A198.3864 B0.1828 
N1035 X-298.137 Y15.884 Z-19.339 A201.7692 B0.1601 
N1036 X-298.137 Y16.879 Z-20.211 A205.3272 B0.1378 
N1037 X-298.137 Y17.851 Z-21.045 A208.8564 B0.1164 
N1038 X-298.137 Y18.794 Z-21.813 A212.2544 B0.0965 
N1039 X-298.137 Y19.705 Z-22.502 A215.4732 B0.0781 
N1040 X-298.137 Y20.582 Z-23.114 A218.5043 B0.0611 
N1041 X-298.137 Y21.433 Z-23.657 A221.3754 B0.0452 
N1042 X-298.137 Y22.266 Z-24.142 A224.1263 B0.0303 
N1043 X-298.138 Y23.094 Z-24.577 A226.7962 B0.0162 
N1044 X-298.138 Y23.926 Z-24.968 A229.4245 B0.0028 
N1045 X-298.138 Y24.776 Z-25.320 A232.0533 B-0.0099 
N1046 X-298.138 Y25.659 Z-25.636 A234.7296 B-0.0220 
N1047 X-298.138 Y26.591 Z-25.915 A237.5017 B-0.0336 
N1048 X-298.138 Y27.587 Z-26.154 A240.4121 B-0.0448 
N1049 X-298.138 Y28.655 Z-26.339 A243.4834 B-0.0553 
N1050 X-298.138 Y29.793 Z-26.453 A246.7059 B-0.0652 
N1051 X-298.138 Y30.990 Z-26.473 A250.0419 B-0.0740 
N1052 X-298.138 Y32.218 Z-26.375 A253.4263 B-0.0816 
N1053 X-298.138 Y33.432 Z-26.138 A256.7325 B-0.0874 
N1054 X-298.138 Y34.554 Z-25.744 A259.7564 B-0.0911 
N1055 X-298.138 Y35.499 Z-25.192 A262.2655 B-0.0925 
N1056 X-298.138 Y36.197 Z-24.494 A264.0554 B-0.0914 
N1057 X-298.138 Y36.615 Z-23.667 A265.0265 B-0.0880 
N1058 X-298.138 Y36.818 Z-22.733 A265.3522 B-0.0827 
N1059 X-298.138 Y36.935 Z-21.711 A265.3993 B-0.0765 
N1060 X-298.138 Y37.042 Z-20.615 A265.3999 B-0.0692 
N1061 X-298.138 Y37.157 Z-19.460 A265.4029 B-0.0600 
N1062 X-298.138 Y37.281 Z-18.261 A265.4244 B-0.0478 
N1063 X-298.138 Y37.422 Z-17.035 A265.4889 B-0.0335 
N1064 X-298.138 Y37.580 Z-15.803 A265.6088 B-0.0204 
N1065 X-298.138 Y37.747 Z-14.584 A265.7703 B-0.0105 
N1066 X-298.138 Y37.907 Z-13.396 A265.9272 B-0.0042 
N1067 X-298.138 Y38.043 Z-12.257 A266.0375 B-0.0012 
N1068 X-298.138 Y38.155 Z-11.181 A266.0927 B-0.0002 
N1069 X-298.138 Y38.246 Z-10.182 A266.1098 B-0.0000 
N1070 X-298.138 Y38.337 Z-9.270 A266.1495 B-0.0000 
N1071 X-298.138 Y38.479 Z-8.451 A266.3692 
N1072 X-298.138 Y38.750 Z-7.732 A267.0154 
N1073 X-298.138 Y39.244 Z-7.107 A268.3829 
N1074 X-298.138 Y40.021 Z-6.554 A270.6690 
N1075 X-298.138 Y41.035 Z-6.033 A273.7394 
N1076 X-298.138 Y42.163 Z-5.511 A277.2346 
N1077 X-298.138 Y43.296 Z-4.976 A280.8245 
N1078 X-298.138 Y44.377 Z-4.428 A284.3317 
N1079 X-298.138 Y45.384 Z-3.873 A287.6798 
N1080 X-298.138 Y46.311 Z-3.316 A290.8444 
N1081 X-298.138 Y47.160 Z-2.760 A293.8219 
N1082 X-298.138 Y47.935 Z-2.208 A296.6197 
N1083 X-298.138 Y48.642 Z-1.662 A299.2536 
N1084 X-298.138 Y49.289 Z-1.121 A301.7437 
N1085 X-298.138 Y49.885 Z-0.584 A304.1112 
N1086 X-298.138 Y50.434 Z-0.049 A306.3759 
N1087 X-298.138 Y50.945 Z0.486 A308.5628 
N1088 X-298.138 Y51.426 Z1.026 A310.7016 
N1089 X-298.138 Y51.885 Z1.580 A312.8284 
N1090 X-298.138 Y52.331 Z2.158 A314.9884 
N1091 X-298.138 Y52.775 Z2.775 A317.2416 
N1092 X-298.138 Y53.231 Z3.456 A319.6704 
N1093 X-298.138 Y53.709 Z4.234 A322.3813 
N1094 X-298.138 Y54.217 Z5.148 A325.4853 
N1095 X-298.138 Y54.739 Z6.223 A329.0390 
N1096 X-298.138 Y55.232 Z7.451 A332.9690 
N1097 X-298.138 Y55.647 Z8.804 A337.1642 
N1098 X-298.138 Y55.946 Z10.263 A341.5647 
N1099 X-298.138 Y56.085 Z11.780 A346.0367 
N1100 X-298.138 Y56.030 Z13.271 A350.3649 
N1101 X-298.138 Y55.760 Z14.614 A354.2283 
N1102 X-298.138 Y55.280 Z15.670 A357.2542 
N1103 X-298.138 Y54.611 Z16.378 A359.2825 
N1104 X-298.138 Y53.763 Z16.768 A0.4066 
N1105 X-298.138 Y52.731 Z16.919 A0.8418 
N1106 X-298.138 Y51.494 Z16.951 A0.9307 
N1107 X-298.138 Y50.030 Z16.961 A0.9567 
N1108 X-298.138 Y48.323 Z16.967 A0.9719 
N1109 X-298.138 Y46.361 Z16.969 A0.9742 
N1110 X-298.138 Y44.143 Z16.970 A0.9742 
N1111 X-298.138 Y41.674 Z16.971 
N1112 X-298.138 Y38.968 Z16.972 
N1113 X-298.138 Y36.049 Z16.974 
N1114 X-298.138 Y32.948 Z16.975 
N1115 X-298.138 Y29.706 Z16.976 
N1116 X-298.138 Y26.366 Z16.978 
N1117 X-298.138 Y22.975 Z16.979 
N1118 X-298.138 Y19.581 Z16.981 
N1119 X-298.138 Y16.231 Z16.982 
N1120 X-298.138 Y12.966 Z16.984 A0.9753 
N1121 X-298.138 Y9.823 Z17.035 A1.1297 
N1122 X-298.138 Y6.826 Z17.367 A2.2101 
N1123 X-298.138 Y3.962 Z18.164 A4.9653 
N1124 X-298.138 Y1.228 Z19.045 A8.4086 B-0.0006 
N1125 X-298.138 Y-1.307 Z19.583 A11.1755 B-0.0075 
N1126 X-298.138 Y-3.565 Z19.643 A12.6443 B-0.0318 
N1127 X-298.138 Y-5.551 Z19.413 A13.2041 B-0.0620 
N1128 X-298.138 Y-7.308 Z19.087 A13.3723 B-0.0836 
N1129 X-298.138 Y-8.864 Z18.760 A13.4159 B-0.1007 
N1130 X-298.138 Y-10.242 Z18.473 A13.4668 B-0.1157 
N1131 X-298.138 Y-11.468 Z18.276 A13.6884 B-0.1287 
N1132 X-298.138 Y-12.586 Z18.275 A14.4371 B-0.1386 
N1133 X-298.138 Y-13.644 Z18.562 A16.0493 B-0.1440 
N1134 X-298.138 Y-14.677 Z19.110 A18.4924 B-0.1447 
N1135 X-298.138 Y-15.698 Z19.820 A21.5002 B-0.1409 
N1136 X-298.138 Y-16.708 Z20.593 A24.7891 B-0.1334 
N1137 X-298.138 Y-17.699 Z21.356 A28.1317 B-0.1232 
N1138 X-298.138 Y-18.663 Z22.069 A31.3982 B-0.1109 
N1139 X-298.138 Y-19.597 Z22.717 A34.5307 B-0.0971 
N1140 X-298.138 Y-20.501 Z23.296 A37.5091 B-0.0822 
N1141 X-298.138 Y-21.377 Z23.811 A40.3423 B-0.0663 
N1142 X-298.138 Y-22.235 Z24.269 A43.0620 B-0.0494 
N1143 X-298.138 Y-23.086 Z24.677 A45.7063 B-0.0316 
N1144 X-298.138 Y-23.942 Z25.043 A48.3144 B-0.0127 
N1145 X-298.138 Y-24.815 Z25.370 A50.9286 B0.0071 
N1146 X-298.137 Y-25.721 Z25.660 A53.5942 B0.0280 
N1147 X-298.137 Y-26.676 Z25.913 A56.3559 B0.0502 
N1148 X-298.137 Y-27.694 Z26.122 A59.2541 B0.0737 
N1149 X-298.137 Y-28.784 Z26.276 A62.3136 B0.0990 
N1150 X-298.137 Y-29.946 Z26.356 A65.5279 B0.1259 
N1151 X-298.137 Y-31.167 Z26.339 A68.8574 B0.1543 
N1152 X-298.137 Y-32.415 Z26.200 A72.2201 B0.1837 
N1153 X-298.136 Y-33.633 Z25.913 A75.4601 B0.2130 
N1154 X-298.136 Y-34.737 Z25.462 A78.3449 B0.2408 
N1155 X-298.136 Y-35.638 Z24.848 A80.6276 B0.2652 
N1156 X-298.136 Y-36.267 Z24.083 A82.1071 B0.2846 
N1157 X-298.136 Y-36.632 Z23.190 A82.7951 B0.2988 
N1158 X-298.136 Y-36.840 Z22.196 A82.9951 B0.3093 
N1159 X-298.136 Y-37.003 Z21.124 A83.0327 B0.3188 
N1160 X-298.136 Y-37.164 Z19.991 A83.0391 B0.3284 
N1161 X-298.136 Y-37.329 Z18.811 A83.0393 B0.3383 
N1162 X-298.136 Y-37.498 Z17.601 A83.0406 B0.3484 
N1163 X-298.136 Y-37.674 Z16.381 A83.0542 B0.3587 
N1164 X-298.135 Y-37.860 Z15.171 A83.1072 B0.3689 
N1165 X-298.135 Y-38.065 Z13.991 A83.2359 B0.3787 
N1166 X-298.135 Y-38.288 Z12.860 A83.4459 B0.3880 
N1167 X-298.135 Y-38.495 Z11.789 A83.6447 B0.3958 
N1168 X-298.135 Y-38.656 Z10.787 A83.7410 B0.4017 
N1169 X-298.135 Y-38.784 Z9.867 A83.7737 B0.4063 
N1170 X-298.135 Y-38.937 Z9.038 A83.9198 B0.4118 
N1171 X-298.135 Y-39.205 Z8.313 A84.4581 B0.4215 
N1172 X-298.135 Y-39.668 Z7.692 A85.6420 B0.4387 
N1173 X-298.135 Y-40.372 Z7.159 A87.6249 B0.4656 
N1174 X-298.135 Y-41.315 Z6.681 A90.3982 B0.5025 
N1175 X-298.134 Y-42.421 Z6.218 A93.7391 B0.5471 
N1176 X-298.134 Y-43.579 Z5.744 A97.3139 B0.5954 
N1177 X-298.134 Y-44.703 Z5.254 A100.8605 B0.6443 
N1178 X-298.134 Y-45.755 Z4.751 A104.2545 B0.6917 
N1179 X-298.133 Y-46.724 Z4.243 A107.4532 B0.7365 
N1180 X-298.133 Y-47.610 Z3.733 A110.4524 B0.7783 
N1181 X-298.133 Y-48.419 Z3.224 A113.2635 B0.8167 
N1182 X-298.133 Y-49.159 Z2.719 A115.9067 B0.8517 
N1183 X-298.132 Y-49.841 Z2.215 A118.4075 B0.8834 
N1184 X-298.132 Y-50.472 Z1.711 A120.7943 B0.9119 
N1185 X-298.132 Y-51.063 Z1.204 A123.0962 B0.9372 
N1186 X-298.132 Y-51.621 Z0.690 A125.3420 B0.9593 
N1187 X-298.132 Y-52.154 Z0.164 A127.5592 B0.9781 
N1188 X-298.132 Y-52.667 Z-0.380 A129.7747 B0.9934 
N1189 X-298.132 Y-53.167 Z-0.948 A132.0171 B1.0050 
N1190 X-298.132 Y-53.658 Z-1.548 A134.3164 B1.0123 
N1191 X-298.132 Y-54.144 Z-2.190 A136.7061 B1.0150 
N1192 X-298.132 Y-54.627 Z-2.885 A139.2196 B1.0126 
N1193 X-298.132 Y-55.108 Z-3.645 A141.8896 B1.0046 
N1194 X-298.132 Y-55.582 Z-4.484 A144.7506 B0.9903 
N1195 X-298.132 Y-56.044 Z-5.417 A147.8434 B0.9693 
N1196 X-298.132 Y-56.486 Z-6.468 A151.2224 B0.9410 
N1197 X-298.132 Y-56.888 Z-7.652 A154.9266 B0.9050 
N1198 X-298.133 Y-57.216 Z-8.964 A158.9208 B0.8617 
N1199 X-298.133 Y-57.425 Z-10.366 A163.0893 B0.8125 
N1200 X-298.133 Y-57.475 Z-11.799 A167.2686 B0.7601 
N1201 X-298.134 Y-57.337 Z-13.191 A171.2734 B0.7079 
N1202 X-298.134 Y-56.996 Z-14.443 A174.8555 B0.6602 
N1203 X-298.134 Y-56.454 Z-15.430 A177.6777 B0.6219 
N1204 X-298.134 Y-55.727 Z-16.081 A179.5422 B0.5960 
N1205 X-298.134 Y-54.824 Z-16.423 A180.5258 B0.5818 
N1206 X-298.134 Y-53.736 Z-16.548 A180.8875 B0.5759 
N1207 X-298.134 Y-52.445 Z-16.572 A180.9532 B0.5736 
N1208 X-298.134 Y-50.935 Z-16.576 A180.9625 B0.5723 
N1209 X-298.134 Y-49.192 Z-16.579 A180.9676 B0.5717 
N1210 X-298.134 Y-47.211 Z-16.580 A180.9685 B0.5714 
N1211 X-298.134 Y-44.993 Z-16.581 A180.9685 B0.5711 
N1212 X-298.134 Y-42.548 Z-16.583 B0.5708 
N1213 X-298.134 Y-39.894 Z-16.584 B0.5704 
N1214 X-298.134 Y-37.055 Z-16.586 B0.5701 
N1215 X-298.134 Y-34.064 Z-16.587 B0.5697 
N1216 X-298.134 Y-30.958 Z-16.589 B0.5693 
N1217 X-298.134 Y-27.775 Z-16.591 B0.5689 
N1218 X-298.134 Y-24.558 Z-16.593 B0.5684 
N1219 X-298.134 Y-21.347 Z-16.594 B0.5680 
N1220 X-298.134 Y-18.180 Z-16.597 A180.9716 B0.5676 
N1221 X-298.134 Y-15.089 Z-16.637 A181.0921 B0.5677 
N1222 X-298.134 Y-12.094 Z-17.048 A182.4129 B0.5670 
N1223 X-298.134 Y-9.166 Z-18.029 A185.8077 B0.5587 
N1224 X-298.135 Y-6.296 Z-19.076 A189.9555 B0.5180 
N1225 X-298.135 Y-3.583 Z-19.678 A193.2404 B0.4572 
N1226 X-298.135 Y-1.157 Z-19.639 A194.7838 B0.4153 
N1227 X-298.135 Y0.991 Z-19.215 A195.1059 B0.3897 
N1228 X-298.135 Y2.940 Z-18.741 A195.1576 B0.3683 
N1229 X-298.136 Y4.716 Z-18.309 A195.2051 B0.3479 
N1230 X-298.136 Y6.322 Z-17.916 A195.2460 B0.3287 
N1231 X-298.136 Y7.762 Z-17.559 A195.2708 B0.3111 
N1232 X-298.136 Y9.050 Z-17.248 A195.3210 B0.2949 
N1233 X-298.136 Y10.211 Z-17.041 A195.5862 B0.2789 
N1234 X-298.136 Y11.295 Z-17.068 A196.5049 B0.2602 
N1235 X-298.136 Y12.353 Z-17.408 A198.3756 B0.2370 
N1236 X-298.136 Y13.409 Z-18.001 A201.0741 B0.2104 
N1237 X-298.137 Y14.469 Z-18.738 A204.3021 B0.1823 
N1238 X-298.137 Y15.524 Z-19.517 A207.7558 B0.1543 
N1239 X-298.137 Y16.559 Z-20.266 A211.2127 B0.1277 
N1240 X-298.137 Y17.564 Z-20.954 A214.5573 B0.1030 
N1241 X-298.137 Y18.534 Z-21.568 A217.7370 B0.0803 
N1242 X-298.137 Y19.469 Z-22.107 A220.7417 B0.0595 
N1243 X-298.137 Y20.376 Z-22.580 A223.6034 B0.0403 
N1244 X-298.137 Y21.269 Z-22.999 A226.3666 B0.0224 
N1245 X-298.138 Y22.160 Z-23.370 A229.0747 B0.0055 
N1246 X-298.138 Y23.063 Z-23.697 A231.7727 B-0.0103 
N1247 X-298.138 Y23.997 Z-23.985 A234.5129 B-0.0253 
N1248 X-298.138 Y24.978 Z-24.234 A237.3514 B-0.0395 
N1249 X-298.138 Y26.025 Z-24.438 A240.3353 B-0.0530 
N1250 X-298.138 Y27.143 Z-24.584 A243.4805 B-0.0658 
N1251 X-298.138 Y28.327 Z-24.651 A246.7660 B-0.0775 
N1252 X-298.138 Y29.561 Z-24.616 A250.1431 B-0.0879 
N1253 X-298.138 Y30.804 Z-24.454 A253.5081 B-0.0964 
N1254 X-298.138 Y31.989 Z-24.142 A256.6724 B-0.1024 
N1255 X-298.138 Y33.027 Z-23.671 A259.3911 B-0.1053 
N1256 X-298.138 Y33.830 Z-23.047 A261.4167 B-0.1048 
N1257 X-298.138 Y34.344 Z-22.285 A262.5861 B-0.1011 
N1258 X-298.138 Y34.620 Z-21.413 A263.0365 B-0.0950 
N1259 X-298.138 Y34.789 Z-20.456 A263.1425 B-0.0877 
N1260 X-298.138 Y34.936 Z-19.434 A263.1611 B-0.0800 
N1261 X-298.138 Y35.086 Z-18.362 A263.1676 B-0.0719 
N1262 X-298.138 Y35.248 Z-17.254 A263.1971 B-0.0629 
N1263 X-298.138 Y35.432 Z-16.128 A263.2881 B-0.0517 
N1264 X-298.138 Y35.643 Z-15.002 A263.4687 B-0.0376 
N1265 X-298.138 Y35.874 Z-13.894 A263.7264 B-0.0229 
N1266 X-298.138 Y36.095 Z-12.817 A263.9809 B-0.0114 
N1267 X-298.138 Y36.279 Z-11.785 A264.1576 B-0.0045 
N1268 X-298.138 Y36.425 Z-10.811 A264.2457 B-0.0014 
N1269 X-298.138 Y36.541 Z-9.907 A264.2733 B-0.0003 
N1270 X-298.138 Y36.654 Z-9.083 A264.3213 B-0.0001 
N1271 X-298.138 Y36.828 Z-8.349 A264.5888 B-0.0000 
N1272 X-298.138 Y37.153 Z-7.711 A265.3546 
N1273 X-298.138 Y37.709 Z-7.166 A266.8737 
N1274 X-298.138 Y38.536 Z-6.688 A269.2764 
N1275 X-298.138 Y39.583 Z-6.238 A272.4103 
N1276 X-298.138 Y40.733 Z-5.780 A275.9304 
N1277 X-298.138 Y41.880 Z-5.304 A279.5147 
N1278 X-298.138 Y42.968 Z-4.811 A282.9895 
N1279 X-298.138 Y43.977 Z-4.307 A286.2852 
N1280 X-298.138 Y44.902 Z-3.798 A289.3854 
N1281 X-298.138 Y45.750 Z-3.287 A292.2967 
N1282 X-298.138 Y46.526 Z-2.778 A295.0352 
N1283 X-298.138 Y47.240 Z-2.269 A297.6222 
N1284 X-298.138 Y47.898 Z-1.761 A300.0805 
N1285 X-298.138 Y48.509 Z-1.252 A302.4320 
N1286 X-298.138 Y49.078 Z-0.742 A304.6954 
N1287 X-298.138 Y49.611 Z-0.228 A306.8880 
N1288 X-298.138 Y50.113 Z0.293 A309.0310 
N1289 X-298.138 Y50.592 Z0.825 A311.1510 
N1290 X-298.138 Y51.053 Z1.376 A313.2820 
N1291 X-298.138 Y51.507 Z1.958 A315.4704 
N1292 X-298.138 Y51.965 Z2.588 A317.7802 
N1293 X-298.138 Y52.438 Z3.293 A320.3024 
N1294 X-298.138 Y52.940 Z4.108 A323.1480 
N1295 X-298.138 Y53.468 Z5.070 A326.4124 
N1296 X-298.138 Y53.999 Z6.191 A330.1006 
N1297 X-298.138 Y54.482 Z7.450 A334.1099 
N1298 X-298.138 Y54.879 Z8.834 A338.3791 
N1299 X-298.138 Y55.150 Z10.313 A342.8238 
N1300 X-298.138 Y55.252 Z11.830 A347.2848 
N1301 X-298.138 Y55.153 Z13.288 A351.5134 
N1302 X-298.138 Y54.842 Z14.552 A355.1497 
N1303 X-298.138 Y54.331 Z15.503 A357.8764 
N1304 X-298.138 Y53.641 Z16.118 A359.6419 
N1305 X-298.138 Y52.780 Z16.430 A0.5412 
N1306 X-298.138 Y51.735 Z16.528 A0.8207 
N1307 X-298.138 Y50.488 Z16.550 A0.8764 
N1308 X-298.138 Y49.019 Z16.564 A0.9098 
N1309 X-298.138 Y47.315 Z16.571 A0.9228 
N1310 X-298.138 Y45.368 Z16.573 A0.9237 
N1311 X-298.138 Y43.179 Z16.576 
N1312 X-298.138 Y40.757 Z16.580 
N1313 X-298.138 Y38.119 Z16.583 
N1314 X-298.138 Y35.293 Z16.587 
N1315 X-298.138 Y32.313 Z16.591 
N1316 X-298.138 Y29.217 Z16.595 
N1317 X-298.138 Y26.049 Z16.599 
N1318 X-298.138 Y22.853 Z16.603 
N1319 X-298.138 Y19.675 Z16.608 
N1320 X-298.138 Y16.554 Z16.612 
N1321 X-298.138 Y13.527 Z16.616 A0.9238 
N1322 X-298.138 Y10.623 Z16.648 A1.0113 
N1323 X-298.138 Y7.861 Z16.903 A1.8223 
N1324 X-298.138 Y5.225 Z17.673 A4.3965 
N1325 X-298.138 Y2.667 Z18.799 A8.4743 B-0.0003 
N1326 X-298.138 Y0.221 Z19.729 A12.4375 B-0.0051 
N1327 X-298.138 Y-2.000 Z20.147 A15.1474 B-0.0227 
N1328 X-298.138 Y-3.934 Z20.077 A16.4341 B-0.0510 
N1329 X-298.138 Y-5.624 Z19.756 A16.8793 B-0.0769 
N1330 X-298.138 Y-7.125 Z19.365 A16.9876 B-0.0969 
N1331 X-298.138 Y-8.470 Z18.989 A17.0148 B-0.1143 
N1332 X-298.138 Y-9.686 Z18.676 A17.1233 B-0.1297 
N1333 X-298.138 Y-10.803 Z18.483 A17.5064 B-0.1426 
N1334 X-298.139 Y-11.860 Z18.493 A18.4559 B-0.1518 
N1335 X-298.139 Y-12.900 Z18.759 A20.1911 B-0.1558 
N1336 X-298.139 Y-13.945 Z19.245 A22.6484 B-0.1544 
N1337 X-298.138 Y-14.999 Z19.864 A25.5942 B-0.1480 
N1338 X-298.138 Y-16.053 Z20.529 A28.7788 B-0.1374 
N1339 X-298.138 Y-17.093 Z21.177 A32.0016 B-0.1238 
N1340 X-298.138 Y-18.108 Z21.773 A35.1479 B-0.1080 
N1341 X-298.138 Y-19.092 Z22.305 A38.1654 B-0.0906 
N1342 X-298.138 Y-20.046 Z22.770 A41.0405 B-0.0719 
N1343 X-298.138 Y-20.976 Z23.174 A43.7956 B-0.0519 
N1344 X-298.138 Y-21.896 Z23.526 A46.4734 B-0.0306 
N1345 X-298.138 Y-22.819 Z23.831 A49.1207 B-0.0079 
N1346 X-298.138 Y-23.763 Z24.097 A51.7901 B0.0164 
N1347 X-298.137 Y-24.747 Z24.323 A54.5378 B0.0423 
N1348 X-298.137 Y-25.789 Z24.509 A57.4171 B0.0702 
N1349 X-298.137 Y-26.904 Z24.644 A60.4663 B0.1005 
N1350 X-298.137 Y-28.092 Z24.710 A63.6834 B0.1333 
N1351 X-298.137 Y-29.340 Z24.682 A67.0216 B0.1683 
N1352 X-298.136 Y-30.611 Z24.532 A70.3781 B0.2046 
N1353 X-298.136 Y-31.836 Z24.232 A73.5626 B0.2406 
N1354 X-298.136 Y-32.925 Z23.766 A76.3162 B0.2739 
N1355 X-298.136 Y-33.786 Z23.135 A78.3841 B0.3022 
N1356 X-298.136 Y-34.370 Z22.354 A79.6144 B0.3235 
N1357 X-298.136 Y-34.726 Z21.455 A80.1443 B0.3385 
N1358 X-298.136 Y-34.970 Z20.470 A80.3121 B0.3501 
N1359 X-298.136 Y-35.181 Z19.423 A80.3521 B0.3606 
N1360 X-298.135 Y-35.388 Z18.331 A80.3562 B0.3711 
N1361 X-298.135 Y-35.598 Z17.210 A80.3567 B0.3818 
N1362 X-298.135 Y-35.815 Z16.078 A80.3693 B0.3928 
N1363 X-298.135 Y-36.048 Z14.954 A80.4348 B0.4040 
N1364 X-298.135 Y-36.306 Z13.857 A80.5967 B0.4155 
N1365 X-298.135 Y-36.585 Z12.805 A80.8574 B0.4267 
N1366 X-298.135 Y-36.857 Z11.806 A81.1389 B0.4366 
N1367 X-298.135 Y-37.078 Z10.867 A81.3167 B0.4440 
N1368 X-298.135 Y-37.246 Z9.997 A81.3748 B0.4491 
N1369 X-298.135 Y-37.405 Z9.209 A81.4500 B0.4539 
N1370 X-298.135 Y-37.645 Z8.518 A81.8227 B0.4625 
N1371 X-298.135 Y-38.066 Z7.934 A82.8042 B0.4792 
N1372 X-298.135 Y-38.721 Z7.450 A84.5653 B0.5066 
N1373 X-298.134 Y-39.616 Z7.034 A87.1240 B0.5453 
N1374 X-298.134 Y-40.700 Z6.648 A90.3252 B0.5934 
N1375 X-298.134 Y-41.878 Z6.253 A93.8824 B0.6468 
N1376 X-298.134 Y-43.051 Z5.837 A97.4906 B0.7014 
N1377 X-298.133 Y-44.158 Z5.399 A100.9637 B0.7542 
N1378 X-298.133 Y-45.177 Z4.947 A104.2314 B0.8040 
N1379 X-298.133 Y-46.109 Z4.488 A107.2839 B0.8503 
N1380 X-298.132 Y-46.960 Z4.026 A110.1377 B0.8930 
N1381 X-298.132 Y-47.740 Z3.562 A112.8166 B0.9321 
N1382 X-298.132 Y-48.458 Z3.096 A115.3466 B0.9677 
N1383 X-298.132 Y-49.124 Z2.628 A117.7546 B1.0000 
N1384 X-298.132 Y-49.747 Z2.157 A120.0668 B1.0292 
N1385 X-298.132 Y-50.333 Z1.679 A122.3092 B1.0553 
N1386 X-298.131 Y-50.891 Z1.190 A124.5070 B1.0783 
N1387 X-298.131 Y-51.426 Z0.688 A126.6835 B1.0981 
N1388 X-298.131 Y-51.944 Z0.167 A128.8617 B1.1145 
N1389 X-298.131 Y-52.448 Z-0.377 A131.0649 B1.1271 
N1390 X-298.131 Y-52.944 Z-0.952 A133.3192 B1.1358 
N1391 X-298.131 Y-53.434 Z-1.565 A135.6534 B1.1400 
N1392 X-298.131 Y-53.923 Z-2.228 A138.0999 B1.1393 
N1393 X-298.131 Y-54.410 Z-2.951 A140.6929 B1.1332 
N1394 X-298.131 Y-54.895 Z-3.750 A143.4711 B1.1212 
N1395 X-298.131 Y-55.374 Z-4.642 A146.4811 B1.1027 
N1396 X-298.131 Y-55.842 Z-5.649 A149.7812 B1.0768 
N1397 X-298.132 Y-56.284 Z-6.796 A153.4280 B1.0430 
N1398 X-298.132 Y-56.667 Z-8.083 A157.4083 B1.0009 
N1399 X-298.132 Y-56.947 Z-9.479 A161.6148 B0.9515 
N1400 X-298.132 Y-57.078 Z-10.926 A165.8783 B0.8970 
N1401 X-298.133 Y-57.028 Z-12.353 A170.0148 B0.8409 
N1402 X-298.133 Y-56.780 Z-13.671 A173.8053 B0.7874 
N1403 X-298.133 Y-56.332 Z-14.759 A176.9235 B0.7420 
N1404 X-298.134 Y-55.698 Z-15.507 A179.0691 B0.7097 
N1405 X-298.134 Y-54.893 Z-15.914 A180.2388 B0.6910 
N1406 X-298.134 Y-53.917 Z-16.083 A180.7214 B0.6824 
N1407 X-298.134 Y-52.752 Z-16.131 A180.8542 B0.6788 
N1408 X-298.134 Y-51.381 Z-16.148 A180.8963 B0.6767 
N1409 X-298.134 Y-49.792 Z-16.162 A180.9289 B0.6753 
N1410 X-298.134 Y-47.977 Z-16.167 A180.9399 B0.6746 
N1411 X-298.134 Y-45.936 Z-16.170 A180.9406 B0.6741 
N1412 X-298.134 Y-43.678 Z-16.172 B0.6735 
N1413 X-298.134 Y-41.219 Z-16.175 B0.6729 
N1414 X-298.134 Y-38.582 Z-16.177 B0.6722 
N1415 X-298.134 Y-35.798 Z-16.180 B0.6715 
N1416 X-298.134 Y-32.900 Z-16.183 B0.6707 
N1417 X-298.134 Y-29.929 Z-16.186 B0.6700 
N1418 X-298.134 Y-26.923 Z-16.189 B0.6692 
N1419 X-298.134 Y-23.920 Z-16.193 B0.6684 
N1420 X-298.134 Y-20.955 Z-16.196 B0.6677 
N1421 X-298.134 Y-18.059 Z-16.200 A180.9447 B0.6669 
N1422 X-298.134 Y-15.256 Z-16.241 A181.0659 B0.6665 
N1423 X-298.134 Y-12.555 Z-16.643 A182.3436 B0.6635 
N1424 X-298.134 Y-9.910 Z-17.713 A185.9596 B0.6493 
N1425 X-298.134 Y-7.266 Z-19.020 A190.8633 B0.6014 
N1426 X-298.135 Y-4.699 Z-19.977 A195.2947 B0.5241 
N1427 X-298.135 Y-2.384 Z-20.248 A197.9671 B0.4623 
N1428 X-298.135 Y-0.386 Z-19.920 A198.8307 B0.4287 
N1429 X-298.135 Y1.398 Z-19.393 A198.9738 B0.4060 
N1430 X-298.135 Y3.039 Z-18.874 A199.0130 B0.3855 
N1431 X-298.136 Y4.551 Z-18.398 A199.0577 B0.3656 
N1432 X-298.136 Y5.937 Z-17.957 A199.0920 B0.3466 
N1433 X-298.136 Y7.201 Z-17.555 A199.1238 B0.3290 
N1434 X-298.136 Y8.357 Z-17.215 A199.2366 B0.3121 
N1435 X-298.136 Y9.435 Z-17.009 A199.6721 B0.2938 
N1436 X-298.136 Y10.492 Z-17.055 A200.8408 B0.2709 
N1437 X-298.136 Y11.568 Z-17.393 A202.9341 B0.2424 
N1438 X-298.136 Y12.673 Z-17.946 A205.7679 B0.2101 
N1439 X-298.137 Y13.797 Z-18.605 A209.0368 B0.1765 
N1440 X-298.137 Y14.917 Z-19.274 A212.4464 B0.1438 
N1441 X-298.137 Y16.013 Z-19.896 A215.8055 B0.1133 
N1442 X-298.137 Y17.073 Z-20.448 A219.0238 B0.0854 
N1443 X-298.137 Y18.091 Z-20.923 A222.0696 B0.0601 
N1444 X-298.137 Y19.078 Z-21.331 A224.9717 B0.0371 
N1445 X-298.138 Y20.049 Z-21.683 A227.7859 B0.0158 
N1446 X-298.138 Y21.021 Z-21.986 A230.5655 B-0.0039 
N1447 X-298.138 Y22.012 Z-22.247 A233.3666 B-0.0223 
N1448 X-298.138 Y23.045 Z-22.466 A236.2572 B-0.0395 
N1449 X-298.138 Y24.142 Z-22.643 A239.2999 B-0.0559 
N1450 X-298.138 Y25.311 Z-22.762 A242.5138 B-0.0712 
N1451 X-298.138 Y26.544 Z-22.801 A245.8675 B-0.0852 
N1452 X-298.138 Y27.815 Z-22.733 A249.2850 B-0.0973 
N1453 X-298.138 Y29.067 Z-22.529 A252.6057 B-0.1067 
N1454 X-298.138 Y30.213 Z-22.169 A255.5830 B-0.1126 
N1455 X-298.138 Y31.159 Z-21.649 A257.9518 B-0.1143 
N1456 X-298.138 Y31.829 Z-20.979 A259.4929 B-0.1118 
N1457 X-298.138 Y32.237 Z-20.187 A260.2362 B-0.1060 
N1458 X-298.138 Y32.490 Z-19.305 A260.4964 B-0.0983 
N1459 X-298.138 Y32.688 Z-18.361 A260.5655 B-0.0898 
N1460 X-298.138 Y32.874 Z-17.372 A260.5783 B-0.0808 
N1461 X-298.138 Y33.069 Z-16.354 A260.6016 B-0.0713 
N1462 X-298.138 Y33.286 Z-15.324 A260.6855 B-0.0610 
N1463 X-298.138 Y33.539 Z-14.300 A260.8870 B-0.0493 
N1464 X-298.138 Y33.830 Z-13.299 A261.2286 B-0.0360 
N1465 X-298.138 Y34.123 Z-12.329 A261.6113 B-0.0226 
N1466 X-298.138 Y34.374 Z-11.399 A261.9052 B-0.0116 
N1467 X-298.138 Y34.568 Z-10.519 A262.0667 B-0.0048 
N1468 X-298.138 Y34.715 Z-9.700 A262.1228 B-0.0015 
N1469 X-298.138 Y34.846 Z-8.953 A262.1665 B-0.0003 
N1470 X-298.138 Y35.034 Z-8.290 A262.4216 B-0.0000 
N1471 X-298.138 Y35.379 Z-7.724 A263.2030 B-0.0000 
N1472 X-298.138 Y35.958 Z-7.252 A264.7502 
N1473 X-298.138 Y36.798 Z-6.849 A267.1511 
N1474 X-298.138 Y37.852 Z-6.476 A270.2655 
N1475 X-298.138 Y39.017 Z-6.095 A273.7783 
N1476 X-298.138 Y40.186 Z-5.689 A277.3697 
N1477 X-298.138 Y41.296 Z-5.259 A280.8478 
N1478 X-298.138 Y42.324 Z-4.813 A284.1362 
N1479 X-298.138 Y43.266 Z-4.357 A287.2180 
N1480 X-298.138 Y44.129 Z-3.895 A290.1038 
N1481 X-298.138 Y44.920 Z-3.430 A292.8153 
N1482 X-298.138 Y45.650 Z-2.963 A295.3779 
N1483 X-298.138 Y46.327 Z-2.493 A297.8176 
N1484 X-298.138 Y46.958 Z-2.019 A300.1583 
N1485 X-298.138 Y47.551 Z-1.539 A302.4202 
N1486 X-298.138 Y48.110 Z-1.052 A304.6192 
N1487 X-298.138 Y48.639 Z-0.557 A306.7696 
N1488 X-298.138 Y49.142 Z-0.050 A308.8882 
N1489 X-298.138 Y49.626 Z0.471 A310.9982 
N1490 X-298.138 Y50.095 Z1.014 A313.1304 
N1491 X-298.138 Y50.559 Z1.591 A315.3290 
N1492 X-298.138 Y51.028 Z2.218 A317.6579 
N1493 X-298.138 Y51.515 Z2.924 A320.2086 
N1494 X-298.138 Y52.032 Z3.743 A323.0896 
N1495 X-298.138 Y52.573 Z4.706 A326.3825 
N1496 X-298.138 Y53.112 Z5.822 A330.0709 
N1497 X-298.138 Y53.603 Z7.073 A334.0704 
N1498 X-298.138 Y54.012 Z8.453 A338.3415 
N1499 X-298.138 Y54.295 Z9.928 A342.7883 
N1500 X-298.138 Y54.413 Z11.444 A347.2575 
N1501 X-298.138 Y54.332 Z12.898 A351.4834 
N1502 X-298.138 Y54.041 Z14.152 A355.0972 
N1503 X-298.138 Y53.556 Z15.101 A357.8234 
N1504 X-298.138 Y52.896 Z15.722 A359.6111 
N1505 X-298.138 Y52.070 Z16.031 A0.5015 
N1506 X-298.138 Y51.068 Z16.123 A0.7578 
N1507 X-298.138 Y49.871 Z16.147 A0.8169 
N1508 X-298.138 Y48.460 Z16.164 A0.8572 
N1509 X-298.138 Y46.824 Z16.173 A0.8708 
N1510 X-298.138 Y44.955 Z16.177 A0.8716 
N1511 X-298.138 Y42.856 Z16.182 
N1512 X-298.138 Y40.536 Z16.187 
N1513 X-298.138 Y38.014 Z16.193 
N1514 X-298.138 Y35.317 Z16.199 
N1515 X-298.138 Y32.479 Z16.205 
N1516 X-298.138 Y29.539 Z16.212 
N1517 X-298.138 Y26.541 Z16.218 
N1518 X-298.138 Y23.527 Z16.225 
N1519 X-298.138 Y20.539 Z16.232 
N1520 X-298.138 Y17.616 Z16.238 
N1521 X-298.138 Y14.790 Z16.245 
N1522 X-298.138 Y12.086 Z16.255 A0.8839 
N1523 X-298.138 Y9.523 Z16.360 A1.1980 
N1524 X-298.138 Y7.099 Z16.826 A2.6961 
N1525 X-298.138 Y4.760 Z17.885 A6.2695 
N1526 X-298.138 Y2.444 Z19.206 A11.1230 B-0.0008 
N1527 X-298.138 Y0.206 Z20.250 A15.6253 B-0.0095 
N1528 X-298.138 Y-1.817 Z20.735 A18.7240 B-0.0302 
N1529 X-298.138 Y-3.553 Z20.695 A20.2712 B-0.0552 
N1530 X-298.138 Y-5.050 Z20.360 A20.8330 B-0.0780 
N1531 X-298.138 Y-6.382 Z19.929 A20.9768 B-0.0974 
N1532 X-298.138 Y-7.594 Z19.498 A21.0044 B-0.1149 
N1533 X-298.138 Y-8.713 Z19.121 A21.0923 B-0.1306 
N1534 X-298.138 Y-9.768 Z18.852 A21.4314 B-0.1439 
N1535 X-298.139 Y-10.794 Z18.752 A22.2427 B-0.1537 
N1536 X-298.139 Y-11.827 Z18.871 A23.7304 B-0.1585 
N1537 X-298.139 Y-12.890 Z19.201 A25.9192 B-0.1572 
N1538 X-298.138 Y-13.985 Z19.674 A28.6437 B-0.1501 
N1539 X-298.138 Y-15.098 Z20.212 A31.6783 B-0.1379 
N1540 X-298.138 Y-16.210 Z20.744 A34.8089 B-0.1218 
N1541 X-298.138 Y-17.302 Z21.231 A37.8944 B-0.1029 
N1542 X-298.138 Y-18.365 Z21.651 A40.8624 B-0.0821 
N1543 X-298.138 Y-19.396 Z22.002 A43.6925 B-0.0596 
N1544 X-298.138 Y-20.405 Z22.289 A46.4179 B-0.0354 
N1545 X-298.138 Y-21.410 Z22.525 A49.0975 B-0.0093 
N1546 X-298.138 Y-22.433 Z22.716 A51.8027 B0.0191 
N1547 X-298.137 Y-23.500 Z22.869 A54.6116 B0.0500 
N1548 X-298.137 Y-24.633 Z22.982 A57.5923 B0.0841 
N1549 X-298.137 Y-25.843 Z23.040 A60.7704 B0.1219 
N1550 X-298.137 Y-27.119 Z23.017 A64.1009 B0.1629 
N1551 X-298.136 Y-28.424 Z22.881 A67.4670 B0.2060 
N1552 X-298.136 Y-29.683 Z22.598 A70.6553 B0.2489 
N1553 X-298.136 Y-30.798 Z22.147 A73.3829 B0.2884 
N1554 X-298.136 Y-31.680 Z21.526 A75.3878 B0.3211 
N1555 X-298.136 Y-32.289 Z20.755 A76.5567 B0.3452 
N1556 X-298.136 Y-32.690 Z19.870 A77.0734 B0.3619 
N1557 X-298.135 Y-32.986 Z18.909 A77.2461 B0.3746 
N1558 X-298.135 Y-33.244 Z17.898 A77.2807 B0.3857 
N1559 X-298.135 Y-33.499 Z16.857 A77.2822 B0.3967 
N1560 X-298.135 Y-33.758 Z15.803 A77.2861 B0.4079 
N1561 X-298.135 Y-34.028 Z14.754 A77.3295 B0.4195 
N1562 X-298.135 Y-34.328 Z13.730 A77.4818 B0.4320 
N1563 X-298.135 Y-34.660 Z12.748 A77.7689 B0.4452 
N1564 X-298.135 Y-35.001 Z11.817 A78.1340 B0.4579 
N1565 X-298.135 Y-35.304 Z10.938 A78.4402 B0.4681 
N1566 X-298.135 Y-35.536 Z10.116 A78.5872 B0.4749 
N1567 X-298.135 Y-35.718 Z9.360 A78.6347 B0.4796 
N1568 X-298.135 Y-35.925 Z8.690 A78.8129 B0.4859 
N1569 X-298.135 Y-36.270 Z8.127 A79.4769 B0.4996 
N1570 X-298.135 Y-36.841 Z7.676 A80.9009 B0.5253 
N1571 X-298.134 Y-37.656 Z7.316 A83.1464 B0.5642 
N1572 X-298.134 Y-38.685 Z7.007 A86.1093 B0.6145 
N1573 X-298.134 Y-39.854 Z6.706 A89.5612 B0.6727 
N1574 X-298.133 Y-41.070 Z6.383 A93.2135 B0.7339 
N1575 X-298.133 Y-42.246 Z6.029 A96.8075 B0.7939 
N1576 X-298.133 Y-43.339 Z5.649 A100.2061 B0.8505 
N1577 X-298.132 Y-44.337 Z5.253 A103.3698 B0.9030 
N1578 X-298.132 Y-45.246 Z4.847 A106.3089 B0.9511 
N1579 X-298.132 Y-46.077 Z4.433 A109.0535 B0.9953 
N1580 X-298.132 Y-46.843 Z4.015 A111.6359 B1.0358 
N1581 X-298.131 Y-47.553 Z3.590 A114.0861 B1.0728 
N1582 X-298.131 Y-48.216 Z3.160 A116.4302 B1.1067 
N1583 X-298.131 Y-48.840 Z2.722 A118.6916 B1.1375 
N1584 X-298.131 Y-49.431 Z2.275 A120.8916 B1.1653 
N1585 X-298.131 Y-49.995 Z1.816 A123.0512 B1.1901 
N1586 X-298.131 Y-50.538 Z1.343 A125.1906 B1.2118 
N1587 X-298.130 Y-51.063 Z0.851 A127.3289 B1.2302 
N1588 X-298.130 Y-51.576 Z0.338 A129.4854 B1.2450 
N1589 X-298.130 Y-52.078 Z-0.203 A131.6809 B1.2561 
N1590 X-298.130 Y-52.574 Z-0.778 A133.9397 B1.2629 
N1591 X-298.130 Y-53.067 Z-1.395 A136.2893 B1.2652 
N1592 X-298.130 Y-53.559 Z-2.065 A138.7627 B1.2625 
N1593 X-298.130 Y-54.052 Z-2.800 A141.3985 B1.2545 
N1594 X-298.130 Y-54.545 Z-3.620 A144.2457 B1.2403 
N1595 X-298.131 Y-55.036 Z-4.547 A147.3652 B1.2193 
N1596 X-298.131 Y-55.517 Z-5.607 A150.8286 B1.1905 
N1597 X-298.131 Y-55.968 Z-6.821 A154.6774 B1.1529 
N1598 X-298.131 Y-56.347 Z-8.176 A158.8521 B1.1063 
N1599 X-298.132 Y-56.602 Z-9.624 A163.1966 B1.0521 
N1600 X-298.132 Y-56.692 Z-11.092 A167.5130 B0.9932 
N1601 X-298.132 Y-56.592 Z-12.502 A171.6021 B0.9337 
N1602 X-298.133 Y-56.292 Z-13.756 A175.2123 B0.8788 
N1603 X-298.133 Y-55.798 Z-14.717 A177.9768 B0.8349 
N1604 X-298.133 Y-55.133 Z-15.303 A179.6636 B0.8066 
N1605 X-298.133 Y-54.306 Z-15.570 A180.4268 B0.7924 
N1606 X-298.133 Y-53.308 Z-15.664 A180.6843 B0.7862 
N1607 X-298.133 Y-52.122 Z-15.698 A180.7707 B0.7829 
N1608 X-298.133 Y-50.732 Z-15.727 A180.8447 B0.7803 
N1609 X-298.133 Y-49.129 Z-15.749 A180.8989 B0.7785 
N1610 X-298.133 Y-47.308 Z-15.756 A180.9120 B0.7776 
N1611 X-298.133 Y-45.274 Z-15.759 A180.9124 B0.7768 
N1612 X-298.133 Y-43.038 Z-15.763 B0.7759 
N1613 X-298.133 Y-40.619 Z-15.766 B0.7750 
N1614 X-298.133 Y-38.046 Z-15.770 B0.7740 
N1615 X-298.133 Y-35.351 Z-15.774 B0.7730 
N1616 X-298.133 Y-32.571 Z-15.779 B0.7719 
N1617 X-298.133 Y-29.746 Z-15.783 B0.7708 
N1618 X-298.133 Y-26.914 Z-15.787 B0.7698 
N1619 X-298.133 Y-24.112 Z-15.792 B0.7687 
N1620 X-298.133 Y-21.372 Z-15.796 B0.7676 
N1621 X-298.133 Y-18.719 Z-15.800 A180.9137 B0.7666 
N1622 X-298.133 Y-16.172 Z-15.819 A180.9609 B0.7658 
N1623 X-298.133 Y-13.740 Z-16.027 A181.6070 B0.7634 
N1624 X-298.133 Y-11.390 Z-16.879 A184.3760 B0.7497 
N1625 X-298.134 Y-9.030 Z-18.285 A189.2747 B0.7098 
N1626 X-298.134 Y-6.620 Z-19.726 A194.9087 B0.6269 
N1627 X-298.135 Y-4.304 Z-20.653 A199.5308 B0.5317 
N1628 X-298.135 Y-2.272 Z-20.854 A202.1844 B0.4662 
N1629 X-298.135 Y-0.559 Z-20.482 A203.0508 B0.4328 
N1630 X-298.135 Y0.969 Z-19.918 A203.2119 B0.4113 
N1631 X-298.135 Y2.392 Z-19.350 A203.2495 B0.3922 
N1632 X-298.135 Y3.730 Z-18.817 A203.2910 B0.3734 
N1633 X-298.136 Y4.983 Z-18.317 A203.3293 B0.3551 
N1634 X-298.136 Y6.152 Z-17.848 A203.3620 B0.3375 
N1635 X-298.136 Y7.247 Z-17.434 A203.4647 B0.3203 
N1636 X-298.136 Y8.295 Z-17.132 A203.8373 B0.3013 
N1637 X-298.136 Y9.345 Z-17.042 A204.8341 B0.2772 
N1638 X-298.136 Y10.446 Z-17.229 A206.7219 B0.2461 
N1639 X-298.136 Y11.607 Z-17.640 A209.4025 B0.2097 
N1640 X-298.137 Y12.810 Z-18.170 A212.5811 B0.1711 
N1641 X-298.137 Y14.021 Z-18.714 A215.9362 B0.1334 
N1642 X-298.137 Y15.207 Z-19.207 A219.2445 B0.0985 
N1643 X-298.137 Y16.350 Z-19.623 A222.3989 B0.0673 
N1644 X-298.137 Y17.448 Z-19.960 A225.3818 B0.0394 
N1645 X-298.138 Y18.521 Z-20.234 A228.2616 B0.0143 
N1646 X-298.138 Y19.592 Z-20.458 A231.1185 B-0.0088 
N1647 X-298.138 Y20.688 Z-20.640 A234.0347 B-0.0300 
N1648 X-298.138 Y21.840 Z-20.787 A237.1041 B-0.0499 
N1649 X-298.138 Y23.066 Z-20.887 A240.3761 B-0.0685 
N1650 X-298.138 Y24.357 Z-20.915 A243.8065 B-0.0855 
N1651 X-298.138 Y25.675 Z-20.836 A247.2771 B-0.0999 
N1652 X-298.138 Y26.947 Z-20.617 A250.5679 B-0.1106 
N1653 X-298.138 Y28.074 Z-20.236 A253.3914 B-0.1166 
N1654 X-298.138 Y28.962 Z-19.692 A255.4844 B-0.1174 
N1655 X-298.138 Y29.572 Z-19.004 A256.7254 B-0.1135 
N1656 X-298.138 Y29.963 Z-18.210 A257.2896 B-0.1064 
N1657 X-298.138 Y30.239 Z-17.344 A257.4823 B-0.0976 
N1658 X-298.138 Y30.470 Z-16.433 A257.5209 B-0.0880 
N1659 X-298.138 Y30.698 Z-15.498 A257.5312 B-0.0781 
N1660 X-298.138 Y30.939 Z-14.555 A257.5765 B-0.0684 
N1661 X-298.138 Y31.219 Z-13.623 A257.7471 B-0.0588 
N1662 X-298.138 Y31.567 Z-12.723 A258.1554 B-0.0482 
N1663 X-298.138 Y31.949 Z-11.861 A258.7100 B-0.0352 
N1664 X-298.138 Y32.284 Z-11.031 A259.1732 B-0.0215 
N1665 X-298.138 Y32.540 Z-10.240 A259.4440 B-0.0105 
N1666 X-298.138 Y32.727 Z-9.499 A259.5524 B-0.0038 
N1667 X-298.138 Y32.878 Z-8.820 A259.5913 B-0.0010 
N1668 X-298.138 Y33.061 Z-8.219 A259.7764 B-0.0002 
N1669 X-298.138 Y33.388 Z-7.712 A260.4493 B-0.0000 
N1670 X-298.138 Y33.945 Z-7.306 A261.8853 B-0.0000 
N1671 X-298.138 Y34.760 Z-6.980 A264.1707 
N1672 X-298.138 Y35.801 Z-6.694 A267.1959 
N1673 X-298.138 Y36.974 Z-6.403 A270.6819 
N1674 X-298.138 Y38.176 Z-6.084 A274.3092 
N1675 X-298.138 Y39.328 Z-5.732 A277.8444 
N1676 X-298.138 Y40.396 Z-5.354 A281.1830 
N1677 X-298.138 Y41.375 Z-4.960 A284.2989 
N1678 X-298.138 Y42.270 Z-4.553 A287.2033 
N1679 X-298.138 Y43.089 Z-4.140 A289.9219 
N1680 X-298.138 Y43.845 Z-3.720 A292.4847 
N1681 X-298.138 Y44.547 Z-3.294 A294.9212 
N1682 X-298.138 Y45.205 Z-2.861 A297.2581 
N1683 X-298.138 Y45.825 Z-2.420 A299.5183 
N1684 X-298.138 Y46.412 Z-1.969 A301.7195 
N1685 X-298.138 Y46.972 Z-1.507 A303.8758 
N1686 X-298.138 Y47.506 Z-1.033 A305.9980 
N1687 X-298.138 Y48.017 Z-0.545 A308.0993 
N1688 X-298.138 Y48.510 Z-0.041 A310.1975 
N1689 X-298.138 Y48.991 Z0.487 A312.3192 
N1690 X-298.138 Y49.465 Z1.046 A314.5023 
N1691 X-298.138 Y49.944 Z1.654 A316.8046 
N1692 X-298.138 Y50.439 Z2.334 A319.3091 
N1693 X-298.138 Y50.962 Z3.119 A322.1194 
N1694 X-298.138 Y51.511 Z4.039 A325.3146 
N1695 X-298.138 Y52.063 Z5.104 A328.8901 
N1696 X-298.138 Y52.580 Z6.306 A332.7860 
N1697 X-298.138 Y53.028 Z7.642 A336.9786 
N1698 X-298.138 Y53.367 Z9.089 A341.3881 
N1699 X-298.138 Y53.554 Z10.601 A345.8855 
N1700 X-298.138 Y53.553 Z12.084 A350.2245 
N1701 X-298.138 Y53.345 Z13.404 A354.0437 
N1702 X-298.138 Y52.941 Z14.450 A357.0525 
N1703 X-298.138 Y52.361 Z15.178 A359.1512 
N1704 X-298.138 Y51.619 Z15.572 A0.2863 
N1705 X-298.138 Y50.712 Z15.701 A0.6509 
N1706 X-298.138 Y49.623 Z15.735 A0.7347 
N1707 X-298.138 Y48.332 Z15.759 A0.7905 
N1708 X-298.138 Y46.827 Z15.772 A0.8149 
N1709 X-298.138 Y45.100 Z15.779 A0.8181 
N1710 X-298.138 Y43.149 Z15.785 A0.8183 
N1711 X-298.138 Y40.984 Z15.792 
N1712 X-298.138 Y38.620 Z15.799 
N1713 X-298.138 Y36.083 Z15.807 
N1714 X-298.138 Y33.404 Z15.816 
N1715 X-298.138 Y30.623 Z15.825 
N1716 X-298.138 Y27.780 Z15.834 
N1717 X-298.138 Y24.920 Z15.843 
N1718 X-298.138 Y22.084 Z15.852 
N1719 X-298.138 Y19.312 Z15.860 
N1720 X-298.138 Y16.636 Z15.869 
N1721 X-298.138 Y14.082 Z15.877 
N1722 X-298.138 Y11.668 Z15.894 A0.8483 
N1723 X-298.138 Y9.402 Z16.032 A1.2593 
N1724 X-298.138 Y7.272 Z16.540 A2.8874 
N1725 X-298.138 Y5.213 Z17.654 A6.6032 
N1726 X-298.138 Y3.131 Z19.129 A11.8704 B-0.0005 
N1727 X-298.138 Y1.049 Z20.433 A17.1333 B-0.0073 
N1728 X-298.138 Y-0.897 Z21.243 A21.2762 B-0.0259 
N1729 X-298.138 Y-2.582 Z21.475 A23.7870 B-0.0475 
N1730 X-298.138 Y-4.001 Z21.278 A24.9368 B-0.0659 
N1731 X-298.138 Y-5.232 Z20.863 A25.3149 B-0.0831 
N1732 X-298.138 Y-6.353 Z20.388 A25.4050 B-0.0998 
N1733 X-298.138 Y-7.401 Z19.922 A25.4315 B-0.1157 
N1734 X-298.138 Y-8.405 Z19.514 A25.5652 B-0.1302 
N1735 X-298.138 Y-9.397 Z19.222 A26.0156 B-0.1422 
N1736 X-298.138 Y-10.408 Z19.097 A26.9803 B-0.1501 
N1737 X-298.139 Y-11.467 Z19.168 A28.5983 B-0.1522 
N1738 X-298.138 Y-12.588 Z19.414 A30.8603 B-0.1477 
N1739 X-298.138 Y-13.763 Z19.774 A33.6088 B-0.1365 
N1740 X-298.138 Y-14.968 Z20.170 A36.6186 B-0.1197 
N1741 X-298.138 Y-16.172 Z20.537 A39.6777 B-0.0987 
N1742 X-298.138 Y-17.352 Z20.838 A42.6484 B-0.0749 
N1743 X-298.138 Y-18.496 Z21.057 A45.4718 B-0.0489 
N1744 X-298.138 Y-19.614 Z21.204 A48.1857 B-0.0206 
N1745 X-298.138 Y-20.734 Z21.298 A50.8882 B0.0105 
N1746 X-298.137 Y-21.892 Z21.354 A53.7052 B0.0456 
N1747 X-298.137 Y-23.123 Z21.377 A56.7420 B0.0855 
N1748 X-298.137 Y-24.434 Z21.351 A60.0131 B0.1308 
N1749 X-298.137 Y-25.795 Z21.237 A63.4044 B0.1801 
N1750 X-298.136 Y-27.130 Z20.991 A66.6867 B0.2304 
N1751 X-298.136 Y-28.335 Z20.578 A69.5378 B0.2774 
N1752 X-298.136 Y-29.309 Z19.990 A71.6647 B0.3166 
N1753 X-298.136 Y-30.010 Z19.243 A72.9396 B0.3453 
N1754 X-298.136 Y-30.492 Z18.379 A73.5285 B0.3646 
N1755 X-298.135 Y-30.851 Z17.443 A73.7207 B0.3783 
N1756 X-298.135 Y-31.165 Z16.469 A73.7509 B0.3898 
N1757 X-298.135 Y-31.472 Z15.480 A73.7516 B0.4009 
N1758 X-298.135 Y-31.782 Z14.493 A73.7634 B0.4121 
N1759 X-298.135 Y-32.111 Z13.529 A73.8506 B0.4243 
N1760 X-298.135 Y-32.479 Z12.607 A74.0942 B0.4382 
N1761 X-298.135 Y-32.879 Z11.738 A74.4932 B0.4533 
N1762 X-298.135 Y-33.272 Z10.923 A74.9412 B0.4676 
N1763 X-298.135 Y-33.602 Z10.155 A75.2614 B0.4782 
N1764 X-298.135 Y-33.847 Z9.438 A75.3877 B0.4844 
N1765 X-298.135 Y-34.051 Z8.786 A75.4518 B0.4891 
N1766 X-298.135 Y-34.314 Z8.227 A75.7666 B0.4979 
N1767 X-298.135 Y-34.760 Z7.787 A76.7216 B0.5184 
N1768 X-298.134 Y-35.454 Z7.465 A78.5201 B0.5541 
N1769 X-298.134 Y-36.386 Z7.226 A81.1229 B0.6045 
N1770 X-298.134 Y-37.500 Z7.024 A84.3423 B0.6658 
N1771 X-298.133 Y-38.718 Z6.814 A87.9269 B0.7333 
N1772 X-298.133 Y-39.952 Z6.572 A91.6138 B0.8019 
N1773 X-298.133 Y-41.132 Z6.291 A95.1854 B0.8676 
N1774 X-298.132 Y-42.221 Z5.978 A98.5308 B0.9287 
N1775 X-298.132 Y-43.212 Z5.644 A101.6254 B0.9844 
N1776 X-298.132 Y-44.114 Z5.294 A104.4888 B1.0353 
N1777 X-298.131 Y-44.939 Z4.934 A107.1592 B1.0819 
N1778 X-298.131 Y-45.703 Z4.565 A109.6767 B1.1246 
N1779 X-298.131 Y-46.416 Z4.186 A112.0747 B1.1641 
N1780 X-298.131 Y-47.087 Z3.796 A114.3799 B1.2004 
N1781 X-298.130 Y-47.722 Z3.395 A116.6130 B1.2339 
N1782 X-298.130 Y-48.328 Z2.983 A118.7905 B1.2645 
N1783 X-298.130 Y-48.906 Z2.558 A120.9272 B1.2921 
N1784 X-298.130 Y-49.463 Z2.117 A123.0394 B1.3168 
N1785 X-298.130 Y-50.002 Z1.660 A125.1430 B1.3383 
N1786 X-298.130 Y-50.527 Z1.183 A127.2539 B1.3563 
N1787 X-298.130 Y-51.040 Z0.682 A129.3886 B1.3708 
N1788 X-298.130 Y-51.544 Z0.153 A131.5660 B1.3813 
N1789 X-298.130 Y-52.044 Z-0.411 A133.8077 B1.3877 
N1790 X-298.130 Y-52.540 Z-1.016 A136.1398 B1.3895 
N1791 X-298.130 Y-53.036 Z-1.674 A138.5952 B1.3866 
N1792 X-298.130 Y-53.534 Z-2.400 A141.2177 B1.3784 
N1793 X-298.130 Y-54.036 Z-3.212 A144.0648 B1.3642 
N1794 X-298.130 Y-54.542 Z-4.138 A147.2083 B1.3432 
N1795 X-298.130 Y-55.045 Z-5.209 A150.7308 B1.3139 
N1796 X-298.130 Y-55.521 Z-6.446 A154.6749 B1.2752 
N1797 X-298.131 Y-55.925 Z-7.833 A158.9679 B1.2265 
N1798 X-298.131 Y-56.201 Z-9.313 A163.4288 B1.1691 
N1799 X-298.131 Y-56.307 Z-10.806 A167.8322 B1.1064 
N1800 X-298.132 Y-56.218 Z-12.225 A171.9621 B1.0430 
N1801 X-298.132 Y-55.930 Z-13.471 A175.5624 B0.9846 
N1802 X-298.132 Y-55.454 Z-14.405 A178.2588 B0.9387 
N1803 X-298.132 Y-54.813 Z-14.942 A179.8087 B0.9104 
N1804 X-298.132 Y-54.018 Z-15.154 A180.4080 B0.8975 
N1805 X-298.132 Y-53.057 Z-15.216 A180.5719 B0.8921 
N1806 X-298.132 Y-51.912 Z-15.253 A180.6569 B0.8884 
N1807 X-298.132 Y-50.569 Z-15.297 A180.7702 B0.8848 
N1808 X-298.133 Y-49.018 Z-15.331 A180.8589 B0.8822 
N1809 X-298.133 Y-47.256 Z-15.343 A180.8826 B0.8809 
N1810 X-298.133 Y-45.287 Z-15.348 A180.8835 B0.8799 
N1811 X-298.133 Y-43.123 Z-15.352 B0.8787 
N1812 X-298.133 Y-40.786 Z-15.357 B0.8775 
N1813 X-298.133 Y-38.303 Z-15.362 B0.8763 
N1814 X-298.133 Y-35.708 Z-15.367 B0.8749 
N1815 X-298.133 Y-33.040 Z-15.372 B0.8736 
N1816 X-298.133 Y-30.339 Z-15.378 B0.8722 
N1817 X-298.133 Y-27.646 Z-15.383 B0.8708 
N1818 X-298.133 Y-24.997 Z-15.389 B0.8694 
N1819 X-298.133 Y-22.426 Z-15.394 B0.8681 
N1820 X-298.133 Y-19.956 Z-15.399 A180.8835 B0.8668 
N1821 X-298.133 Y-17.606 Z-15.406 A180.8916 B0.8656 
N1822 X-298.133 Y-15.385 Z-15.452 A181.0207 B0.8646 
N1823 X-298.133 Y-13.286 Z-15.804 A182.1229 B0.8581 
N1824 X-298.133 Y-11.253 Z-16.834 A185.4841 B0.8337 
N1825 X-298.133 Y-9.171 Z-18.373 A190.8299 B0.7760 
N1826 X-298.134 Y-6.987 Z-19.971 A196.9645 B0.6734 
N1827 X-298.134 Y-4.834 Z-21.112 A202.2803 B0.5580 
N1828 X-298.135 Y-2.915 Z-21.569 A205.8076 B0.4712 
N1829 X-298.135 Y-1.327 Z-21.388 A207.3882 B0.4246 
N1830 X-298.135 Y0.027 Z-20.865 A207.8063 B0.4008 
N1831 X-298.135 Y1.280 Z-20.260 A207.8861 B0.3833 
N1832 X-298.135 Y2.481 Z-19.663 A207.9186 B0.3667 
N1833 X-298.136 Y3.640 Z-19.090 A207.9610 B0.3498 
N1834 X-298.136 Y4.752 Z-18.539 A208.0006 B0.3330 
N1835 X-298.136 Y5.816 Z-18.013 A208.0452 B0.3165 
N1836 X-298.136 Y6.848 Z-17.548 A208.2134 B0.2991 
N1837 X-298.136 Y7.883 Z-17.215 A208.7596 B0.2778 
N1838 X-298.136 Y8.978 Z-17.109 A210.0377 B0.2491 
N1839 X-298.136 Y10.171 Z-17.258 A212.2143 B0.2120 
N1840 X-298.137 Y11.450 Z-17.582 A215.1018 B0.1698 
N1841 X-298.137 Y12.771 Z-17.965 A218.3474 B0.1270 
N1842 X-298.137 Y14.079 Z-18.309 A221.6183 B0.0873 
N1843 X-298.137 Y15.338 Z-18.567 A224.7277 B0.0524 
N1844 X-298.137 Y16.544 Z-18.738 A227.6552 B0.0222 
N1845 X-298.138 Y17.729 Z-18.851 A230.5268 B-0.0047 
N1846 X-298.138 Y18.935 Z-18.928 A233.4842 B-0.0291 
N1847 X-298.138 Y20.208 Z-18.983 A236.6728 B-0.0520 
N1848 X-298.138 Y21.563 Z-19.000 A240.1231 B-0.0732 
N1849 X-298.138 Y22.956 Z-18.933 A243.6777 B-0.0916 
N1850 X-298.138 Y24.299 Z-18.733 A247.0532 B-0.1053 
N1851 X-298.138 Y25.479 Z-18.368 A249.9044 B-0.1130 
N1852 X-298.138 Y26.404 Z-17.834 A251.9651 B-0.1143 
N1853 X-298.138 Y27.051 Z-17.157 A253.1677 B-0.1102 
N1854 X-298.138 Y27.485 Z-16.380 A253.7081 B-0.1026 
N1855 X-298.138 Y27.799 Z-15.543 A253.8662 B-0.0931 
N1856 X-298.138 Y28.072 Z-14.678 A253.8853 B-0.0830 
N1857 X-298.138 Y28.344 Z-13.808 A253.8949 B-0.0729 
N1858 X-298.138 Y28.635 Z-12.950 A253.9734 B-0.0631 
N1859 X-298.138 Y28.998 Z-12.132 A254.3049 B-0.0538 
N1860 X-298.138 Y29.448 Z-11.368 A254.9528 B-0.0438 
N1861 X-298.138 Y29.892 Z-10.642 A255.6446 B-0.0321 
N1862 X-298.138 Y30.248 Z-9.943 A256.1310 B-0.0202 
N1863 X-298.138 Y30.507 Z-9.279 A256.3729 B-0.0106 
N1864 X-298.138 Y30.693 Z-8.660 A256.4479 B-0.0046 
N1865 X-298.138 Y30.869 Z-8.106 A256.5417 B-0.0017 
N1866 X-298.138 Y31.144 Z-7.641 A256.9959 B-0.0005 
N1867 X-298.138 Y31.632 Z-7.285 A258.1702 B-0.0001 
N1868 X-298.138 Y32.381 Z-7.027 A260.2092 B-0.0000 
N1869 X-298.138 Y33.371 Z-6.831 A263.0408 B-0.0000 
N1870 X-298.138 Y34.529 Z-6.646 A266.4330 
N1871 X-298.138 Y35.757 Z-6.436 A270.0837 
N1872 X-298.138 Y36.967 Z-6.184 A273.7226 
N1873 X-298.138 Y38.102 Z-5.893 A277.1859 
N1874 X-298.138 Y39.145 Z-5.574 A280.4151 
N1875 X-298.138 Y40.096 Z-5.234 A283.4100 
N1876 X-298.138 Y40.966 Z-4.880 A286.1963 
N1877 X-298.138 Y41.765 Z-4.515 A288.8076 
N1878 X-298.138 Y42.507 Z-4.141 A291.2777 
N1879 X-298.138 Y43.201 Z-3.756 A293.6373 
N1880 X-298.138 Y43.856 Z-3.361 A295.9125 
N1881 X-298.138 Y44.478 Z-2.953 A298.1241 
N1882 X-298.138 Y45.071 Z-2.534 A300.2884 
N1883 X-298.138 Y45.640 Z-2.100 A302.4174 
N1884 X-298.138 Y46.186 Z-1.652 A304.5208 
N1885 X-298.138 Y46.712 Z-1.189 A306.6074 
N1886 X-298.138 Y47.220 Z-0.708 A308.6907 
N1887 X-298.138 Y47.714 Z-0.206 A310.7902 
N1888 X-298.138 Y48.201 Z0.324 A312.9358 
N1889 X-298.138 Y48.688 Z0.896 A315.1726 
N1890 X-298.138 Y49.186 Z1.526 A317.5686 
N1891 X-298.138 Y49.707 Z2.244 A320.2139 
N1892 X-298.138 Y50.256 Z3.078 A323.1924 
N1893 X-298.138 Y50.818 Z4.045 A326.5321 
N1894 X-298.138 Y51.366 Z5.146 A330.1995 
N1895 X-298.138 Y51.870 Z6.386 A334.1888 
N1896 X-298.138 Y52.296 Z7.759 A338.4641 
N1897 X-298.138 Y52.602 Z9.234 A342.9347 
N1898 X-298.138 Y52.744 Z10.750 A347.4270 
N1899 X-298.138 Y52.689 Z12.184 A351.6135 
N1900 X-298.138 Y52.432 Z13.408 A355.1535 
N1901 X-298.138 Y51.990 Z14.351 A357.8717 
N1902 X-298.138 Y51.384 Z14.960 A359.6317 
N1903 X-298.138 Y50.621 Z15.230 A0.4048 
N1904 X-298.138 Y49.694 Z15.305 A0.6067 
N1905 X-298.138 Y48.583 Z15.341 A0.6954 
N1906 X-298.138 Y47.273 Z15.366 A0.7508 
N1907 X-298.138 Y45.751 Z15.377 A0.7634 
N1908 X-298.138 Y44.012 Z15.384 A0.7638 
N1909 X-298.138 Y42.059 Z15.392 
N1910 X-298.138 Y39.903 Z15.401 
N1911 X-298.138 Y37.563 Z15.410 
N1912 X-298.138 Y35.066 Z15.421 
N1913 X-298.138 Y32.448 Z15.432 
N1914 X-298.138 Y29.749 Z15.443 
N1915 X-298.138 Y27.012 Z15.454 
N1916 X-298.138 Y24.280 Z15.465 
N1917 X-298.138 Y21.596 Z15.476 
N1918 X-298.138 Y18.996 Z15.487 
N1919 X-298.138 Y16.512 Z15.497 
N1920 X-298.138 Y14.167 Z15.507 
N1921 X-298.138 Y11.973 Z15.522 A0.7835 
N1922 X-298.138 Y9.937 Z15.625 A1.0798 
N1923 X-298.138 Y8.047 Z16.012 A2.2966 
N1924 X-298.138 Y6.251 Z16.931 A5.2935 
N1925 X-298.138 Y4.440 Z18.390 A10.2681 B-0.0000 
N1926 X-298.138 Y2.552 Z19.964 A16.0778 B-0.0016 
N1927 X-298.138 Y0.657 Z21.246 A21.4812 B-0.0105 
N1928 X-298.138 Y-1.103 Z22.028 A25.6814 B-0.0275 
N1929 X-298.138 Y-2.614 Z22.271 A28.3308 B-0.0445 
N1930 X-298.138 Y-3.871 Z22.095 A29.6390 B-0.0589 
N1931 X-298.138 Y-4.949 Z21.676 A30.1019 B-0.0727 
N1932 X-298.138 Y-5.938 Z21.169 A30.2222 B-0.0869 
N1933 X-298.138 Y-6.888 Z20.652 A30.2599 B-0.1011 
N1934 X-298.138 Y-7.824 Z20.167 A30.3638 B-0.1146 
N1935 X-298.138 Y-8.781 Z19.767 A30.7348 B-0.1262 
N1936 X-298.138 Y-9.792 Z19.506 A31.5785 B-0.1340 
N1937 X-298.138 Y-10.885 Z19.413 A33.0414 B-0.1358 
N1938 X-298.138 Y-12.073 Z19.480 A35.1549 B-0.1300 
N1939 X-298.138 Y-13.347 Z19.653 A37.7910 B-0.1164 
N1940 X-298.138 Y-14.667 Z19.848 A40.7022 B-0.0960 
N1941 X-298.138 Y-15.985 Z19.991 A43.6285 B-0.0710 
N1942 X-298.138 Y-17.264 Z20.041 A46.4010 B-0.0431 
N1943 X-298.138 Y-18.502 Z20.000 A49.0206 B-0.0125 
N1944 X-298.137 Y-19.741 Z19.905 A51.6528 B0.0223 
N1945 X-298.137 Y-21.040 Z19.789 A54.5136 B0.0636 
N1946 X-298.137 Y-22.430 Z19.651 A57.6954 B0.1129 
N1947 X-298.137 Y-23.867 Z19.444 A61.0414 B0.1683 
N1948 X-298.136 Y-25.247 Z19.106 A64.2028 B0.2244 
N1949 X-298.136 Y-26.438 Z18.593 A66.7672 B0.2744 
N1950 X-298.136 Y-27.352 Z17.903 A68.4684 B0.3127 
N1951 X-298.136 Y-28.000 Z17.074 A69.3376 B0.3382 
N1952 X-298.136 Y-28.469 Z16.159 A69.6409 B0.3543 
N1953 X-298.136 Y-28.857 Z15.209 A69.6892 B0.3660 
N1954 X-298.135 Y-29.229 Z14.257 A69.6902 B0.3768 
N1955 X-298.135 Y-29.598 Z13.323 A69.7043 B0.3877 
N1956 X-298.135 Y-29.984 Z12.426 A69.8076 B0.3998 
N1957 X-298.135 Y-30.410 Z11.587 A70.0947 B0.4144 
N1958 X-298.135 Y-30.873 Z10.815 A70.5756 B0.4315 
N1959 X-298.135 Y-31.327 Z10.102 A71.1181 B0.4481 
N1960 X-298.135 Y-31.698 Z9.431 A71.4886 B0.4601 
N1961 X-298.135 Y-31.968 Z8.801 A71.6241 B0.4664 
N1962 X-298.135 Y-32.198 Z8.234 A71.7116 B0.4713 
N1963 X-298.135 Y-32.506 Z7.768 A72.1270 B0.4827 
N1964 X-298.135 Y-33.021 Z7.437 A73.2789 B0.5095 
N1965 X-298.134 Y-33.794 Z7.234 A75.3234 B0.5548 
N1966 X-298.134 Y-34.799 Z7.116 A78.1545 B0.6161 
N1967 X-298.134 Y-35.965 Z7.026 A81.5321 B0.6882 
N1968 X-298.133 Y-37.212 Z6.920 A85.1985 B0.7652 
N1969 X-298.133 Y-38.465 Z6.774 A88.9175 B0.8422 
N1970 X-298.132 Y-39.660 Z6.580 A92.5008 B0.9152 
N1971 X-298.132 Y-40.764 Z6.345 A95.8453 B0.9823 
N1972 X-298.132 Y-41.768 Z6.081 A98.9274 B1.0431 
N1973 X-298.131 Y-42.681 Z5.796 A101.7684 B1.0982 
N1974 X-298.131 Y-43.517 Z5.495 A104.4085 B1.1485 
N1975 X-298.131 Y-44.291 Z5.181 A106.8930 B1.1947 
N1976 X-298.130 Y-45.016 Z4.853 A109.2625 B1.2375 
N1977 X-298.130 Y-45.703 Z4.510 A111.5474 B1.2773 
N1978 X-298.130 Y-46.359 Z4.154 A113.7691 B1.3144 
N1979 X-298.130 Y-46.986 Z3.782 A115.9423 B1.3488 
N1980 X-298.130 Y-47.589 Z3.395 A118.0765 B1.3805 
N1981 X-298.129 Y-48.169 Z2.993 A120.1807 B1.4093 
N1982 X-298.129 Y-48.730 Z2.574 A122.2652 B1.4349 
N1983 X-298.129 Y-49.273 Z2.137 A124.3432 B1.4573 
N1984 X-298.129 Y-49.803 Z1.680 A126.4275 B1.4763 
N1985 X-298.129 Y-50.321 Z1.201 A128.5328 B1.4915 
N1986 X-298.129 Y-50.830 Z0.694 A130.6750 B1.5029 
N1987 X-298.129 Y-51.333 Z0.155 A132.8732 B1.5101 
N1988 X-298.129 Y-51.833 Z-0.422 A135.1498 B1.5131 
N1989 X-298.129 Y-52.331 Z-1.047 A137.5349 B1.5116 
N1990 X-298.129 Y-52.833 Z-1.734 A140.0722 B1.5052 
N1991 X-298.129 Y-53.341 Z-2.503 A142.8210 B1.4934 
N1992 X-298.129 Y-53.859 Z-3.380 A145.8590 B1.4751 
N1993 X-298.129 Y-54.382 Z-4.399 A149.2771 B1.4489 
N1994 X-298.129 Y-54.897 Z-5.592 A153.1502 B1.4130 
N1995 X-298.130 Y-55.361 Z-6.959 A157.4486 B1.3660 
N1996 X-298.130 Y-55.715 Z-8.452 A162.0075 B1.3085 
N1997 X-298.130 Y-55.905 Z-9.983 A166.5739 B1.2432 
N1998 X-298.131 Y-55.901 Z-11.457 A170.8928 B1.1752 
N1999 X-298.131 Y-55.698 Z-12.775 A174.7225 B1.1105 
N2000 X-298.131 Y-55.304 Z-13.815 A177.7368 B1.0566 
N2001 X-298.132 Y-54.745 Z-14.456 A179.5928 B1.0214 
N2002 X-298.132 Y-54.038 Z-14.710 A180.3210 B1.0052 
N2003 X-298.132 Y-53.176 Z-14.763 A180.4520 B0.9997 
N2004 X-298.132 Y-52.141 Z-14.788 A180.5007 B0.9960 
N2005 X-298.132 Y-50.916 Z-14.840 A180.6282 B0.9915 
N2006 X-298.132 Y-49.491 Z-14.897 A180.7777 B0.9873 
N2007 X-298.132 Y-47.859 Z-14.925 A180.8452 B0.9850 
N2008 X-298.132 Y-46.022 Z-14.932 A180.8530 B0.9836 
N2009 X-298.132 Y-43.990 Z-14.938 A180.8530 B0.9823 
N2010 X-298.132 Y-41.779 Z-14.943 B0.9809 
N2011 X-298.132 Y-39.416 Z-14.949 B0.9793 
N2012 X-298.132 Y-36.932 Z-14.956 B0.9777 
N2013 X-298.132 Y-34.367 Z-14.962 B0.9761 
N2014 X-298.132 Y-31.762 Z-14.969 B0.9744 
N2015 X-298.132 Y-29.158 Z-14.976 B0.9727 
N2016 X-298.132 Y-26.596 Z-14.982 B0.9710 
N2017 X-298.132 Y-24.111 Z-14.989 B0.9694 
N2018 X-298.132 Y-21.733 Z-14.995 B0.9679 
N2019 X-298.132 Y-19.485 Z-15.001 A180.8531 B0.9664 
N2020 X-298.132 Y-17.378 Z-15.009 A180.8631 B0.9650 
N2021 X-298.132 Y-15.418 Z-15.056 A180.9923 B0.9638 
N2022 X-298.132 Y-13.593 Z-15.372 A181.9759 B0.9563 
N2023 X-298.132 Y-11.851 Z-16.299 A184.9607 B0.9296 
N2024 X-298.133 Y-10.079 Z-17.778 A189.9544 B0.8714 
N2025 X-298.133 Y-8.175 Z-19.492 A196.1688 B0.7680 
N2026 X-298.134 Y-6.172 Z-21.013 A202.3921 B0.6338 
N2027 X-298.135 Y-4.249 Z-21.994 A207.4295 B0.5091 
N2028 X-298.135 Y-2.571 Z-22.355 A210.7649 B0.4214 
N2029 X-298.135 Y-1.206 Z-22.160 A212.3520 B0.3744 
N2030 X-298.136 Y-0.055 Z-21.640 A212.8344 B0.3518 
N2031 X-298.136 Y1.017 Z-21.014 A212.9409 B0.3368 
N2032 X-298.136 Y2.069 Z-20.370 A212.9726 B0.3231 
N2033 X-298.136 Y3.116 Z-19.733 A213.0152 B0.3088 
N2034 X-298.136 Y4.154 Z-19.104 A213.0677 B0.2938 
N2035 X-298.136 Y5.176 Z-18.482 A213.1155 B0.2789 
N2036 X-298.136 Y6.193 Z-17.896 A213.2513 B0.2628 
N2037 X-298.136 Y7.247 Z-17.420 A213.7430 B0.2419 
N2038 X-298.136 Y8.402 Z-17.146 A214.9585 B0.2120 
N2039 X-298.137 Y9.700 Z-17.110 A217.0987 B0.1721 
N2040 X-298.137 Y11.114 Z-17.226 A219.9577 B0.1266 
N2041 X-298.137 Y12.565 Z-17.359 A223.0869 B0.0821 
N2042 X-298.137 Y13.969 Z-17.408 A226.0981 B0.0435 
N2043 X-298.138 Y15.300 Z-17.355 A228.8839 B0.0116 
N2044 X-298.138 Y16.612 Z-17.251 A231.6625 B-0.0160 
N2045 X-298.138 Y17.981 Z-17.145 A234.7116 B-0.0415 
N2046 X-298.138 Y19.450 Z-17.042 A238.1640 B-0.0656 
N2047 X-298.138 Y20.942 Z-16.869 A241.7306 B-0.0857 
N2048 X-298.138 Y22.306 Z-16.548 A244.9108 B-0.0987 
N2049 X-298.138 Y23.410 Z-16.049 A247.2871 B-0.1034 
N2050 X-298.138 Y24.206 Z-15.391 A248.7172 B-0.1010 
N2051 X-298.138 Y24.742 Z-14.621 A249.3475 B-0.0938 
N2052 X-298.138 Y25.123 Z-13.796 A249.4992 B-0.0844 
N2053 X-298.138 Y25.454 Z-12.962 A249.5088 B-0.0744 
N2054 X-298.138 Y25.779 Z-12.146 A249.5193 B-0.0647 
N2055 X-298.138 Y26.138 Z-11.371 A249.6721 B-0.0556 
N2056 X-298.138 Y26.600 Z-10.672 A250.2089 B-0.0474 
N2057 X-298.138 Y27.131 Z-10.042 A251.0445 B-0.0392 
N2058 X-298.138 Y27.617 Z-9.446 A251.8197 B-0.0295 
N2059 X-298.138 Y27.990 Z-8.870 A252.3172 B-0.0190 
N2060 X-298.138 Y28.247 Z-8.319 A252.5229 B-0.0101 
N2061 X-298.138 Y28.440 Z-7.813 A252.5911 B-0.0045 
N2062 X-298.138 Y28.673 Z-7.385 A252.8504 B-0.0017 
N2063 X-298.138 Y29.082 Z-7.070 A253.7300 B-0.0006 
N2064 X-298.138 Y29.750 Z-6.877 A255.4889 B-0.0002 
N2065 X-298.138 Y30.676 Z-6.774 A258.1031 B-0.0000 
N2066 X-298.138 Y31.797 Z-6.706 A261.3619 B-0.0000 
N2067 X-298.138 Y33.027 Z-6.625 A264.9818 
N2068 X-298.138 Y34.275 Z-6.501 A268.6900 
N2069 X-298.138 Y35.474 Z-6.326 A272.2805 
N2070 X-298.138 Y36.586 Z-6.108 A275.6462 
N2071 X-298.138 Y37.603 Z-5.856 A278.7609 
N2072 X-298.138 Y38.531 Z-5.580 A281.6414 
N2073 X-298.138 Y39.382 Z-5.286 A284.3220 
N2074 X-298.138 Y40.170 Z-4.977 A286.8417 
N2075 X-298.138 Y40.905 Z-4.653 A289.2359 
N2076 X-298.138 Y41.599 Z-4.316 A291.5350 
N2077 X-298.138 Y42.259 Z-3.964 A293.7631 
N2078 X-298.138 Y42.890 Z-3.598 A295.9390 
N2079 X-298.138 Y43.496 Z-3.216 A298.0763 
N2080 X-298.138 Y44.081 Z-2.818 A300.1854 
N2081 X-298.138 Y44.645 Z-2.404 A302.2734 
N2082 X-298.138 Y45.190 Z-1.973 A304.3471 
N2083 X-298.138 Y45.718 Z-1.524 A306.4146 
N2084 X-298.138 Y46.232 Z-1.055 A308.4893 
N2085 X-298.138 Y46.735 Z-0.562 A310.5913 
N2086 X-298.138 Y47.233 Z-0.036 A312.7526 
N2087 X-298.138 Y47.736 Z0.534 A315.0212 
N2088 X-298.138 Y48.253 Z1.169 A317.4671 
N2089 X-298.138 Y48.795 Z1.894 A320.1691 
N2090 X-298.138 Y49.358 Z2.731 A323.1829 
N2091 X-298.138 Y49.928 Z3.690 A326.5137 
N2092 X-298.138 Y50.481 Z4.780 A330.1605 
N2093 X-298.138 Y50.995 Z6.012 A334.1425 
N2094 X-298.138 Y51.435 Z7.380 A338.4233 
N2095 X-298.138 Y51.758 Z8.858 A342.9207 
N2096 X-298.138 Y51.917 Z10.370 A347.4169 
N2097 X-298.138 Y51.881 Z11.788 A351.5649 
N2098 X-298.138 Y51.647 Z12.996 A355.0639 
N2099 X-298.138 Y51.236 Z13.932 A357.7669 
N2100 X-298.138 Y50.664 Z14.534 A359.5040 
N2101 X-298.138 Y49.941 Z14.806 A0.2813 
N2102 X-298.138 Y49.059 Z14.899 A0.5349 
N2103 X-298.138 Y48.000 Z14.944 A0.6485 
N2104 X-298.138 Y46.747 Z14.968 A0.6994 
N2105 X-298.138 Y45.290 Z14.979 A0.7089 
N2106 X-298.138 Y43.622 Z14.988 A0.7091 
N2107 X-298.138 Y41.746 Z14.997 
N2108 X-298.138 Y39.671 Z15.008 
N2109 X-298.138 Y37.416 Z15.019 
N2110 X-298.138 Y35.009 Z15.031 
N2111 X-298.138 Y32.483 Z15.044 
N2112 X-298.138 Y29.879 Z15.057 
N2113 X-298.138 Y27.239 Z15.071 
N2114 X-298.138 Y24.608 Z15.084 
N2115 X-298.138 Y22.029 Z15.097 
N2116 X-298.138 Y19.539 Z15.110 
N2117 X-298.138 Y17.171 Z15.122 
N2118 X-298.138 Y14.948 Z15.133 
N2119 X-298.138 Y12.886 Z15.144 A0.7114 
N2120 X-298.138 Y10.991 Z15.187 A0.8151 
N2121 X-298.138 Y9.257 Z15.384 A1.4098 
N2122 X-298.138 Y7.661 Z15.925 A3.1250 
N2123 X-298.138 Y6.130 Z16.997 A6.6315 
N2124 X-298.138 Y4.548 Z18.539 A11.8791 B-0.0000 
N2125 X-298.138 Y2.856 Z20.174 A17.8585 B-0.0012 
N2126 X-298.138 Y1.110 Z21.570 A23.5724 B-0.0069 
N2127 X-298.138 Y-0.579 Z22.555 A28.3943 B-0.0186 
N2128 X-298.138 Y-2.087 Z23.054 A31.9118 B-0.0316 
N2129 X-298.138 Y-3.355 Z23.105 A34.0602 B-0.0423 
N2130 X-298.138 Y-4.405 Z22.811 A35.0721 B-0.0520 
N2131 X-298.138 Y-5.324 Z22.315 A35.3945 B-0.0626 
N2132 X-298.138 Y-6.203 Z21.743 A35.4728 B-0.0742 
N2133 X-298.138 Y-7.089 Z21.156 A35.5260 B-0.0860 
N2134 X-298.138 Y-8.010 Z20.593 A35.7052 B-0.0971 
N2135 X-298.138 Y-9.007 Z20.111 A36.2311 B-0.1057 
N2136 X-298.138 Y-10.116 Z19.755 A37.3068 B-0.1092 
N2137 X-298.138 Y-11.359 Z19.538 A39.0384 B-0.1048 
