; PROGRAM NAME: B00000037
; ORDER       : B000000
; OPER. NAME  : Side Milling:115
; OPER. DESCR.: Side Milling/BF zgr
; OPER. TYPE  : sideMill
; GEO. OPTION : 1
; MACHINE     : HSTM_500_SIM840D_Py
;             : HSTM500 - HAMUEL: 5-axis milling machine - SIM840D Traori PP_Script
; CONTROL     : SINUMERIK 840D
; created:   2021-11-15 09:58:55.978692
;-------DODATKOWE DANE-------------------
; PROGRAMISTA : Mariusz Malec
; PARTID      : 139T001534P1001_-
;  ap         : 2.5
;  ae         : 30.0
;  lean_angle : 0.0
;  fin_offset : 0.5
;----------------------------------------
;RAPORT("TB000000","Side Milling:115")
N10 TRAFOOF
N11 D0
N12 G90 G94
N13 G0 G53 D0 Z550 B0
N14 STOPRE
M9 ; chlodziwo wyl
; --- Side Milling:115 - Side Milling/BF zgr ---
N16 ;ToolChange : concat=None ,current_tdmid=None, PP.tdmId=941290
N17 TRAFOOF
N18 G0 G53 D0 X-200 Y150 Z550 B0
N19 T="7741290"
;RAPORT("TB000000","ToolChangeStart 7741290")
N20 M6
;RAPORT("TB000000","ToolChangeEnd")
N21 STOPRE
N22 MSG(" TLID=941290 D=50.0 R=6.0 Ang=0.0 Len=90.0 ")
N23 ; (Preloading tool)
N24 T="7740676"
N25 S1718 M03
N26 STOPRE
N27 CYCLE832(0.01,1,1)
N28 G0 G53 A49.0000 B0.0000
N29 TRAORI
N30 G54 D5
N31 D5 
N32 ; DELTA A > 40.1
N33 TRAFOOF
N34 D5
N35 STOPRE
N36 G00 G54 Z296.000
N37 G01 A49.0000 F10000
N38 TRAORI
N39 G54 D5
N40 STOPRE
N41 TRANS 
N42 G00 X-202.541 Y-102.029 Z-5.613 A49.0000 
N43 M348 ; chlodziwo mgla
N44 X-202.541 Y-64.293 Z-38.416 
N45 G01 X-202.967 Y-57.739 Z-30.876 F2834 
N46 X-202.989 Y-57.411 Z-30.499 F1417 
N47 X-203.010 Y-57.083 Z-30.122 
N48 X-203.031 Y-56.767 Z-29.758 F1457 
N49 X-203.052 Y-56.441 Z-29.383 F1497 
N50 X-203.073 Y-56.107 Z-28.999 F1538 
N51 X-203.096 Y-55.764 Z-28.604 F1578 
N52 X-203.119 Y-55.411 Z-28.199 F1619 
N53 X-203.142 Y-55.050 Z-27.783 F1659 
N54 X-203.166 Y-54.680 Z-27.357 F1700 
N55 X-203.191 Y-54.301 Z-26.921 F1740 
N56 X-203.216 Y-53.913 Z-26.475 F1781 
N57 X-203.242 Y-53.516 Z-26.019 F1821 
N58 X-203.268 Y-53.110 Z-25.552 F1862 
N59 X-203.295 Y-52.696 Z-25.075 F1902 
N60 X-203.323 Y-52.272 Z-24.587 F1943 
N61 X-203.351 Y-51.840 Z-24.090 F1983 
N62 X-203.380 Y-51.398 Z-23.582 F2024 
N63 X-203.409 Y-50.948 Z-23.064 F2064 
N64 X-203.439 Y-50.489 Z-22.536 F2105 
N65 X-203.469 Y-50.020 Z-21.997 F2145 
N66 X-203.500 Y-49.543 Z-21.448 F2186 
N67 X-203.532 Y-49.057 Z-20.889 F2226 
N68 X-203.564 Y-48.562 Z-20.320 F2267 
N69 X-203.597 Y-48.058 Z-19.740 F2307 
N70 X-203.630 Y-47.546 Z-19.150 F2348 
N71 X-203.664 Y-47.024 Z-18.550 F2388 
N72 X-203.699 Y-46.493 Z-17.940 F2429 
N73 X-203.734 Y-45.954 Z-17.319 F2469 
N74 X-203.769 Y-45.405 Z-16.688 F2510 
N75 X-203.806 Y-44.848 Z-16.047 F2550 
N76 X-203.842 Y-44.282 Z-15.396 F2591 
N77 X-203.880 Y-43.707 Z-14.734 F2631 
N78 X-203.918 Y-43.122 Z-14.062 F2672 
N79 X-203.956 Y-42.529 Z-13.380 F2712 
N80 X-203.995 Y-41.927 Z-12.687 F2753 
N81 X-204.035 Y-41.317 Z-11.985 F2793 
N82 X-204.075 Y-40.697 Z-11.272 F2834 
N83 X-204.116 Y-40.073 Z-10.553 
N84 X-204.157 Y-39.448 Z-9.835 
N85 X-204.197 Y-38.824 Z-9.117 
N86 X-204.238 Y-38.200 Z-8.399 
N87 X-204.278 Y-37.575 Z-7.681 
N88 X-204.319 Y-36.951 Z-6.963 
N89 X-204.356 Y-36.327 Z-6.244 
N90 X-204.389 Y-35.702 Z-5.526 
N91 X-204.422 Y-35.078 Z-4.807 
N92 X-204.455 Y-34.453 Z-4.089 
N93 X-204.487 Y-33.829 Z-3.371 
N94 X-204.520 Y-33.204 Z-2.652 
N95 X-204.553 Y-32.580 Z-1.934 
N96 X-204.586 Y-31.955 Z-1.215 
N97 X-204.611 Y-31.331 Z-0.497 
N98 X-204.634 Y-30.706 Z0.222 
N99 X-204.658 Y-30.081 Z0.940 
N100 X-204.681 Y-29.457 Z1.659 
N101 X-204.705 Y-28.832 Z2.378 
N102 X-204.728 Y-28.207 Z3.096 
N103 X-204.752 Y-27.583 Z3.815 
N104 X-204.775 Y-26.958 Z4.533 
N105 X-204.799 Y-26.333 Z5.252 
N106 X-204.813 Y-25.708 Z5.971 
N107 X-204.826 Y-25.084 Z6.689 
N108 X-204.838 Y-24.459 Z7.408 
N109 X-204.851 Y-23.834 Z8.127 
N110 X-204.863 Y-23.209 Z8.846 
N111 X-204.876 Y-22.584 Z9.564 
N112 X-204.888 Y-21.960 Z10.283 
N113 X-204.901 Y-21.335 Z11.002 
N114 X-204.913 Y-20.710 Z11.721 
N115 X-204.926 Y-20.085 Z12.439 
N116 X-204.938 Y-19.460 Z13.158 
N117 X-204.951 Y-18.830 Z13.884 
N118 X-204.964 Y-18.199 Z14.609 
N119 X-204.976 Y-17.568 Z15.335 
N120 X-204.989 Y-16.937 Z16.061 
N121 X-205.002 Y-16.306 Z16.786 
N122 X-205.014 Y-15.676 Z17.512 
N123 X-205.027 Y-15.045 Z18.238 
N124 X-205.039 Y-14.414 Z18.963 
N125 X-205.052 Y-13.783 Z19.689 
N126 X-205.065 Y-13.153 Z20.414 
N127 X-205.077 Y-12.522 Z21.140 
N128 X-205.090 Y-11.891 Z21.866 
N129 X-205.103 Y-11.260 Z22.591 
N130 X-205.115 Y-10.630 Z23.317 
N131 X-205.128 Y-9.999 Z24.043 
N132 X-205.141 Y-9.368 Z24.768 
N133 X-205.153 Y-8.737 Z25.494 
N134 X-205.166 Y-8.106 Z26.219 
N135 X-205.178 Y-7.476 Z26.945 
N136 X-205.191 Y-6.845 Z27.671 
N137 X-205.204 Y-6.214 Z28.396 
N138 X-205.216 Y-5.583 Z29.122 
N139 X-205.229 Y-4.953 Z29.847 
N140 X-205.242 Y-4.322 Z30.573 
N141 X-205.254 Y-3.691 Z31.299 
N142 X-205.267 Y-3.060 Z32.024 
N143 X-205.279 Y-2.584 Z32.815 F2946 
N144 X-205.291 Y-2.195 Z33.734 F3282 
N145 X-205.305 Y-1.830 Z34.816 F3844 
N146 X-205.319 Y-1.489 Z36.132 F4629 
N147 X-205.332 Y-1.232 Z37.760 F5639 
N148 X-205.322 Y-1.285 Z39.764 F6874 
N149 X-205.159 Y-2.603 Z41.697 F8333 
N150 X-204.680 Y-5.429 Z41.610 F9792 
N151 X-204.041 Y-8.422 Z40.235 F11027 
N152 X-203.282 Y-11.474 Z38.244 F12037 
N153 X-202.419 Y-14.576 Z35.849 F12822 
N154 X-201.471 Y-17.706 Z33.167 F13383 
N155 X-200.456 Y-20.836 Z30.284 F13720 
N156 X-199.395 Y-23.932 Z27.274 F13832 
N157 X-198.276 Y-27.057 Z24.106 
N158 X-197.137 Y-30.125 Z20.889 
N159 X-195.983 Y-33.145 Z17.632 
N160 X-194.819 Y-36.123 Z14.342 
N161 X-193.649 Y-39.065 Z11.020 
N162 X-192.475 Y-41.971 Z7.669 
N163 X-191.303 Y-44.842 Z4.287 
N164 X-190.135 Y-47.676 Z0.872 
N165 X-188.976 Y-50.469 Z-2.579 
N166 X-187.831 Y-53.214 Z-6.073 
N167 X-186.702 Y-55.898 Z-9.619 
N168 X-185.565 Y-58.581 Z-13.337 F13706 
N169 X-184.478 Y-61.103 Z-17.073 F13326 
N170 X-183.468 Y-63.375 Z-20.779 F12692 
N171 X-182.559 Y-65.281 Z-24.410 F11805 
N172 X-181.774 Y-66.631 Z-27.929 F10665 
N173 X-181.155 Y-66.868 Z-31.249 F9271 
N174 X-180.926 Y-64.754 Z-32.924 F7624 
N175 X-180.964 Y-62.453 Z-32.708 F5977 
N176 X-181.023 Y-60.737 Z-32.168 F4584 
N177 X-181.075 Y-59.482 Z-31.632 F3444 
N178 X-181.115 Y-58.574 Z-31.166 F2557 
N179 X-181.146 Y-57.922 Z-30.779 F1923 
N180 X-181.170 Y-57.445 Z-30.446 F1543 
N181 X-181.191 Y-57.075 Z-30.113 F1417 
N182 X-181.212 Y-56.748 Z-29.736 
N183 X-181.233 Y-56.420 Z-29.359 
N184 X-181.254 Y-56.103 Z-28.995 F1457 
N185 X-181.275 Y-55.778 Z-28.620 F1497 
N186 X-181.297 Y-55.443 Z-28.235 F1538 
N187 X-181.319 Y-55.100 Z-27.840 F1578 
N188 X-181.342 Y-54.748 Z-27.435 F1619 
N189 X-181.366 Y-54.387 Z-27.020 F1659 
N190 X-181.390 Y-54.016 Z-26.594 F1700 
N191 X-181.414 Y-53.637 Z-26.158 F1740 
N192 X-181.440 Y-53.249 Z-25.712 F1781 
N193 X-181.465 Y-52.853 Z-25.255 F1821 
N194 X-181.492 Y-52.447 Z-24.788 F1862 
N195 X-181.519 Y-52.032 Z-24.311 F1902 
N196 X-181.546 Y-51.609 Z-23.824 F1943 
N197 X-181.574 Y-51.176 Z-23.327 F1983 
N198 X-181.603 Y-50.735 Z-22.819 F2024 
N199 X-181.632 Y-50.284 Z-22.301 F2064 
N200 X-181.662 Y-49.825 Z-21.772 F2105 
N201 X-181.693 Y-49.357 Z-21.234 F2145 
N202 X-181.724 Y-48.880 Z-20.685 F2186 
N203 X-181.755 Y-48.394 Z-20.126 F2226 
N204 X-181.788 Y-47.899 Z-19.556 F2267 
N205 X-181.820 Y-47.395 Z-18.977 F2307 
N206 X-181.854 Y-46.882 Z-18.387 F2348 
N207 X-181.888 Y-46.360 Z-17.787 F2388 
N208 X-181.922 Y-45.830 Z-17.176 F2429 
N209 X-181.957 Y-45.290 Z-16.556 F2469 
N210 X-181.993 Y-44.742 Z-15.925 F2510 
N211 X-182.029 Y-44.184 Z-15.284 F2550 
N212 X-182.066 Y-43.618 Z-14.632 F2591 
N213 X-182.103 Y-43.043 Z-13.970 F2631 
N214 X-182.141 Y-42.459 Z-13.299 F2672 
N215 X-182.180 Y-41.866 Z-12.616 F2712 
N216 X-182.219 Y-41.264 Z-11.924 F2753 
N217 X-182.259 Y-40.653 Z-11.221 F2793 
N218 X-182.299 Y-40.033 Z-10.508 F2834 
N219 X-182.340 Y-39.407 Z-9.788 
N220 X-182.380 Y-38.781 Z-9.068 
N221 X-182.421 Y-38.155 Z-8.347 
N222 X-182.462 Y-37.529 Z-7.627 
N223 X-182.503 Y-36.903 Z-6.907 
N224 X-182.543 Y-36.277 Z-6.187 
N225 X-182.579 Y-35.650 Z-5.466 
N226 X-182.612 Y-35.024 Z-4.746 
N227 X-182.645 Y-34.398 Z-4.025 
N228 X-182.678 Y-33.772 Z-3.305 
N229 X-182.710 Y-33.145 Z-2.584 
N230 X-182.743 Y-32.519 Z-1.864 
N231 X-182.776 Y-31.893 Z-1.143 
N232 X-182.807 Y-31.266 Z-0.423 
N233 X-182.830 Y-30.640 Z0.298 
N234 X-182.854 Y-30.013 Z1.018 
N235 X-182.877 Y-29.387 Z1.739 
N236 X-182.901 Y-28.760 Z2.460 
N237 X-182.925 Y-28.134 Z3.180 
N238 X-182.948 Y-27.507 Z3.901 
N239 X-182.972 Y-26.881 Z4.622 
N240 X-182.995 Y-26.255 Z5.342 
N241 X-183.013 Y-25.628 Z6.063 
N242 X-183.026 Y-25.001 Z6.784 
N243 X-183.038 Y-24.375 Z7.505 
N244 X-183.051 Y-23.748 Z8.226 
N245 X-183.064 Y-23.122 Z8.947 
N246 X-183.076 Y-22.495 Z9.667 
N247 X-183.089 Y-21.868 Z10.388 
N248 X-183.101 Y-21.242 Z11.109 
N249 X-183.114 Y-20.615 Z11.830 
N250 X-183.126 Y-19.988 Z12.551 
N251 X-183.139 Y-19.362 Z13.272 
N252 X-183.152 Y-18.731 Z13.997 
N253 X-183.164 Y-18.100 Z14.723 
N254 X-183.177 Y-17.470 Z15.448 
N255 X-183.189 Y-16.839 Z16.174 
N256 X-183.202 Y-16.208 Z16.900 
N257 X-183.215 Y-15.577 Z17.625 
N258 X-183.227 Y-14.946 Z18.351 
N259 X-183.240 Y-14.316 Z19.076 
N260 X-183.253 Y-13.685 Z19.802 
N261 X-183.265 Y-13.054 Z20.528 
N262 X-183.278 Y-12.423 Z21.253 
N263 X-183.291 Y-11.793 Z21.979 
N264 X-183.303 Y-11.162 Z22.705 
N265 X-183.316 Y-10.531 Z23.430 
N266 X-183.328 Y-9.900 Z24.156 
N267 X-183.341 Y-9.270 Z24.881 
N268 X-183.354 Y-8.639 Z25.607 
N269 X-183.366 Y-8.008 Z26.333 
N270 X-183.379 Y-7.377 Z27.058 
N271 X-183.392 Y-6.746 Z27.784 
N272 X-183.404 Y-6.116 Z28.510 
N273 X-183.417 Y-5.485 Z29.235 
N274 X-183.430 Y-4.854 Z29.961 
N275 X-183.442 Y-4.223 Z30.686 
N276 X-183.455 Y-3.593 Z31.412 
N277 X-183.467 Y-2.962 Z32.138 
N278 X-183.479 Y-2.486 Z32.929 F2946 
N279 X-183.492 Y-2.096 Z33.849 F3283 
N280 X-183.506 Y-1.730 Z34.932 F3845 
N281 X-183.523 Y-1.390 Z36.250 F4632 
N282 X-183.547 Y-1.132 Z37.880 F5644 
N283 X-183.593 Y-1.187 Z39.887 F6880 
N284 X-183.757 Y-2.528 Z41.803 F8341 
N285 X-184.143 Y-5.371 Z41.640 F9803 
N286 X-184.644 Y-8.359 Z40.185 F11039 
N287 X-185.240 Y-11.399 Z38.108 F12051 
N288 X-185.919 Y-14.485 Z35.622 F12838 
N289 X-186.668 Y-17.595 Z32.842 F13400 
N290 X-187.472 Y-20.702 Z29.857 F13737 
N291 X-188.314 Y-23.776 Z26.743 F13849 
N292 X-189.204 Y-26.875 Z23.468 
N293 X-190.109 Y-29.917 Z20.145 
N294 X-191.026 Y-32.911 Z16.782 
N295 X-191.950 Y-35.866 Z13.385 
N296 X-192.879 Y-38.784 Z9.959 
N297 X-193.807 Y-41.669 Z6.505 
N298 X-194.731 Y-44.522 Z3.023 
N299 X-195.647 Y-47.341 Z-0.489 
N300 X-196.551 Y-50.123 Z-4.033 
N301 X-197.438 Y-52.860 Z-7.616 
N302 X-198.305 Y-55.543 Z-11.245 
N303 X-199.169 Y-58.230 Z-15.044 F13722 
N304 X-199.983 Y-60.762 Z-18.852 F13342 
N305 X-200.727 Y-63.048 Z-22.622 F12708 
N306 X-201.384 Y-64.964 Z-26.311 F11819 
N307 X-201.942 Y-66.293 Z-29.888 F10678 
N308 X-202.388 Y-66.348 Z-33.234 F9282 
N309 X-202.628 Y-64.043 Z-34.721 F7633 
N310 X-202.730 Y-61.734 Z-34.549 F5984 
N311 X-202.800 Y-59.994 Z-34.081 F4588 
N312 X-202.852 Y-58.714 Z-33.600 F3446 
N313 X-202.892 Y-57.786 Z-33.174 F2558 
N314 X-202.922 Y-57.119 Z-32.812 F1924 
N315 X-202.946 Y-56.630 Z-32.494 F1543 
N316 X-202.967 Y-56.255 Z-32.166 F1417 
N317 X-202.989 Y-55.927 Z-31.789 
N318 X-203.010 Y-55.599 Z-31.412 
N319 X-203.031 Y-55.283 Z-31.048 F1457 
N320 X-203.052 Y-54.957 Z-30.674 F1497 
N321 X-203.073 Y-54.623 Z-30.289 F1538 
N322 X-203.096 Y-54.279 Z-29.894 F1578 
N323 X-203.119 Y-53.927 Z-29.489 F1619 
N324 X-203.142 Y-53.566 Z-29.073 F1659 
N325 X-203.166 Y-53.196 Z-28.648 F1700 
N326 X-203.191 Y-52.817 Z-28.212 F1740 
N327 X-203.216 Y-52.429 Z-27.765 F1781 
N328 X-203.242 Y-52.032 Z-27.309 F1821 
N329 X-203.268 Y-51.626 Z-26.842 F1862 
N330 X-203.295 Y-51.212 Z-26.365 F1902 
N331 X-203.323 Y-50.788 Z-25.878 F1943 
N332 X-203.351 Y-50.355 Z-25.380 F1983 
N333 X-203.380 Y-49.914 Z-24.872 F2024 
N334 X-203.409 Y-49.464 Z-24.354 F2064 
N335 X-203.439 Y-49.004 Z-23.826 F2105 
N336 X-203.469 Y-48.536 Z-23.287 F2145 
N337 X-203.500 Y-48.059 Z-22.739 F2186 
N338 X-203.532 Y-47.573 Z-22.179 F2226 
N339 X-203.564 Y-47.078 Z-21.610 F2267 
N340 X-203.597 Y-46.574 Z-21.030 F2307 
N341 X-203.630 Y-46.061 Z-20.441 F2348 
N342 X-203.664 Y-45.540 Z-19.840 F2388 
N343 X-203.699 Y-45.009 Z-19.230 F2429 
N344 X-203.734 Y-44.470 Z-18.609 F2469 
N345 X-203.769 Y-43.921 Z-17.978 F2510 
N346 X-203.806 Y-43.364 Z-17.337 F2550 
N347 X-203.842 Y-42.798 Z-16.686 F2591 
N348 X-203.880 Y-42.222 Z-16.024 F2631 
N349 X-203.918 Y-41.638 Z-15.352 F2672 
N350 X-203.956 Y-41.045 Z-14.670 F2712 
N351 X-203.995 Y-40.443 Z-13.977 F2753 
N352 X-204.035 Y-39.832 Z-13.275 F2793 
N353 X-204.075 Y-39.213 Z-12.562 F2834 
N354 X-204.116 Y-38.588 Z-11.844 
N355 X-204.157 Y-37.964 Z-11.125 
N356 X-204.197 Y-37.340 Z-10.407 
N357 X-204.238 Y-36.715 Z-9.689 
N358 X-204.278 Y-36.091 Z-8.971 
N359 X-204.319 Y-35.467 Z-8.253 
N360 X-204.356 Y-34.842 Z-7.534 
N361 X-204.389 Y-34.218 Z-6.816 
N362 X-204.422 Y-33.593 Z-6.098 
N363 X-204.455 Y-32.969 Z-5.379 
N364 X-204.487 Y-32.344 Z-4.661 
N365 X-204.520 Y-31.720 Z-3.943 
N366 X-204.553 Y-31.095 Z-3.224 
N367 X-204.586 Y-30.471 Z-2.506 
N368 X-204.611 Y-29.846 Z-1.787 
N369 X-204.634 Y-29.222 Z-1.069 
N370 X-204.658 Y-28.597 Z-0.350 
N371 X-204.681 Y-27.972 Z0.369 
N372 X-204.705 Y-27.348 Z1.087 
N373 X-204.728 Y-26.723 Z1.806 
N374 X-204.752 Y-26.098 Z2.524 
N375 X-204.775 Y-25.474 Z3.243 
N376 X-204.799 Y-24.849 Z3.962 
N377 X-204.813 Y-24.224 Z4.680 
N378 X-204.826 Y-23.599 Z5.399 
N379 X-204.838 Y-22.975 Z6.118 
N380 X-204.851 Y-22.350 Z6.837 
N381 X-204.863 Y-21.725 Z7.555 
N382 X-204.876 Y-21.100 Z8.274 
N383 X-204.888 Y-20.475 Z8.993 
N384 X-204.901 Y-19.851 Z9.712 
N385 X-204.913 Y-19.226 Z10.430 
N386 X-204.926 Y-18.601 Z11.149 
N387 X-204.938 Y-17.976 Z11.868 
N388 X-204.951 Y-17.345 Z12.594 
N389 X-204.964 Y-16.715 Z13.319 
N390 X-204.976 Y-16.084 Z14.045 
N391 X-204.989 Y-15.453 Z14.770 
N392 X-205.002 Y-14.822 Z15.496 
N393 X-205.014 Y-14.191 Z16.222 
N394 X-205.027 Y-13.561 Z16.947 
N395 X-205.039 Y-12.930 Z17.673 
N396 X-205.052 Y-12.299 Z18.399 
N397 X-205.065 Y-11.668 Z19.124 
N398 X-205.077 Y-11.038 Z19.850 
N399 X-205.090 Y-10.407 Z20.575 
N400 X-205.103 Y-9.776 Z21.301 
N401 X-205.115 Y-9.145 Z22.027 
N402 X-205.128 Y-8.515 Z22.752 
N403 X-205.141 Y-7.884 Z23.478 
N404 X-205.153 Y-7.253 Z24.204 
N405 X-205.166 Y-6.622 Z24.929 
N406 X-205.178 Y-5.991 Z25.655 
N407 X-205.191 Y-5.361 Z26.380 
N408 X-205.204 Y-4.730 Z27.106 
N409 X-205.216 Y-4.099 Z27.832 
N410 X-205.229 Y-3.468 Z28.557 
N411 X-205.242 Y-2.838 Z29.283 
N412 X-205.254 Y-2.207 Z30.008 
N413 X-205.267 Y-1.576 Z30.734 
N414 X-205.279 Y-1.116 Z31.542 F2947 
N415 X-205.291 Y-0.761 Z32.484 F3289 
N416 X-205.305 Y-0.445 Z33.595 F3859 
N417 X-205.319 Y-0.171 Z34.944 F4657 
N418 X-205.331 Y-0.003 Z36.608 F5683 
N419 X-205.325 Y-0.156 Z38.641 F6937 
N420 X-205.205 Y-1.382 Z40.736 F8418 
N421 X-204.784 Y-4.220 Z41.188 F9900 
N422 X-204.161 Y-7.393 Z40.090 F11154 
N423 X-203.404 Y-10.616 Z38.237 F12179 
N424 X-202.536 Y-13.869 Z35.913 F12977 
N425 X-201.576 Y-17.134 Z33.261 F13547 
N426 X-200.546 Y-20.382 Z30.380 F13889 
N427 X-199.467 Y-23.583 Z27.352 F14003 
N428 X-198.336 Y-26.779 Z24.177 
N429 X-197.184 Y-29.909 Z20.944 
N430 X-196.017 Y-32.982 Z17.663 
N431 X-194.839 Y-36.008 Z14.341 
N432 X-193.654 Y-38.990 Z10.983 
N433 X-192.466 Y-41.931 Z7.590 
N434 X-191.279 Y-44.832 Z4.161 
N435 X-190.098 Y-47.688 Z0.694 
N436 X-188.925 Y-50.496 Z-2.815 
N437 X-187.767 Y-53.246 Z-6.374 
N438 X-186.627 Y-55.925 Z-9.994 
N439 X-185.471 Y-58.602 Z-13.824 F13874 
N440 X-184.369 Y-61.093 Z-17.686 F13489 
N441 X-183.349 Y-63.296 Z-21.531 F12847 
N442 X-182.436 Y-65.073 Z-25.317 F11948 
N443 X-181.661 Y-66.178 Z-28.998 F10792 
N444 X-181.091 Y-65.903 Z-32.368 F9379 
N445 X-180.925 Y-63.510 Z-33.876 F7710 
N446 X-180.965 Y-61.158 Z-33.770 F6040 
N447 X-181.024 Y-59.384 Z-33.322 F4627 
N448 X-181.075 Y-58.081 Z-32.845 F3471 
N449 X-181.115 Y-57.139 Z-32.418 F2572 
N450 X-181.145 Y-56.464 Z-32.053 F1930 
N451 X-181.170 Y-55.969 Z-31.732 F1545 
N452 X-181.191 Y-55.591 Z-31.403 F1417 
N453 X-181.212 Y-55.263 Z-31.026 
N454 X-181.233 Y-54.936 Z-30.649 
N455 X-181.254 Y-54.619 Z-30.285 F1457 
N456 X-181.275 Y-54.293 Z-29.910 F1497 
N457 X-181.297 Y-53.959 Z-29.526 F1538 
N458 X-181.319 Y-53.616 Z-29.131 F1578 
N459 X-181.342 Y-53.263 Z-28.725 F1619 
N460 X-181.366 Y-52.902 Z-28.310 F1659 
N461 X-181.390 Y-52.532 Z-27.884 F1700 
N462 X-181.414 Y-52.153 Z-27.448 F1740 
N463 X-181.440 Y-51.765 Z-27.002 F1781 
N464 X-181.465 Y-51.368 Z-26.545 F1821 
N465 X-181.492 Y-50.963 Z-26.079 F1862 
N466 X-181.519 Y-50.548 Z-25.602 F1902 
N467 X-181.546 Y-50.124 Z-25.114 F1943 
N468 X-181.574 Y-49.692 Z-24.617 F1983 
N469 X-181.603 Y-49.250 Z-24.109 F2024 
N470 X-181.632 Y-48.800 Z-23.591 F2064 
N471 X-181.662 Y-48.341 Z-23.063 F2105 
N472 X-181.693 Y-47.873 Z-22.524 F2145 
N473 X-181.724 Y-47.395 Z-21.975 F2186 
N474 X-181.755 Y-46.909 Z-21.416 F2226 
N475 X-181.788 Y-46.415 Z-20.847 F2267 
N476 X-181.820 Y-45.911 Z-20.267 F2307 
N477 X-181.854 Y-45.398 Z-19.677 F2348 
N478 X-181.888 Y-44.876 Z-19.077 F2388 
N479 X-181.922 Y-44.346 Z-18.467 F2429 
N480 X-181.957 Y-43.806 Z-17.846 F2469 
N481 X-181.993 Y-43.258 Z-17.215 F2510 
N482 X-182.029 Y-42.700 Z-16.574 F2550 
N483 X-182.066 Y-42.134 Z-15.922 F2591 
N484 X-182.103 Y-41.559 Z-15.261 F2631 
N485 X-182.141 Y-40.975 Z-14.589 F2672 
N486 X-182.180 Y-40.382 Z-13.907 F2712 
N487 X-182.219 Y-39.780 Z-13.214 F2753 
N488 X-182.259 Y-39.169 Z-12.511 F2793 
N489 X-182.299 Y-38.549 Z-11.798 F2834 
N490 X-182.340 Y-37.923 Z-11.078 
N491 X-182.380 Y-37.297 Z-10.358 
N492 X-182.421 Y-36.671 Z-9.638 
N493 X-182.462 Y-36.045 Z-8.917 
N494 X-182.503 Y-35.418 Z-8.197 
N495 X-182.543 Y-34.792 Z-7.477 
N496 X-182.579 Y-34.166 Z-6.757 
N497 X-182.612 Y-33.540 Z-6.036 
N498 X-182.645 Y-32.914 Z-5.316 
N499 X-182.678 Y-32.287 Z-4.595 
N500 X-182.710 Y-31.661 Z-3.875 
N501 X-182.743 Y-31.035 Z-3.154 
N502 X-182.776 Y-30.408 Z-2.434 
N503 X-182.807 Y-29.782 Z-1.713 
N504 X-182.830 Y-29.156 Z-0.993 
N505 X-182.854 Y-28.529 Z-0.272 
N506 X-182.877 Y-27.903 Z0.449 
N507 X-182.901 Y-27.276 Z1.169 
N508 X-182.925 Y-26.650 Z1.890 
N509 X-182.948 Y-26.023 Z2.611 
N510 X-182.972 Y-25.397 Z3.332 
N511 X-182.995 Y-24.770 Z4.052 
N512 X-183.013 Y-24.144 Z4.773 
N513 X-183.026 Y-23.517 Z5.494 
N514 X-183.038 Y-22.890 Z6.215 
N515 X-183.051 Y-22.264 Z6.935 
N516 X-183.064 Y-21.637 Z7.656 
N517 X-183.076 Y-21.011 Z8.377 
N518 X-183.089 Y-20.384 Z9.098 
N519 X-183.101 Y-19.757 Z9.819 
N520 X-183.114 Y-19.131 Z10.540 
N521 X-183.126 Y-18.504 Z11.260 
N522 X-183.139 Y-17.878 Z11.981 
N523 X-183.152 Y-17.247 Z12.707 
N524 X-183.164 Y-16.616 Z13.433 
N525 X-183.177 Y-15.985 Z14.158 
N526 X-183.189 Y-15.355 Z14.884 
N527 X-183.202 Y-14.724 Z15.609 
N528 X-183.215 Y-14.093 Z16.335 
N529 X-183.227 Y-13.462 Z17.061 
N530 X-183.240 Y-12.831 Z17.786 
N531 X-183.253 Y-12.201 Z18.512 
N532 X-183.265 Y-11.570 Z19.237 
N533 X-183.278 Y-10.939 Z19.963 
N534 X-183.291 Y-10.308 Z20.689 
N535 X-183.303 Y-9.678 Z21.414 
N536 X-183.316 Y-9.047 Z22.140 
N537 X-183.328 Y-8.416 Z22.866 
N538 X-183.341 Y-7.785 Z23.591 
N539 X-183.354 Y-7.154 Z24.317 
N540 X-183.366 Y-6.524 Z25.042 
N541 X-183.379 Y-5.893 Z25.768 
N542 X-183.392 Y-5.262 Z26.494 
N543 X-183.404 Y-4.631 Z27.219 
N544 X-183.417 Y-4.001 Z27.945 
N545 X-183.430 Y-3.370 Z28.671 
N546 X-183.442 Y-2.739 Z29.396 
N547 X-183.455 Y-2.108 Z30.122 
N548 X-183.467 Y-1.478 Z30.847 
N549 X-183.479 Y-1.017 Z31.656 F2948 
N550 X-183.492 Y-0.662 Z32.599 F3290 
N551 X-183.506 Y-0.346 Z33.711 F3861 
N552 X-183.523 Y-0.072 Z35.062 F4660 
N553 X-183.546 Y0.096 Z36.728 F5687 
N554 X-183.588 Y-0.059 Z38.763 F6943 
N555 X-183.717 Y-1.302 Z40.851 F8427 
N556 X-184.061 Y-4.163 Z41.237 F9910 
N557 X-184.551 Y-7.337 Z40.055 F11166 
N558 X-185.145 Y-10.550 Z38.114 F12193 
N559 X-185.828 Y-13.789 Z35.695 F12992 
N560 X-186.586 Y-17.033 Z32.942 F13563 
N561 X-187.403 Y-20.259 Z29.956 F13905 
N562 X-188.260 Y-23.438 Z26.821 F14020 
N563 X-189.158 Y-26.608 Z23.537 
N564 X-190.074 Y-29.712 Z20.194 
N565 X-191.002 Y-32.760 Z16.804 
N566 X-191.938 Y-35.762 Z13.374 
N567 X-192.878 Y-38.721 Z9.909 
N568 X-193.818 Y-41.642 Z6.411 
N569 X-194.753 Y-44.523 Z2.879 
N570 X-195.680 Y-47.365 Z-0.686 
N571 X-196.595 Y-50.161 Z-4.291 
N572 X-197.492 Y-52.904 Z-7.941 
N573 X-198.367 Y-55.580 Z-11.645 
N574 X-199.244 Y-58.260 Z-15.557 F13891 
N575 X-200.068 Y-60.760 Z-19.493 F13505 
N576 X-200.817 Y-62.973 Z-23.404 F12862 
N577 X-201.474 Y-64.752 Z-27.250 F11962 
N578 X-202.023 Y-65.814 Z-30.991 F10805 
N579 X-202.436 Y-65.310 Z-34.343 F9390 
N580 X-202.637 Y-62.783 Z-35.686 F7718 
N581 X-202.733 Y-60.425 Z-35.618 F6046 
N582 X-202.801 Y-58.633 Z-35.236 F4632 
N583 X-202.852 Y-57.309 Z-34.813 F3474 
N584 X-202.892 Y-56.349 Z-34.424 F2574 
N585 X-202.922 Y-55.660 Z-34.086 F1931 
N586 X-202.946 Y-55.155 Z-33.780 F1545 
N587 X-202.967 Y-54.770 Z-33.457 F1417 
N588 X-202.989 Y-54.443 Z-33.080 
N589 X-203.010 Y-54.115 Z-32.703 
N590 X-203.031 Y-53.798 Z-32.338 F1457 
N591 X-203.052 Y-53.473 Z-31.964 F1497 
N592 X-203.073 Y-53.138 Z-31.579 F1538 
N593 X-203.096 Y-52.795 Z-31.184 F1578 
N594 X-203.119 Y-52.443 Z-30.779 F1619 
N595 X-203.142 Y-52.082 Z-30.364 F1659 
N596 X-203.166 Y-51.711 Z-29.938 F1700 
N597 X-203.191 Y-51.332 Z-29.502 F1740 
N598 X-203.216 Y-50.945 Z-29.056 F1781 
N599 X-203.242 Y-50.548 Z-28.599 F1821 
N600 X-203.268 Y-50.142 Z-28.132 F1862 
N601 X-203.295 Y-49.727 Z-27.655 F1902 
N602 X-203.323 Y-49.304 Z-27.168 F1943 
N603 X-203.351 Y-48.871 Z-26.670 F1983 
N604 X-203.380 Y-48.430 Z-26.163 F2024 
N605 X-203.409 Y-47.979 Z-25.645 F2064 
N606 X-203.439 Y-47.520 Z-25.116 F2105 
N607 X-203.469 Y-47.052 Z-24.578 F2145 
N608 X-203.500 Y-46.575 Z-24.029 F2186 
N609 X-203.532 Y-46.089 Z-23.470 F2226 
N610 X-203.564 Y-45.594 Z-22.900 F2267 
N611 X-203.597 Y-45.090 Z-22.321 F2307 
N612 X-203.630 Y-44.577 Z-21.731 F2348 
N613 X-203.664 Y-44.056 Z-21.131 F2388 
N614 X-203.699 Y-43.525 Z-20.520 F2429 
N615 X-203.734 Y-42.985 Z-19.900 F2469 
N616 X-203.769 Y-42.437 Z-19.269 F2510 
N617 X-203.806 Y-41.880 Z-18.628 F2550 
N618 X-203.842 Y-41.313 Z-17.976 F2591 
N619 X-203.880 Y-40.738 Z-17.314 F2631 
N620 X-203.918 Y-40.154 Z-16.642 F2672 
N621 X-203.956 Y-39.561 Z-15.960 F2712 
N622 X-203.995 Y-38.959 Z-15.268 F2753 
N623 X-204.035 Y-38.348 Z-14.565 F2793 
N624 X-204.075 Y-37.728 Z-13.852 F2834 
N625 X-204.116 Y-37.104 Z-13.134 
N626 X-204.157 Y-36.480 Z-12.416 
N627 X-204.197 Y-35.855 Z-11.698 
N628 X-204.238 Y-35.231 Z-10.979 
N629 X-204.278 Y-34.607 Z-10.261 
N630 X-204.319 Y-33.983 Z-9.543 
N631 X-204.356 Y-33.358 Z-8.825 
N632 X-204.389 Y-32.734 Z-8.106 
N633 X-204.422 Y-32.109 Z-7.388 
N634 X-204.455 Y-31.485 Z-6.670 
N635 X-204.487 Y-30.860 Z-5.951 
N636 X-204.520 Y-30.236 Z-5.233 
N637 X-204.553 Y-29.611 Z-4.514 
N638 X-204.586 Y-28.987 Z-3.796 
N639 X-204.611 Y-28.362 Z-3.077 
N640 X-204.634 Y-27.737 Z-2.359 
N641 X-204.658 Y-27.113 Z-1.640 
N642 X-204.681 Y-26.488 Z-0.922 
N643 X-204.705 Y-25.863 Z-0.203 
N644 X-204.728 Y-25.239 Z0.516 
N645 X-204.752 Y-24.614 Z1.234 
N646 X-204.775 Y-23.989 Z1.953 
N647 X-204.799 Y-23.365 Z2.671 
N648 X-204.813 Y-22.740 Z3.390 
N649 X-204.826 Y-22.115 Z4.109 
N650 X-204.838 Y-21.490 Z4.828 
N651 X-204.851 Y-20.865 Z5.546 
N652 X-204.863 Y-20.241 Z6.265 
N653 X-204.876 Y-19.616 Z6.984 
N654 X-204.888 Y-18.991 Z7.703 
N655 X-204.901 Y-18.366 Z8.421 
N656 X-204.913 Y-17.741 Z9.140 
N657 X-204.926 Y-17.117 Z9.859 
N658 X-204.938 Y-16.492 Z10.578 
N659 X-204.951 Y-15.861 Z11.303 
N660 X-204.964 Y-15.230 Z12.029 
N661 X-204.976 Y-14.600 Z12.755 
N662 X-204.989 Y-13.969 Z13.480 
N663 X-205.002 Y-13.338 Z14.206 
N664 X-205.014 Y-12.707 Z14.931 
N665 X-205.027 Y-12.076 Z15.657 
N666 X-205.039 Y-11.446 Z16.383 
N667 X-205.052 Y-10.815 Z17.108 
N668 X-205.065 Y-10.184 Z17.834 
N669 X-205.077 Y-9.553 Z18.560 
N670 X-205.090 Y-8.923 Z19.285 
N671 X-205.103 Y-8.292 Z20.011 
N672 X-205.115 Y-7.661 Z20.736 
N673 X-205.128 Y-7.030 Z21.462 
N674 X-205.141 Y-6.399 Z22.188 
N675 X-205.153 Y-5.769 Z22.913 
N676 X-205.166 Y-5.138 Z23.639 
N677 X-205.178 Y-4.507 Z24.365 
N678 X-205.191 Y-3.876 Z25.090 
N679 X-205.204 Y-3.246 Z25.816 
N680 X-205.216 Y-2.615 Z26.541 
N681 X-205.229 Y-1.984 Z27.267 
N682 X-205.242 Y-1.353 Z27.993 
N683 X-205.254 Y-0.723 Z28.718 
N684 X-205.267 Y-0.092 Z29.444 
N685 X-205.279 Y0.352 Z30.268 F2949 
N686 X-205.291 Y0.672 Z31.232 F3296 
N687 X-205.305 Y0.940 Z32.367 F3875 
N688 X-205.319 Y1.150 Z33.745 F4684 
N689 X-205.331 Y1.234 Z35.439 F5725 
N690 X-205.327 Y0.994 Z37.497 F6998 
N691 X-205.237 Y-0.178 Z39.699 F8502 
N692 X-204.881 Y-2.951 Z40.655 F10005 
N693 X-204.285 Y-6.287 Z39.898 F11278 
N694 X-203.535 Y-9.686 Z38.221 F12319 
N695 X-202.664 Y-13.097 Z35.989 F13128 
N696 X-201.695 Y-16.501 Z33.380 F13707 
N697 X-200.651 Y-19.872 Z30.510 F14054 
N698 X-199.555 Y-23.182 Z27.472 F14169 
N699 X-198.410 Y-26.461 Z24.284 
N700 X-197.242 Y-29.662 Z21.027 
N701 X-196.059 Y-32.799 Z17.714 
N702 X-194.864 Y-35.880 Z14.353 
N703 X-193.661 Y-38.912 Z10.950 
N704 X-192.456 Y-41.896 Z7.506 
N705 X-191.251 Y-44.832 Z4.020 
N706 X-190.052 Y-47.718 Z0.491 
N707 X-188.864 Y-50.547 Z-3.087 
N708 X-187.689 Y-53.308 Z-6.722 
N709 X-186.535 Y-55.984 Z-10.427 F14170 
N710 X-185.439 Y-58.477 Z-14.108 F14056 
N711 X-184.391 Y-60.787 Z-17.830 F13716 
N712 X-183.416 Y-62.823 Z-21.557 F13149 
N713 X-182.537 Y-64.461 Z-25.252 F12356 
N714 X-181.782 Y-65.492 Z-28.871 F11335 
N715 X-181.202 Y-65.427 Z-32.269 F10089 
N716 X-180.941 Y-63.516 Z-34.483 F8615 
N717 X-180.939 Y-61.049 Z-34.923 F6971 
N718 X-180.991 Y-59.050 Z-34.709 F5497 
N719 X-181.043 Y-57.524 Z-34.335 F4250 
N720 X-181.087 Y-56.383 Z-33.948 F3230 
N721 X-181.122 Y-55.543 Z-33.595 F2437 
N722 X-181.149 Y-54.927 Z-33.284 F1870 
N723 X-181.171 Y-54.464 Z-32.998 F1530 
N724 X-181.191 Y-54.107 Z-32.693 F1417 
N725 X-181.212 Y-53.779 Z-32.316 
N726 X-181.233 Y-53.451 Z-31.939 
N727 X-181.254 Y-53.135 Z-31.575 F1457 
N728 X-181.275 Y-52.809 Z-31.201 F1497 
N729 X-181.297 Y-52.475 Z-30.816 F1538 
N730 X-181.319 Y-52.131 Z-30.421 F1578 
N731 X-181.342 Y-51.779 Z-30.016 F1619 
N732 X-181.366 Y-51.418 Z-29.600 F1659 
N733 X-181.390 Y-51.048 Z-29.174 F1700 
N734 X-181.414 Y-50.669 Z-28.738 F1740 
N735 X-181.440 Y-50.281 Z-28.292 F1781 
N736 X-181.465 Y-49.884 Z-27.836 F1821 
N737 X-181.492 Y-49.478 Z-27.369 F1862 
N738 X-181.519 Y-49.064 Z-26.892 F1902 
N739 X-181.546 Y-48.640 Z-26.405 F1943 
N740 X-181.574 Y-48.208 Z-25.907 F1983 
N741 X-181.603 Y-47.766 Z-25.399 F2024 
N742 X-181.632 Y-47.316 Z-24.881 F2064 
N743 X-181.662 Y-46.856 Z-24.353 F2105 
N744 X-181.693 Y-46.388 Z-23.814 F2145 
N745 X-181.724 Y-45.911 Z-23.265 F2186 
N746 X-181.755 Y-45.425 Z-22.706 F2226 
N747 X-181.788 Y-44.930 Z-22.137 F2267 
N748 X-181.820 Y-44.426 Z-21.557 F2307 
N749 X-181.854 Y-43.914 Z-20.967 F2348 
N750 X-181.888 Y-43.392 Z-20.367 F2388 
N751 X-181.922 Y-42.861 Z-19.757 F2429 
N752 X-181.957 Y-42.322 Z-19.136 F2469 
N753 X-181.993 Y-41.773 Z-18.505 F2510 
N754 X-182.029 Y-41.216 Z-17.864 F2550 
N755 X-182.066 Y-40.650 Z-17.213 F2591 
N756 X-182.103 Y-40.074 Z-16.551 F2631 
N757 X-182.141 Y-39.490 Z-15.879 F2672 
N758 X-182.180 Y-38.897 Z-15.197 F2712 
N759 X-182.219 Y-38.295 Z-14.504 F2753 
N760 X-182.259 Y-37.684 Z-13.802 F2793 
N761 X-182.299 Y-37.065 Z-13.089 F2834 
N762 X-182.340 Y-36.439 Z-12.368 
N763 X-182.380 Y-35.812 Z-11.648 
N764 X-182.421 Y-35.186 Z-10.928 
N765 X-182.462 Y-34.560 Z-10.208 
N766 X-182.503 Y-33.934 Z-9.487 
N767 X-182.543 Y-33.308 Z-8.767 
N768 X-182.579 Y-32.682 Z-8.047 
N769 X-182.612 Y-32.056 Z-7.326 
N770 X-182.645 Y-31.429 Z-6.606 
N771 X-182.678 Y-30.803 Z-5.885 
N772 X-182.710 Y-30.177 Z-5.165 
N773 X-182.743 Y-29.550 Z-4.444 
N774 X-182.776 Y-28.924 Z-3.724 
N775 X-182.807 Y-28.298 Z-3.003 
N776 X-182.830 Y-27.671 Z-2.283 
N777 X-182.854 Y-27.045 Z-1.562 
N778 X-182.877 Y-26.418 Z-0.841 
N779 X-182.901 Y-25.792 Z-0.121 
N780 X-182.925 Y-25.165 Z0.600 
N781 X-182.948 Y-24.539 Z1.321 
N782 X-182.972 Y-23.912 Z2.041 
N783 X-182.995 Y-23.286 Z2.762 
N784 X-183.013 Y-22.659 Z3.483 
N785 X-183.026 Y-22.033 Z4.204 
N786 X-183.038 Y-21.406 Z4.924 
N787 X-183.051 Y-20.780 Z5.645 
N788 X-183.064 Y-20.153 Z6.366 
N789 X-183.076 Y-19.526 Z7.087 
N790 X-183.089 Y-18.900 Z7.808 
N791 X-183.101 Y-18.273 Z8.529 
N792 X-183.114 Y-17.647 Z9.249 
N793 X-183.126 Y-17.020 Z9.970 
N794 X-183.139 Y-16.393 Z10.691 
N795 X-183.152 Y-15.763 Z11.417 
N796 X-183.164 Y-15.132 Z12.142 
N797 X-183.177 Y-14.501 Z12.868 
N798 X-183.189 Y-13.870 Z13.594 
N799 X-183.202 Y-13.239 Z14.319 
N800 X-183.215 Y-12.609 Z15.045 
N801 X-183.227 Y-11.978 Z15.770 
N802 X-183.240 Y-11.347 Z16.496 
N803 X-183.253 Y-10.716 Z17.222 
N804 X-183.265 Y-10.086 Z17.947 
N805 X-183.278 Y-9.455 Z18.673 
N806 X-183.291 Y-8.824 Z19.398 
N807 X-183.303 Y-8.193 Z20.124 
N808 X-183.316 Y-7.563 Z20.850 
N809 X-183.328 Y-6.932 Z21.575 
N810 X-183.341 Y-6.301 Z22.301 
N811 X-183.354 Y-5.670 Z23.027 
N812 X-183.366 Y-5.039 Z23.752 
N813 X-183.379 Y-4.409 Z24.478 
N814 X-183.392 Y-3.778 Z25.203 
N815 X-183.404 Y-3.147 Z25.929 
N816 X-183.417 Y-2.516 Z26.655 
N817 X-183.430 Y-1.886 Z27.380 
N818 X-183.442 Y-1.255 Z28.106 
N819 X-183.455 Y-0.624 Z28.832 
N820 X-183.467 Y0.007 Z29.557 
N821 X-183.599 Y6.567 Z37.104 
N822 G00 X-183.599 Y-31.169 Z69.907 
;RAPORT("TB000000","Side Milling:115 End")
;trailer : concat=None
; points cnt = 777
N824 MSG (" --- GROUPED OF SUBPROGRAM --- ")
N825 FGROUP()
N826 TRAFOOF
; PROGRAM NAME: B00000037
; ORDER       : B000000
; OPER. NAME  : Side Milling:116
; OPER. DESCR.: BF rough milling FEAB
; OPER. TYPE  : sideMill
; GEO. OPTION : 1
; MACHINE     : HSTM_500_SIM840D_Py
;             : HSTM500 - HAMUEL: 5-axis milling machine - SIM840D Traori PP_Script
; CONTROL     : SINUMERIK 840D
; created:   2021-11-15 09:58:58.799289
;-------DODATKOWE DANE-------------------
; PROGRAMISTA : Mariusz Malec
; PARTID      : 139T001534P1001_-
;  ap         : 2.5
;  ae         : 30.0
;  lean_angle : 0.0
;  fin_offset : 0.5
;----------------------------------------
;RAPORT("TB000000","Side Milling:116")
N10 TRAFOOF
N11 D0
N12 G90 G94
N13 G0 G53 D0 Z550 B0
N14 STOPRE
M9 ; chlodziwo wyl
; --- Side Milling:116 - BF rough milling FEAB ---
N16 ;ToolChange : concat=None ,current_tdmid=None, PP.tdmId=941290
N17 TRAFOOF
N18 G0 G53 D0 Z550 B0
N19 STOPRE
N20 MSG(" TLID=941290 D=50.0 R=6.0 Ang=0.0 Len=90.0 ")
N21 S1718 M03
N22 STOPRE
N23 CYCLE832(0.01,1,1)
N24 G0 G53 A229.0000 B-0.0000
N25 TRAORI
N26 G54 D6
N27 D6 
N28 ; DELTA A > 40.1
N29 TRAFOOF
N30 D6
N31 STOPRE
N32 G00 G54 Z296.000
N33 G01 A229.0000 F10000
N34 TRAORI
N35 G54 D6
N36 STOPRE
N37 TRANS 
N38 G00 X-202.605 Y102.003 Z11.943 A229.0000 
N39 M348 ; chlodziwo mgla
N40 X-202.605 Y64.267 Z44.746 
N41 G01 X-203.022 Y57.712 Z37.205 F2834 
N42 X-203.043 Y57.385 Z36.828 F1417 
N43 X-203.064 Y57.057 Z36.451 
N44 X-203.084 Y56.740 Z36.087 F1457 
N45 X-203.105 Y56.415 Z35.713 F1497 
N46 X-203.126 Y56.080 Z35.328 F1538 
N47 X-203.148 Y55.737 Z34.933 F1578 
N48 X-203.171 Y55.385 Z34.528 F1619 
N49 X-203.194 Y55.024 Z34.112 F1659 
N50 X-203.217 Y54.653 Z33.686 F1700 
N51 X-203.241 Y54.274 Z33.250 F1740 
N52 X-203.266 Y53.887 Z32.804 F1781 
N53 X-203.292 Y53.490 Z32.348 F1821 
N54 X-203.317 Y53.084 Z31.881 F1862 
N55 X-203.344 Y52.669 Z31.404 F1902 
N56 X-203.371 Y52.246 Z30.917 F1943 
N57 X-203.398 Y51.813 Z30.419 F1983 
N58 X-203.426 Y51.372 Z29.911 F2024 
N59 X-203.455 Y50.921 Z29.393 F2064 
N60 X-203.484 Y50.462 Z28.865 F2105 
N61 X-203.514 Y49.994 Z28.326 F2145 
N62 X-203.545 Y49.517 Z27.777 F2186 
N63 X-203.576 Y49.031 Z27.218 F2226 
N64 X-203.607 Y48.536 Z26.649 F2267 
N65 X-203.639 Y48.032 Z26.069 F2307 
N66 X-203.672 Y47.519 Z25.479 F2348 
N67 X-203.705 Y46.997 Z24.879 F2388 
N68 X-203.739 Y46.467 Z24.269 F2429 
N69 X-203.773 Y45.927 Z23.648 F2469 
N70 X-203.808 Y45.379 Z23.017 F2510 
N71 X-203.844 Y44.821 Z22.376 F2550 
N72 X-203.880 Y44.255 Z21.724 F2591 
N73 X-203.917 Y43.680 Z21.063 F2631 
N74 X-203.954 Y43.096 Z20.391 F2672 
N75 X-203.992 Y42.502 Z19.708 F2712 
N76 X-204.030 Y41.900 Z19.016 F2753 
N77 X-204.069 Y41.290 Z18.313 F2793 
N78 X-204.108 Y40.670 Z17.600 F2834 
N79 X-204.148 Y40.046 Z16.882 
N80 X-204.188 Y39.421 Z16.164 
N81 X-204.228 Y38.797 Z15.446 
N82 X-204.268 Y38.173 Z14.728 
N83 X-204.307 Y37.548 Z14.009 
N84 X-204.347 Y36.924 Z13.291 
N85 X-204.383 Y36.300 Z12.573 
N86 X-204.415 Y35.675 Z11.855 
N87 X-204.447 Y35.051 Z11.136 
N88 X-204.479 Y34.426 Z10.418 
N89 X-204.511 Y33.802 Z9.700 
N90 X-204.543 Y33.177 Z8.981 
N91 X-204.575 Y32.553 Z8.263 
N92 X-204.607 Y31.929 Z7.544 
N93 X-204.631 Y31.304 Z6.826 
N94 X-204.654 Y30.679 Z6.107 
N95 X-204.676 Y30.055 Z5.389 
N96 X-204.699 Y29.430 Z4.670 
N97 X-204.722 Y28.805 Z3.952 
N98 X-204.745 Y28.181 Z3.233 
N99 X-204.767 Y27.556 Z2.515 
N100 X-204.790 Y26.931 Z1.796 
N101 X-204.813 Y26.307 Z1.077 
N102 X-204.826 Y25.682 Z0.359 
N103 X-204.837 Y25.057 Z-0.360 
N104 X-204.849 Y24.433 Z-1.079 
N105 X-204.861 Y23.808 Z-1.797 
N106 X-204.873 Y23.183 Z-2.516 
N107 X-204.884 Y22.558 Z-3.235 
N108 X-204.896 Y21.933 Z-3.954 
N109 X-204.908 Y21.309 Z-4.672 
N110 X-204.919 Y20.684 Z-5.391 
N111 X-204.931 Y20.059 Z-6.110 
N112 X-204.943 Y19.434 Z-6.828 
N113 X-204.955 Y18.804 Z-7.554 
N114 X-204.967 Y18.173 Z-8.280 
N115 X-204.978 Y17.542 Z-9.005 
N116 X-204.990 Y16.911 Z-9.731 
N117 X-205.002 Y16.280 Z-10.457 
N118 X-205.014 Y15.650 Z-11.182 
N119 X-205.026 Y15.019 Z-11.908 
N120 X-205.038 Y14.388 Z-12.633 
N121 X-205.049 Y13.757 Z-13.359 
N122 X-205.061 Y13.127 Z-14.085 
N123 X-205.073 Y12.496 Z-14.810 
N124 X-205.085 Y11.865 Z-15.536 
N125 X-205.097 Y11.234 Z-16.262 
N126 X-205.109 Y10.603 Z-16.987 
N127 X-205.120 Y9.973 Z-17.713 
N128 X-205.132 Y9.342 Z-18.438 
N129 X-205.144 Y8.711 Z-19.164 
N130 X-205.156 Y8.080 Z-19.890 
N131 X-205.168 Y7.450 Z-20.615 
N132 X-205.180 Y6.819 Z-21.341 
N133 X-205.192 Y6.188 Z-22.067 
N134 X-205.203 Y5.557 Z-22.792 
N135 X-205.215 Y4.926 Z-23.518 
N136 X-205.227 Y4.296 Z-24.243 
N137 X-205.239 Y3.665 Z-24.969 
N138 X-205.251 Y3.034 Z-25.695 
N139 X-205.262 Y2.558 Z-26.486 F2946 
N140 X-205.274 Y2.169 Z-27.404 F3282 
N141 X-205.286 Y1.803 Z-28.487 F3844 
N142 X-205.300 Y1.463 Z-29.803 F4629 
N143 X-205.311 Y1.206 Z-31.431 F5639 
N144 X-205.300 Y1.259 Z-33.435 F6874 
N145 X-205.136 Y2.577 Z-35.367 F8333 
N146 X-204.659 Y5.403 Z-35.280 F9792 
N147 X-204.023 Y8.397 Z-33.904 F11026 
N148 X-203.266 Y11.449 Z-31.913 F12037 
N149 X-202.407 Y14.551 Z-29.518 F12822 
N150 X-201.462 Y17.682 Z-26.836 F13383 
N151 X-200.451 Y20.812 Z-23.952 F13720 
N152 X-199.394 Y23.909 Z-20.941 F13832 
N153 X-198.278 Y27.035 Z-17.772 
N154 X-197.143 Y30.103 Z-14.555 
N155 X-195.993 Y33.123 Z-11.297 
N156 X-194.833 Y36.103 Z-8.006 
N157 X-193.666 Y39.045 Z-4.684 
N158 X-192.496 Y41.951 Z-1.332 
N159 X-191.328 Y44.823 Z2.051 
N160 X-190.164 Y47.658 Z5.466 
N161 X-189.009 Y50.452 Z8.918 
N162 X-187.867 Y53.197 Z12.413 
N163 X-186.743 Y55.882 Z15.960 
N164 X-185.609 Y58.565 Z19.678 F13706 
N165 X-184.526 Y61.087 Z23.415 F13325 
N166 X-183.520 Y63.360 Z27.121 F12692 
N167 X-182.614 Y65.267 Z30.753 F11805 
N168 X-181.832 Y66.617 Z34.273 F10665 
N169 X-181.215 Y66.854 Z37.593 F9271 
N170 X-180.986 Y64.740 Z39.267 F7624 
N171 X-181.022 Y62.439 Z39.052 F5977 
N172 X-181.081 Y60.723 Z38.512 F4584 
N173 X-181.131 Y59.468 Z37.975 F3444 
N174 X-181.171 Y58.560 Z37.510 F2557 
N175 X-181.201 Y57.908 Z37.123 F1923 
N176 X-181.224 Y57.431 Z36.789 F1543 
N177 X-181.245 Y57.061 Z36.456 F1417 
N178 X-181.266 Y56.734 Z36.079 
N179 X-181.287 Y56.406 Z35.702 
N180 X-181.307 Y56.089 Z35.338 F1457 
N181 X-181.328 Y55.764 Z34.964 F1497 
N182 X-181.349 Y55.429 Z34.579 F1538 
N183 X-181.371 Y55.086 Z34.184 F1578 
N184 X-181.393 Y54.734 Z33.779 F1619 
N185 X-181.416 Y54.373 Z33.363 F1659 
N186 X-181.440 Y54.002 Z32.938 F1700 
N187 X-181.464 Y53.623 Z32.502 F1740 
N188 X-181.489 Y53.235 Z32.055 F1781 
N189 X-181.514 Y52.839 Z31.599 F1821 
N190 X-181.540 Y52.433 Z31.132 F1862 
N191 X-181.566 Y52.018 Z30.655 F1902 
N192 X-181.593 Y51.595 Z30.168 F1943 
N193 X-181.621 Y51.162 Z29.670 F1983 
N194 X-181.649 Y50.721 Z29.162 F2024 
N195 X-181.678 Y50.270 Z28.644 F2064 
N196 X-181.707 Y49.811 Z28.116 F2105 
N197 X-181.737 Y49.343 Z27.577 F2145 
N198 X-181.767 Y48.866 Z27.028 F2186 
N199 X-181.798 Y48.380 Z26.469 F2226 
N200 X-181.830 Y47.885 Z25.900 F2267 
N201 X-181.862 Y47.381 Z25.320 F2307 
N202 X-181.895 Y46.868 Z24.730 F2348 
N203 X-181.928 Y46.346 Z24.130 F2388 
N204 X-181.962 Y45.816 Z23.520 F2429 
N205 X-181.996 Y45.276 Z22.899 F2469 
N206 X-182.031 Y44.728 Z22.268 F2510 
N207 X-182.067 Y44.170 Z21.627 F2550 
N208 X-182.103 Y43.604 Z20.975 F2591 
N209 X-182.139 Y43.029 Z20.314 F2631 
N210 X-182.176 Y42.444 Z19.642 F2672 
N211 X-182.214 Y41.851 Z18.959 F2712 
N212 X-182.253 Y41.249 Z18.267 F2753 
N213 X-182.292 Y40.639 Z17.564 F2793 
N214 X-182.331 Y40.019 Z16.851 F2834 
N215 X-182.371 Y39.393 Z16.131 
N216 X-182.411 Y38.767 Z15.411 
N217 X-182.451 Y38.141 Z14.690 
N218 X-182.491 Y37.514 Z13.970 
N219 X-182.531 Y36.888 Z13.250 
N220 X-182.570 Y36.262 Z12.530 
N221 X-182.605 Y35.636 Z11.809 
N222 X-182.637 Y35.010 Z11.089 
N223 X-182.669 Y34.384 Z10.369 
N224 X-182.701 Y33.757 Z9.648 
N225 X-182.734 Y33.131 Z8.928 
N226 X-182.766 Y32.505 Z8.207 
N227 X-182.798 Y31.878 Z7.487 
N228 X-182.827 Y31.252 Z6.766 
N229 X-182.850 Y30.626 Z6.046 
N230 X-182.872 Y29.999 Z5.325 
N231 X-182.895 Y29.373 Z4.604 
N232 X-182.918 Y28.746 Z3.884 
N233 X-182.941 Y28.120 Z3.163 
N234 X-182.964 Y27.494 Z2.443 
N235 X-182.987 Y26.867 Z1.722 
N236 X-183.009 Y26.241 Z1.001 
N237 X-183.026 Y25.614 Z0.281 
N238 X-183.037 Y24.988 Z-0.440 
N239 X-183.049 Y24.361 Z-1.161 
N240 X-183.061 Y23.734 Z-1.882 
N241 X-183.073 Y23.108 Z-2.603 
N242 X-183.085 Y22.481 Z-3.323 
N243 X-183.096 Y21.855 Z-4.044 
N244 X-183.108 Y21.228 Z-4.765 
N245 X-183.120 Y20.602 Z-5.486 
N246 X-183.132 Y19.975 Z-6.207 
N247 X-183.143 Y19.348 Z-6.927 
N248 X-183.155 Y18.718 Z-7.653 
N249 X-183.167 Y18.087 Z-8.379 
N250 X-183.179 Y17.456 Z-9.104 
N251 X-183.191 Y16.825 Z-9.830 
N252 X-183.203 Y16.195 Z-10.555 
N253 X-183.214 Y15.564 Z-11.281 
N254 X-183.226 Y14.933 Z-12.007 
N255 X-183.238 Y14.302 Z-12.732 
N256 X-183.250 Y13.671 Z-13.458 
N257 X-183.262 Y13.041 Z-14.184 
N258 X-183.274 Y12.410 Z-14.909 
N259 X-183.285 Y11.779 Z-15.635 
N260 X-183.297 Y11.148 Z-16.360 
N261 X-183.309 Y10.518 Z-17.086 
N262 X-183.321 Y9.887 Z-17.812 
N263 X-183.333 Y9.256 Z-18.537 
N264 X-183.345 Y8.625 Z-19.263 
N265 X-183.356 Y7.994 Z-19.989 
N266 X-183.368 Y7.364 Z-20.714 
N267 X-183.380 Y6.733 Z-21.440 
N268 X-183.392 Y6.102 Z-22.166 
N269 X-183.404 Y5.471 Z-22.891 
N270 X-183.416 Y4.841 Z-23.617 
N271 X-183.427 Y4.210 Z-24.342 
N272 X-183.439 Y3.579 Z-25.068 
N273 X-183.451 Y2.948 Z-25.794 
N274 X-183.462 Y2.472 Z-26.585 F2946 
N275 X-183.474 Y2.082 Z-27.505 F3283 
N276 X-183.487 Y1.717 Z-28.588 F3845 
N277 X-183.504 Y1.376 Z-29.906 F4632 
N278 X-183.526 Y1.119 Z-31.536 F5644 
N279 X-183.571 Y1.174 Z-33.543 F6880 
N280 X-183.735 Y2.514 Z-35.460 F8341 
N281 X-184.122 Y5.356 Z-35.297 F9803 
N282 X-184.626 Y8.345 Z-33.842 F11039 
N283 X-185.225 Y11.384 Z-31.766 F12051 
N284 X-185.907 Y14.469 Z-29.280 F12837 
N285 X-186.659 Y17.579 Z-26.501 F13400 
N286 X-187.467 Y20.686 Z-23.516 F13737 
N287 X-188.313 Y23.759 Z-20.402 F13849 
N288 X-189.206 Y26.857 Z-17.129 
N289 X-190.115 Y29.899 Z-13.806 
N290 X-191.036 Y32.893 Z-10.444 
N291 X-191.965 Y35.846 Z-7.048 
N292 X-192.897 Y38.764 Z-3.622 
N293 X-193.829 Y41.649 Z-0.169 
N294 X-194.756 Y44.501 Z3.313 
N295 X-195.676 Y47.320 Z6.824 
N296 X-196.584 Y50.101 Z10.368 
N297 X-197.476 Y52.837 Z13.949 
N298 X-198.346 Y55.519 Z17.578 
N299 X-199.214 Y58.206 Z21.376 F13722 
N300 X-200.032 Y60.738 Z25.184 F13342 
N301 X-200.780 Y63.023 Z28.953 F12707 
N302 X-201.441 Y64.939 Z32.642 F11819 
N303 X-202.001 Y66.267 Z36.219 F10678 
N304 X-202.449 Y66.322 Z39.564 F9282 
N305 X-202.689 Y64.017 Z41.050 F7633 
N306 X-202.790 Y61.707 Z40.879 F5984 
N307 X-202.858 Y59.968 Z40.410 F4588 
N308 X-202.909 Y58.687 Z39.929 F3446 
N309 X-202.949 Y57.759 Z39.503 F2558 
N310 X-202.978 Y57.093 Z39.141 F1924 
N311 X-203.002 Y56.604 Z38.823 F1543 
N312 X-203.022 Y56.228 Z38.496 F1417 
N313 X-203.043 Y55.900 Z38.119 
N314 X-203.064 Y55.573 Z37.742 
N315 X-203.084 Y55.256 Z37.377 F1457 
N316 X-203.105 Y54.931 Z37.003 F1497 
N317 X-203.126 Y54.596 Z36.618 F1538 
N318 X-203.148 Y54.253 Z36.223 F1578 
N319 X-203.171 Y53.901 Z35.818 F1619 
N320 X-203.194 Y53.539 Z35.402 F1659 
N321 X-203.217 Y53.169 Z34.977 F1700 
N322 X-203.241 Y52.790 Z34.541 F1740 
N323 X-203.266 Y52.402 Z34.094 F1781 
N324 X-203.292 Y52.005 Z33.638 F1821 
N325 X-203.317 Y51.600 Z33.171 F1862 
N326 X-203.344 Y51.185 Z32.694 F1902 
N327 X-203.371 Y50.761 Z32.207 F1943 
N328 X-203.398 Y50.329 Z31.709 F1983 
N329 X-203.426 Y49.887 Z31.201 F2024 
N330 X-203.455 Y49.437 Z30.683 F2064 
N331 X-203.484 Y48.978 Z30.155 F2105 
N332 X-203.514 Y48.509 Z29.616 F2145 
N333 X-203.545 Y48.032 Z29.067 F2186 
N334 X-203.576 Y47.546 Z28.508 F2226 
N335 X-203.607 Y47.051 Z27.939 F2267 
N336 X-203.639 Y46.547 Z27.359 F2307 
N337 X-203.672 Y46.035 Z26.769 F2348 
N338 X-203.705 Y45.513 Z26.169 F2388 
N339 X-203.739 Y44.982 Z25.559 F2429 
N340 X-203.773 Y44.443 Z24.938 F2469 
N341 X-203.808 Y43.894 Z24.307 F2510 
N342 X-203.844 Y43.337 Z23.666 F2550 
N343 X-203.880 Y42.771 Z23.015 F2591 
N344 X-203.917 Y42.195 Z22.353 F2631 
N345 X-203.954 Y41.611 Z21.681 F2672 
N346 X-203.992 Y41.018 Z20.999 F2712 
N347 X-204.030 Y40.416 Z20.306 F2753 
N348 X-204.069 Y39.805 Z19.603 F2793 
N349 X-204.108 Y39.186 Z18.890 F2834 
N350 X-204.148 Y38.561 Z18.172 
N351 X-204.188 Y37.937 Z17.454 
N352 X-204.228 Y37.313 Z16.736 
N353 X-204.268 Y36.688 Z16.018 
N354 X-204.307 Y36.064 Z15.300 
N355 X-204.347 Y35.440 Z14.581 
N356 X-204.383 Y34.816 Z13.863 
N357 X-204.415 Y34.191 Z13.145 
N358 X-204.447 Y33.567 Z12.427 
N359 X-204.479 Y32.942 Z11.708 
N360 X-204.511 Y32.318 Z10.990 
N361 X-204.543 Y31.693 Z10.271 
N362 X-204.575 Y31.069 Z9.553 
N363 X-204.607 Y30.444 Z8.835 
N364 X-204.631 Y29.820 Z8.116 
N365 X-204.654 Y29.195 Z7.398 
N366 X-204.676 Y28.570 Z6.679 
N367 X-204.699 Y27.946 Z5.960 
N368 X-204.722 Y27.321 Z5.242 
N369 X-204.745 Y26.696 Z4.523 
N370 X-204.767 Y26.072 Z3.805 
N371 X-204.790 Y25.447 Z3.086 
N372 X-204.813 Y24.823 Z2.368 
N373 X-204.826 Y24.198 Z1.649 
N374 X-204.837 Y23.573 Z0.930 
N375 X-204.849 Y22.948 Z0.212 
N376 X-204.861 Y22.324 Z-0.507 
N377 X-204.873 Y21.699 Z-1.226 
N378 X-204.884 Y21.074 Z-1.945 
N379 X-204.896 Y20.449 Z-2.663 
N380 X-204.908 Y19.824 Z-3.382 
N381 X-204.919 Y19.200 Z-4.101 
N382 X-204.931 Y18.575 Z-4.819 
N383 X-204.943 Y17.950 Z-5.538 
N384 X-204.955 Y17.319 Z-6.264 
N385 X-204.967 Y16.689 Z-6.989 
N386 X-204.978 Y16.058 Z-7.715 
N387 X-204.990 Y15.427 Z-8.441 
N388 X-205.002 Y14.796 Z-9.166 
N389 X-205.014 Y14.165 Z-9.892 
N390 X-205.026 Y13.535 Z-10.618 
N391 X-205.038 Y12.904 Z-11.343 
N392 X-205.049 Y12.273 Z-12.069 
N393 X-205.061 Y11.642 Z-12.794 
N394 X-205.073 Y11.012 Z-13.520 
N395 X-205.085 Y10.381 Z-14.246 
N396 X-205.097 Y9.750 Z-14.971 
N397 X-205.109 Y9.119 Z-15.697 
N398 X-205.120 Y8.488 Z-16.423 
N399 X-205.132 Y7.858 Z-17.148 
N400 X-205.144 Y7.227 Z-17.874 
N401 X-205.156 Y6.596 Z-18.599 
N402 X-205.168 Y5.965 Z-19.325 
N403 X-205.180 Y5.335 Z-20.051 
N404 X-205.192 Y4.704 Z-20.776 
N405 X-205.203 Y4.073 Z-21.502 
N406 X-205.215 Y3.442 Z-22.228 
N407 X-205.227 Y2.811 Z-22.953 
N408 X-205.239 Y2.181 Z-23.679 
N409 X-205.251 Y1.550 Z-24.405 
N410 X-205.262 Y1.090 Z-25.213 F2947 
N411 X-205.274 Y0.735 Z-26.155 F3289 
N412 X-205.286 Y0.419 Z-27.265 F3859 
N413 X-205.299 Y0.145 Z-28.615 F4657 
N414 X-205.311 Y-0.023 Z-30.278 F5683 
N415 X-205.303 Y0.129 Z-32.311 F6936 
N416 X-205.182 Y1.356 Z-34.407 F8418 
N417 X-204.763 Y4.194 Z-34.858 F9900 
N418 X-204.143 Y7.367 Z-33.760 F11153 
N419 X-203.388 Y10.591 Z-31.907 F12179 
N420 X-202.523 Y13.845 Z-29.582 F12977 
N421 X-201.567 Y17.109 Z-26.929 F13547 
N422 X-200.540 Y20.358 Z-24.048 F13889 
N423 X-199.465 Y23.560 Z-21.019 F14003 
N424 X-198.338 Y26.757 Z-17.844 
N425 X-197.190 Y29.887 Z-14.609 
N426 X-196.027 Y32.961 Z-11.328 
N427 X-194.853 Y35.987 Z-8.005 
N428 X-193.672 Y38.970 Z-4.646 
N429 X-192.488 Y41.912 Z-1.253 
N430 X-191.305 Y44.813 Z2.177 
N431 X-190.127 Y47.670 Z5.644 
N432 X-188.958 Y50.478 Z9.154 
N433 X-187.804 Y53.229 Z12.714 
N434 X-186.667 Y55.908 Z16.334 
N435 X-185.516 Y58.586 Z20.165 F13874 
N436 X-184.418 Y61.078 Z24.028 F13489 
N437 X-183.401 Y63.281 Z27.874 F12847 
N438 X-182.492 Y65.059 Z31.660 F11948 
N439 X-181.719 Y66.164 Z35.342 F10792 
N440 X-181.151 Y65.889 Z38.712 F9379 
N441 X-180.985 Y63.496 Z40.220 F7710 
N442 X-181.024 Y61.144 Z40.113 F6040 
N443 X-181.082 Y59.371 Z39.666 F4627 
N444 X-181.131 Y58.067 Z39.189 F3471 
N445 X-181.171 Y57.126 Z38.761 F2572 
N446 X-181.201 Y56.450 Z38.397 F1930 
N447 X-181.224 Y55.956 Z38.076 F1545 
N448 X-181.245 Y55.577 Z37.747 F1417 
N449 X-181.266 Y55.249 Z37.370 
N450 X-181.287 Y54.922 Z36.993 
N451 X-181.307 Y54.605 Z36.628 F1457 
N452 X-181.328 Y54.280 Z36.254 F1497 
N453 X-181.349 Y53.945 Z35.869 F1538 
N454 X-181.371 Y53.602 Z35.474 F1578 
N455 X-181.393 Y53.249 Z35.069 F1619 
N456 X-181.416 Y52.888 Z34.654 F1659 
N457 X-181.440 Y52.518 Z34.228 F1700 
N458 X-181.464 Y52.139 Z33.792 F1740 
N459 X-181.489 Y51.751 Z33.346 F1781 
N460 X-181.514 Y51.354 Z32.889 F1821 
N461 X-181.540 Y50.949 Z32.422 F1862 
N462 X-181.566 Y50.534 Z31.945 F1902 
N463 X-181.593 Y50.110 Z31.458 F1943 
N464 X-181.621 Y49.678 Z30.960 F1983 
N465 X-181.649 Y49.236 Z30.452 F2024 
N466 X-181.678 Y48.786 Z29.934 F2064 
N467 X-181.707 Y48.327 Z29.406 F2105 
N468 X-181.737 Y47.858 Z28.867 F2145 
N469 X-181.767 Y47.381 Z28.319 F2186 
N470 X-181.798 Y46.895 Z27.759 F2226 
N471 X-181.830 Y46.400 Z27.190 F2267 
N472 X-181.862 Y45.896 Z26.610 F2307 
N473 X-181.895 Y45.384 Z26.020 F2348 
N474 X-181.928 Y44.862 Z25.420 F2388 
N475 X-181.962 Y44.331 Z24.810 F2429 
N476 X-181.996 Y43.792 Z24.189 F2469 
N477 X-182.031 Y43.243 Z23.558 F2510 
N478 X-182.067 Y42.686 Z22.917 F2550 
N479 X-182.103 Y42.120 Z22.266 F2591 
N480 X-182.139 Y41.544 Z21.604 F2631 
N481 X-182.176 Y40.960 Z20.932 F2672 
N482 X-182.214 Y40.367 Z20.250 F2712 
N483 X-182.253 Y39.765 Z19.557 F2753 
N484 X-182.292 Y39.154 Z18.854 F2793 
N485 X-182.331 Y38.534 Z18.141 F2834 
N486 X-182.371 Y37.908 Z17.421 
N487 X-182.411 Y37.282 Z16.701 
N488 X-182.451 Y36.656 Z15.981 
N489 X-182.491 Y36.030 Z15.261 
N490 X-182.531 Y35.404 Z14.540 
N491 X-182.570 Y34.778 Z13.820 
N492 X-182.605 Y34.152 Z13.100 
N493 X-182.637 Y33.526 Z12.379 
N494 X-182.669 Y32.899 Z11.659 
N495 X-182.701 Y32.273 Z10.938 
N496 X-182.734 Y31.647 Z10.218 
N497 X-182.766 Y31.021 Z9.498 
N498 X-182.798 Y30.394 Z8.777 
N499 X-182.827 Y29.768 Z8.057 
N500 X-182.850 Y29.141 Z7.336 
N501 X-182.872 Y28.515 Z6.615 
N502 X-182.895 Y27.889 Z5.895 
N503 X-182.918 Y27.262 Z5.174 
N504 X-182.941 Y26.636 Z4.453 
N505 X-182.964 Y26.009 Z3.733 
N506 X-182.987 Y25.383 Z3.012 
N507 X-183.009 Y24.756 Z2.292 
N508 X-183.026 Y24.130 Z1.571 
N509 X-183.037 Y23.503 Z0.850 
N510 X-183.049 Y22.877 Z0.129 
N511 X-183.061 Y22.250 Z-0.592 
N512 X-183.073 Y21.624 Z-1.312 
N513 X-183.085 Y20.997 Z-2.033 
N514 X-183.096 Y20.370 Z-2.754 
N515 X-183.108 Y19.744 Z-3.475 
N516 X-183.120 Y19.117 Z-4.196 
N517 X-183.132 Y18.491 Z-4.916 
N518 X-183.143 Y17.864 Z-5.637 
N519 X-183.155 Y17.233 Z-6.363 
N520 X-183.167 Y16.603 Z-7.088 
N521 X-183.179 Y15.972 Z-7.814 
N522 X-183.191 Y15.341 Z-8.540 
N523 X-183.203 Y14.710 Z-9.265 
N524 X-183.214 Y14.079 Z-9.991 
N525 X-183.226 Y13.449 Z-10.716 
N526 X-183.238 Y12.818 Z-11.442 
N527 X-183.250 Y12.187 Z-12.168 
N528 X-183.262 Y11.556 Z-12.893 
N529 X-183.274 Y10.926 Z-13.619 
N530 X-183.285 Y10.295 Z-14.345 
N531 X-183.297 Y9.664 Z-15.070 
N532 X-183.309 Y9.033 Z-15.796 
N533 X-183.321 Y8.402 Z-16.521 
N534 X-183.333 Y7.772 Z-17.247 
N535 X-183.345 Y7.141 Z-17.973 
N536 X-183.356 Y6.510 Z-18.698 
N537 X-183.368 Y5.879 Z-19.424 
N538 X-183.380 Y5.249 Z-20.150 
N539 X-183.392 Y4.618 Z-20.875 
N540 X-183.404 Y3.987 Z-21.601 
N541 X-183.416 Y3.356 Z-22.327 
N542 X-183.427 Y2.725 Z-23.052 
N543 X-183.439 Y2.095 Z-23.778 
N544 X-183.451 Y1.464 Z-24.503 
N545 X-183.462 Y1.004 Z-25.312 F2948 
N546 X-183.474 Y0.649 Z-26.255 F3290 
N547 X-183.487 Y0.332 Z-27.367 F3861 
N548 X-183.503 Y0.058 Z-28.718 F4660 
N549 X-183.525 Y-0.109 Z-30.384 F5687 
N550 X-183.566 Y0.045 Z-32.419 F6943 
N551 X-183.694 Y1.288 Z-34.507 F8426 
N552 X-184.039 Y4.149 Z-34.893 F9910 
N553 X-184.532 Y7.323 Z-33.712 F11166 
N554 X-185.129 Y10.536 Z-31.771 F12193 
N555 X-185.816 Y13.773 Z-29.353 F12992 
N556 X-186.577 Y17.018 Z-26.601 F13563 
N557 X-187.398 Y20.243 Z-23.615 F13905 
N558 X-188.258 Y23.421 Z-20.481 F14019 
N559 X-189.161 Y26.591 Z-17.198 
N560 X-190.081 Y29.694 Z-13.855 
N561 X-191.012 Y32.742 Z-10.466 
N562 X-191.952 Y35.743 Z-7.036 
N563 X-192.896 Y38.701 Z-3.572 
N564 X-193.840 Y41.621 Z-0.074 
N565 X-194.779 Y44.502 Z3.456 
N566 X-195.710 Y47.343 Z7.021 
N567 X-196.628 Y50.139 Z10.625 
N568 X-197.529 Y52.881 Z14.274 
N569 X-198.408 Y55.557 Z17.978 
N570 X-199.289 Y58.237 Z21.889 F13891 
N571 X-200.117 Y60.735 Z25.824 F13505 
N572 X-200.871 Y62.948 Z29.735 F12862 
N573 X-201.531 Y64.727 Z33.581 F11962 
N574 X-202.083 Y65.788 Z37.321 F10804 
N575 X-202.497 Y65.283 Z40.673 F9390 
N576 X-202.698 Y62.757 Z42.015 F7718 
N577 X-202.792 Y60.398 Z41.948 F6046 
N578 X-202.859 Y58.606 Z41.566 F4632 
N579 X-202.910 Y57.282 Z41.143 F3474 
N580 X-202.949 Y56.323 Z40.754 F2574 
N581 X-202.978 Y55.633 Z40.415 F1931 
N582 X-203.002 Y55.128 Z40.109 F1545 
N583 X-203.022 Y54.744 Z39.786 F1417 
N584 X-203.043 Y54.416 Z39.409 
N585 X-203.064 Y54.088 Z39.032 
N586 X-203.084 Y53.772 Z38.668 F1457 
N587 X-203.105 Y53.446 Z38.293 F1497 
N588 X-203.126 Y53.112 Z37.908 F1538 
N589 X-203.148 Y52.769 Z37.513 F1578 
N590 X-203.171 Y52.416 Z37.108 F1619 
N591 X-203.194 Y52.055 Z36.693 F1659 
N592 X-203.217 Y51.685 Z36.267 F1700 
N593 X-203.241 Y51.306 Z35.831 F1740 
N594 X-203.266 Y50.918 Z35.385 F1781 
N595 X-203.292 Y50.521 Z34.928 F1821 
N596 X-203.317 Y50.115 Z34.461 F1862 
N597 X-203.344 Y49.701 Z33.984 F1902 
N598 X-203.371 Y49.277 Z33.497 F1943 
N599 X-203.398 Y48.845 Z32.999 F1983 
N600 X-203.426 Y48.403 Z32.492 F2024 
N601 X-203.455 Y47.953 Z31.974 F2064 
N602 X-203.484 Y47.493 Z31.445 F2105 
N603 X-203.514 Y47.025 Z30.907 F2145 
N604 X-203.545 Y46.548 Z30.358 F2186 
N605 X-203.576 Y46.062 Z29.799 F2226 
N606 X-203.607 Y45.567 Z29.229 F2267 
N607 X-203.639 Y45.063 Z28.650 F2307 
N608 X-203.672 Y44.550 Z28.060 F2348 
N609 X-203.705 Y44.029 Z27.459 F2388 
N610 X-203.739 Y43.498 Z26.849 F2429 
N611 X-203.773 Y42.959 Z26.228 F2469 
N612 X-203.808 Y42.410 Z25.597 F2510 
N613 X-203.844 Y41.853 Z24.956 F2550 
N614 X-203.880 Y41.286 Z24.305 F2591 
N615 X-203.917 Y40.711 Z23.643 F2631 
N616 X-203.954 Y40.127 Z22.971 F2672 
N617 X-203.992 Y39.534 Z22.289 F2712 
N618 X-204.030 Y38.932 Z21.596 F2753 
N619 X-204.069 Y38.321 Z20.894 F2793 
N620 X-204.108 Y37.701 Z20.181 F2834 
N621 X-204.148 Y37.077 Z19.462 
N622 X-204.188 Y36.453 Z18.744 
N623 X-204.228 Y35.828 Z18.026 
N624 X-204.268 Y35.204 Z17.308 
N625 X-204.307 Y34.580 Z16.590 
N626 X-204.347 Y33.956 Z15.872 
N627 X-204.383 Y33.331 Z15.153 
N628 X-204.415 Y32.707 Z14.435 
N629 X-204.447 Y32.082 Z13.717 
N630 X-204.479 Y31.458 Z12.998 
N631 X-204.511 Y30.833 Z12.280 
N632 X-204.543 Y30.209 Z11.562 
N633 X-204.575 Y29.584 Z10.843 
N634 X-204.607 Y28.960 Z10.125 
N635 X-204.631 Y28.335 Z9.406 
N636 X-204.654 Y27.711 Z8.688 
N637 X-204.676 Y27.086 Z7.969 
N638 X-204.699 Y26.461 Z7.251 
N639 X-204.722 Y25.837 Z6.532 
N640 X-204.745 Y25.212 Z5.814 
N641 X-204.767 Y24.588 Z5.095 
N642 X-204.790 Y23.963 Z4.376 
N643 X-204.813 Y23.338 Z3.658 
N644 X-204.826 Y22.714 Z2.939 
N645 X-204.837 Y22.089 Z2.220 
N646 X-204.849 Y21.464 Z1.502 
N647 X-204.861 Y20.839 Z0.783 
N648 X-204.873 Y20.214 Z0.064 
N649 X-204.884 Y19.590 Z-0.654 
N650 X-204.896 Y18.965 Z-1.373 
N651 X-204.908 Y18.340 Z-2.092 
N652 X-204.919 Y17.715 Z-2.811 
N653 X-204.931 Y17.091 Z-3.529 
N654 X-204.943 Y16.466 Z-4.248 
N655 X-204.955 Y15.835 Z-4.974 
N656 X-204.967 Y15.204 Z-5.699 
N657 X-204.978 Y14.574 Z-6.425 
N658 X-204.990 Y13.943 Z-7.150 
N659 X-205.002 Y13.312 Z-7.876 
N660 X-205.014 Y12.681 Z-8.602 
N661 X-205.026 Y12.050 Z-9.327 
N662 X-205.038 Y11.420 Z-10.053 
N663 X-205.049 Y10.789 Z-10.779 
N664 X-205.061 Y10.158 Z-11.504 
N665 X-205.073 Y9.527 Z-12.230 
N666 X-205.085 Y8.897 Z-12.955 
N667 X-205.097 Y8.266 Z-13.681 
N668 X-205.109 Y7.635 Z-14.407 
N669 X-205.120 Y7.004 Z-15.132 
N670 X-205.132 Y6.373 Z-15.858 
N671 X-205.144 Y5.743 Z-16.584 
N672 X-205.156 Y5.112 Z-17.309 
N673 X-205.168 Y4.481 Z-18.035 
N674 X-205.180 Y3.850 Z-18.760 
N675 X-205.192 Y3.220 Z-19.486 
N676 X-205.203 Y2.589 Z-20.212 
N677 X-205.215 Y1.958 Z-20.937 
N678 X-205.227 Y1.327 Z-21.663 
N679 X-205.239 Y0.696 Z-22.389 
N680 X-205.251 Y0.066 Z-23.114 
N681 X-205.262 Y-0.378 Z-23.939 F2949 
N682 X-205.273 Y-0.698 Z-24.902 F3296 
N683 X-205.286 Y-0.966 Z-26.038 F3875 
N684 X-205.299 Y-1.176 Z-27.416 F4684 
N685 X-205.310 Y-1.260 Z-29.110 F5725 
N686 X-205.305 Y-1.020 Z-31.167 F6998 
N687 X-205.214 Y0.152 Z-33.369 F8502 
N688 X-204.859 Y2.925 Z-34.325 F10005 
N689 X-204.266 Y6.261 Z-33.568 F11278 
N690 X-203.519 Y9.660 Z-31.890 F12319 
N691 X-202.651 Y13.073 Z-29.658 F13128 
N692 X-201.685 Y16.477 Z-27.048 F13707 
N693 X-200.645 Y19.849 Z-24.177 F14054 
N694 X-199.553 Y23.159 Z-21.138 F14169 
N695 X-198.411 Y26.438 Z-17.950 
N696 X-197.248 Y29.640 Z-14.693 
N697 X-196.069 Y32.777 Z-11.379 
N698 X-194.877 Y35.859 Z-8.017 
N699 X-193.678 Y38.892 Z-4.613 
N700 X-192.477 Y41.876 Z-1.168 
N701 X-191.277 Y44.813 Z2.317 
N702 X-190.082 Y47.700 Z5.847 
N703 X-188.897 Y50.529 Z9.426 
N704 X-187.726 Y53.291 Z13.062 
N705 X-186.576 Y55.967 Z16.767 F14170 
N706 X-185.483 Y58.460 Z20.449 F14056 
N707 X-184.440 Y60.771 Z24.172 F13716 
N708 X-183.468 Y62.808 Z27.900 F13149 
N709 X-182.592 Y64.447 Z31.595 F12356 
N710 X-181.840 Y65.478 Z35.214 F11335 
N711 X-181.262 Y65.413 Z38.612 F10089 
N712 X-181.001 Y63.503 Z40.827 F8615 
N713 X-180.999 Y61.036 Z41.266 F6971 
N714 X-181.049 Y59.036 Z41.053 F5497 
N715 X-181.100 Y57.510 Z40.679 F4250 
N716 X-181.143 Y56.369 Z40.292 F3230 
N717 X-181.177 Y55.529 Z39.939 F2437 
N718 X-181.204 Y54.913 Z39.627 F1870 
N719 X-181.226 Y54.450 Z39.342 F1530 
N720 X-181.245 Y54.093 Z39.037 F1417 
N721 X-181.266 Y53.765 Z38.660 
N722 X-181.287 Y53.437 Z38.283 
N723 X-181.307 Y53.121 Z37.919 F1457 
N724 X-181.328 Y52.795 Z37.544 F1497 
N725 X-181.349 Y52.461 Z37.160 F1538 
N726 X-181.371 Y52.117 Z36.765 F1578 
N727 X-181.393 Y51.765 Z36.359 F1619 
N728 X-181.416 Y51.404 Z35.944 F1659 
N729 X-181.440 Y51.034 Z35.518 F1700 
N730 X-181.464 Y50.655 Z35.082 F1740 
N731 X-181.489 Y50.267 Z34.636 F1781 
N732 X-181.514 Y49.870 Z34.179 F1821 
N733 X-181.540 Y49.464 Z33.712 F1862 
N734 X-181.566 Y49.050 Z33.235 F1902 
N735 X-181.593 Y48.626 Z32.748 F1943 
N736 X-181.621 Y48.193 Z32.250 F1983 
N737 X-181.649 Y47.752 Z31.743 F2024 
N738 X-181.678 Y47.302 Z31.225 F2064 
N739 X-181.707 Y46.842 Z30.696 F2105 
N740 X-181.737 Y46.374 Z30.158 F2145 
N741 X-181.767 Y45.897 Z29.609 F2186 
N742 X-181.798 Y45.411 Z29.050 F2226 
N743 X-181.830 Y44.916 Z28.480 F2267 
N744 X-181.862 Y44.412 Z27.901 F2307 
N745 X-181.895 Y43.899 Z27.311 F2348 
N746 X-181.928 Y43.378 Z26.711 F2388 
N747 X-181.962 Y42.847 Z26.100 F2429 
N748 X-181.996 Y42.307 Z25.479 F2469 
N749 X-182.031 Y41.759 Z24.848 F2510 
N750 X-182.067 Y41.202 Z24.207 F2550 
N751 X-182.103 Y40.635 Z23.556 F2591 
N752 X-182.139 Y40.060 Z22.894 F2631 
N753 X-182.176 Y39.476 Z22.222 F2672 
N754 X-182.214 Y38.883 Z21.540 F2712 
N755 X-182.253 Y38.281 Z20.847 F2753 
N756 X-182.292 Y37.670 Z20.145 F2793 
N757 X-182.331 Y37.050 Z19.432 F2834 
N758 X-182.371 Y36.424 Z18.711 
N759 X-182.411 Y35.798 Z17.991 
N760 X-182.451 Y35.172 Z17.271 
N761 X-182.491 Y34.546 Z16.551 
N762 X-182.531 Y33.920 Z15.831 
N763 X-182.570 Y33.294 Z15.110 
N764 X-182.605 Y32.668 Z14.390 
N765 X-182.637 Y32.041 Z13.670 
N766 X-182.669 Y31.415 Z12.949 
N767 X-182.701 Y30.789 Z12.229 
N768 X-182.734 Y30.163 Z11.508 
N769 X-182.766 Y29.536 Z10.788 
N770 X-182.798 Y28.910 Z10.067 
N771 X-182.827 Y28.284 Z9.347 
N772 X-182.850 Y27.657 Z8.626 
N773 X-182.872 Y27.031 Z7.906 
N774 X-182.895 Y26.404 Z7.185 
N775 X-182.918 Y25.778 Z6.464 
N776 X-182.941 Y25.151 Z5.744 
N777 X-182.964 Y24.525 Z5.023 
N778 X-182.987 Y23.899 Z4.302 
N779 X-183.009 Y23.272 Z3.582 
N780 X-183.026 Y22.646 Z2.861 
N781 X-183.037 Y22.019 Z2.140 
N782 X-183.049 Y21.392 Z1.419 
N783 X-183.061 Y20.766 Z0.699 
N784 X-183.073 Y20.139 Z-0.022 
N785 X-183.085 Y19.513 Z-0.743 
N786 X-183.096 Y18.886 Z-1.464 
N787 X-183.108 Y18.260 Z-2.184 
N788 X-183.120 Y17.633 Z-2.905 
N789 X-183.132 Y17.006 Z-3.626 
N790 X-183.143 Y16.380 Z-4.347 
N791 X-183.155 Y15.749 Z-5.072 
N792 X-183.167 Y15.118 Z-5.798 
N793 X-183.179 Y14.488 Z-6.524 
N794 X-183.191 Y13.857 Z-7.249 
N795 X-183.203 Y13.226 Z-7.975 
N796 X-183.214 Y12.595 Z-8.701 
N797 X-183.226 Y11.964 Z-9.426 
N798 X-183.238 Y11.334 Z-10.152 
N799 X-183.250 Y10.703 Z-10.877 
N800 X-183.262 Y10.072 Z-11.603 
N801 X-183.274 Y9.441 Z-12.329 
N802 X-183.285 Y8.811 Z-13.054 
N803 X-183.297 Y8.180 Z-13.780 
N804 X-183.309 Y7.549 Z-14.506 
N805 X-183.321 Y6.918 Z-15.231 
N806 X-183.333 Y6.287 Z-15.957 
N807 X-183.345 Y5.657 Z-16.683 
N808 X-183.356 Y5.026 Z-17.408 
N809 X-183.368 Y4.395 Z-18.134 
N810 X-183.380 Y3.764 Z-18.859 
N811 X-183.392 Y3.134 Z-19.585 
N812 X-183.404 Y2.503 Z-20.311 
N813 X-183.416 Y1.872 Z-21.036 
N814 X-183.427 Y1.241 Z-21.762 
N815 X-183.439 Y0.610 Z-22.488 
N816 X-183.451 Y-0.020 Z-23.213 
N817 X-183.574 Y-6.580 Z-30.760 
N818 G00 X-183.574 Y31.155 Z-63.563 
;RAPORT("TB000000","Side Milling:116 End")
;trailer : concat=None
; points cnt = 777
N820 M347 ; mgla wyl
N821 MSG (" --- KONIEC PODPROGRAMU --- ")
N822 FGROUP()
N823 TRAFOOF
N824 STOPRE
N825 G0 G53 D0 Z550.0 M9 M5
N826 G0 G53 Y150 A0 B0
N827 M17
