; PROGRAM NAME: B00000111
; ORDER       : B000001
; OPER. NAME  : Spiral Rough Rhombic:102
; OPER. DESCR.: spiral roughing rhombic/nozka zgr
; OPER. TYPE  : rouRoot
; GEO. OPTION : 4
; MACHINE     : HSTM_500_SIM840D_Py
;             : HSTM500 - HAMUEL: 5-axis milling machine - SIM840D Traori PP_Script
; CONTROL     : SINUMERIK 840D
; created:   2021-10-27 08:50:47.670186
;-------DODATKOWE DANE-------------------
; PROGRAMISTA : Mariusz Malec
; PARTID      : 137T000339P1001_-
;  ap         : 2.5
;  ae         : 30.0
;  lean_angle : 1.0
;  fin_offset : 0.6
;----------------------------------------
;RAPORT("TB000001","Spiral Rough Rhombic:102")
N10 TRAFOOF
N11 D0
N12 G90 G94
N13 G0 G53 D0 Z550 B0
N14 STOPRE
M9 ; chlodziwo wyl
; --- Spiral Rough Rhombic:102 - spiral roughing rhombic/nozka zgr ---
N16 ;ToolChange : concat=None ,current_tdmid=None, PP.tdmId=941290
N17 TRAFOOF
N18 G0 G53 D0 X-200 Y150 Z550 B0
N19 T="7741290"
;RAPORT("TB000001","ToolChangeStart 7741290")
N20 M6
;RAPORT("TB000001","ToolChangeEnd")
N21 STOPRE
N22 MSG(" TLID=941290 D=50.0 R=6.0 Ang=0.0 Len=90.0 ")
N23 ; (Preloading tool)
N24 T="7741291"
N25 S1718 M03
N26 STOPRE
N27 CYCLE832(0.1,3,1)
N28 G0 G53 A270.9173 B0.0000
N29 TRAORI
N30 G54 D1
N31 D2 
N32 ; DELTA A > 40.1
N33 TRAFOOF
N34 D2
N35 STOPRE
N36 G00 G54 Z296.000
N37 G01 A270.9173 F10000
N38 TRAORI
N39 G54 D2
N40 STOPRE
N41 TRANS 
N42 G00 X-152.001 Y110.359 Z-51.816 A270.9173 
N43 M348 ; chlodziwo mgla
N44 X-152.001 Y60.366 Z-52.617 
N45 G01 X-152.001 Y57.276 Z-52.123 F2834 
N46 X-152.001 Y54.491 Z-50.698 
N47 X-152.001 Y52.281 Z-48.483 
N48 X-152.001 Y50.865 Z-45.693 
N49 X-152.001 Y50.380 Z-42.602 
N50 X-152.001 Y50.391 Z-38.107 A270.9323 
N51 X-152.001 Y50.398 Z-33.687 A270.9389 
N52 X-152.001 Y50.403 Z-29.413 A270.9389 
N53 X-152.001 Y50.407 Z-25.349 
N54 X-152.001 Y50.411 Z-21.548 
N55 X-152.001 Y50.415 Z-18.052 
N56 X-152.001 Y50.418 Z-14.887 
N57 X-152.001 Y50.421 Z-12.067 
N58 X-152.001 Y50.424 Z-9.595 
N59 X-152.001 Y50.426 Z-7.460 
N60 X-152.001 Y50.429 Z-5.642 A270.9409 
N61 X-152.001 Y50.464 Z-4.116 A271.0443 
N62 X-152.001 Y50.652 Z-2.846 A271.6259 
N63 X-152.001 Y51.107 Z-1.788 A273.0603 B0.0001 
N64 X-152.001 Y51.831 Z-0.889 A275.3748 B0.0007 
N65 X-152.001 Y52.750 Z-0.093 A278.3589 B0.0024 
N66 X-152.001 Y53.778 Z0.646 A281.7496 B0.0051 
N67 X-152.001 Y54.827 Z1.352 A285.2796 B0.0085 
N68 X-152.001 Y55.828 Z2.032 A288.7271 B0.0120 
N69 X-152.001 Y56.741 Z2.682 A291.9558 B0.0149 
N70 X-152.001 Y57.553 Z3.299 A294.9134 B0.0167 
N71 X-152.001 Y58.270 Z3.883 A297.6065 B0.0176 
N72 X-152.001 Y58.907 Z4.437 A300.0726 B0.0174 
N73 X-152.001 Y59.479 Z4.969 A302.3586 B0.0163 
N74 X-152.001 Y60.001 Z5.485 A304.5097 B0.0145 
N75 X-152.001 Y60.483 Z5.993 A306.5645 B0.0122 
N76 X-152.001 Y60.933 Z6.499 A308.5538 B0.0094 
N77 X-152.001 Y61.359 Z7.007 A310.5014 B0.0062 
N78 X-152.001 Y61.763 Z7.521 A312.4251 B0.0029 
N79 X-152.001 Y62.148 Z8.045 A314.3380 B-0.0006 
N80 X-152.001 Y62.517 Z8.580 A316.2499 B-0.0041 
N81 X-152.001 Y62.868 Z9.130 A318.1689 B-0.0074 
N82 X-152.001 Y63.203 Z9.695 A320.1028 B-0.0104 
N83 X-152.001 Y63.522 Z10.279 A322.0604 B-0.0131 
N84 X-152.001 Y63.825 Z10.886 A324.0536 B-0.0153 
N85 X-152.001 Y64.111 Z11.520 A326.0981 B-0.0169 
N86 X-152.001 Y64.380 Z12.189 A328.2148 B-0.0179 
N87 X-152.001 Y64.630 Z12.903 A330.4316 B-0.0182 
N88 X-152.001 Y64.859 Z13.674 A332.7821 B-0.0176 
N89 X-152.001 Y65.060 Z14.515 A335.3054 B-0.0162 
N90 X-152.001 Y65.221 Z15.442 A338.0393 B-0.0140 
N91 X-152.001 Y65.326 Z16.465 A341.0107 B-0.0111 
N92 X-152.001 Y65.347 Z17.586 A344.2218 B-0.0078 
N93 X-152.001 Y65.250 Z18.790 A347.6349 B-0.0047 
N94 X-152.001 Y64.997 Z20.038 A351.1503 B-0.0022 
N95 X-152.001 Y64.548 Z21.247 A354.5522 B-0.0007 
N96 X-152.001 Y63.878 Z22.283 A357.4774 B-0.0001 
N97 X-152.001 Y62.979 Z22.999 A359.5121 B-0.0000 
N98 X-152.001 Y61.852 Z23.362 A0.5491 
N99 X-152.001 Y60.477 Z23.489 A0.9132 
N100 X-152.001 Y58.823 Z23.520 A1.0029 
N101 X-152.001 Y56.857 Z23.523 A1.0137 
N102 X-152.001 Y54.551 Z23.522 A1.0137 
N103 X-152.001 Y51.885 Z23.522 
N104 X-152.001 Y48.849 Z23.521 
N105 X-152.001 Y45.446 Z23.520 
N106 X-152.001 Y41.690 Z23.519 
N107 X-152.001 Y37.610 Z23.518 
N108 X-152.001 Y33.251 Z23.517 
N109 X-152.001 Y28.669 Z23.516 
N110 X-152.001 Y23.930 Z23.515 
N111 X-152.001 Y19.110 Z23.514 
N112 X-152.001 Y14.288 Z23.513 
N113 X-152.001 Y9.542 Z23.512 
N114 X-152.001 Y4.949 Z23.511 
N115 X-152.001 Y0.575 Z23.509 
N116 X-152.001 Y-3.521 Z23.508 
N117 X-152.001 Y-7.297 Z23.508 
N118 X-152.001 Y-10.720 Z23.507 
N119 X-152.001 Y-13.775 Z23.506 
N120 X-152.001 Y-16.460 Z23.505 
N121 X-152.001 Y-18.783 Z23.505 
N122 X-152.001 Y-20.765 Z23.504 
N123 X-152.001 Y-22.431 Z23.507 A1.0236 
N124 X-152.001 Y-23.816 Z23.579 A1.2447 
N125 X-152.001 Y-24.961 Z23.881 A2.1880 
N126 X-152.001 Y-25.918 Z24.500 A4.1458 
N127 X-152.001 Y-26.750 Z25.371 A6.9440 
N128 X-152.001 Y-27.505 Z26.378 A10.2367 
N129 X-152.001 Y-28.215 Z27.426 A13.7267 
N130 X-152.001 Y-28.894 Z28.442 A17.1853 
N131 X-152.001 Y-29.543 Z29.383 A20.4677 
N132 X-152.001 Y-30.160 Z30.233 A23.5106 
N133 X-152.001 Y-30.747 Z30.992 A26.3050 
N134 X-152.001 Y-31.305 Z31.670 A28.8738 
N135 X-152.001 Y-31.840 Z32.280 A31.2535 
N136 X-152.001 Y-32.358 Z32.835 A33.4845 
N137 X-152.001 Y-32.866 Z33.347 A35.6038 
N138 X-152.001 Y-33.368 Z33.823 A37.6437 
N139 X-152.001 Y-33.872 Z34.271 A39.6298 
N140 X-152.001 Y-34.379 Z34.696 A41.5822 
N141 X-152.001 Y-34.895 Z35.101 A43.5172 
N142 X-152.001 Y-35.422 Z35.488 A45.4477 
N143 X-152.001 Y-35.963 Z35.859 A47.3854 
N144 X-152.001 Y-36.521 Z36.216 A49.3412 
N145 X-152.001 Y-37.099 Z36.558 A51.3249 
N146 X-152.001 Y-37.700 Z36.885 A53.3463 
N147 X-152.001 Y-38.329 Z37.196 A55.4171 
N148 X-152.001 Y-38.990 Z37.491 A57.5516 
N149 X-152.001 Y-39.690 Z37.766 A59.7684 
N150 X-152.001 Y-40.438 Z38.021 A62.0910 
N151 X-152.001 Y-41.243 Z38.248 A64.5464 
N152 X-152.001 Y-42.117 Z38.442 A67.1671 
N153 X-152.001 Y-43.071 Z38.589 A69.9808 
N154 X-152.001 Y-44.108 Z38.672 A72.9970 
N155 X-152.001 Y-45.218 Z38.666 A76.1866 
N156 X-152.001 Y-46.366 Z38.542 A79.4567 
N157 X-152.001 Y-47.487 Z38.272 A82.6292 
N158 X-152.001 Y-48.498 Z37.840 A85.4870 
N159 X-152.001 Y-49.328 Z37.243 A87.8354 
N160 X-152.001 Y-49.919 Z36.485 A89.5179 
N161 X-152.001 Y-50.250 Z35.572 A90.4685 
N162 X-152.001 Y-50.371 Z34.504 A90.8131 
N163 X-152.001 Y-50.393 Z33.271 A90.8676 
N164 X-152.001 Y-50.396 Z31.871 A90.8683 
N165 X-152.001 Y-50.400 Z30.303 
N166 X-152.001 Y-50.404 Z28.576 
N167 X-152.001 Y-50.408 Z26.706 
N168 X-152.001 Y-50.412 Z24.715 
N169 X-152.001 Y-50.417 Z22.633 
N170 X-152.001 Y-50.422 Z20.492 
N171 X-152.001 Y-50.427 Z18.329 
N172 X-152.001 Y-50.432 Z16.183 
N173 X-152.001 Y-50.437 Z14.091 
N174 X-152.001 Y-50.442 Z12.086 
N175 X-152.001 Y-50.446 Z10.198 
N176 X-152.001 Y-50.450 Z8.450 
N177 X-152.001 Y-50.454 Z6.859 
N178 X-152.001 Y-50.458 Z5.433 A90.8731 
N179 X-152.001 Y-50.492 Z4.175 A90.9688 
N180 X-152.001 Y-50.636 Z3.078 A91.4074 
N181 X-152.001 Y-50.979 Z2.127 A92.4781 B-0.0000 
N182 X-152.001 Y-51.546 Z1.296 A94.2774 B-0.0003 
N183 X-152.001 Y-52.298 Z0.552 A96.6998 B-0.0011 
N184 X-152.001 Y-53.175 Z-0.137 A99.5636 B-0.0028 
N185 X-152.001 Y-54.114 Z-0.793 A102.6814 B-0.0053 
N186 X-152.001 Y-55.058 Z-1.430 A105.8753 B-0.0084 
N187 X-152.001 Y-55.962 Z-2.049 A109.0018 B-0.0117 
N188 X-152.001 Y-56.799 Z-2.649 A111.9696 B-0.0147 
N189 X-152.001 Y-57.560 Z-3.226 A114.7386 B-0.0169 
N190 X-152.001 Y-58.246 Z-3.781 A117.3078 B-0.0182 
N191 X-152.001 Y-58.867 Z-4.315 A119.6994 B-0.0185 
N192 X-152.001 Y-59.433 Z-4.834 A121.9450 B-0.0179 
N193 X-152.001 Y-59.953 Z-5.342 A124.0771 B-0.0165 
N194 X-152.001 Y-60.438 Z-5.844 A126.1252 B-0.0144 
N195 X-152.001 Y-60.892 Z-6.346 A128.1138 B-0.0115 
N196 X-152.001 Y-61.322 Z-6.851 A130.0627 B-0.0082 
N197 X-152.001 Y-61.731 Z-7.362 A131.9870 B-0.0044 
N198 X-152.001 Y-62.120 Z-7.882 A133.8984 B-0.0002 
N199 X-152.001 Y-62.492 Z-8.413 A135.8061 B0.0041 
N200 X-152.001 Y-62.847 Z-8.957 A137.7178 B0.0086 
N201 X-152.001 Y-63.185 Z-9.516 A139.6415 B0.0130 
N202 X-152.001 Y-63.507 Z-10.094 A141.5858 B0.0173 
N203 X-152.000 Y-63.813 Z-10.692 A143.5623 B0.0213 
N204 X-152.000 Y-64.102 Z-11.317 A145.5866 B0.0249 
N205 X-152.000 Y-64.376 Z-11.975 A147.6794 B0.0280 
N206 X-152.000 Y-64.632 Z-12.676 A149.8680 B0.0303 
N207 X-152.000 Y-64.868 Z-13.432 A152.1866 B0.0317 
N208 X-152.000 Y-65.079 Z-14.258 A154.6743 B0.0321 
N209 X-152.000 Y-65.255 Z-15.167 A157.3718 B0.0310 
N210 X-152.000 Y-65.379 Z-16.174 A160.3102 B0.0282 
N211 X-152.000 Y-65.427 Z-17.282 A163.4976 B0.0238 
N212 X-152.001 Y-65.365 Z-18.479 A166.9013 B0.0180 
N213 X-152.001 Y-65.153 Z-19.729 A170.4302 B0.0117 
N214 X-152.001 Y-64.753 Z-20.960 A173.8974 B0.0063 
N215 X-152.001 Y-64.136 Z-22.051 A176.9808 B0.0026 
N216 X-152.001 Y-63.291 Z-22.850 A179.2527 B0.0008 
N217 X-152.001 Y-62.219 Z-23.279 A180.4803 B0.0001 
N218 X-152.001 Y-60.906 Z-23.426 A180.9045 B0.0000 
N219 X-152.001 Y-59.321 Z-23.458 A180.9973 
N220 X-152.001 Y-57.432 Z-23.462 A181.0107 
N221 X-152.001 Y-55.207 Z-23.462 A181.0109 
N222 X-152.001 Y-52.626 Z-23.461 
N223 X-152.001 Y-49.676 Z-23.461 
N224 X-152.001 Y-46.356 Z-23.460 
N225 X-152.001 Y-42.677 Z-23.459 
N226 X-152.001 Y-38.667 Z-23.459 
N227 X-152.001 Y-34.364 Z-23.458 
N228 X-152.001 Y-29.823 Z-23.457 
N229 X-152.001 Y-25.109 Z-23.456 
N230 X-152.001 Y-20.296 Z-23.455 
N231 X-152.001 Y-15.461 Z-23.454 
N232 X-152.001 Y-10.684 Z-23.453 
N233 X-152.001 Y-6.043 Z-23.452 
N234 X-152.001 Y-1.606 Z-23.451 
N235 X-152.001 Y2.565 Z-23.451 
N236 X-152.001 Y6.423 Z-23.450 
N237 X-152.001 Y9.935 Z-23.449 B0.0001 
N238 X-152.001 Y13.081 Z-23.449 B0.0003 
N239 X-152.001 Y15.855 Z-23.448 B0.0007 
N240 X-152.001 Y18.264 Z-23.448 B0.0010 
N241 X-152.001 Y20.324 Z-23.447 B0.0013 
N242 X-152.001 Y22.062 Z-23.448 A181.0149 B0.0016 
N243 X-152.001 Y23.509 Z-23.493 A181.1547 B0.0024 
N244 X-152.001 Y24.704 Z-23.717 A181.8513 B0.0053 
N245 X-152.001 Y25.696 Z-24.225 A183.4558 B0.0129 
N246 X-152.000 Y26.543 Z-25.006 A185.9523 B0.0271 
N247 X-152.000 Y27.303 Z-25.977 A189.1019 B0.0477 
N248 X-152.000 Y28.016 Z-27.040 A192.6097 B0.0733 
N249 X-152.000 Y28.704 Z-28.103 A196.1888 B0.1012 
N250 X-152.000 Y29.366 Z-29.101 A199.6278 B0.1291 
N251 X-152.000 Y29.998 Z-30.001 A202.8191 B0.1551 
N252 X-152.000 Y30.599 Z-30.801 A205.7338 B0.1784 
N253 X-151.999 Y31.168 Z-31.508 A208.3903 B0.1987 
N254 X-151.999 Y31.711 Z-32.138 A210.8297 B0.2162 
N255 X-151.999 Y32.234 Z-32.707 A213.0989 B0.2311 
N256 X-151.999 Y32.744 Z-33.227 A215.2413 B0.2436 
N257 X-151.999 Y33.247 Z-33.709 A217.2937 B0.2541 
N258 X-151.999 Y33.749 Z-34.161 A219.2855 B0.2626 
N259 X-151.999 Y34.255 Z-34.589 A221.2391 B0.2693 
N260 X-151.999 Y34.768 Z-34.996 A223.1713 B0.2740 
N261 X-151.999 Y35.292 Z-35.385 A225.0954 B0.2770 
N262 X-151.999 Y35.828 Z-35.756 A227.0213 B0.2780 
N263 X-151.999 Y36.379 Z-36.112 A228.9580 B0.2771 
N264 X-151.999 Y36.948 Z-36.452 A230.9142 B0.2743 
N265 X-151.999 Y37.537 Z-36.776 A232.8988 B0.2696 
N266 X-151.999 Y38.150 Z-37.084 A234.9228 B0.2629 
N267 X-151.999 Y38.792 Z-37.375 A237.0002 B0.2541 
N268 X-151.999 Y39.468 Z-37.648 A239.1490 B0.2432 
N269 X-151.999 Y40.187 Z-37.901 A241.3908 B0.2300 
N270 X-151.999 Y40.958 Z-38.130 A243.7516 B0.2143 
N271 X-151.999 Y41.791 Z-38.329 A246.2590 B0.1962 
N272 X-152.000 Y42.697 Z-38.487 A248.9414 B0.1754 
N273 X-152.000 Y43.682 Z-38.591 A251.8170 B0.1523 
N274 X-152.000 Y44.744 Z-38.619 A254.8790 B0.1273 
N275 X-152.000 Y45.864 Z-38.545 A258.0758 B0.1015 
N276 X-152.000 Y46.997 Z-38.340 A261.2891 B0.0764 
N277 X-152.000 Y48.071 Z-37.983 A264.3270 B0.0536 
N278 X-152.000 Y49.006 Z-37.463 A266.9762 B0.0351 
N279 X-152.000 Y49.732 Z-36.780 A269.0493 B0.0221 
N280 X-152.001 Y50.205 Z-35.942 A270.4154 B0.0145 
N281 X-152.001 Y50.433 Z-34.950 A271.0880 B0.0112 
N282 X-152.001 Y50.494 Z-33.802 A271.2847 B0.0102 
N283 X-152.001 Y50.494 Z-32.490 A271.3055 B0.0099 
N284 X-152.001 Y50.486 Z-31.011 A271.3055 B0.0097 
N285 X-152.001 Y50.477 Z-29.370 B0.0094 
N286 X-152.001 Y50.468 Z-27.580 B0.0092 
N287 X-152.001 Y50.458 Z-25.659 B0.0090 
N288 X-152.001 Y50.447 Z-23.634 B0.0086 
N289 X-152.001 Y50.436 Z-21.534 B0.0082 
N290 X-152.001 Y50.424 Z-19.396 B0.0076 
N291 X-152.001 Y50.413 Z-17.256 B0.0070 
N292 X-152.001 Y50.402 Z-15.153 B0.0063 
N293 X-152.001 Y50.391 Z-13.120 B0.0055 
N294 X-152.001 Y50.380 Z-11.191 B0.0047 
N295 X-152.001 Y50.371 Z-9.390 B0.0039 
N296 X-152.001 Y50.362 Z-7.737 B0.0031 
N297 X-152.001 Y50.354 Z-6.244 A271.3056 B0.0024 
N298 X-152.001 Y50.357 Z-4.918 A271.3358 B0.0017 
N299 X-152.001 Y50.426 Z-3.754 A271.5688 B0.0013 
N300 X-152.001 Y50.657 Z-2.742 A272.3080 B0.0017 
N301 X-152.001 Y51.109 Z-1.862 A273.7524 B0.0035 
N302 X-152.001 Y51.772 Z-1.081 A275.8893 B0.0068 
N303 X-152.001 Y52.594 Z-0.367 A278.5721 B0.0114 
N304 X-152.001 Y53.516 Z0.308 A281.6199 B0.0165 
N305 X-152.000 Y54.473 Z0.962 A284.8402 B0.0214 
N306 X-152.000 Y55.409 Z1.601 A288.0567 B0.0253 
N307 X-152.000 Y56.286 Z2.222 A291.1425 B0.0278 
N308 X-152.000 Y57.084 Z2.820 A294.0305 B0.0289 
N309 X-152.000 Y57.802 Z3.395 A296.7033 B0.0287 
N310 X-152.000 Y58.447 Z3.945 A299.1767 B0.0274 
N311 X-152.000 Y59.030 Z4.477 A301.4821 B0.0252 
N312 X-152.000 Y59.562 Z4.994 A303.6551 B0.0222 
N313 X-152.001 Y60.054 Z5.503 A305.7292 B0.0187 
N314 X-152.001 Y60.513 Z6.009 A307.7328 B0.0148 
N315 X-152.001 Y60.946 Z6.516 A309.6891 B0.0105 
N316 X-152.001 Y61.356 Z7.028 A311.6162 B0.0059 
N317 X-152.001 Y61.746 Z7.548 A313.5278 B0.0012 
N318 X-152.001 Y62.119 Z8.079 A315.4346 B-0.0036 
N319 X-152.001 Y62.474 Z8.623 A317.3451 B-0.0083 
N320 X-152.001 Y62.813 Z9.182 A319.2669 B-0.0128 
N321 X-152.001 Y63.136 Z9.758 A321.2083 B-0.0170 
N322 X-152.001 Y63.443 Z10.355 A323.1795 B-0.0208 
N323 X-152.001 Y63.732 Z10.977 A325.1941 B-0.0240 
N324 X-152.001 Y64.005 Z11.630 A327.2707 B-0.0266 
N325 X-152.001 Y64.260 Z12.323 A329.4334 B-0.0285 
N326 X-152.001 Y64.494 Z13.067 A331.7133 B-0.0294 
N327 X-152.001 Y64.704 Z13.875 A334.1474 B-0.0292 
N328 X-152.001 Y64.879 Z14.762 A336.7753 B-0.0276 
N329 X-152.001 Y65.006 Z15.741 A339.6312 B-0.0246 
N330 X-152.001 Y65.063 Z16.819 A342.7316 B-0.0202 
N331 X-152.001 Y65.016 Z17.990 A346.0596 B-0.0147 
N332 X-152.001 Y64.831 Z19.228 A349.5475 B-0.0091 
N333 X-152.001 Y64.465 Z20.468 A353.0327 B-0.0046 
N334 X-152.001 Y63.886 Z21.596 A356.2071 B-0.0018 
N335 X-152.001 Y63.080 Z22.456 A358.6363 B-0.0005 
N336 X-152.001 Y62.045 Z22.954 A0.0442 B-0.0001 
N337 X-152.001 Y60.774 Z23.155 A0.6055 B-0.0000 
N338 X-152.001 Y59.239 Z23.214 A0.7600 
N339 X-152.001 Y57.408 Z23.230 A0.7875 
N340 X-152.001 Y55.249 Z23.239 A0.7883 
N341 X-152.001 Y52.742 Z23.248 
N342 X-152.001 Y49.872 Z23.259 
N343 X-152.001 Y46.635 Z23.271 
N344 X-152.001 Y43.041 Z23.284 A0.7891 
N345 X-152.001 Y39.115 Z23.307 A0.8160 
N346 X-152.001 Y34.892 Z23.350 A0.9135 
N347 X-152.001 Y30.424 Z23.393 A1.0385 
N348 X-152.001 Y25.773 Z23.403 A1.0861 
N349 X-152.001 Y21.011 Z23.396 A1.0870 
N350 X-152.001 Y16.213 Z23.389 
N351 X-152.001 Y11.459 Z23.382 
N352 X-152.001 Y6.825 Z23.375 
N353 X-152.001 Y2.381 Z23.368 
N354 X-152.001 Y-1.812 Z23.362 
N355 X-152.001 Y-5.703 Z23.356 
N356 X-152.001 Y-9.257 Z23.350 
N357 X-152.001 Y-12.451 Z23.345 
N358 X-152.001 Y-15.277 Z23.341 
N359 X-152.001 Y-17.740 Z23.337 
N360 X-152.001 Y-19.853 Z23.334 
N361 X-152.001 Y-21.641 Z23.332 A1.0873 
N362 X-152.001 Y-23.135 Z23.353 A1.1596 
N363 X-152.001 Y-24.370 Z23.521 A1.6861 
N364 X-152.001 Y-25.393 Z23.977 A3.1239 
N365 X-152.001 Y-26.263 Z24.726 A5.5113 
N366 X-152.001 Y-27.036 Z25.673 A8.5777 
N367 X-152.001 Y-27.755 Z26.716 A12.0128 
N368 X-152.001 Y-28.442 Z27.768 A15.5448 
N369 X-152.001 Y-29.103 Z28.764 A18.9663 
N370 X-152.001 Y-29.735 Z29.671 A22.1655 
N371 X-152.001 Y-30.336 Z30.483 A25.1065 
N372 X-152.001 Y-30.907 Z31.205 A27.7992 
N373 X-152.001 Y-31.452 Z31.850 A30.2770 
N374 X-152.001 Y-31.977 Z32.433 A32.5809 
N375 X-152.001 Y-32.488 Z32.965 A34.7518 
N376 X-152.001 Y-32.990 Z33.458 A36.8251 
N377 X-152.001 Y-33.491 Z33.918 A38.8304 
N378 X-152.001 Y-33.993 Z34.353 A40.7908 
N379 X-152.001 Y-34.501 Z34.766 A42.7240 
N380 X-152.001 Y-35.018 Z35.160 A44.6446 
N381 X-152.001 Y-35.547 Z35.537 A46.5641 
N382 X-152.001 Y-36.091 Z35.898 A48.4932 
N383 X-152.001 Y-36.652 Z36.245 A50.4413 
N384 X-152.001 Y-37.232 Z36.576 A52.4164 
N385 X-152.001 Y-37.835 Z36.892 A54.4264 
N386 X-152.001 Y-38.463 Z37.191 A56.4813 
N387 X-152.001 Y-39.121 Z37.472 A58.5942 
N388 X-152.001 Y-39.816 Z37.733 A60.7823 
N389 X-152.001 Y-40.555 Z37.973 A63.0690 
N390 X-152.001 Y-41.349 Z38.185 A65.4826 
N391 X-152.001 Y-42.210 Z38.365 A68.0581 
N392 X-152.001 Y-43.148 Z38.499 A70.8245 
N393 X-152.001 Y-44.168 Z38.572 A73.7940 
N394 X-152.001 Y-45.261 Z38.560 A76.9421 
N395 X-152.001 Y-46.395 Z38.435 A80.1848 
N396 X-152.001 Y-47.511 Z38.170 A83.3614 
N397 X-152.001 Y-48.533 Z37.751 A86.2763 
N398 X-152.001 Y-49.389 Z37.173 A88.7374 
N399 X-152.001 Y-50.012 Z36.441 A90.5577 
N400 X-152.001 Y-50.365 Z35.563 A91.6215 
N401 X-152.001 Y-50.483 Z34.540 A92.0240 
N402 X-152.001 Y-50.484 Z33.361 A92.0930 
N403 X-152.001 Y-50.459 Z32.021 A92.0942 
N404 X-152.001 Y-50.430 Z30.519 
N405 X-152.001 Y-50.399 Z28.863 A92.0943 
N406 X-152.001 Y-50.365 Z27.067 A92.0958 
N407 X-152.001 Y-50.331 Z25.151 A92.1041 
N408 X-152.001 Y-50.298 Z23.144 A92.1229 B-0.0000 
N409 X-152.001 Y-50.266 Z21.076 A92.1488 B-0.0004 
N410 X-152.001 Y-50.233 Z18.985 A92.1777 B-0.0015 
N411 X-152.001 Y-50.199 Z16.906 A92.2062 B-0.0044 
N412 X-152.001 Y-50.164 Z14.875 A92.2306 B-0.0096 
N413 X-152.001 Y-50.128 Z12.925 A92.2475 B-0.0163 
N414 X-152.001 Y-50.090 Z11.086 A92.2559 B-0.0238 
N415 X-152.001 Y-50.053 Z9.381 A92.2582 B-0.0317 
N416 X-152.001 Y-50.019 Z7.825 A92.2584 B-0.0396 
N417 X-152.001 Y-49.990 Z6.428 A92.2613 B-0.0474 
N418 X-152.001 Y-49.988 Z5.192 A92.3406 B-0.0549 
N419 X-152.001 Y-50.093 Z4.110 A92.7380 B-0.0623 
N420 X-152.001 Y-50.396 Z3.166 A93.7560 B-0.0695 
N421 X-152.001 Y-50.932 Z2.333 A95.5150 B-0.0763 
N422 X-152.001 Y-51.667 Z1.579 A97.9303 B-0.0820 
N423 X-152.001 Y-52.539 Z0.874 A100.8249 B-0.0854 
N424 X-152.001 Y-53.483 Z0.194 A104.0022 B-0.0860 
N425 X-152.001 Y-54.434 Z-0.471 A107.2660 B-0.0839 
N426 X-152.001 Y-55.342 Z-1.121 A110.4560 B-0.0797 
N427 X-152.001 Y-56.178 Z-1.751 A113.4733 B-0.0742 
N428 X-152.001 Y-56.932 Z-2.355 A116.2765 B-0.0677 
N429 X-152.001 Y-57.608 Z-2.935 A118.8667 B-0.0605 
N430 X-152.001 Y-58.215 Z-3.492 A121.2689 B-0.0530 
N431 X-152.001 Y-58.764 Z-4.031 A123.5176 B-0.0452 
N432 X-152.001 Y-59.266 Z-4.558 A125.6472 B-0.0371 
N433 X-152.001 Y-59.731 Z-5.077 A127.6888 B-0.0287 
N434 X-152.001 Y-60.165 Z-5.595 A129.6676 B-0.0201 
N435 X-152.001 Y-60.573 Z-6.115 A131.6039 B-0.0113 
N436 X-152.001 Y-60.958 Z-6.639 A133.5133 B-0.0023 
N437 X-152.001 Y-61.323 Z-7.172 A135.4079 B0.0068 
N438 X-152.001 Y-61.670 Z-7.716 A137.2976 B0.0161 
N439 X-152.000 Y-61.998 Z-8.272 A139.1911 B0.0254 
N440 X-152.000 Y-62.309 Z-8.843 A141.0970 B0.0347 
N441 X-152.000 Y-62.603 Z-9.432 A143.0252 B0.0441 
N442 X-152.000 Y-62.880 Z-10.043 A144.9888 B0.0533 
N443 X-152.000 Y-63.139 Z-10.682 A147.0051 B0.0625 
N444 X-152.000 Y-63.381 Z-11.356 A149.0976 B0.0715 
N445 X-152.000 Y-63.603 Z-12.078 A151.2966 B0.0806 
N446 X-152.000 Y-63.802 Z-12.859 A153.6407 B0.0895 
N447 X-152.000 Y-63.971 Z-13.716 A156.1734 B0.0985 
N448 X-152.000 Y-64.098 Z-14.665 A158.9371 B0.1073 
N449 X-152.000 Y-64.163 Z-15.717 A161.9610 B0.1160 
N450 X-152.000 Y-64.136 Z-16.872 A165.2427 B0.1243 
N451 X-152.000 Y-63.979 Z-18.107 A168.7241 B0.1322 
N452 X-152.000 Y-63.650 Z-19.362 A172.2494 B0.1395 
N453 X-152.000 Y-63.114 Z-20.528 A175.5224 B0.1461 
N454 X-152.000 Y-62.351 Z-21.448 A178.1145 B0.1522 
N455 X-152.000 Y-61.362 Z-22.013 A179.7075 B0.1579 
N456 X-152.000 Y-60.142 Z-22.265 A180.4057 B0.1637 
N457 X-152.000 Y-58.666 Z-22.351 A180.6275 B0.1704 
N458 X-152.000 Y-56.903 Z-22.386 A180.7018 B0.1778 
N459 X-152.000 Y-54.824 Z-22.424 A180.7898 B0.1838 
N460 X-152.000 Y-52.403 Z-22.474 A180.9194 B0.1868 
N461 X-152.000 Y-49.626 Z-22.524 A181.0707 B0.1881 
N462 X-152.000 Y-46.489 Z-22.561 A181.2046 B0.1896 
N463 X-152.000 Y-42.999 Z-22.568 A181.2693 B0.1921 
N464 X-151.999 Y-39.178 Z-22.552 A181.2781 B0.1951 
N465 X-151.999 Y-35.060 Z-22.532 A181.2781 B0.1983 
N466 X-151.999 Y-30.694 Z-22.511 B0.2017 
N467 X-151.999 Y-26.139 Z-22.489 B0.2053 
N468 X-151.999 Y-21.465 Z-22.466 B0.2089 
N469 X-151.999 Y-16.748 Z-22.443 B0.2126 
N470 X-151.999 Y-12.064 Z-22.421 B0.2163 
N471 X-151.999 Y-7.490 Z-22.399 B0.2199 
N472 X-151.999 Y-3.098 Z-22.377 B0.2233 
N473 X-151.999 Y1.053 Z-22.357 B0.2266 
N474 X-151.999 Y4.909 Z-22.338 B0.2296 
N475 X-151.999 Y8.436 Z-22.321 B0.2324 
N476 X-151.999 Y11.608 Z-22.306 B0.2348 
N477 X-151.999 Y14.417 Z-22.292 B0.2370 
N478 X-151.999 Y16.865 Z-22.280 B0.2390 
N479 X-151.999 Y18.966 Z-22.270 B0.2406 
N480 X-151.999 Y20.744 Z-22.262 A181.2782 B0.2420 
N481 X-151.999 Y22.228 Z-22.271 A181.3276 B0.2434 
N482 X-151.999 Y23.454 Z-22.397 A181.7384 B0.2467 
N483 X-151.999 Y24.465 Z-22.778 A182.9464 B0.2550 
N484 X-151.999 Y25.317 Z-23.451 A185.0933 B0.2702 
N485 X-151.999 Y26.069 Z-24.368 A188.0436 B0.2916 
N486 X-151.999 Y26.774 Z-25.435 A191.5300 B0.3175 
N487 X-151.999 Y27.460 Z-26.549 A195.2339 B0.3451 
N488 X-151.998 Y28.131 Z-27.618 A198.8712 B0.3724 
N489 X-151.998 Y28.781 Z-28.591 A202.2731 B0.3978 
N490 X-151.998 Y29.400 Z-29.452 A205.3757 B0.4207 
N491 X-151.998 Y29.988 Z-30.208 A208.1825 B0.4407 
N492 X-151.998 Y30.545 Z-30.873 A210.7320 B0.4580 
N493 X-151.998 Y31.077 Z-31.464 A213.0743 B0.4728 
N494 X-151.998 Y31.592 Z-31.997 A215.2587 B0.4854 
N495 X-151.998 Y32.096 Z-32.486 A217.3274 B0.4960 
N496 X-151.998 Y32.594 Z-32.939 A219.3144 B0.5047 
N497 X-151.998 Y33.093 Z-33.363 A221.2462 B0.5115 
N498 X-151.998 Y33.595 Z-33.764 A223.1430 B0.5164 
N499 X-151.998 Y34.104 Z-34.145 A225.0204 B0.5194 
N500 X-151.998 Y34.624 Z-34.508 A226.8920 B0.5206 
N501 X-151.998 Y35.156 Z-34.855 A228.7696 B0.5198 
N502 X-151.998 Y35.705 Z-35.188 A230.6653 B0.5170 
N503 X-151.998 Y36.274 Z-35.506 A232.5910 B0.5121 
N504 X-151.998 Y36.867 Z-35.812 A234.5598 B0.5053 
N505 X-151.998 Y37.489 Z-36.104 A236.5875 B0.4964 
N506 X-151.998 Y38.146 Z-36.382 A238.6940 B0.4854 
N507 X-151.998 Y38.849 Z-36.644 A240.9032 B0.4722 
N508 X-151.998 Y39.605 Z-36.888 A243.2436 B0.4566 
N509 X-151.998 Y40.428 Z-37.107 A245.7463 B0.4387 
N510 X-151.998 Y41.328 Z-37.293 A248.4413 B0.4182 
N511 X-151.998 Y42.314 Z-37.432 A251.3484 B0.3954 
N512 X-151.998 Y43.382 Z-37.501 A254.4603 B0.3705 
N513 X-151.999 Y44.514 Z-37.476 A257.7223 B0.3443 
N514 X-151.999 Y45.663 Z-37.328 A261.0099 B0.3180 
N515 X-151.999 Y46.754 Z-37.034 A264.1193 B0.2933 
N516 X-151.999 Y47.703 Z-36.586 A266.8261 B0.2719 
N517 X-151.999 Y48.443 Z-35.987 A268.9499 B0.2553 
N518 X-151.999 Y48.938 Z-35.244 A270.3832 B0.2442 
N519 X-151.999 Y49.192 Z-34.361 A271.1365 B0.2381 
N520 X-151.999 Y49.270 Z-33.337 A271.3882 B0.2351 
N521 X-151.999 Y49.275 Z-32.162 A271.4274 B0.2333 
N522 X-151.999 Y49.271 Z-30.834 A271.4480 B0.2315 
N523 X-151.999 Y49.278 Z-29.354 A271.5049 B0.2296 
N524 X-151.999 Y49.293 Z-27.733 A271.5960 B0.2281 
N525 X-151.999 Y49.307 Z-25.986 A271.6984 B0.2269 
N526 X-151.999 Y49.317 Z-24.134 A271.7985 B0.2259 
N527 X-151.999 Y49.320 Z-22.206 A271.8932 B0.2245 
N528 X-151.999 Y49.317 Z-20.233 A271.9824 B0.2227 
N529 X-151.999 Y49.311 Z-18.248 A272.0692 B0.2204 
N530 X-151.999 Y49.299 Z-16.286 A272.1501 B0.2179 
N531 X-151.999 Y49.282 Z-14.380 A272.2150 B0.2151 
N532 X-151.999 Y49.267 Z-12.561 A272.2884 B0.2119 
N533 X-151.999 Y49.263 Z-10.852 A272.3978 B0.2081 
N534 X-151.999 Y49.257 Z-9.273 A272.4991 B0.2041 
N535 X-151.999 Y49.235 Z-7.840 A272.5483 B0.2002 
N536 X-151.999 Y49.208 Z-6.558 A272.5723 B0.1968 
N537 X-151.999 Y49.228 Z-5.426 A272.7279 B0.1933 
N538 X-152.000 Y49.390 Z-4.434 A273.3157 B0.1888 
N539 X-152.000 Y49.771 Z-3.562 A274.5875 B0.1826 
N540 X-152.000 Y50.376 Z-2.782 A276.5812 B0.1747 
N541 X-152.000 Y51.160 Z-2.063 A279.1724 B0.1650 
N542 X-152.000 Y52.062 Z-1.376 A282.1821 B0.1539 
N543 X-152.000 Y53.014 Z-0.705 A285.4125 B0.1416 
N544 X-152.000 Y53.954 Z-0.044 A288.6706 B0.1285 
N545 X-152.000 Y54.838 Z0.602 A291.8111 B0.1153 
N546 X-152.000 Y55.642 Z1.227 A294.7540 B0.1021 
N547 X-152.000 Y56.362 Z1.828 A297.4744 B0.0894 
N548 X-152.000 Y57.004 Z2.404 A299.9847 B0.0771 
N549 X-152.000 Y57.581 Z2.959 A302.3161 B0.0651 
N550 X-152.000 Y58.103 Z3.497 A304.5049 B0.0535 
N551 X-152.000 Y58.582 Z4.026 A306.5855 B0.0422 
N552 X-152.000 Y59.024 Z4.549 A308.5877 B0.0310 
N553 X-152.001 Y59.438 Z5.072 A310.5354 B0.0199 
N554 X-152.001 Y59.827 Z5.598 A312.4476 B0.0089 
N555 X-152.001 Y60.194 Z6.132 A314.3394 B-0.0019 
N556 X-152.001 Y60.541 Z6.675 A316.2228 B-0.0127 
N557 X-152.001 Y60.870 Z7.230 A318.1084 B-0.0233 
N558 X-152.001 Y61.181 Z7.801 A320.0057 B-0.0337 
N559 X-152.001 Y61.475 Z8.390 A321.9251 B-0.0439 
N560 X-152.001 Y61.751 Z9.002 A323.8796 B-0.0537 
N561 X-152.001 Y62.009 Z9.641 A325.8860 B-0.0633 
N562 X-152.001 Y62.249 Z10.317 A327.9668 B-0.0725 
N563 X-152.001 Y62.468 Z11.038 A330.1512 B-0.0813 
N564 X-152.001 Y62.663 Z11.819 A332.4767 B-0.0898 
N565 X-152.001 Y62.828 Z12.675 A334.9857 B-0.0979 
N566 X-152.001 Y62.950 Z13.622 A337.7190 B-0.1055 
N567 X-152.001 Y63.009 Z14.670 A340.7048 B-0.1123 
N568 X-152.001 Y62.977 Z15.819 A343.9396 B-0.1181 
N569 X-152.001 Y62.816 Z17.045 A347.3596 B-0.1226 
N570 X-152.001 Y62.484 Z18.282 A350.7892 B-0.1254 
N571 X-152.001 Y61.944 Z19.414 A353.9033 B-0.1259 
N572 X-152.001 Y61.177 Z20.286 A356.2760 B-0.1234 
N573 X-152.001 Y60.185 Z20.825 A357.6846 B-0.1174 
N574 X-152.001 Y58.963 Z21.096 A358.3068 B-0.1073 
N575 X-152.001 Y57.492 Z21.228 A358.5069 B-0.0922 
N576 X-152.001 Y55.749 Z21.315 A358.5415 B-0.0720 
N577 X-152.001 Y53.707 Z21.403 A358.5421 B-0.0491 
N578 X-152.001 Y51.347 Z21.504 B-0.0267 
N579 X-152.001 Y48.655 Z21.620 B-0.0091 
N580 X-152.001 Y45.627 Z21.751 A358.5470 B-0.0013 
N581 X-152.001 Y42.270 Z21.936 A358.6754 B-0.0001 
N582 X-152.001 Y38.602 Z22.256 A359.2362 B-0.0000 
N583 X-152.001 Y34.649 Z22.646 A0.1347 
N584 X-152.001 Y30.452 Z22.913 A0.8264 
N585 X-152.001 Y26.067 Z23.001 A1.0914 
N586 X-152.001 Y21.557 Z22.996 A1.0994 
N587 X-152.001 Y16.988 Z22.988 
N588 X-152.001 Y12.431 Z22.980 
N589 X-152.001 Y7.956 Z22.972 
N590 X-152.001 Y3.630 Z22.965 
N591 X-152.001 Y-0.487 Z22.958 
N592 X-152.001 Y-4.344 Z22.951 
N593 X-152.001 Y-7.901 Z22.945 
N594 X-152.001 Y-11.130 Z22.939 
N595 X-152.001 Y-14.017 Z22.934 
N596 X-152.001 Y-16.558 Z22.930 
N597 X-152.001 Y-18.763 Z22.926 
N598 X-152.001 Y-20.647 Z22.923 
N599 X-152.001 Y-22.235 Z22.923 A1.1098 
N600 X-152.001 Y-23.557 Z22.987 A1.3123 
N601 X-152.001 Y-24.651 Z23.254 A2.1507 
N602 X-152.001 Y-25.565 Z23.808 A3.9041 
N603 X-152.001 Y-26.354 Z24.618 A6.4954 
N604 X-152.001 Y-27.071 Z25.600 A9.6812 
N605 X-152.001 Y-27.752 Z26.662 A13.1836 
N606 X-152.001 Y-28.413 Z27.717 A16.7320 
N607 X-152.001 Y-29.054 Z28.703 A20.1286 
N608 X-152.001 Y-29.668 Z29.594 A23.2798 
N609 X-152.001 Y-30.253 Z30.387 A26.1642 
N610 X-152.001 Y-30.811 Z31.091 A28.8015 
N611 X-152.001 Y-31.345 Z31.721 A31.2301 
N612 X-152.001 Y-31.860 Z32.291 A33.4932 
N613 X-152.001 Y-32.363 Z32.812 A35.6313 
N614 X-152.001 Y-32.860 Z33.296 A37.6788 
N615 X-152.001 Y-33.356 Z33.749 A39.6631 
N616 X-152.001 Y-33.854 Z34.177 A41.6061 
N617 X-152.001 Y-34.359 Z34.584 A43.5240 
N618 X-152.001 Y-34.873 Z34.972 A45.4298 
N619 X-152.001 Y-35.399 Z35.343 A47.3348 
N620 X-152.001 Y-35.939 Z35.699 A49.2483 
N621 X-152.001 Y-36.495 Z36.039 A51.1781 
N622 X-152.001 Y-37.069 Z36.364 A53.1300 
N623 X-152.001 Y-37.663 Z36.672 A55.1092 
N624 X-152.001 Y-38.278 Z36.963 A57.1220 
N625 X-152.001 Y-38.918 Z37.236 A59.1783 
N626 X-152.001 Y-39.587 Z37.489 A61.2918 
N627 X-152.001 Y-40.293 Z37.720 A63.4830 
N628 X-152.001 Y-41.045 Z37.927 A65.7799 
N629 X-152.001 Y-41.855 Z38.105 A68.2175 
N630 X-152.001 Y-42.736 Z38.246 A70.8306 
N631 X-152.001 Y-43.694 Z38.338 A73.6423 
N632 X-152.001 Y-44.731 Z38.361 A76.6510 
N633 X-152.001 Y-45.827 Z38.290 A79.8118 
N634 X-152.001 Y-46.942 Z38.101 A83.0172 
N635 X-152.001 Y-48.017 Z37.773 A86.1123 
N636 X-152.001 Y-48.985 Z37.298 A88.9258 
N637 X-152.001 Y-49.771 Z36.675 A91.2572 
N638 X-152.001 Y-50.299 Z35.915 A92.8864 
N639 X-152.001 Y-50.543 Z35.025 A93.7285 
N640 X-152.001 Y-50.578 Z34.003 A93.9901 
N641 X-152.001 Y-50.530 Z32.834 A94.0307 B-0.0000 
N642 X-152.001 Y-50.466 Z31.511 A94.0488 B-0.0003 
N643 X-152.001 Y-50.397 Z30.037 A94.0793 B-0.0015 
N644 X-152.001 Y-50.322 Z28.419 A94.1150 B-0.0052 
N645 X-152.001 Y-50.236 Z26.676 A94.1450 B-0.0141 
N646 X-152.001 Y-50.144 Z24.828 A94.1734 B-0.0297 
N647 X-152.001 Y-50.047 Z22.902 A94.2041 B-0.0507 
N648 X-152.001 Y-49.947 Z20.930 A94.2360 B-0.0742 
N649 X-152.001 Y-49.845 Z18.947 A94.2682 B-0.0963 
N650 X-152.001 Y-49.743 Z16.986 A94.3002 B-0.1138 
N651 X-152.001 Y-49.643 Z15.082 A94.3308 B-0.1268 
N652 X-152.001 Y-49.544 Z13.264 A94.3543 B-0.1376 
N653 X-152.001 Y-49.448 Z11.558 A94.3662 B-0.1477 
N654 X-152.002 Y-49.357 Z9.984 A94.3703 B-0.1570 
N655 X-152.002 Y-49.274 Z8.554 A94.3745 B-0.1656 
N656 X-152.002 Y-49.208 Z7.275 A94.4026 B-0.1734 
N657 X-152.002 Y-49.205 Z6.144 A94.6011 B-0.1800 
N658 X-152.002 Y-49.363 Z5.147 A95.2735 B-0.1845 
N659 X-152.002 Y-49.752 Z4.260 A96.6632 B-0.1860 
N660 X-152.002 Y-50.371 Z3.455 A98.7879 B-0.1840 
N661 X-152.002 Y-51.167 Z2.701 A101.5029 B-0.1785 
N662 X-152.002 Y-52.073 Z1.972 A104.6150 B-0.1698 
N663 X-152.002 Y-53.018 Z1.255 A107.9143 B-0.1583 
N664 X-152.001 Y-53.938 Z0.551 A111.2031 B-0.1448 
N665 X-152.001 Y-54.792 Z-0.134 A114.3435 B-0.1301 
N666 X-152.001 Y-55.561 Z-0.792 A117.2668 B-0.1150 
N667 X-152.001 Y-56.246 Z-1.420 A119.9593 B-0.0997 
N668 X-152.001 Y-56.854 Z-2.020 A122.4416 B-0.0844 
N669 X-152.001 Y-57.398 Z-2.597 A124.7487 B-0.0693 
N670 X-152.001 Y-57.890 Z-3.156 A126.9180 B-0.0542 
N671 X-152.001 Y-58.340 Z-3.703 A128.9830 B-0.0391 
N672 X-152.001 Y-58.755 Z-4.245 A130.9723 B-0.0240 
N673 X-152.001 Y-59.141 Z-4.785 A132.9085 B-0.0088 
N674 X-152.001 Y-59.501 Z-5.328 A134.8098 B0.0066 
N675 X-152.000 Y-59.840 Z-5.877 A136.6905 B0.0220 
N676 X-152.000 Y-60.158 Z-6.436 A138.5627 B0.0375 
N677 X-152.000 Y-60.457 Z-7.005 A140.4369 B0.0531 
N678 X-152.000 Y-60.737 Z-7.590 A142.3240 B0.0687 
N679 X-152.000 Y-61.000 Z-8.193 A144.2365 B0.0843 
N680 X-152.000 Y-61.244 Z-8.820 A146.1905 B0.1000 
N681 X-152.000 Y-61.470 Z-9.478 A148.2076 B0.1159 
N682 X-152.000 Y-61.677 Z-10.176 A150.3164 B0.1320 
N683 X-152.000 Y-61.862 Z-10.929 A152.5541 B0.1486 
N684 X-152.000 Y-62.021 Z-11.751 A154.9643 B0.1659 
N685 X-152.000 Y-62.142 Z-12.659 A157.5924 B0.1839 
N686 X-151.999 Y-62.211 Z-13.668 A160.4765 B0.2029 
N687 X-151.999 Y-62.201 Z-14.783 A163.6310 B0.2229 
N688 X-151.999 Y-62.076 Z-15.991 A167.0195 B0.2436 
N689 X-151.999 Y-61.793 Z-17.241 A170.5040 B0.2644 
N690 X-151.999 Y-61.313 Z-18.425 A173.7956 B0.2844 
N691 X-151.999 Y-60.611 Z-19.390 A176.4640 B0.3022 
N692 X-151.999 Y-59.685 Z-20.026 A178.1964 B0.3171 
N693 X-151.999 Y-58.532 Z-20.359 A179.0553 B0.3300 
N694 X-151.999 Y-57.135 Z-20.513 A179.3894 B0.3427 
N695 X-151.999 Y-55.468 Z-20.623 A179.5877 B0.3554 
N696 X-151.998 Y-53.503 Z-20.775 A179.9153 B0.3655 
N697 X-151.998 Y-51.215 Z-20.953 A180.3442 B0.3700 
N698 X-151.998 Y-48.588 Z-21.115 A180.7690 B0.3713 
N699 X-151.998 Y-45.616 Z-21.230 A181.1063 B0.3729 
N700 X-151.998 Y-42.305 Z-21.273 A181.2714 B0.3757 
N701 X-151.998 Y-38.673 Z-21.262 A181.2938 B0.3788 
N702 X-151.998 Y-34.750 Z-21.242 A181.2938 B0.3820 
N703 X-151.998 Y-30.578 Z-21.220 B0.3854 
N704 X-151.998 Y-26.214 Z-21.198 B0.3890 
N705 X-151.998 Y-21.721 Z-21.175 B0.3927 
N706 X-151.998 Y-17.172 Z-21.152 B0.3965 
N707 X-151.998 Y-12.641 Z-21.128 B0.4002 
N708 X-151.998 Y-8.200 Z-21.106 B0.4038 
N709 X-151.998 Y-3.921 Z-21.084 B0.4074 
N710 X-151.998 Y0.136 Z-21.063 B0.4107 
N711 X-151.998 Y3.918 Z-21.043 B0.4138 
N712 X-151.998 Y7.389 Z-21.026 B0.4167 
N713 X-151.998 Y10.521 Z-21.010 B0.4192 
N714 X-151.998 Y13.302 Z-20.995 B0.4215 
N715 X-151.998 Y15.734 Z-20.983 A181.2938 B0.4235 
N716 X-151.998 Y17.827 Z-20.972 B0.4253 
N717 X-151.998 Y19.602 Z-20.963 B0.4267 
N718 X-151.998 Y21.086 Z-20.962 A181.3135 B0.4281 
N719 X-151.998 Y22.313 Z-21.046 A181.5919 B0.4314 
N720 X-151.998 Y23.324 Z-21.366 A182.6038 B0.4412 
N721 X-151.998 Y24.170 Z-21.988 A184.5770 B0.4603 
N722 X-151.998 Y24.912 Z-22.870 A187.4025 B0.4879 
N723 X-151.998 Y25.602 Z-23.924 A190.8241 B0.5211 
N724 X-151.997 Y26.275 Z-25.048 A194.5327 B0.5564 
N725 X-151.997 Y26.938 Z-26.143 A198.2260 B0.5907 
N726 X-151.997 Y27.583 Z-27.147 A201.7037 B0.6220 
N727 X-151.997 Y28.202 Z-28.038 A204.8814 B0.6495 
N728 X-151.997 Y28.789 Z-28.819 A207.7528 B0.6732 
N729 X-151.997 Y29.346 Z-29.505 A210.3538 B0.6932 
N730 X-151.996 Y29.878 Z-30.114 A212.7367 B0.7102 
N731 X-151.996 Y30.391 Z-30.662 A214.9529 B0.7244 
N732 X-151.996 Y30.892 Z-31.163 A217.0471 B0.7361 
N733 X-151.996 Y31.388 Z-31.628 A219.0555 B0.7457 
N734 X-151.996 Y31.884 Z-32.063 A221.0056 B0.7531 
N735 X-151.996 Y32.383 Z-32.474 A222.9189 B0.7585 
N736 X-151.996 Y32.890 Z-32.864 A224.8111 B0.7619 
N737 X-151.996 Y33.406 Z-33.237 A226.6954 B0.7631 
N738 X-151.996 Y33.936 Z-33.593 A228.5831 B0.7622 
N739 X-151.996 Y34.480 Z-33.934 A230.4851 B0.7592 
N740 X-151.996 Y35.044 Z-34.261 A232.4118 B0.7540 
N741 X-151.996 Y35.629 Z-34.573 A234.3751 B0.7466 
N742 X-151.996 Y36.241 Z-34.872 A236.3889 B0.7370 
N743 X-151.996 Y36.885 Z-35.156 A238.4706 B0.7250 
N744 X-151.996 Y37.570 Z-35.424 A240.6424 B0.7106 
N745 X-151.997 Y38.304 Z-35.675 A242.9303 B0.6935 
N746 X-151.997 Y39.097 Z-35.904 A245.3646 B0.6736 
N747 X-151.997 Y39.963 Z-36.103 A247.9762 B0.6507 
N748 X-151.997 Y40.908 Z-36.262 A250.7893 B0.6246 
N749 X-151.997 Y41.936 Z-36.361 A253.8054 B0.5954 
N750 X-151.997 Y43.031 Z-36.379 A256.9852 B0.5636 
N751 X-151.998 Y44.158 Z-36.289 A260.2274 B0.5302 
N752 X-151.998 Y45.249 Z-36.067 A263.3547 B0.4972 
N753 X-151.998 Y46.228 Z-35.703 A266.1555 B0.4670 
N754 X-151.998 Y47.024 Z-35.197 A268.4454 B0.4419 
N755 X-151.998 Y47.591 Z-34.558 A270.0897 B0.4235 
N756 X-151.998 Y47.914 Z-33.791 A271.0427 B0.4122 
N757 X-151.998 Y48.035 Z-32.898 A271.4185 B0.4063 
N758 X-151.998 Y48.053 Z-31.871 A271.4974 B0.4030 
N759 X-151.998 Y48.056 Z-30.705 A271.5382 B0.3997 
N760 X-151.998 Y48.085 Z-29.399 A271.6672 B0.3957 
N761 X-151.998 Y48.142 Z-27.960 A271.8947 B0.3915 
N762 X-151.998 Y48.197 Z-26.400 A272.1448 B0.3880 
N763 X-151.998 Y48.234 Z-24.737 A272.3650 B0.3851 
N764 X-151.998 Y48.254 Z-22.994 A272.5589 B0.3820 
N765 X-151.998 Y48.262 Z-21.198 A272.7359 B0.3784 
N766 X-151.998 Y48.259 Z-19.379 A272.9022 B0.3742 
N767 X-151.998 Y48.249 Z-17.566 A273.0589 B0.3694 
N768 X-151.999 Y48.228 Z-15.792 A273.1938 B0.3644 
N769 X-151.999 Y48.205 Z-14.083 A273.3265 B0.3588 
N770 X-151.999 Y48.202 Z-12.464 A273.5213 B0.3522 
N771 X-151.999 Y48.207 Z-10.954 A273.7444 B0.3449 
N772 X-151.999 Y48.187 Z-9.571 A273.8911 B0.3381 
N773 X-151.999 Y48.149 Z-8.322 A273.9679 B0.3320 
N774 X-151.999 Y48.140 Z-7.209 A274.1170 B0.3258 
N775 X-151.999 Y48.246 Z-6.222 A274.6053 B0.3177 
N776 X-151.999 Y48.556 Z-5.343 A275.7213 B0.3062 
N777 X-151.999 Y49.094 Z-4.548 A277.5578 B0.2908 
N778 X-151.999 Y49.817 Z-3.808 A280.0053 B0.2722 
N779 X-151.999 Y50.661 Z-3.100 A282.8766 B0.2510 
N780 X-151.999 Y51.562 Z-2.409 A285.9883 B0.2282 
N781 X-151.999 Y52.465 Z-1.727 A289.1662 B0.2046 
N782 X-152.000 Y53.323 Z-1.059 A292.2656 B0.1810 
N783 X-152.000 Y54.111 Z-0.410 A295.1966 B0.1583 
N784 X-152.000 Y54.819 Z0.215 A297.9224 B0.1366 
N785 X-152.000 Y55.452 Z0.814 A300.4456 B0.1161 
N786 X-152.000 Y56.019 Z1.392 A302.7920 B0.0966 
N787 X-152.000 Y56.532 Z1.952 A304.9955 B0.0780 
N788 X-152.000 Y56.999 Z2.501 A307.0893 B0.0600 
N789 X-152.000 Y57.430 Z3.044 A309.1025 B0.0426 
N790 X-152.000 Y57.830 Z3.586 A311.0594 B0.0256 
N791 X-152.001 Y58.205 Z4.131 A312.9798 B0.0088 
N792 X-152.001 Y58.556 Z4.683 A314.8798 B-0.0076 
N793 X-152.001 Y58.887 Z5.246 A316.7731 B-0.0238 
N794 X-152.001 Y59.199 Z5.822 A318.6720 B-0.0396 
N795 X-152.001 Y59.491 Z6.416 A320.5885 B-0.0552 
N796 X-152.001 Y59.765 Z7.031 A322.5360 B-0.0704 
N797 X-152.001 Y60.021 Z7.673 A324.5308 B-0.0852 
N798 X-152.001 Y60.256 Z8.350 A326.5938 B-0.0997 
N799 X-152.001 Y60.469 Z9.071 A328.7518 B-0.1138 
N800 X-152.001 Y60.657 Z9.848 A331.0385 B-0.1276 
N801 X-152.001 Y60.813 Z10.695 A333.4918 B-0.1411 
N802 X-152.002 Y60.926 Z11.625 A336.1476 B-0.1541 
N803 X-152.002 Y60.978 Z12.650 A339.0307 B-0.1665 
N804 X-152.002 Y60.942 Z13.769 A342.1381 B-0.1778 
N805 X-152.002 Y60.785 Z14.958 A345.4070 B-0.1875 
N806 X-152.002 Y60.464 Z16.155 A348.6607 B-0.1947 
N807 X-152.002 Y59.943 Z17.244 A351.5778 B-0.1982 
N808 X-152.002 Y59.203 Z18.094 A353.7836 B-0.1969 
N809 X-152.002 Y58.243 Z18.653 A355.1257 B-0.1912 
N810 X-152.002 Y57.062 Z18.980 A355.7635 B-0.1817 
N811 X-152.002 Y55.649 Z19.177 A355.9737 B-0.1692 
N812 X-152.002 Y53.988 Z19.332 A356.0040 B-0.1541 
N813 X-152.001 Y52.060 Z19.501 A356.0042 B-0.1354 
N814 X-152.001 Y49.847 Z19.694 B-0.1081 
N815 X-152.001 Y47.338 Z19.915 A356.0086 B-0.0683 
N816 X-152.001 Y44.529 Z20.181 A356.0722 B-0.0269 
N817 X-152.001 Y41.426 Z20.566 A356.4483 B-0.0048 
N818 X-152.001 Y38.046 Z21.184 A357.5813 B-0.0002 
N819 X-152.001 Y34.393 Z21.908 A359.2593 B-0.0000 
N820 X-152.001 Y30.490 Z22.409 A0.5502 
N821 X-152.001 Y26.394 Z22.595 A1.0840 
N822 X-152.001 Y22.160 Z22.596 A1.1099 
N823 X-152.001 Y17.845 Z22.587 
N824 X-152.001 Y13.509 Z22.579 
N825 X-152.001 Y9.215 Z22.571 
N826 X-152.001 Y5.025 Z22.563 
N827 X-152.001 Y0.998 Z22.555 
N828 X-152.001 Y-2.814 Z22.548 
N829 X-152.001 Y-6.370 Z22.541 
N830 X-152.001 Y-9.634 Z22.535 
N831 X-152.001 Y-12.587 Z22.529 
N832 X-152.001 Y-15.216 Z22.524 
N833 X-152.001 Y-17.523 Z22.520 
N834 X-152.001 Y-19.518 Z22.516 
N835 X-152.001 Y-21.217 Z22.513 A1.1100 
N836 X-152.001 Y-22.644 Z22.525 A1.1568 
N837 X-152.001 Y-23.832 Z22.645 A1.5358 
N838 X-152.001 Y-24.816 Z23.001 A2.6543 
N839 X-152.001 Y-25.645 Z23.630 A4.6489 
N840 X-152.001 Y-26.373 Z24.489 A7.4042 
N841 X-152.001 Y-27.049 Z25.502 A10.6934 
N842 X-152.001 Y-27.703 Z26.577 A14.2421 
N843 X-152.001 Y-28.343 Z27.627 A17.7814 
N844 X-152.001 Y-28.965 Z28.598 A21.1359 
N845 X-152.001 Y-29.563 Z29.471 A24.2316 
N846 X-152.001 Y-30.135 Z30.246 A27.0593 
N847 X-152.001 Y-30.680 Z30.935 A29.6458 
N848 X-152.001 Y-31.203 Z31.552 A32.0324 
N849 X-152.001 Y-31.710 Z32.111 A34.2629 
N850 X-152.001 Y-32.207 Z32.625 A36.3764 
N851 X-152.001 Y-32.699 Z33.103 A38.4062 
N852 X-152.001 Y-33.191 Z33.552 A40.3777 
N853 X-152.001 Y-33.687 Z33.976 A42.3109 
N854 X-152.001 Y-34.190 Z34.380 A44.2213 
N855 X-152.001 Y-34.702 Z34.765 A46.1204 
N856 X-152.001 Y-35.226 Z35.134 A48.0186 
N857 X-152.001 Y-35.763 Z35.486 A49.9244 
N858 X-152.001 Y-36.316 Z35.823 A51.8436 
N859 X-152.001 Y-36.885 Z36.144 A53.7801 
N860 X-152.001 Y-37.471 Z36.448 A55.7365 
N861 X-152.001 Y-38.075 Z36.733 A57.7158 
N862 X-152.001 Y-38.698 Z37.000 A59.7239 
N863 X-152.001 Y-39.345 Z37.245 A61.7712 
N864 X-152.001 Y-40.020 Z37.469 A63.8731 
N865 X-152.001 Y-40.731 Z37.671 A66.0547 
N866 X-152.001 Y-41.489 Z37.846 A68.3479 
N867 X-152.001 Y-42.306 Z37.992 A70.7878 
N868 X-152.001 Y-43.191 Z38.097 A73.4029 
N869 X-152.001 Y-44.150 Z38.149 A76.2081 
N870 X-152.001 Y-45.176 Z38.128 A79.1900 
N871 X-152.001 Y-46.248 Z38.011 A82.2927 
N872 X-152.001 Y-47.325 Z37.778 A85.4135 
N873 X-152.001 Y-48.358 Z37.413 A88.4281 
N874 X-152.001 Y-49.287 Z36.910 A91.1843 
N875 X-152.001 Y-50.033 Z36.272 A93.4674 
N876 X-152.001 Y-50.518 Z35.511 A95.0523 B-0.0000 
N877 X-152.001 Y-50.727 Z34.638 A95.8848 B-0.0001 
N878 X-152.001 Y-50.743 Z33.644 A96.1955 B-0.0006 
N879 X-152.001 Y-50.669 Z32.514 A96.2863 B-0.0025 
N880 X-152.001 Y-50.564 Z31.241 A96.3240 B-0.0079 
N881 X-152.001 Y-50.445 Z29.826 A96.3638 B-0.0201 
N882 X-152.001 Y-50.312 Z28.278 A96.4037 B-0.0412 
N883 X-152.001 Y-50.165 Z26.615 A96.4351 B-0.0688 
N884 X-152.001 Y-50.007 Z24.856 A96.4659 B-0.0966 
N885 X-152.001 Y-49.843 Z23.028 A96.4994 B-0.1192 
N886 X-152.001 Y-49.674 Z21.162 A96.5341 B-0.1374 
N887 X-152.002 Y-49.504 Z19.288 A96.5689 B-0.1544 
N888 X-152.002 Y-49.335 Z17.441 A96.6033 B-0.1711 
N889 X-152.002 Y-49.169 Z15.650 A96.6346 B-0.1874 
N890 X-152.002 Y-49.007 Z13.944 A96.6558 B-0.2032 
N891 X-152.002 Y-48.852 Z12.346 A96.6640 B-0.2181 
N892 X-152.002 Y-48.707 Z10.873 A96.6673 B-0.2318 
N893 X-152.002 Y-48.580 Z9.536 A96.6858 B-0.2443 
N894 X-152.002 Y-48.491 Z8.338 A96.7781 B-0.2552 
N895 X-152.002 Y-48.504 Z7.272 A97.1460 B-0.2637 
N896 X-152.002 Y-48.716 Z6.315 A98.1069 B-0.2677 
N897 X-152.002 Y-49.176 Z5.442 A99.8315 B-0.2660 
N898 X-152.002 Y-49.851 Z4.623 A102.2495 B-0.2583 
N899 X-152.002 Y-50.671 Z3.835 A105.1679 B-0.2451 
N900 X-152.002 Y-51.566 Z3.062 A108.3813 B-0.2272 
N901 X-152.002 Y-52.468 Z2.299 A111.6832 B-0.2060 
N902 X-152.002 Y-53.322 Z1.555 A114.8995 B-0.1829 
N903 X-152.002 Y-54.098 Z0.839 A117.9245 B-0.1590 
N904 X-152.001 Y-54.787 Z0.156 A120.7177 B-0.1353 
N905 X-152.001 Y-55.396 Z-0.493 A123.2860 B-0.1119 
N906 X-152.001 Y-55.936 Z-1.112 A125.6608 B-0.0891 
N907 X-152.001 Y-56.419 Z-1.708 A127.8799 B-0.0666 
N908 X-152.001 Y-56.855 Z-2.287 A129.9790 B-0.0445 
N909 X-152.001 Y-57.253 Z-2.855 A131.9897 B-0.0225 
N910 X-152.001 Y-57.619 Z-3.419 A133.9376 B-0.0007 
N911 X-152.000 Y-57.959 Z-3.983 A135.8439 B0.0211 
N912 X-152.000 Y-58.274 Z-4.551 A137.7258 B0.0429 
N913 X-152.000 Y-58.569 Z-5.127 A139.5979 B0.0648 
N914 X-152.000 Y-58.843 Z-5.715 A141.4731 B0.0868 
N915 X-152.000 Y-59.098 Z-6.318 A143.3648 B0.1089 
N916 X-152.000 Y-59.335 Z-6.942 A145.2890 B0.1312 
N917 X-152.000 Y-59.553 Z-7.593 A147.2659 B0.1538 
N918 X-152.000 Y-59.751 Z-8.280 A149.3217 B0.1770 
N919 X-151.999 Y-59.928 Z-9.015 A151.4905 B0.2010 
N920 X-151.999 Y-60.080 Z-9.812 A153.8120 B0.2263 
N921 X-151.999 Y-60.198 Z-10.688 A156.3287 B0.2531 
N922 X-151.999 Y-60.269 Z-11.655 A159.0795 B0.2819 
N923 X-151.999 Y-60.271 Z-12.724 A162.0865 B0.3127 
N924 X-151.999 Y-60.172 Z-13.886 A165.3284 B0.3453 
N925 X-151.998 Y-59.932 Z-15.100 A168.6890 B0.3791 
N926 X-151.998 Y-59.509 Z-16.272 A171.9089 B0.4120 
N927 X-151.998 Y-58.875 Z-17.262 A174.6015 B0.4417 
N928 X-151.998 Y-58.021 Z-17.970 A176.4760 B0.4667 
N929 X-151.998 Y-56.947 Z-18.392 A177.5165 B0.4877 
N930 X-151.998 Y-55.639 Z-18.618 A177.9757 B0.5065 
N931 X-151.998 Y-54.080 Z-18.811 A178.3192 B0.5250 
N932 X-151.997 Y-52.243 Z-19.089 A178.9209 B0.5406 
N933 X-151.997 Y-50.102 Z-19.412 A179.7017 B0.5488 
N934 X-151.997 Y-47.638 Z-19.699 A180.4470 B0.5523 
N935 X-151.997 Y-44.845 Z-19.897 A181.0031 B0.5555 
N936 X-151.997 Y-41.725 Z-19.977 A181.2717 B0.5590 
N937 X-151.997 Y-38.295 Z-19.972 A181.3096 B0.5619 
N938 X-151.997 Y-34.578 Z-19.952 A181.3097 B0.5648 
N939 X-151.997 Y-30.613 Z-19.931 B0.5679 
N940 X-151.997 Y-26.448 Z-19.908 B0.5711 
N941 X-151.997 Y-22.145 Z-19.885 B0.5745 
N942 X-151.997 Y-17.769 Z-19.861 B0.5779 
N943 X-151.997 Y-13.391 Z-19.838 B0.5813 
N944 X-151.997 Y-9.083 Z-19.814 B0.5846 
N945 X-151.997 Y-4.913 Z-19.792 B0.5879 
N946 X-151.997 Y-0.943 Z-19.770 B0.5910 
N947 X-151.997 Y2.775 Z-19.750 A181.3097 B0.5938 
N948 X-151.997 Y6.201 Z-19.732 B0.5965 
N949 X-151.997 Y9.306 Z-19.715 B0.5989 
N950 X-151.997 Y12.074 Z-19.700 A181.3097 B0.6011 
N951 X-151.997 Y14.503 Z-19.687 A181.3110 B0.6030 
N952 X-151.997 Y16.602 Z-19.677 A181.3156 B0.6053 
N953 X-151.997 Y18.387 Z-19.669 A181.3196 B0.6078 
N954 X-151.997 Y19.884 Z-19.662 A181.3247 B0.6103 
N955 X-151.997 Y21.124 Z-19.704 A181.4746 B0.6140 
N956 X-151.997 Y22.144 Z-19.943 A182.2333 B0.6244 
N957 X-151.997 Y22.991 Z-20.489 A183.9562 B0.6461 
N958 X-151.997 Y23.725 Z-21.316 A186.5901 B0.6788 
N959 X-151.996 Y24.400 Z-22.340 A189.8896 B0.7189 
N960 X-151.996 Y25.056 Z-23.463 A193.5643 B0.7619 
N961 X-151.996 Y25.707 Z-24.584 A197.3097 B0.8038 
N962 X-151.996 Y26.349 Z-25.630 A200.8894 B0.8419 
N963 X-151.996 Y26.970 Z-26.566 A204.1842 B0.8750 
N964 X-151.995 Y27.562 Z-27.388 A207.1654 B0.9030 
N965 X-151.995 Y28.124 Z-28.108 A209.8590 B0.9265 
N966 X-151.995 Y28.659 Z-28.743 A212.3140 B0.9459 
N967 X-151.995 Y29.174 Z-29.313 A214.5844 B0.9620 
N968 X-151.995 Y29.676 Z-29.831 A216.7172 B0.9753 
N969 X-151.995 Y30.170 Z-30.308 A218.7519 B0.9859 
N970 X-151.995 Y30.662 Z-30.754 A220.7186 B0.9942 
N971 X-151.995 Y31.157 Z-31.173 A222.6404 B1.0001 
N972 X-151.995 Y31.658 Z-31.571 A224.5351 B1.0039 
N973 X-151.995 Y32.167 Z-31.950 A226.4165 B1.0054 
N974 X-151.995 Y32.688 Z-32.312 A228.2969 B1.0047 
N975 X-151.995 Y33.224 Z-32.658 A230.1877 B1.0016 
N976 X-151.995 Y33.777 Z-32.990 A232.0999 B0.9962 
N977 X-151.995 Y34.351 Z-33.309 A234.0448 B0.9885 
N978 X-151.995 Y34.950 Z-33.614 A236.0357 B0.9783 
N979 X-151.995 Y35.579 Z-33.904 A238.0884 B0.9656 
N980 X-151.995 Y36.245 Z-34.181 A240.2229 B0.9502 
N981 X-151.995 Y36.956 Z-34.441 A242.4635 B0.9320 
N982 X-151.995 Y37.722 Z-34.682 A244.8373 B0.9105 
N983 X-151.995 Y38.555 Z-34.897 A247.3738 B0.8856 
N984 X-151.996 Y39.462 Z-35.078 A250.0969 B0.8569 
N985 X-151.996 Y40.446 Z-35.208 A253.0130 B0.8242 
N986 X-151.996 Y41.499 Z-35.269 A256.0948 B0.7878 
N987 X-151.996 Y42.593 Z-35.237 A259.2648 B0.7485 
N988 X-151.997 Y43.674 Z-35.089 A262.3812 B0.7081 
N989 X-151.997 Y44.675 Z-34.813 A265.2580 B0.6692 
N990 X-151.997 Y45.529 Z-34.406 A267.7185 B0.6349 
N991 X-151.997 Y46.182 Z-33.874 A269.6117 B0.6076 
N992 X-151.997 Y46.598 Z-33.226 A270.8342 B0.5890 
N993 X-151.997 Y46.788 Z-32.465 A271.4134 B0.5786 
N994 X-151.997 Y46.834 Z-31.588 A271.5732 B0.5731 
N995 X-151.997 Y46.839 Z-30.587 A271.6206 B0.5685 
N996 X-151.997 Y46.876 Z-29.461 A271.7706 B0.5626 
N997 X-151.997 Y46.965 Z-28.209 A272.0996 B0.5552 
N998 X-151.997 Y47.076 Z-26.843 A272.5250 B0.5476 
N999 X-151.997 Y47.162 Z-25.374 A272.9178 B0.5413 
N1000 X-151.998 Y47.216 Z-23.824 A273.2465 B0.5358 
N1001 X-151.998 Y47.243 Z-22.213 A273.5308 B0.5299 
N1002 X-151.998 Y47.254 Z-20.566 A273.7926 B0.5233 
N1003 X-151.998 Y47.251 Z-18.911 A274.0377 B0.5161 
N1004 X-151.998 Y47.236 Z-17.274 A274.2613 B0.5084 
N1005 X-151.998 Y47.212 Z-15.682 A274.4683 B0.5002 
N1006 X-151.998 Y47.198 Z-14.156 A274.7131 B0.4910 
N1007 X-151.998 Y47.203 Z-12.717 A275.0198 B0.4804 
N1008 X-151.998 Y47.193 Z-11.383 A275.2804 B0.4698 
N1009 X-151.998 Y47.153 Z-10.165 A275.4387 B0.4604 
N1010 X-151.998 Y47.127 Z-9.067 A275.6196 B0.4512 
N1011 X-151.998 Y47.189 Z-8.080 A276.0529 B0.4399 
N1012 X-151.998 Y47.422 Z-7.191 A277.0022 B0.4243 
N1013 X-151.998 Y47.871 Z-6.376 A278.6266 B0.4030 
N1014 X-151.998 Y48.513 Z-5.613 A280.8757 B0.3764 
N1015 X-151.999 Y49.282 Z-4.880 A283.5653 B0.3462 
N1016 X-151.999 Y50.116 Z-4.165 A286.5113 B0.3137 
N1017 X-151.999 Y50.964 Z-3.462 A289.5597 B0.2801 
N1018 X-151.999 Y51.783 Z-2.771 A292.5797 B0.2467 
N1019 X-151.999 Y52.546 Z-2.098 A295.4756 B0.2143 
N1020 X-152.000 Y53.239 Z-1.447 A298.1967 B0.1836 
N1021 X-152.000 Y53.861 Z-0.821 A300.7315 B0.1547 
N1022 X-152.000 Y54.418 Z-0.217 A303.0954 B0.1274 
N1023 X-152.000 Y54.920 Z0.369 A305.3178 B0.1016 
N1024 X-152.000 Y55.377 Z0.942 A307.4301 B0.0768 
N1025 X-152.000 Y55.796 Z1.508 A309.4611 B0.0530 
N1026 X-152.000 Y56.183 Z2.073 A311.4355 B0.0298 
N1027 X-152.001 Y56.544 Z2.641 A313.3747 B0.0072 
N1028 X-152.001 Y56.882 Z3.217 A315.2966 B-0.0149 
N1029 X-152.001 Y57.197 Z3.806 A317.2175 B-0.0366 
N1030 X-152.001 Y57.493 Z4.411 A319.1521 B-0.0579 
N1031 X-152.001 Y57.769 Z5.038 A321.1155 B-0.0788 
N1032 X-152.001 Y58.024 Z5.693 A323.1245 B-0.0992 
N1033 X-152.001 Y58.258 Z6.382 A325.1992 B-0.1193 
N1034 X-152.001 Y58.467 Z7.115 A327.3641 B-0.1390 
N1035 X-152.002 Y58.649 Z7.902 A329.6491 B-0.1583 
N1036 X-152.002 Y58.796 Z8.756 A332.0864 B-0.1772 
N1037 X-152.002 Y58.896 Z9.689 A334.7051 B-0.1956 
N1038 X-152.002 Y58.933 Z10.706 A337.5215 B-0.2132 
N1039 X-152.002 Y58.881 Z11.806 A340.5232 B-0.2295 
N1040 X-152.002 Y58.708 Z12.960 A343.6299 B-0.2436 
N1041 X-152.002 Y58.375 Z14.101 A346.6507 B-0.2540 
N1042 X-152.002 Y57.848 Z15.121 A349.2782 B-0.2590 
N1043 X-152.002 Y57.112 Z15.922 A351.2318 B-0.2575 
N1044 X-152.002 Y56.168 Z16.478 A352.4327 B-0.2498 
N1045 X-152.002 Y55.015 Z16.837 A353.0036 B-0.2369 
N1046 X-152.002 Y53.649 Z17.083 A353.1697 B-0.2197 
N1047 X-152.002 Y52.064 Z17.306 A353.1857 B-0.1991 
N1048 X-152.002 Y50.247 Z17.555 B-0.1755 
N1049 X-152.001 Y48.185 Z17.838 A353.1858 B-0.1478 
N1050 X-152.001 Y45.867 Z18.161 A353.2016 B-0.1104 
N1051 X-152.001 Y43.294 Z18.565 A353.3612 B-0.0601 
N1052 X-152.001 Y40.476 Z19.162 A354.0561 B-0.0170 
N1053 X-152.001 Y37.423 Z20.079 A355.8088 B-0.0011 
N1054 X-152.001 Y34.110 Z21.131 A358.2755 B-0.0000 
N1055 X-152.001 Y30.538 Z21.875 A0.1894 
N1056 X-152.001 Y26.765 Z22.181 A1.0539 
N1057 X-152.001 Y22.845 Z22.196 A1.1207 
N1058 X-152.001 Y18.821 Z22.188 
N1059 X-152.001 Y14.743 Z22.179 
N1060 X-152.001 Y10.664 Z22.170 
N1061 X-152.001 Y6.641 Z22.162 
N1062 X-152.001 Y2.728 Z22.154 
N1063 X-152.001 Y-1.023 Z22.146 
N1064 X-152.001 Y-4.567 Z22.138 
N1065 X-152.001 Y-7.864 Z22.131 
N1066 X-152.001 Y-10.887 Z22.125 
N1067 X-152.001 Y-13.616 Z22.119 
N1068 X-152.001 Y-16.042 Z22.114 
N1069 X-152.001 Y-18.167 Z22.110 
N1070 X-152.001 Y-20.000 Z22.106 
N1071 X-152.001 Y-21.559 Z22.103 A1.1233 
N1072 X-152.001 Y-22.867 Z22.134 A1.2242 
N1073 X-152.001 Y-23.954 Z22.303 A1.7563 
N1074 X-152.001 Y-24.857 Z22.714 A3.0520 
N1075 X-152.001 Y-25.625 Z23.385 A5.1839 
N1076 X-152.001 Y-26.308 Z24.277 A8.0432 
N1077 X-152.001 Y-26.953 Z25.314 A11.4092 
N1078 X-152.001 Y-27.587 Z26.401 A14.9982 
N1079 X-152.001 Y-28.212 Z27.453 A18.5416 
N1080 X-152.001 Y-28.821 Z28.419 A21.8793 
N1081 X-152.001 Y-29.408 Z29.283 A24.9488 
N1082 X-152.001 Y-29.970 Z30.050 A27.7481 
N1083 X-152.001 Y-30.507 Z30.731 A30.3085 
N1084 X-152.001 Y-31.023 Z31.342 A32.6731 
N1085 X-152.001 Y-31.524 Z31.897 A34.8863 
N1086 X-152.001 Y-32.017 Z32.407 A36.9870 
N1087 X-152.001 Y-32.505 Z32.882 A39.0070 
N1088 X-152.001 Y-32.995 Z33.329 A40.9717 
N1089 X-152.001 Y-33.488 Z33.751 A42.8993 
N1090 X-152.001 Y-33.989 Z34.154 A44.8049 
N1091 X-152.001 Y-34.499 Z34.537 A46.6994 
N1092 X-152.001 Y-35.020 Z34.904 A48.5918 
N1093 X-152.001 Y-35.554 Z35.255 A50.4905 
N1094 X-152.001 Y-36.103 Z35.590 A52.4001 
N1095 X-152.001 Y-36.667 Z35.909 A54.3225 
N1096 X-152.001 Y-37.246 Z36.210 A56.2585 
N1097 X-152.001 Y-37.839 Z36.491 A58.2088 
N1098 X-152.001 Y-38.448 Z36.753 A60.1751 
N1099 X-152.001 Y-39.074 Z36.994 A62.1639 
N1100 X-152.001 Y-39.721 Z37.214 A64.1869 
N1101 X-152.001 Y-40.394 Z37.411 A66.2627 
N1102 X-152.001 Y-41.103 Z37.585 A68.4197 
N1103 X-152.001 Y-41.858 Z37.733 A70.6884 
N1104 X-152.001 Y-42.668 Z37.849 A73.0993 
N1105 X-152.001 Y-43.541 Z37.925 A75.6756 
N1106 X-152.001 Y-44.481 Z37.945 A78.4267 
N1107 X-152.001 Y-45.480 Z37.893 A81.3371 
N1108 X-152.001 Y-46.517 Z37.750 A84.3572 
N1109 X-152.001 Y-47.562 Z37.497 A87.4110 
N1110 X-152.001 Y-48.574 Z37.121 A90.4041 
N1111 X-152.001 Y-49.497 Z36.616 A93.1964 
N1112 X-152.001 Y-50.248 Z35.986 A95.5590 
N1113 X-152.001 Y-50.744 Z35.247 A97.2538 B-0.0001 
N1114 X-152.001 Y-50.967 Z34.411 A98.2136 B-0.0006 
N1115 X-152.001 Y-50.986 Z33.470 A98.6377 B-0.0032 
N1116 X-152.001 Y-50.893 Z32.409 A98.7895 B-0.0106 
N1117 X-152.001 Y-50.748 Z31.215 A98.8440 B-0.0261 
N1118 X-152.001 Y-50.579 Z29.889 A98.8856 B-0.0507 
N1119 X-152.001 Y-50.390 Z28.437 A98.9253 B-0.0804 
N1120 X-152.001 Y-50.184 Z26.876 A98.9584 B-0.1079 
N1121 X-152.001 Y-49.963 Z25.223 A98.9920 B-0.1307 
N1122 X-152.002 Y-49.734 Z23.503 A99.0285 B-0.1519 
N1123 X-152.002 Y-49.498 Z21.745 A99.0661 B-0.1733 
N1124 X-152.002 Y-49.259 Z19.978 A99.1039 B-0.1948 
N1125 X-152.002 Y-49.023 Z18.232 A99.1403 B-0.2162 
N1126 X-152.002 Y-48.790 Z16.538 A99.1722 B-0.2372 
N1127 X-152.002 Y-48.565 Z14.921 A99.1931 B-0.2574 
N1128 X-152.002 Y-48.349 Z13.403 A99.2011 B-0.2765 
N1129 X-152.002 Y-48.149 Z12.001 A99.2067 B-0.2943 
N1130 X-152.002 Y-47.977 Z10.723 A99.2458 B-0.3102 
N1131 X-152.002 Y-47.864 Z9.571 A99.4079 B-0.3238 
N1132 X-152.003 Y-47.878 Z8.533 A99.9163 B-0.3332 
N1133 X-152.003 Y-48.113 Z7.582 A101.0796 B-0.3357 
N1134 X-152.003 Y-48.600 Z6.689 A103.0215 B-0.3295 
N1135 X-152.002 Y-49.285 Z5.831 A105.6134 B-0.3149 
N1136 X-152.002 Y-50.091 Z4.992 A108.6317 B-0.2931 
N1137 X-152.002 Y-50.944 Z4.164 A111.8663 B-0.2658 
N1138 X-152.002 Y-51.783 Z3.352 A115.1215 B-0.2349 
N1139 X-152.002 Y-52.561 Z2.567 A118.2460 B-0.2024 
N1140 X-152.002 Y-53.258 Z1.818 A121.1577 B-0.1698 
N1141 X-152.001 Y-53.870 Z1.108 A123.8360 B-0.1378 
N1142 X-152.001 Y-54.408 Z0.436 A126.3016 B-0.1066 
N1143 X-152.001 Y-54.883 Z-0.205 A128.5904 B-0.0763 
N1144 X-152.001 Y-55.307 Z-0.822 A130.7399 B-0.0467 
N1145 X-152.001 Y-55.689 Z-1.423 A132.7848 B-0.0177 
N1146 X-152.001 Y-56.037 Z-2.014 A134.7550 B0.0111 
N1147 X-152.000 Y-56.355 Z-2.602 A136.6758 B0.0396 
N1148 X-152.000 Y-56.649 Z-3.193 A138.5682 B0.0681 
N1149 X-152.000 Y-56.921 Z-3.790 A140.4499 B0.0966 
N1150 X-152.000 Y-57.171 Z-4.399 A142.3371 B0.1252 
N1151 X-152.000 Y-57.403 Z-5.025 A144.2471 B0.1542 
N1152 X-152.000 Y-57.614 Z-5.675 A146.1996 B0.1836 
N1153 X-151.999 Y-57.807 Z-6.356 A148.2195 B0.2139 
N1154 X-151.999 Y-57.978 Z-7.080 A150.3373 B0.2453 
N1155 X-151.999 Y-58.125 Z-7.860 A152.5886 B0.2785 
N1156 X-151.999 Y-58.242 Z-8.708 A155.0113 B0.3137 
N1157 X-151.999 Y-58.315 Z-9.639 A157.6413 B0.3516 
N1158 X-151.998 Y-58.327 Z-10.662 A160.5015 B0.3925 
N1159 X-151.998 Y-58.251 Z-11.771 A163.5760 B0.4362 
N1160 X-151.998 Y-58.050 Z-12.934 A166.7674 B0.4816 
N1161 X-151.998 Y-57.684 Z-14.072 A169.8598 B0.5266 
N1162 X-151.997 Y-57.123 Z-15.075 A172.5407 B0.5680 
N1163 X-151.997 Y-56.353 Z-15.848 A174.5449 B0.6039 
N1164 X-151.997 Y-55.369 Z-16.354 A175.7572 B0.6336 
N1165 X-151.997 Y-54.163 Z-16.653 A176.3421 B0.6590 
N1166 X-151.997 Y-52.725 Z-16.937 A176.8615 B0.6840 
N1167 X-151.997 Y-51.036 Z-17.356 A177.7864 B0.7072 
N1168 X-151.996 Y-49.062 Z-17.839 A178.9651 B0.7222 
N1169 X-151.996 Y-46.781 Z-18.266 A180.0706 B0.7307 
N1170 X-151.996 Y-44.186 Z-18.556 A180.8746 B0.7371 
N1171 X-151.996 Y-41.279 Z-18.679 A181.2599 B0.7423 
N1172 X-151.996 Y-38.072 Z-18.682 A181.3208 B0.7455 
N1173 X-151.996 Y-34.583 Z-18.663 A181.3210 B0.7483 
N1174 X-151.996 Y-30.843 Z-18.642 B0.7513 
N1175 X-151.996 Y-26.898 Z-18.620 B0.7545 
N1176 X-151.996 Y-22.799 Z-18.597 B0.7578 
N1177 X-151.996 Y-18.609 Z-18.573 B0.7612 
N1178 X-151.996 Y-14.394 Z-18.550 B0.7646 
N1179 X-151.996 Y-10.223 Z-18.526 B0.7680 
N1180 X-151.996 Y-6.162 Z-18.503 A181.3210 B0.7712 
N1181 X-151.996 Y-2.272 Z-18.482 B0.7744 
N1182 X-151.996 Y1.391 Z-18.461 B0.7773 
N1183 X-151.996 Y4.785 Z-18.442 B0.7801 
N1184 X-151.996 Y7.879 Z-18.425 B0.7826 
N1185 X-151.996 Y10.652 Z-18.409 A181.3210 B0.7848 
N1186 X-151.996 Y13.099 Z-18.396 A181.3237 B0.7869 
N1187 X-151.996 Y15.224 Z-18.391 A181.3444 B0.7892 
N1188 X-151.996 Y17.040 Z-18.390 A181.3766 B0.7921 
N1189 X-151.996 Y18.570 Z-18.385 A181.3918 B0.7949 
N1190 X-151.996 Y19.841 Z-18.393 A181.4427 B0.7980 
N1191 X-151.996 Y20.887 Z-18.533 A181.8965 B0.8063 
N1192 X-151.996 Y21.750 Z-18.965 A183.2566 B0.8275 
N1193 X-151.996 Y22.486 Z-19.707 A185.6066 B0.8630 
N1194 X-151.995 Y23.151 Z-20.679 A188.7166 B0.9087 
N1195 X-151.995 Y23.790 Z-21.785 A192.3037 B0.9593 
N1196 X-151.995 Y24.428 Z-22.926 A196.0730 B1.0096 
N1197 X-151.994 Y25.064 Z-24.015 A199.7525 B1.0556 
N1198 X-151.994 Y25.686 Z-25.002 A203.1777 B1.0955 
N1199 X-151.994 Y26.283 Z-25.872 A206.2884 B1.1289 
N1200 X-151.994 Y26.850 Z-26.634 A209.0939 B1.1566 
N1201 X-151.994 Y27.391 Z-27.303 A211.6397 B1.1793 
N1202 X-151.994 Y27.909 Z-27.900 A213.9807 B1.1979 
N1203 X-151.994 Y28.412 Z-28.441 A216.1685 B1.2129 
N1204 X-151.994 Y28.906 Z-28.937 A218.2454 B1.2250 
N1205 X-151.993 Y29.397 Z-29.399 A220.2453 B1.2344 
N1206 X-151.993 Y29.890 Z-29.833 A222.1937 B1.2413 
N1207 X-151.993 Y30.388 Z-30.244 A224.1096 B1.2457 
N1208 X-151.993 Y30.894 Z-30.634 A226.0079 B1.2476 
N1209 X-151.993 Y31.411 Z-31.008 A227.9003 B1.2472 
N1210 X-151.993 Y31.941 Z-31.364 A229.7977 B1.2443 
N1211 X-151.993 Y32.487 Z-31.706 A231.7102 B1.2389 
N1212 X-151.993 Y33.052 Z-32.033 A233.6476 B1.2310 
N1213 X-151.994 Y33.639 Z-32.346 A235.6210 B1.2205 
N1214 X-151.994 Y34.252 Z-32.644 A237.6439 B1.2074 
N1215 X-151.994 Y34.897 Z-32.927 A239.7331 B1.1914 
N1216 X-151.994 Y35.580 Z-33.195 A241.9090 B1.1724 
N1217 X-151.994 Y36.311 Z-33.444 A244.1961 B1.1500 
N1218 X-151.994 Y37.099 Z-33.671 A246.6213 B1.1239 
N1219 X-151.994 Y37.952 Z-33.869 A249.2102 B1.0937 
N1220 X-151.994 Y38.877 Z-34.027 A251.9762 B1.0589 
N1221 X-151.995 Y39.870 Z-34.129 A254.9082 B1.0195 
N1222 X-151.995 Y40.913 Z-34.154 A257.9565 B0.9759 
N1223 X-151.995 Y41.970 Z-34.084 A261.0201 B0.9296 
N1224 X-151.995 Y42.984 Z-33.901 A263.9488 B0.8828 
N1225 X-151.996 Y43.896 Z-33.600 A266.5823 B0.8388 
N1226 X-151.996 Y44.649 Z-33.183 A268.7666 B0.8007 
N1227 X-151.996 Y45.190 Z-32.657 A270.3525 B0.7716 
N1228 X-151.996 Y45.496 Z-32.030 A271.2652 B0.7529 
N1229 X-151.996 Y45.608 Z-31.303 A271.6194 B0.7427 
N1230 X-151.996 Y45.633 Z-30.471 A271.7239 B0.7360 
N1231 X-151.996 Y45.669 Z-29.527 A271.8700 B0.7288 
N1232 X-151.996 Y45.766 Z-28.471 A272.2185 B0.7193 
N1233 X-151.997 Y45.919 Z-27.305 A272.7666 B0.7078 
N1234 X-151.997 Y46.073 Z-26.038 A273.3651 B0.6964 
N1235 X-151.997 Y46.187 Z-24.687 A273.8958 B0.6864 
N1236 X-151.997 Y46.257 Z-23.270 A274.3359 B0.6772 
N1237 X-151.997 Y46.294 Z-21.805 A274.7170 B0.6678 
N1238 X-151.997 Y46.311 Z-20.316 A275.0706 B0.6575 
N1239 X-151.997 Y46.310 Z-18.825 A275.3984 B0.6468 
N1240 X-151.997 Y46.296 Z-17.357 A275.7057 B0.6356 
N1241 X-151.997 Y46.279 Z-15.932 A276.0187 B0.6236 
N1242 X-151.997 Y46.276 Z-14.569 A276.3798 B0.6103 
N1243 X-151.997 Y46.276 Z-13.285 A276.7529 B0.5963 
N1244 X-151.997 Y46.244 Z-12.098 A277.0236 B0.5834 
N1245 X-151.997 Y46.197 Z-11.014 A277.2313 B0.5712 
N1246 X-151.997 Y46.210 Z-10.027 A277.5984 B0.5569 
N1247 X-151.997 Y46.358 Z-9.126 A278.3658 B0.5379 
N1248 X-151.998 Y46.696 Z-8.292 A279.7169 B0.5122 
N1249 X-151.998 Y47.229 Z-7.504 A281.6888 B0.4796 
N1250 X-151.998 Y47.910 Z-6.744 A284.1546 B0.4414 
N1251 X-151.998 Y48.670 Z-6.002 A286.9181 B0.4000 
N1252 X-151.999 Y49.456 Z-5.273 A289.8213 B0.3571 
N1253 X-151.999 Y50.230 Z-4.556 A292.7453 B0.3140 
N1254 X-151.999 Y50.964 Z-3.854 A295.5973 B0.2720 
N1255 X-151.999 Y51.640 Z-3.172 A298.3146 B0.2320 
N1256 X-151.999 Y52.250 Z-2.513 A300.8688 B0.1942 
N1257 X-152.000 Y52.798 Z-1.877 A303.2611 B0.1587 
N1258 X-152.000 Y53.290 Z-1.260 A305.5128 B0.1252 
N1259 X-152.000 Y53.736 Z-0.657 A307.6534 B0.0934 
N1260 X-152.000 Y54.143 Z-0.061 A309.7117 B0.0629 
N1261 X-152.000 Y54.517 Z0.533 A311.7141 B0.0333 
N1262 X-152.001 Y54.864 Z1.132 A313.6841 B0.0046 
N1263 X-152.001 Y55.185 Z1.740 A315.6429 B-0.0235 
N1264 X-152.001 Y55.484 Z2.365 A317.6096 B-0.0511 
N1265 X-152.001 Y55.762 Z3.011 A319.6021 B-0.0781 
N1266 X-152.001 Y56.017 Z3.685 A321.6384 B-0.1046 
N1267 X-152.001 Y56.248 Z4.395 A323.7382 B-0.1306 
N1268 X-152.002 Y56.452 Z5.148 A325.9237 B-0.1561 
N1269 X-152.002 Y56.624 Z5.955 A328.2210 B-0.1811 
N1270 X-152.002 Y56.757 Z6.827 A330.6568 B-0.2055 
N1271 X-152.002 Y56.839 Z7.771 A333.2525 B-0.2292 
N1272 X-152.002 Y56.852 Z8.791 A336.0140 B-0.2517 
N1273 X-152.002 Y56.773 Z9.879 A338.9108 B-0.2723 
N1274 X-152.002 Y56.568 Z10.998 A341.8362 B-0.2896 
N1275 X-152.002 Y56.204 Z12.076 A344.5831 B-0.3017 
N1276 X-152.002 Y55.652 Z13.020 A346.8837 B-0.3066 
N1277 X-152.002 Y54.903 Z13.767 A348.5508 B-0.3035 
N1278 X-152.002 Y53.958 Z14.303 A349.5413 B-0.2929 
N1279 X-152.002 Y52.822 Z14.670 A349.9594 B-0.2757 
N1280 X-152.002 Y51.499 Z14.958 A350.0497 B-0.2537 
N1281 X-152.002 Y49.991 Z15.251 A350.0561 B-0.2281 
N1282 X-152.002 Y48.292 Z15.584 A350.0672 B-0.1994 
N1283 X-152.002 Y46.390 Z15.957 A350.0849 B-0.1679 
N1284 X-152.001 Y44.278 Z16.380 A350.1335 B-0.1326 
N1285 X-152.001 Y41.963 Z16.919 A350.4258 B-0.0864 
N1286 X-152.001 Y39.464 Z17.728 A351.4969 B-0.0311 
N1287 X-152.001 Y36.779 Z18.932 A353.8930 B-0.0035 
N1288 X-152.001 Y33.847 Z20.297 A357.1310 B-0.0001 
N1289 X-152.001 Y30.640 Z21.290 A359.6884 B-0.0000 
N1290 X-152.001 Y27.222 Z21.750 A0.9709 
N1291 X-152.001 Y23.645 Z21.798 A1.1325 
N1292 X-152.001 Y19.944 Z21.789 A1.1327 
N1293 X-152.001 Y16.154 Z21.780 
N1294 X-152.001 Y12.319 Z21.771 
N1295 X-152.001 Y8.489 Z21.763 
N1296 X-152.001 Y4.711 Z21.754 
N1297 X-152.001 Y1.038 Z21.745 
N1298 X-152.001 Y-2.483 Z21.737 
N1299 X-152.001 Y-5.810 Z21.729 
N1300 X-152.001 Y-8.905 Z21.722 
N1301 X-152.001 Y-11.742 Z21.716 
N1302 X-152.001 Y-14.302 Z21.710 
N1303 X-152.001 Y-16.576 Z21.704 
N1304 X-152.001 Y-18.566 Z21.700 
N1305 X-152.001 Y-20.281 Z21.696 
N1306 X-152.001 Y-21.737 Z21.695 A1.1411 
N1307 X-152.001 Y-22.957 Z21.742 A1.2925 
N1308 X-152.001 Y-23.969 Z21.942 A1.9217 
N1309 X-152.001 Y-24.812 Z22.380 A3.3022 
N1310 X-152.001 Y-25.531 Z23.072 A5.4998 
N1311 X-152.001 Y-26.179 Z23.986 A8.4237 
N1312 X-152.001 Y-26.800 Z25.043 A11.8500 
N1313 X-152.001 Y-27.416 Z26.145 A15.4794 
N1314 X-152.001 Y-28.029 Z27.204 A19.0409 
N1315 X-152.001 Y-28.628 Z28.172 A22.3821 
N1316 X-152.001 Y-29.207 Z29.036 A25.4466 
N1317 X-152.001 Y-29.761 Z29.802 A28.2368 
N1318 X-152.001 Y-30.292 Z30.481 A30.7868 
N1319 X-152.001 Y-30.803 Z31.090 A33.1419 
N1320 X-152.001 Y-31.299 Z31.643 A35.3470 
N1321 X-152.001 Y-31.788 Z32.153 A37.4415 
N1322 X-152.001 Y-32.273 Z32.627 A39.4566 
N1323 X-152.001 Y-32.759 Z33.074 A41.4173 
N1324 X-152.001 Y-33.250 Z33.497 A43.3417 
N1325 X-152.001 Y-33.748 Z33.899 A45.2433 
N1326 X-152.001 Y-34.255 Z34.282 A47.1335 
N1327 X-152.001 Y-34.773 Z34.649 A49.0203 
N1328 X-152.001 Y-35.303 Z35.000 A50.9112 
N1329 X-152.001 Y-35.848 Z35.334 A52.8110 
N1330 X-152.001 Y-36.406 Z35.652 A54.7209 
N1331 X-152.001 Y-36.977 Z35.952 A56.6399 
N1332 X-152.001 Y-37.562 Z36.233 A58.5668 
N1333 X-152.001 Y-38.158 Z36.493 A60.5015 
N1334 X-152.001 Y-38.768 Z36.732 A62.4456 
N1335 X-152.001 Y-39.392 Z36.950 A64.4068 
N1336 X-152.001 Y-40.034 Z37.146 A66.3983 
N1337 X-152.001 Y-40.701 Z37.320 A68.4409 
N1338 X-152.001 Y-41.401 Z37.471 A70.5608 
N1339 X-152.001 Y-42.143 Z37.595 A72.7838 
N1340 X-152.001 Y-42.934 Z37.688 A75.1352 
N1341 X-152.001 Y-43.782 Z37.740 A77.6349 
N1342 X-152.001 Y-44.687 Z37.740 A80.2922 
N1343 X-152.001 Y-45.646 Z37.673 A83.0984 
N1344 X-152.001 Y-46.644 Z37.522 A86.0229 
N1345 X-152.001 Y-47.660 Z37.271 A89.0207 
N1346 X-152.001 Y-48.665 Z36.905 A92.0266 B-0.0000 
N1347 X-152.001 Y-49.609 Z36.418 A94.9194 B-0.0001 
N1348 X-152.001 Y-50.408 Z35.814 A97.4721 B-0.0003 
N1349 X-152.001 Y-50.971 Z35.110 A99.4243 B-0.0011 
N1350 X-152.001 Y-51.259 Z34.324 A100.6515 B-0.0032 
N1351 X-152.001 Y-51.319 Z33.454 A101.2806 B-0.0088 
N1352 X-152.001 Y-51.228 Z32.482 A101.5423 B-0.0214 
N1353 X-152.001 Y-51.055 Z31.394 A101.6315 B-0.0429 
N1354 X-152.001 Y-50.842 Z30.182 A101.6745 B-0.0701 
N1355 X-152.001 Y-50.603 Z28.850 A101.7124 B-0.0976 
N1356 X-152.001 Y-50.342 Z27.410 A101.7471 B-0.1230 
N1357 X-152.001 Y-50.063 Z25.879 A101.7832 B-0.1472 
N1358 X-152.002 Y-49.771 Z24.277 A101.8225 B-0.1714 
N1359 X-152.002 Y-49.469 Z22.631 A101.8634 B-0.1963 
N1360 X-152.002 Y-49.163 Z20.967 A101.9045 B-0.2216 
N1361 X-152.002 Y-48.858 Z19.315 A101.9445 B-0.2467 
N1362 X-152.002 Y-48.558 Z17.702 A101.9796 B-0.2715 
N1363 X-152.002 Y-48.265 Z16.154 A102.0041 B-0.2956 
N1364 X-152.002 Y-47.984 Z14.692 A102.0145 B-0.3185 
N1365 X-152.003 Y-47.722 Z13.334 A102.0202 B-0.3399 
N1366 X-152.003 Y-47.494 Z12.087 A102.0667 B-0.3592 
N1367 X-152.003 Y-47.337 Z10.951 A102.2625 B-0.3752 
N1368 X-152.003 Y-47.317 Z9.912 A102.8256 B-0.3856 
N1369 X-152.003 Y-47.524 Z8.941 A104.0534 B-0.3868 
N1370 X-152.003 Y-47.984 Z8.008 A106.0688 B-0.3764 
N1371 X-152.003 Y-48.638 Z7.095 A108.7216 B-0.3550 
N1372 X-152.003 Y-49.398 Z6.194 A111.7634 B-0.3249 
N1373 X-152.002 Y-50.192 Z5.305 A114.9778 B-0.2883 
N1374 X-152.002 Y-50.959 Z4.439 A118.1756 B-0.2480 
N1375 X-152.002 Y-51.660 Z3.607 A121.2178 B-0.2064 
N1376 X-152.002 Y-52.279 Z2.821 A124.0358 B-0.1652 
N1377 X-152.001 Y-52.818 Z2.080 A126.6241 B-0.1252 
N1378 X-152.001 Y-53.288 Z1.380 A129.0113 B-0.0863 
N1379 X-152.001 Y-53.701 Z0.713 A131.2352 B-0.0487 
N1380 X-152.001 Y-54.068 Z0.071 A133.3337 B-0.0119 
N1381 X-152.000 Y-54.397 Z-0.556 A135.3418 B0.0242 
N1382 X-152.000 Y-54.695 Z-1.175 A137.2901 B0.0599 
N1383 X-152.000 Y-54.966 Z-1.793 A139.2042 B0.0954 
N1384 X-152.000 Y-55.214 Z-2.417 A141.1062 B0.1309 
N1385 X-152.000 Y-55.441 Z-3.052 A143.0169 B0.1667 
N1386 X-151.999 Y-55.648 Z-3.707 A144.9577 B0.2031 
N1387 X-151.999 Y-55.835 Z-4.388 A146.9528 B0.2405 
N1388 X-151.999 Y-56.001 Z-5.106 A149.0305 B0.2793 
N1389 X-151.999 Y-56.144 Z-5.872 A151.2221 B0.3201 
N1390 X-151.999 Y-56.258 Z-6.697 A153.5604 B0.3635 
N1391 X-151.998 Y-56.333 Z-7.595 A156.0762 B0.4100 
N1392 X-151.998 Y-56.355 Z-8.572 A158.7886 B0.4601 
N1393 X-151.998 Y-56.298 Z-9.625 A161.6812 B0.5136 
N1394 X-151.997 Y-56.132 Z-10.725 A164.6722 B0.5692 
N1395 X-151.997 Y-55.821 Z-11.813 A167.5893 B0.6248 
N1396 X-151.997 Y-55.336 Z-12.805 A170.1945 B0.6772 
N1397 X-151.996 Y-54.657 Z-13.620 A172.2634 B0.7241 
N1398 X-151.996 Y-53.776 Z-14.211 A173.6511 B0.7640 
N1399 X-151.996 Y-52.688 Z-14.621 A174.4807 B0.7982 
N1400 X-151.996 Y-51.389 Z-15.032 A175.2915 B0.8318 
N1401 X-151.996 Y-49.864 Z-15.588 A176.5445 B0.8644 
N1402 X-151.995 Y-48.076 Z-16.224 A178.1059 B0.8890 
N1403 X-151.995 Y-45.996 Z-16.799 A179.6001 B0.9055 
N1404 X-151.995 Y-43.616 Z-17.198 A180.6974 B0.9174 
N1405 X-151.995 Y-40.938 Z-17.375 A181.2320 B0.9252 
N1406 X-151.995 Y-37.971 Z-17.393 A181.3321 B0.9289 
N1407 X-151.995 Y-34.727 Z-17.374 A181.3332 B0.9317 
N1408 X-151.995 Y-31.231 Z-17.354 B0.9346 
N1409 X-151.995 Y-27.519 Z-17.333 B0.9377 
N1410 X-151.995 Y-23.638 Z-17.310 B0.9410 
N1411 X-151.995 Y-19.644 Z-17.287 B0.9443 
N1412 X-151.995 Y-15.598 Z-17.263 B0.9477 
N1413 X-151.995 Y-11.566 Z-17.240 A181.3332 B0.9511 
N1414 X-151.995 Y-7.612 Z-17.217 B0.9545 
N1415 X-151.995 Y-3.799 Z-17.195 B0.9577 
N1416 X-151.995 Y-0.183 Z-17.174 B0.9607 
N1417 X-151.995 Y3.191 Z-17.154 B0.9636 
N1418 X-151.995 Y6.288 Z-17.136 B0.9662 
N1419 X-151.995 Y9.082 Z-17.120 A181.3332 B0.9685 
N1420 X-151.995 Y11.563 Z-17.106 A181.3339 B0.9706 
N1421 X-151.995 Y13.730 Z-17.099 A181.3531 B0.9729 
N1422 X-151.995 Y15.595 Z-17.107 A181.4148 B0.9761 
N1423 X-151.995 Y17.173 Z-17.113 A181.4676 B0.9797 
N1424 X-151.995 Y18.490 Z-17.108 A181.4878 B0.9827 
N1425 X-151.995 Y19.574 Z-17.161 A181.6765 B0.9882 
N1426 X-151.995 Y20.466 Z-17.446 A182.5779 B1.0054 
N1427 X-151.995 Y21.212 Z-18.062 A184.5196 B1.0403 
N1428 X-151.994 Y21.872 Z-18.952 A187.3482 B1.0896 
N1429 X-151.994 Y22.493 Z-20.018 A190.7709 B1.1467 
N1430 X-151.994 Y23.112 Z-21.163 A194.5078 B1.2055 
N1431 X-151.993 Y23.736 Z-22.293 A198.2741 B1.2606 
N1432 X-151.993 Y24.356 Z-23.340 A201.8504 B1.3088 
N1433 X-151.993 Y24.959 Z-24.274 A205.1291 B1.3493 
N1434 X-151.993 Y25.535 Z-25.092 A208.0896 B1.3824 
N1435 X-151.992 Y26.084 Z-25.808 A210.7634 B1.4093 
N1436 X-151.992 Y26.609 Z-26.442 A213.2046 B1.4311 
N1437 X-151.992 Y27.116 Z-27.012 A215.4676 B1.4486 
N1438 X-151.992 Y27.612 Z-27.531 A217.5999 B1.4625 
N1439 X-151.992 Y28.102 Z-28.012 A219.6393 B1.4734 
N1440 X-151.992 Y28.592 Z-28.461 A221.6150 B1.4814 
N1441 X-151.992 Y29.085 Z-28.886 A223.5489 B1.4867 
N1442 X-151.992 Y29.585 Z-29.288 A225.4572 B1.4895 
N1443 X-151.992 Y30.095 Z-29.672 A227.3532 B1.4896 
N1444 X-151.992 Y30.616 Z-30.038 A229.2481 B1.4872 
N1445 X-151.992 Y31.152 Z-30.389 A231.1521 B1.4821 
N1446 X-151.992 Y31.705 Z-30.724 A233.0751 B1.4744 
N1447 X-151.992 Y32.278 Z-31.045 A235.0272 B1.4639 
N1448 X-151.992 Y32.874 Z-31.352 A237.0200 B1.4507 
N1449 X-151.992 Y33.498 Z-31.644 A239.0678 B1.4344 
N1450 X-151.992 Y34.156 Z-31.920 A241.1879 B1.4150 
N1451 X-151.993 Y34.855 Z-32.180 A243.4006 B1.3921 
N1452 X-151.993 Y35.603 Z-32.421 A245.7293 B1.3654 
N1453 X-151.993 Y36.407 Z-32.637 A248.1972 B1.3343 
N1454 X-151.993 Y37.275 Z-32.820 A250.8204 B1.2984 
N1455 X-151.993 Y38.205 Z-32.959 A253.5977 B1.2573 
N1456 X-151.994 Y39.189 Z-33.037 A256.4998 B1.2112 
N1457 X-151.994 Y40.202 Z-33.037 A259.4600 B1.1609 
N1458 X-151.994 Y41.203 Z-32.943 A262.3687 B1.1082 
N1459 X-151.994 Y42.144 Z-32.747 A265.0945 B1.0560 
N1460 X-151.995 Y42.974 Z-32.445 A267.5046 B1.0073 
N1461 X-151.995 Y43.643 Z-32.042 A269.4568 B0.9658 
N1462 X-151.995 Y44.102 Z-31.546 A270.8124 B0.9350 
N1463 X-151.995 Y44.344 Z-30.964 A271.5452 B0.9157 
N1464 X-151.995 Y44.433 Z-30.294 A271.8372 B0.9047 
N1465 X-151.995 Y44.475 Z-29.532 A272.0006 B0.8962 
N1466 X-151.995 Y44.556 Z-28.671 A272.2927 B0.8856 
N1467 X-151.996 Y44.713 Z-27.711 A272.8419 B0.8711 
N1468 X-151.996 Y44.923 Z-26.654 A273.5943 B0.8537 
N1469 X-151.996 Y45.125 Z-25.511 A274.3789 B0.8366 
N1470 X-151.996 Y45.277 Z-24.295 A275.0723 B0.8213 
N1471 X-151.996 Y45.370 Z-23.026 A275.6406 B0.8074 
N1472 X-151.996 Y45.423 Z-21.718 A276.1315 B0.7936 
N1473 X-151.996 Y45.450 Z-20.390 A276.5859 B0.7791 
N1474 X-151.996 Y45.458 Z-19.063 A277.0117 B0.7643 
N1475 X-151.996 Y45.455 Z-17.754 A277.4271 B0.7488 
N1476 X-151.996 Y45.450 Z-16.483 A277.8530 B0.7323 
N1477 X-151.996 Y45.447 Z-15.265 A278.2934 B0.7149 
N1478 X-151.997 Y45.432 Z-14.116 A278.7002 B0.6976 
N1479 X-151.997 Y45.391 Z-13.049 A279.0151 B0.6815 
N1480 X-151.997 Y45.359 Z-12.067 A279.3388 B0.6651 
N1481 X-151.997 Y45.414 Z-11.159 A279.9090 B0.6448 
N1482 X-151.997 Y45.619 Z-10.311 A280.9294 B0.6176 
N1483 X-151.997 Y46.005 Z-9.504 A282.5134 B0.5823 
N1484 X-151.997 Y46.558 Z-8.722 A284.6423 B0.5390 
N1485 X-151.998 Y47.226 Z-7.952 A287.1704 B0.4901 
N1486 X-151.998 Y47.944 Z-7.194 A289.9113 B0.4383 
N1487 X-151.998 Y48.669 Z-6.445 A292.7287 B0.3859 
N1488 X-151.999 Y49.370 Z-5.709 A295.5296 B0.3342 
N1489 X-151.999 Y50.027 Z-4.988 A298.2458 B0.2842 
N1490 X-151.999 Y50.628 Z-4.287 A300.8328 B0.2369 
N1491 X-152.000 Y51.168 Z-3.609 A303.2727 B0.1923 
N1492 X-152.000 Y51.653 Z-2.950 A305.5734 B0.1505 
N1493 X-152.000 Y52.088 Z-2.306 A307.7596 B0.1109 
N1494 X-152.000 Y52.481 Z-1.671 A309.8610 B0.0731 
N1495 X-152.000 Y52.840 Z-1.037 A311.9066 B0.0367 
N1496 X-152.001 Y53.169 Z-0.397 A313.9235 B0.0013 
N1497 X-152.001 Y53.472 Z0.257 A315.9368 B-0.0332 
N1498 X-152.001 Y53.749 Z0.931 A317.9687 B-0.0669 
N1499 X-152.001 Y54.001 Z1.633 A320.0394 B-0.1000 
N1500 X-152.001 Y54.225 Z2.371 A322.1685 B-0.1324 
N1501 X-152.002 Y54.418 Z3.152 A324.3762 B-0.1640 
N1502 X-152.002 Y54.574 Z3.986 A326.6851 B-0.1948 
N1503 X-152.002 Y54.685 Z4.881 A329.1168 B-0.2247 
N1504 X-152.002 Y54.740 Z5.843 A331.6853 B-0.2533 
N1505 X-152.002 Y54.719 Z6.872 A334.3841 B-0.2802 
N1506 X-152.002 Y54.600 Z7.951 A337.1587 B-0.3042 
N1507 X-152.002 Y54.349 Z9.034 A339.8745 B-0.3234 
N1508 X-152.003 Y53.938 Z10.049 A342.3205 B-0.3355 
N1509 X-152.003 Y53.345 Z10.925 A344.2851 B-0.3388 
N1510 X-152.003 Y52.568 Z11.614 A345.6309 B-0.3329 
N1511 X-152.002 Y51.608 Z12.114 A346.3357 B-0.3183 
N1512 X-152.002 Y50.481 Z12.483 A346.5608 B-0.2967 
N1513 X-152.002 Y49.202 Z12.822 A346.5909 B-0.2709 
N1514 X-152.002 Y47.779 Z13.193 A346.6070 B-0.2420 
N1515 X-152.002 Y46.207 Z13.610 A346.6475 B-0.2106 
N1516 X-152.002 Y44.479 Z14.067 A346.6941 B-0.1766 
N1517 X-152.001 Y42.591 Z14.583 A346.7959 B-0.1385 
N1518 X-152.001 Y40.560 Z15.252 A347.2693 B-0.0906 
N1519 X-152.001 Y38.414 Z16.264 A348.7669 B-0.0385 
N1520 X-152.001 Y36.136 Z17.721 A351.7766 B-0.0083 
N1521 X-152.001 Y33.625 Z19.367 A355.7265 B-0.0006 
N1522 X-152.001 Y30.823 Z20.616 A358.9474 B-0.0000 
N1523 X-152.001 Y27.790 Z21.275 A0.7632 
N1524 X-152.001 Y24.588 Z21.399 A1.1402 
N1525 X-152.001 Y21.242 Z21.392 A1.1460 
N1526 X-152.001 Y17.774 Z21.383 
N1527 X-152.001 Y14.218 Z21.374 
N1528 X-152.001 Y10.611 Z21.365 
N1529 X-152.001 Y6.998 Z21.356 
N1530 X-152.001 Y3.427 Z21.347 
N1531 X-152.001 Y-0.055 Z21.338 
N1532 X-152.001 Y-3.400 Z21.329 
N1533 X-152.001 Y-6.566 Z21.321 
N1534 X-152.001 Y-9.516 Z21.314 
N1535 X-152.001 Y-12.223 Z21.307 
N1536 X-152.001 Y-14.666 Z21.301 
N1537 X-152.001 Y-16.837 Z21.295 
N1538 X-152.001 Y-18.736 Z21.290 
N1539 X-152.001 Y-20.371 Z21.286 
N1540 X-152.001 Y-21.758 Z21.287 A1.1596 
N1541 X-152.001 Y-22.919 Z21.340 A1.3331 
N1542 X-152.001 Y-23.881 Z21.545 A1.9773 
N1543 X-152.001 Y-24.681 Z21.979 A3.3433 
N1544 X-152.001 Y-25.364 Z22.669 A5.5287 
N1545 X-152.001 Y-25.983 Z23.590 A8.4687 
N1546 X-152.001 Y-26.582 Z24.664 A11.9349 
N1547 X-152.001 Y-27.183 Z25.784 A15.6091 
N1548 X-152.001 Y-27.785 Z26.859 A19.2108 
N1549 X-152.001 Y-28.378 Z27.841 A22.5852 
N1550 X-152.001 Y-28.952 Z28.716 A25.6745 
N1551 X-152.001 Y-29.501 Z29.489 A28.4820 
N1552 X-152.001 Y-30.028 Z30.174 A31.0432 
N1553 X-152.001 Y-30.535 Z30.787 A33.4053 
N1554 X-152.001 Y-31.028 Z31.344 A35.6143 
N1555 X-152.001 Y-31.513 Z31.856 A37.7105 
N1556 X-152.001 Y-31.995 Z32.333 A39.7262 
N1557 X-152.001 Y-32.478 Z32.781 A41.6859 
N1558 X-152.001 Y-32.965 Z33.205 A43.6085 
N1559 X-152.001 Y-33.459 Z33.609 A45.5072 
N1560 X-152.001 Y-33.962 Z33.994 A47.3920 
N1561 X-152.001 Y-34.475 Z34.362 A49.2720 
N1562 X-152.001 Y-35.001 Z34.713 A51.1540 
N1563 X-152.001 Y-35.539 Z35.049 A53.0425 
N1564 X-152.001 Y-36.091 Z35.367 A54.9397 
N1565 X-152.001 Y-36.655 Z35.669 A56.8444 
N1566 X-152.001 Y-37.231 Z35.951 A58.7539 
N1567 X-152.001 Y-37.818 Z36.213 A60.6663 
N1568 X-152.001 Y-38.415 Z36.454 A62.5812 
N1569 X-152.001 Y-39.022 Z36.674 A64.5007 
N1570 X-152.001 Y-39.641 Z36.872 A66.4330 
N1571 X-152.001 Y-40.277 Z37.049 A68.3924 
N1572 X-152.001 Y-40.934 Z37.203 A70.3972 
N1573 X-152.001 Y-41.620 Z37.335 A72.4684 
N1574 X-152.001 Y-42.341 Z37.441 A74.6260 
N1575 X-152.001 Y-43.103 Z37.516 A76.8909 
N1576 X-152.001 Y-43.912 Z37.553 A79.2811 
N1577 X-152.001 Y-44.771 Z37.543 A81.8096 
N1578 X-152.001 Y-45.679 Z37.473 A84.4797 
N1579 X-152.001 Y-46.630 Z37.330 A87.2831 
N1580 X-152.001 Y-47.614 Z37.099 A90.2043 B-0.0000 
N1581 X-152.001 Y-48.611 Z36.764 A93.2097 B-0.0000 
N1582 X-152.001 Y-49.585 Z36.315 A96.2142 B-0.0002 
N1583 X-152.001 Y-50.462 Z35.751 A99.0241 B-0.0007 
N1584 X-152.001 Y-51.145 Z35.091 A101.3645 B-0.0020 
N1585 X-152.001 Y-51.565 Z34.359 A103.0285 B-0.0053 
N1586 X-152.001 Y-51.725 Z33.564 A104.0180 B-0.0122 
N1587 X-152.001 Y-51.687 Z32.693 A104.5075 B-0.0255 
N1588 X-152.001 Y-51.519 Z31.730 A104.6969 B-0.0469 
N1589 X-152.001 Y-51.279 Z30.657 A104.7612 B-0.0738 
N1590 X-152.001 Y-51.000 Z29.470 A104.7993 B-0.1007 
N1591 X-152.001 Y-50.694 Z28.174 A104.8341 B-0.1254 
N1592 X-152.001 Y-50.364 Z26.783 A104.8716 B-0.1499 
N1593 X-152.002 Y-50.014 Z25.314 A104.9131 B-0.1756 
N1594 X-152.002 Y-49.651 Z23.789 A104.9571 B-0.2026 
N1595 X-152.002 Y-49.279 Z22.232 A105.0021 B-0.2302 
N1596 X-152.002 Y-48.904 Z20.671 A105.0467 B-0.2580 
N1597 X-152.002 Y-48.533 Z19.130 A105.0883 B-0.2857 
N1598 X-152.002 Y-48.168 Z17.636 A105.1214 B-0.3127 
N1599 X-152.003 Y-47.816 Z16.210 A105.1395 B-0.3389 
N1600 X-152.003 Y-47.481 Z14.872 A105.1453 B-0.3636 
N1601 X-152.003 Y-47.177 Z13.631 A105.1737 B-0.3863 
N1602 X-152.003 Y-46.943 Z12.487 A105.3356 B-0.4054 
N1603 X-152.003 Y-46.839 Z11.426 A105.8335 B-0.4181 
N1604 X-152.003 Y-46.950 Z10.420 A106.9516 B-0.4201 
N1605 X-152.003 Y-47.320 Z9.435 A108.8689 B-0.4077 
N1606 X-152.003 Y-47.898 Z8.456 A111.4676 B-0.3813 
N1607 X-152.003 Y-48.586 Z7.483 A114.4725 B-0.3438 
N1608 X-152.002 Y-49.306 Z6.524 A117.6466 B-0.2987 
N1609 X-152.002 Y-49.998 Z5.593 A120.7947 B-0.2494 
N1610 X-152.002 Y-50.622 Z4.706 A123.7759 B-0.1989 
N1611 X-152.001 Y-51.165 Z3.873 A126.5270 B-0.1492 
N1612 X-152.001 Y-51.632 Z3.092 A129.0524 B-0.1010 
N1613 X-152.001 Y-52.036 Z2.356 A131.3859 B-0.0544 
N1614 X-152.001 Y-52.387 Z1.656 A133.5677 B-0.0091 
N1615 X-152.000 Y-52.697 Z0.980 A135.6381 B0.0351 
N1616 X-152.000 Y-52.973 Z0.319 A137.6338 B0.0785 
N1617 X-152.000 Y-53.221 Z-0.336 A139.5864 B0.1217 
N1618 X-152.000 Y-53.444 Z-0.994 A141.5234 B0.1649 
N1619 X-151.999 Y-53.646 Z-1.663 A143.4705 B0.2086 
N1620 X-151.999 Y-53.827 Z-2.352 A145.4538 B0.2532 
N1621 X-151.999 Y-53.987 Z-3.070 A147.5007 B0.2995 
N1622 X-151.999 Y-54.125 Z-3.827 A149.6393 B0.3478 
N1623 X-151.998 Y-54.235 Z-4.634 A151.8972 B0.3990 
N1624 X-151.998 Y-54.311 Z-5.500 A154.2991 B0.4536 
N1625 X-151.998 Y-54.338 Z-6.431 A156.8573 B0.5119 
N1626 X-151.997 Y-54.299 Z-7.422 A159.5533 B0.5736 
N1627 X-151.997 Y-54.165 Z-8.452 A162.3194 B0.6377 
N1628 X-151.997 Y-53.908 Z-9.477 A165.0259 B0.7019 
N1629 X-151.996 Y-53.501 Z-10.438 A167.5059 B0.7637 
N1630 X-151.996 Y-52.924 Z-11.278 A169.5943 B0.8206 
N1631 X-151.996 Y-52.164 Z-11.956 A171.1769 B0.8713 
N1632 X-151.995 Y-51.217 Z-12.506 A172.3499 B0.9173 
N1633 X-151.995 Y-50.082 Z-13.064 A173.5298 B0.9631 
N1634 X-151.995 Y-48.744 Z-13.750 A175.1053 B1.0084 
N1635 X-151.995 Y-47.167 Z-14.529 A177.0280 B1.0461 
N1636 X-151.994 Y-45.316 Z-15.263 A178.9383 B1.0745 
N1637 X-151.994 Y-43.178 Z-15.799 A180.4031 B1.0948 
N1638 X-151.994 Y-40.755 Z-16.057 A181.1600 B1.1071 
N1639 X-151.994 Y-38.056 Z-16.104 A181.3407 B1.1122 
N1640 X-151.994 Y-35.086 Z-16.088 A181.3463 B1.1149 
N1641 X-151.994 Y-31.860 Z-16.069 B1.1177 
N1642 X-151.994 Y-28.409 Z-16.048 B1.1207 
N1643 X-151.994 Y-24.770 Z-16.026 B1.1239 
N1644 X-151.994 Y-20.991 Z-16.003 B1.1272 
N1645 X-151.994 Y-17.130 Z-15.980 A181.3463 B1.1306 
N1646 X-151.994 Y-13.248 Z-15.956 B1.1340 
N1647 X-151.994 Y-9.406 Z-15.933 B1.1374 
N1648 X-151.994 Y-5.668 Z-15.910 B1.1407 
N1649 X-151.994 Y-2.089 Z-15.889 B1.1438 
N1650 X-151.994 Y1.279 Z-15.868 A181.3463 B1.1468 
N1651 X-151.994 Y4.397 Z-15.850 B1.1495 
N1652 X-151.994 Y7.235 Z-15.832 B1.1520 
N1653 X-151.994 Y9.776 Z-15.817 B1.1542 
N1654 X-151.994 Y12.013 Z-15.805 A181.3498 B1.1562 
N1655 X-151.994 Y13.953 Z-15.804 A181.3858 B1.1587 
N1656 X-151.994 Y15.607 Z-15.818 A181.4630 B1.1619 
N1657 X-151.994 Y16.996 Z-15.830 A181.5361 B1.1652 
N1658 X-151.994 Y18.146 Z-15.849 A181.6276 B1.1691 
N1659 X-151.994 Y19.090 Z-15.985 A182.0722 B1.1804 
N1660 X-151.994 Y19.868 Z-16.414 A183.4259 B1.2099 
N1661 X-151.993 Y20.535 Z-17.165 A185.7978 B1.2589 
N1662 X-151.993 Y21.145 Z-18.146 A188.9228 B1.3204 
N1663 X-151.993 Y21.740 Z-19.260 A192.5167 B1.3869 
N1664 X-151.992 Y22.345 Z-20.416 A196.3076 B1.4520 
N1665 X-151.992 Y22.957 Z-21.525 A200.0282 B1.5106 
N1666 X-151.992 Y23.563 Z-22.534 A203.5028 B1.5602 
N1667 X-151.991 Y24.150 Z-23.425 A206.6613 B1.6009 
N1668 X-151.991 Y24.710 Z-24.204 A209.5080 B1.6337 
N1669 X-151.991 Y25.245 Z-24.889 A212.0878 B1.6599 
N1670 X-151.991 Y25.759 Z-25.500 A214.4586 B1.6809 
N1671 X-151.991 Y26.258 Z-26.052 A216.6724 B1.6975 
N1672 X-151.991 Y26.750 Z-26.559 A218.7734 B1.7104 
N1673 X-151.991 Y27.239 Z-27.030 A220.7954 B1.7201 
N1674 X-151.991 Y27.730 Z-27.474 A222.7640 B1.7268 
N1675 X-151.991 Y28.226 Z-27.893 A224.6985 B1.7307 
N1676 X-151.991 Y28.730 Z-28.292 A226.6127 B1.7318 
N1677 X-151.991 Y29.245 Z-28.673 A228.5184 B1.7302 
N1678 X-151.991 Y29.773 Z-29.036 A230.4258 B1.7258 
N1679 X-151.991 Y30.315 Z-29.383 A232.3438 B1.7186 
N1680 X-151.991 Y30.875 Z-29.715 A234.2815 B1.7085 
N1681 X-151.991 Y31.455 Z-30.032 A236.2487 B1.6955 
N1682 X-151.991 Y32.059 Z-30.333 A238.2568 B1.6794 
N1683 X-151.991 Y32.690 Z-30.620 A240.3195 B1.6601 
N1684 X-151.991 Y33.355 Z-30.889 A242.4532 B1.6373 
N1685 X-151.991 Y34.059 Z-31.141 A244.6767 B1.6107 
N1686 X-151.991 Y34.811 Z-31.372 A247.0104 B1.5797 
N1687 X-151.992 Y35.614 Z-31.576 A249.4713 B1.5439 
N1688 X-151.992 Y36.474 Z-31.746 A252.0658 B1.5029 
N1689 X-151.992 Y37.384 Z-31.870 A254.7821 B1.4564 
N1690 X-151.992 Y38.333 Z-31.933 A257.5820 B1.4048 
N1691 X-151.993 Y39.294 Z-31.923 A260.3964 B1.3491 
N1692 X-151.993 Y40.232 Z-31.829 A263.1297 B1.2913 
N1693 X-151.993 Y41.109 Z-31.643 A265.6793 B1.2342 
N1694 X-151.994 Y41.883 Z-31.367 A267.9362 B1.1810 
N1695 X-151.994 Y42.508 Z-31.005 A269.7683 B1.1355 
N1696 X-151.994 Y42.941 Z-30.563 A271.0560 B1.1013 
N1697 X-151.994 Y43.183 Z-30.048 A271.7950 B1.0789 
N1698 X-151.994 Y43.295 Z-29.460 A272.1619 B1.0646 
N1699 X-151.995 Y43.369 Z-28.792 A272.4270 B1.0528 
N1700 X-151.995 Y43.486 Z-28.040 A272.8422 B1.0380 
N1701 X-151.995 Y43.689 Z-27.201 A273.5472 B1.0177 
N1702 X-151.995 Y43.954 Z-26.277 A274.4867 B0.9933 
N1703 X-151.995 Y44.219 Z-25.274 A275.4884 B0.9683 
N1704 X-151.995 Y44.430 Z-24.209 A276.3953 B0.9454 
N1705 X-151.995 Y44.566 Z-23.096 A277.1370 B0.9252 
N1706 X-151.995 Y44.647 Z-21.950 A277.7640 B0.9060 
N1707 X-151.995 Y44.695 Z-20.784 A278.3367 B0.8865 
N1708 X-151.996 Y44.722 Z-19.613 A278.8818 B0.8667 
N1709 X-151.996 Y44.737 Z-18.453 A279.4209 B0.8461 
N1710 X-151.996 Y44.745 Z-17.319 A279.9594 B0.8248 
N1711 X-151.996 Y44.742 Z-16.226 A280.4731 B0.8034 
N1712 X-151.996 Y44.718 Z-15.188 A280.9289 B0.7825 
N1713 X-151.996 Y44.676 Z-14.216 A281.3165 B0.7627 
N1714 X-151.996 Y44.651 Z-13.308 A281.7411 B0.7420 
N1715 X-151.996 Y44.716 Z-12.453 A282.4226 B0.7161 
N1716 X-151.997 Y44.925 Z-11.636 A283.5433 B0.6821 
N1717 X-151.997 Y45.299 Z-10.840 A285.1840 B0.6386 
N1718 X-151.997 Y45.822 Z-10.051 A287.3173 B0.5862 
N1719 X-151.998 Y46.445 Z-9.263 A289.8125 B0.5277 
N1720 X-151.998 Y47.110 Z-8.478 A292.4944 B0.4662 
N1721 X-151.998 Y47.772 Z-7.699 A295.2332 B0.4045 
N1722 X-151.999 Y48.408 Z-6.931 A297.9476 B0.3440 
N1723 X-151.999 Y48.999 Z-6.176 A300.5813 B0.2859 
N1724 X-151.999 Y49.536 Z-5.440 A303.0964 B0.2309 
N1725 X-152.000 Y50.016 Z-4.723 A305.4791 B0.1792 
N1726 X-152.000 Y50.441 Z-4.023 A307.7411 B0.1307 
N1727 X-152.000 Y50.821 Z-3.332 A309.9112 B0.0846 
N1728 X-152.000 Y51.160 Z-2.642 A312.0219 B0.0405 
N1729 X-152.001 Y51.466 Z-1.943 A314.1050 B-0.0021 
N1730 X-152.001 Y51.740 Z-1.228 A316.1895 B-0.0436 
N1731 X-152.001 Y51.983 Z-0.487 A318.3001 B-0.0839 
N1732 X-152.001 Y52.193 Z0.289 A320.4573 B-0.1231 
N1733 X-152.002 Y52.365 Z1.106 A322.6802 B-0.1611 
N1734 X-152.002 Y52.495 Z1.974 A324.9885 B-0.1977 
N1735 X-152.002 Y52.573 Z2.898 A327.4007 B-0.2329 
N1736 X-152.002 Y52.587 Z3.885 A329.9239 B-0.2661 
N1737 X-152.002 Y52.520 Z4.926 A332.5371 B-0.2966 
N1738 X-152.002 Y52.346 Z5.997 A335.1575 B-0.3228 
N1739 X-152.003 Y52.035 Z7.044 A337.6264 B-0.3422 
N1740 X-152.003 Y51.561 Z8.001 A339.7441 B-0.3524 
N1741 X-152.003 Y50.913 Z8.809 A341.3386 B-0.3523 
N1742 X-152.003 Y50.090 Z9.436 A342.3059 B-0.3415 
N1743 X-152.002 Y49.107 Z9.907 A342.7143 B-0.3220 
N1744 X-152.002 Y47.991 Z10.310 A342.8156 B-0.2971 
N1745 X-152.002 Y46.765 Z10.721 A342.8391 B-0.2692 
N1746 X-152.002 Y45.436 Z11.168 A342.8734 B-0.2392 
N1747 X-152.002 Y44.001 Z11.655 A342.9239 B-0.2072 
N1748 X-152.002 Y42.456 Z12.178 A342.9796 B-0.1729 
N1749 X-152.001 Y40.808 Z12.777 A343.1652 B-0.1349 
N1750 X-152.001 Y39.089 Z13.577 A343.9001 B-0.0908 
N1751 X-152.001 Y37.330 Z14.770 A345.8603 B-0.0458 
N1752 X-152.001 Y35.490 Z16.422 A349.3913 B-0.0143 
N1753 X-152.001 Y33.437 Z18.293 A353.9331 B-0.0017 
N1754 X-152.001 Y31.077 Z19.800 A357.8215 B-0.0000 
N1755 X-152.001 Y28.465 Z20.705 A0.2882 B0.0000 
N1756 X-152.001 Y25.667 Z20.986 A1.1044 
N1757 X-152.001 Y22.710 Z20.997 A1.1607 
N1758 X-152.001 Y19.602 Z20.988 
N1759 X-152.001 Y16.364 Z20.979 
N1760 X-152.001 Y13.023 Z20.970 
N1761 X-152.001 Y9.615 Z20.960 
N1762 X-152.001 Y6.182 Z20.951 
N1763 X-152.001 Y2.772 Z20.941 
N1764 X-152.001 Y-0.568 Z20.932 
N1765 X-152.001 Y-3.789 Z20.923 
N1766 X-152.001 Y-6.848 Z20.914 
N1767 X-152.001 Y-9.706 Z20.906 
N1768 X-152.001 Y-12.333 Z20.899 
N1769 X-152.001 Y-14.709 Z20.892 
N1770 X-152.001 Y-16.823 Z20.886 
N1771 X-152.001 Y-18.673 Z20.881 
N1772 X-152.001 Y-20.266 Z20.877 
N1773 X-152.001 Y-21.618 Z20.877 A1.1734 
N1774 X-152.001 Y-22.749 Z20.924 A1.3269 
N1775 X-152.001 Y-23.685 Z21.104 A1.8943 
N1776 X-152.001 Y-24.459 Z21.498 A3.1341 
N1777 X-152.001 Y-25.118 Z22.154 A5.2045 
N1778 X-152.001 Y-25.713 Z23.061 A8.0857 
N1779 X-152.001 Y-26.291 Z24.142 A11.5549 
N1780 X-152.001 Y-26.876 Z25.284 A15.2763 
N1781 X-152.001 Y-27.469 Z26.387 A18.9465 
N1782 X-152.001 Y-28.057 Z27.397 A22.3935 
N1783 X-152.001 Y-28.628 Z28.297 A25.5487 
N1784 X-152.001 Y-29.178 Z29.091 A28.4108 
N1785 X-152.001 Y-29.704 Z29.792 A31.0139 
N1786 X-152.001 Y-30.210 Z30.418 A33.4063 
N1787 X-152.001 Y-30.701 Z30.984 A35.6364 
N1788 X-152.001 Y-31.184 Z31.504 A37.7462 
N1789 X-152.001 Y-31.662 Z31.986 A39.7702 
N1790 X-152.001 Y-32.142 Z32.440 A41.7345 
N1791 X-152.001 Y-32.624 Z32.868 A43.6579 
N1792 X-152.001 Y-33.114 Z33.275 A45.5548 
N1793 X-152.001 Y-33.611 Z33.664 A47.4356 
N1794 X-152.001 Y-34.119 Z34.034 A49.3077 
N1795 X-152.001 Y-34.637 Z34.388 A51.1791 
N1796 X-152.001 Y-35.168 Z34.726 A53.0555 
N1797 X-152.001 Y-35.712 Z35.048 A54.9387 
N1798 X-152.001 Y-36.268 Z35.353 A56.8295 
N1799 X-152.001 Y-36.836 Z35.639 A58.7256 
N1800 X-152.001 Y-37.414 Z35.906 A60.6238 
N1801 X-152.001 Y-38.001 Z36.153 A62.5215 
N1802 X-152.001 Y-38.597 Z36.379 A64.4187 
N1803 X-152.001 Y-39.201 Z36.583 A66.3173 
N1804 X-152.001 Y-39.815 Z36.766 A68.2248 
N1805 X-152.001 Y-40.444 Z36.927 A70.1544 
N1806 X-152.001 Y-41.090 Z37.067 A72.1192 
N1807 X-152.001 Y-41.757 Z37.184 A74.1336 
N1808 X-152.001 Y-42.452 Z37.275 A76.2121 
N1809 X-152.001 Y-43.177 Z37.338 A78.3703 
N1810 X-152.001 Y-43.938 Z37.367 A80.6254 
N1811 X-152.001 Y-44.740 Z37.355 A82.9935 
N1812 X-152.001 Y-45.585 Z37.294 A85.4890 
N1813 X-152.001 Y-46.474 Z37.171 A88.1231 
N1814 X-152.001 Y-47.407 Z36.975 A90.9056 B-0.0000 
N1815 X-152.001 Y-48.377 Z36.689 A93.8346 B-0.0000 
N1816 X-152.001 Y-49.363 Z36.299 A96.8749 B-0.0002 
N1817 X-152.001 Y-50.317 Z35.797 A99.9081 B-0.0007 
N1818 X-152.001 Y-51.150 Z35.193 A102.6927 B-0.0020 
N1819 X-152.001 Y-51.770 Z34.513 A104.9599 B-0.0051 
N1820 X-152.001 Y-52.124 Z33.782 A106.5476 B-0.0113 
N1821 X-152.001 Y-52.230 Z33.005 A107.4998 B-0.0223 
N1822 X-152.001 Y-52.142 Z32.169 A107.9712 B-0.0392 
N1823 X-152.001 Y-51.923 Z31.251 A108.1520 B-0.0616 
N1824 X-152.001 Y-51.631 Z30.234 A108.2156 B-0.0868 
N1825 X-152.001 Y-51.296 Z29.111 A108.2525 B-0.1118 
N1826 X-152.001 Y-50.928 Z27.888 A108.2882 B-0.1364 
N1827 X-152.002 Y-50.533 Z26.575 A108.3295 B-0.1619 
N1828 X-152.002 Y-50.117 Z25.192 A108.3756 B-0.1890 
N1829 X-152.002 Y-49.684 Z23.757 A108.4241 B-0.2172 
N1830 X-152.002 Y-49.242 Z22.295 A108.4734 B-0.2461 
N1831 X-152.002 Y-48.797 Z20.828 A108.5225 B-0.2752 
N1832 X-152.002 Y-48.356 Z19.383 A108.5683 B-0.3041 
N1833 X-152.003 Y-47.924 Z17.982 A108.6034 B-0.3324 
N1834 X-152.003 Y-47.505 Z16.645 A108.6203 B-0.3597 
N1835 X-152.003 Y-47.109 Z15.389 A108.6278 B-0.3856 
N1836 X-152.003 Y-46.760 Z14.218 A108.6969 B-0.4087 
N1837 X-152.003 Y-46.517 Z13.120 A109.0086 B-0.4261 
N1838 X-152.003 Y-46.456 Z12.071 A109.8272 B-0.4329 
N1839 X-152.003 Y-46.650 Z11.032 A111.4166 B-0.4237 
N1840 X-152.003 Y-47.086 Z9.982 A113.7911 B-0.3964 
N1841 X-152.003 Y-47.668 Z8.925 A116.6791 B-0.3543 
N1842 X-152.002 Y-48.297 Z7.880 A119.7912 B-0.3020 
N1843 X-152.002 Y-48.906 Z6.867 A122.9028 B-0.2443 
N1844 X-152.002 Y-49.450 Z5.907 A125.8513 B-0.1851 
N1845 X-152.001 Y-49.916 Z5.010 A128.5661 B-0.1269 
N1846 X-152.001 Y-50.309 Z4.174 A131.0575 B-0.0703 
N1847 X-152.001 Y-50.644 Z3.389 A133.3644 B-0.0155 
N1848 X-152.000 Y-50.931 Z2.642 A135.5319 B0.0379 
N1849 X-152.000 Y-51.182 Z1.921 A137.6037 B0.0902 
N1850 X-152.000 Y-51.403 Z1.213 A139.6179 B0.1420 
N1851 X-151.999 Y-51.599 Z0.508 A141.6080 B0.1939 
N1852 X-151.999 Y-51.772 Z-0.204 A143.6046 B0.2464 
N1853 X-151.999 Y-51.924 Z-0.934 A145.6372 B0.3003 
N1854 X-151.999 Y-52.053 Z-1.691 A147.7333 B0.3562 
N1855 X-151.998 Y-52.158 Z-2.485 A149.9171 B0.4149 
N1856 X-151.998 Y-52.231 Z-3.324 A152.2079 B0.4768 
N1857 X-151.997 Y-52.263 Z-4.212 A154.6117 B0.5423 
N1858 X-151.997 Y-52.238 Z-5.143 A157.1093 B0.6110 
N1859 X-151.997 Y-52.134 Z-6.103 A159.6489 B0.6819 
N1860 X-151.996 Y-51.930 Z-7.064 A162.1437 B0.7531 
N1861 X-151.996 Y-51.603 Z-7.988 A164.4903 B0.8230 
N1862 X-151.995 Y-51.134 Z-8.841 A166.5833 B0.8896 
N1863 X-151.995 Y-50.510 Z-9.597 A168.3519 B0.9520 
N1864 X-151.995 Y-49.724 Z-10.280 A169.8706 B1.0118 
N1865 X-151.994 Y-48.775 Z-10.982 A171.4321 B1.0725 
N1866 X-151.994 Y-47.648 Z-11.798 A173.3454 B1.1338 
N1867 X-151.994 Y-46.308 Z-12.717 A175.6274 B1.1887 
N1868 X-151.993 Y-44.712 Z-13.616 A177.9705 B1.2333 
N1869 X-151.993 Y-42.842 Z-14.322 A179.8931 B1.2666 
N1870 X-151.993 Y-40.701 Z-14.706 A180.9899 B1.2867 
N1871 X-151.993 Y-38.296 Z-14.812 A181.3342 B1.2950 
N1872 X-151.993 Y-35.628 Z-14.804 A181.3605 B1.2979 
N1873 X-151.993 Y-32.704 Z-14.785 B1.3006 
N1874 X-151.993 Y-29.543 Z-14.766 B1.3035 
N1875 X-151.993 Y-26.176 Z-14.744 B1.3066 
N1876 X-151.993 Y-22.641 Z-14.722 B1.3098 
N1877 X-151.993 Y-18.989 Z-14.699 A181.3605 B1.3131 
N1878 X-151.993 Y-15.275 Z-14.676 B1.3165 
N1879 X-151.993 Y-11.558 Z-14.652 B1.3199 
N1880 X-151.993 Y-7.900 Z-14.629 B1.3233 
N1881 X-151.993 Y-4.359 Z-14.607 A181.3605 B1.3265 
N1882 X-151.993 Y-0.989 Z-14.586 B1.3296 
N1883 X-151.993 Y2.165 Z-14.566 B1.3325 
N1884 X-151.993 Y5.067 Z-14.548 B1.3352 
N1885 X-151.993 Y7.693 Z-14.531 B1.3376 
N1886 X-151.993 Y10.029 Z-14.517 A181.3605 B1.3397 
N1887 X-151.993 Y12.073 Z-14.506 A181.3673 B1.3417 
N1888 X-151.993 Y13.833 Z-14.510 A181.4131 B1.3444 
N1889 X-151.993 Y15.325 Z-14.529 A181.5073 B1.3483 
N1890 X-151.993 Y16.570 Z-14.558 A181.6295 B1.3529 
N1891 X-151.993 Y17.596 Z-14.613 A181.8336 B1.3598 
N1892 X-151.993 Y18.434 Z-14.827 A182.5253 B1.3781 
N1893 X-151.992 Y19.132 Z-15.358 A184.1979 B1.4184 
N1894 X-151.992 Y19.744 Z-16.189 A186.8224 B1.4786 
N1895 X-151.992 Y20.318 Z-17.218 A190.1049 B1.5498 
N1896 X-151.991 Y20.893 Z-18.355 A193.7813 B1.6241 
N1897 X-151.991 Y21.485 Z-19.512 A197.5865 B1.6946 
N1898 X-151.990 Y22.087 Z-20.605 A201.2701 B1.7564 
N1899 X-151.990 Y22.682 Z-21.592 A204.6827 B1.8078 
N1900 X-151.990 Y23.258 Z-22.460 A207.7738 B1.8492 
N1901 X-151.990 Y23.808 Z-23.219 A210.5604 B1.8820 
N1902 X-151.990 Y24.335 Z-23.888 A213.0938 B1.9080 
N1903 X-151.989 Y24.843 Z-24.487 A215.4317 B1.9285 
N1904 X-151.989 Y25.339 Z-25.031 A217.6247 B1.9444 
N1905 X-151.989 Y25.830 Z-25.532 A219.7139 B1.9565 
N1906 X-151.989 Y26.319 Z-26.000 A221.7311 B1.9652 
N1907 X-151.989 Y26.811 Z-26.440 A223.6994 B1.9708 
N1908 X-151.989 Y27.309 Z-26.857 A225.6361 B1.9733 
N1909 X-151.989 Y27.816 Z-27.254 A227.5541 B1.9730 
N1910 X-151.989 Y28.334 Z-27.631 A229.4642 B1.9697 
N1911 X-151.989 Y28.864 Z-27.992 A231.3758 B1.9635 
N1912 X-151.989 Y29.409 Z-28.336 A233.2977 B1.9543 
N1913 X-151.989 Y29.972 Z-28.664 A235.2384 B1.9421 
N1914 X-151.989 Y30.554 Z-28.977 A237.2076 B1.9268 
N1915 X-151.990 Y31.158 Z-29.274 A239.2159 B1.9082 
N1916 X-151.990 Y31.790 Z-29.556 A241.2760 B1.8861 
N1917 X-151.990 Y32.454 Z-29.820 A243.4023 B1.8603 
N1918 X-151.990 Y33.154 Z-30.065 A245.6102 B1.8303 
N1919 X-151.990 Y33.896 Z-30.289 A247.9149 B1.7957 
N1920 X-151.990 Y34.683 Z-30.485 A250.3255 B1.7561 
N1921 X-151.991 Y35.515 Z-30.647 A252.8406 B1.7111 
N1922 X-151.991 Y36.385 Z-30.765 A255.4427 B1.6606 
N1923 X-151.991 Y37.282 Z-30.827 A258.0947 B1.6050 
N1924 X-151.992 Y38.182 Z-30.825 A260.7389 B1.5456 
N1925 X-151.992 Y39.060 Z-30.750 A263.3055 B1.4839 
N1926 X-151.992 Y39.887 Z-30.599 A265.7212 B1.4224 
N1927 X-151.993 Y40.632 Z-30.371 A267.9005 B1.3640 
N1928 X-151.993 Y41.253 Z-30.070 A269.7294 B1.3127 
N1929 X-151.993 Y41.715 Z-29.702 A271.1037 B1.2718 
N1930 X-151.993 Y42.011 Z-29.273 A272.0058 B1.2424 
N1931 X-151.994 Y42.182 Z-28.783 A272.5513 B1.2221 
N1932 X-151.994 Y42.298 Z-28.231 A272.9506 B1.2055 
N1933 X-151.994 Y42.442 Z-27.609 A273.4520 B1.1867 
N1934 X-151.994 Y42.670 Z-26.913 A274.2373 B1.1614 
N1935 X-151.994 Y42.978 Z-26.140 A275.3116 B1.1297 
N1936 X-151.994 Y43.316 Z-25.294 A276.5398 B1.0948 
N1937 X-151.994 Y43.619 Z-24.387 A277.7354 B1.0609 
N1938 X-151.995 Y43.838 Z-23.435 A278.7485 B1.0309 
N1939 X-151.995 Y43.977 Z-22.452 A279.5793 B1.0040 
N1940 X-151.995 Y44.063 Z-21.447 A280.3047 B0.9783 
N1941 X-151.995 Y44.121 Z-20.430 A280.9864 B0.9526 
N1942 X-151.995 Y44.163 Z-19.410 A281.6602 B0.9263 
N1943 X-151.995 Y44.193 Z-18.402 A282.3253 B0.8993 
N1944 X-151.996 Y44.202 Z-17.418 A282.9464 B0.8728 
N1945 X-151.996 Y44.182 Z-16.473 A283.4866 B0.8477 
N1946 X-151.996 Y44.140 Z-15.575 A283.9567 B0.8239 
N1947 X-151.996 Y44.105 Z-14.723 A284.4387 B0.7995 
N1948 X-151.996 Y44.135 Z-13.908 A285.1071 B0.7705 
N1949 X-151.996 Y44.289 Z-13.113 A286.1539 B0.7329 
N1950 X-151.997 Y44.592 Z-12.322 A287.6761 B0.6846 
N1951 X-151.997 Y45.036 Z-11.523 A289.6732 B0.6260 
N1952 X-151.997 Y45.587 Z-10.709 A292.0542 B0.5594 
N1953 X-151.998 Y46.189 Z-9.885 A294.6628 B0.4886 
N1954 X-151.998 Y46.793 Z-9.059 A297.3548 B0.4169 
N1955 X-151.999 Y47.373 Z-8.236 A300.0404 B0.3466 
N1956 X-151.999 Y47.909 Z-7.422 A302.6615 B0.2789 
N1957 X-151.999 Y48.390 Z-6.622 A305.1765 B0.2149 
N1958 X-152.000 Y48.810 Z-5.837 A307.5675 B0.1550 
N1959 X-152.000 Y49.173 Z-5.064 A309.8485 B0.0989 
N1960 X-152.000 Y49.486 Z-4.293 A312.0530 B0.0457 
N1961 X-152.001 Y49.754 Z-3.514 A314.2178 B-0.0050 
N1962 X-152.001 Y49.981 Z-2.716 A316.3766 B-0.0538 
N1963 X-152.001 Y50.165 Z-1.889 A318.5559 B-0.1005 
N1964 X-152.001 Y50.303 Z-1.025 A320.7759 B-0.1451 
N1965 X-152.002 Y50.390 Z-0.116 A323.0565 B-0.1874 
N1966 X-152.002 Y50.419 Z0.844 A325.4160 B-0.2274 
N1967 X-152.002 Y50.378 Z1.858 A327.8574 B-0.2645 
N1968 X-152.002 Y50.248 Z2.914 A330.3436 B-0.2976 
N1969 X-152.003 Y50.004 Z3.978 A332.7619 B-0.3244 
N1970 X-152.003 Y49.617 Z4.989 A334.9336 B-0.3423 
N1971 X-152.003 Y49.066 Z5.890 A336.6773 B-0.3490 
N1972 X-152.003 Y48.348 Z6.635 A337.8597 B-0.3438 
N1973 X-152.003 Y47.474 Z7.225 A338.4759 B-0.3282 
N1974 X-152.002 Y46.476 Z7.719 A338.7059 B-0.3056 
N1975 X-152.002 Y45.386 Z8.189 A338.7731 B-0.2793 
N1976 X-152.002 Y44.223 Z8.674 A338.7985 B-0.2510 
N1977 X-152.002 Y42.993 Z9.184 A338.8233 B-0.2212 
N1978 X-152.002 Y41.700 Z9.721 A338.8513 B-0.1902 
N1979 X-152.002 Y40.349 Z10.298 A338.9306 B-0.1580 
N1980 X-152.001 Y38.960 Z10.978 A339.2654 B-0.1241 
N1981 X-152.001 Y37.576 Z11.904 A340.3454 B-0.0886 
N1982 X-152.001 Y36.220 Z13.233 A342.7420 B-0.0527 
N1983 X-152.001 Y34.829 Z14.994 A346.6287 B-0.0215 
N1984 X-152.001 Y33.258 Z17.008 A351.5681 B-0.0039 
N1985 X-152.001 Y31.380 Z18.759 A356.0903 B-0.0001 
N1986 X-152.001 Y29.221 Z19.948 A359.2958 B0.0000 
N1987 X-152.001 Y26.853 Z20.502 A0.8611 
N1988 X-152.001 Y24.314 Z20.601 A1.1690 
N1989 X-152.001 Y21.603 Z20.596 A1.1759 
N1990 X-152.001 Y18.728 Z20.587 
N1991 X-152.001 Y15.702 Z20.577 
N1992 X-152.001 Y12.552 Z20.568 
N1993 X-152.001 Y9.312 Z20.558 
N1994 X-152.001 Y6.023 Z20.548 
N1995 X-152.001 Y2.734 Z20.538 
N1996 X-152.001 Y-0.507 Z20.528 
N1997 X-152.001 Y-3.650 Z20.518 
N1998 X-152.001 Y-6.648 Z20.509 
N1999 X-152.001 Y-9.461 Z20.500 
N2000 X-152.001 Y-12.057 Z20.492 
N2001 X-152.001 Y-14.412 Z20.485 
N2002 X-152.001 Y-16.514 Z20.479 A1.1760 
N2003 X-152.001 Y-18.357 Z20.473 A1.1773 
N2004 X-152.001 Y-19.949 Z20.469 A1.1808 
N2005 X-152.001 Y-21.301 Z20.469 A1.1911 
N2006 X-152.001 Y-22.432 Z20.498 A1.2923 
N2007 X-152.001 Y-23.368 Z20.627 A1.7020 
N2008 X-152.001 Y-24.139 Z20.942 A2.6919 
N2009 X-152.001 Y-24.786 Z21.518 A4.5028 
N2010 X-152.001 Y-25.362 Z22.373 A7.2018 
N2011 X-152.001 Y-25.917 Z23.440 A10.5989 
N2012 X-152.001 Y-26.484 Z24.602 A14.3506 
N2013 X-152.001 Y-27.065 Z25.744 A18.1141 
N2014 X-152.001 Y-27.649 Z26.801 A21.6799 
N2015 X-152.001 Y-28.222 Z27.746 A24.9547 
N2016 X-152.001 Y-28.774 Z28.578 A27.9220 
N2017 X-152.001 Y-29.304 Z29.311 A30.6104 
N2018 X-152.001 Y-29.813 Z29.961 A33.0674 
N2019 X-152.001 Y-30.305 Z30.546 A35.3440 
N2020 X-152.001 Y-30.787 Z31.080 A37.4860 
N2021 X-152.001 Y-31.263 Z31.574 A39.5308 
N2022 X-152.001 Y-31.738 Z32.036 A41.5074 
N2023 X-152.001 Y-32.216 Z32.472 A43.4375 
N2024 X-152.001 Y-32.700 Z32.886 A45.3358 
N2025 X-152.001 Y-33.191 Z33.279 A47.2136 
N2026 X-152.001 Y-33.691 Z33.655 A49.0797 
N2027 X-152.001 Y-34.201 Z34.014 A50.9402 
N2028 X-152.001 Y-34.722 Z34.356 A52.8016 
N2029 X-152.001 Y-35.256 Z34.683 A54.6696 
N2030 X-152.001 Y-35.802 Z34.993 A56.5449 
N2031 X-152.001 Y-36.361 Z35.287 A58.4272 
N2032 X-152.001 Y-36.930 Z35.562 A60.3148 
N2033 X-152.001 Y-37.510 Z35.818 A62.2043 
N2034 X-152.001 Y-38.097 Z36.053 A64.0926 
N2035 X-152.001 Y-38.692 Z36.268 A65.9792 
N2036 X-152.001 Y-39.295 Z36.461 A67.8661 
N2037 X-152.001 Y-39.906 Z36.633 A69.7580 
N2038 X-152.001 Y-40.528 Z36.785 A71.6650 
N2039 X-152.001 Y-41.163 Z36.914 A73.5960 
N2040 X-152.001 Y-41.813 Z37.021 A75.5580 
N2041 X-152.001 Y-42.481 Z37.103 A77.5602 
N2042 X-152.001 Y-43.170 Z37.159 A79.6125 
N2043 X-152.001 Y-43.882 Z37.185 A81.7281 
N2044 X-152.001 Y-44.623 Z37.177 A83.9239 
N2045 X-152.001 Y-45.397 Z37.128 A86.2192 
N2046 X-152.001 Y-46.210 Z37.032 A88.6368 
N2047 X-152.001 Y-47.068 Z36.877 A91.2020 
N2048 X-152.001 Y-47.975 Z36.651 A93.9394 B-0.0000 
N2049 X-152.001 Y-48.927 Z36.337 A96.8582 B-0.0001 
N2050 X-152.001 Y-49.904 Z35.922 A99.9260 B-0.0004 
N2051 X-152.001 Y-50.854 Z35.398 A103.0157 B-0.0012 
N2052 X-152.001 Y-51.689 Z34.780 A105.8828 B-0.0031 
N2053 X-152.001 Y-52.318 Z34.098 A108.2660 B-0.0074 
N2054 X-152.001 Y-52.691 Z33.382 A109.9995 B-0.0152 
N2055 X-152.001 Y-52.815 Z32.638 A111.0992 B-0.0276 
N2056 X-152.001 Y-52.732 Z31.856 A111.6846 B-0.0445 
N2057 X-152.001 Y-52.499 Z31.014 A111.9314 B-0.0644 
N2058 X-152.001 Y-52.176 Z30.086 A112.0218 B-0.0860 
N2059 X-152.001 Y-51.797 Z29.060 A112.0652 B-0.1083 
N2060 X-152.001 Y-51.378 Z27.939 A112.1020 B-0.1315 
N2061 X-152.002 Y-50.926 Z26.730 A112.1451 B-0.1563 
N2062 X-152.002 Y-50.447 Z25.449 A112.1946 B-0.1828 
N2063 X-152.002 Y-49.948 Z24.113 A112.2475 B-0.2105 
N2064 X-152.002 Y-49.434 Z22.744 A112.3018 B-0.2390 
N2065 X-152.002 Y-48.914 Z21.363 A112.3567 B-0.2678 
N2066 X-152.002 Y-48.397 Z19.993 A112.4114 B-0.2965 
N2067 X-152.003 Y-47.889 Z18.656 A112.4574 B-0.3246 
N2068 X-152.003 Y-47.393 Z17.373 A112.4813 B-0.3521 
N2069 X-152.003 Y-46.919 Z16.159 A112.4916 B-0.3785 
N2070 X-152.003 Y-46.499 Z15.014 A112.5797 B-0.4019 
N2071 X-152.003 Y-46.205 Z13.918 A112.9787 B-0.4175 
N2072 X-152.003 Y-46.124 Z12.835 A113.9916 B-0.4187 
N2073 X-152.003 Y-46.310 Z11.725 A115.8469 B-0.3990 
N2074 X-152.003 Y-46.713 Z10.583 A118.4384 B-0.3582 
N2075 X-152.002 Y-47.213 Z9.437 A121.4136 B-0.3024 
N2076 X-152.002 Y-47.718 Z8.319 A124.4728 B-0.2380 
N2077 X-152.002 Y-48.169 Z7.260 A127.3995 B-0.1708 
N2078 X-152.001 Y-48.543 Z6.277 A130.0924 B-0.1042 
N2079 X-152.001 Y-48.850 Z5.366 A132.5628 B-0.0394 
N2080 X-152.000 Y-49.104 Z4.513 A134.8581 B0.0240 
N2081 X-152.000 Y-49.318 Z3.702 A137.0312 B0.0862 
N2082 X-152.000 Y-49.502 Z2.918 A139.1280 B0.1477 
N2083 X-151.999 Y-49.661 Z2.149 A141.1867 B0.2092 
N2084 X-151.999 Y-49.798 Z1.380 A143.2411 B0.2716 
N2085 X-151.999 Y-49.915 Z0.602 A145.3208 B0.3355 
N2086 X-151.998 Y-50.009 Z-0.195 A147.4503 B0.4018 
N2087 X-151.998 Y-50.077 Z-1.020 A149.6467 B0.4708 
N2088 X-151.997 Y-50.110 Z-1.875 A151.9130 B0.5429 
N2089 X-151.997 Y-50.096 Z-2.757 A154.2331 B0.6177 
N2090 X-151.997 Y-50.021 Z-3.658 A156.5719 B0.6943 
N2091 X-151.996 Y-49.868 Z-4.561 A158.8803 B0.7717 
N2092 X-151.996 Y-49.622 Z-5.450 A161.1062 B0.8488 
N2093 X-151.995 Y-49.266 Z-6.308 A163.1984 B0.9248 
N2094 X-151.995 Y-48.788 Z-7.126 A165.1314 B0.9995 
N2095 X-151.994 Y-48.179 Z-7.921 A166.9652 B1.0744 
N2096 X-151.994 Y-47.435 Z-8.752 A168.8905 B1.1523 
N2097 X-151.993 Y-46.540 Z-9.690 A171.1400 B1.2326 
N2098 X-151.993 Y-45.460 Z-10.738 A173.7683 B1.3089 
N2099 X-151.993 Y-44.149 Z-11.799 A176.5365 B1.3748 
N2100 X-151.992 Y-42.576 Z-12.708 A178.9976 B1.4271 
N2101 X-151.992 Y-40.742 Z-13.278 A180.6039 B1.4608 
N2102 X-151.992 Y-38.656 Z-13.498 A181.2640 B1.4762 
N2103 X-151.992 Y-36.321 Z-13.521 A181.3744 B1.4808 
N2104 X-151.992 Y-33.733 Z-13.504 A181.3757 B1.4833 
N2105 X-151.992 Y-30.900 Z-13.486 B1.4860 
N2106 X-151.992 Y-27.843 Z-13.466 B1.4889 
N2107 X-151.992 Y-24.591 Z-13.445 B1.4921 
N2108 X-151.992 Y-21.185 Z-13.422 A181.3758 B1.4953 
N2109 X-151.992 Y-17.672 Z-13.399 B1.4987 
N2110 X-151.992 Y-14.108 Z-13.376 B1.5021 
N2111 X-151.992 Y-10.550 Z-13.353 B1.5055 
N2112 X-151.992 Y-7.059 Z-13.330 A181.3758 B1.5088 
N2113 X-151.992 Y-3.689 Z-13.308 B1.5120 
N2114 X-151.992 Y-0.493 Z-13.287 B1.5151 
N2115 X-151.992 Y2.489 Z-13.267 B1.5179 
