; PROGRAM NAME: B00000060
; ORDER       : B000000
; OPER. NAME  : Contact Milling:165
; OPER. DESCR.: Contact Milling/podciecie pod ceche
; OPER. TYPE  : contactMill
; GEO. OPTION : 1
; MACHINE     : HSTM_500_SIM840D_Py
;             : HSTM500 - HAMUEL: 5-axis milling machine - SIM840D Traori PP_Script
; CONTROL     : SINUMERIK 840D
; created:   2021-11-15 10:01:56.621612
;-------DODATKOWE DANE-------------------
; PROGRAMISTA : Mariusz Malec
; PARTID      : 139T001534P1001_-
;  ap         : 1.0
;  ae         : 5.0
;  lean_angle : 0.01
;  tilt_angle : 0.0
;  fin_offset : -0.15
;----------------------------------------
;RAPORT("TB000000","Contact Milling:165")
N10 TRAFOOF
N11 D0
N12 G90 G94
N13 G0 G53 D0 Z550 B0
N14 STOPRE
M9 ; chlodziwo wyl
; --- Contact Milling:165 - Contact Milling/podciecie pod ceche ---
N16 ;ToolChange : concat=None ,current_tdmid=None, PP.tdmId=957453
N17 TRAFOOF
N18 G0 G53 D0 X-200 Y150 Z550 B0
N19 T="7757453"
;RAPORT("TB000000","ToolChangeStart 7757453")
N20 M6
;RAPORT("TB000000","ToolChangeEnd")
N21 STOPRE
N22 MSG(" TLID=957453 D=5.0 R=0.0 Ang=0.0 Len=109.0 ")
N23 ; (Preloading tool)
N24 T="7758476"
N25 S12095 M03
N26 STOPRE
N27 CYCLE832(0.01,1,1)
N28 G0 G53 A0.0000 B-0.0100
N29 TRAORI
N30 G54 D1
N31 D3 
N32 X-138.504 Y8.041 Z49.281 A0.0001 B-0.0100 
N33 M342 ; chlodziwo woda
N34 X-138.499 Y8.041 Z19.281 
N35 G01 X-138.498 Y8.041 Z13.281 F544 
N36 X-138.547 Y8.041 Z12.972 
N37 X-138.689 Y8.041 Z12.693 
N38 X-138.910 Y8.041 Z12.472 
N39 X-139.189 Y8.041 Z12.330 
N40 X-139.498 Y8.041 Z12.281 
N41 X-139.637 Y8.041 Z12.281 
N42 X-139.775 Y8.041 Z12.281 F543 
N43 X-139.914 Y8.041 Z12.281 F544 
N44 X-140.053 Y8.041 Z12.281 
N45 X-140.192 Y8.041 Z12.281 
N46 X-140.331 Y8.041 Z12.281 
N47 X-140.470 Y8.041 Z12.281 
N48 X-140.609 Y8.041 Z12.281 
N49 X-140.748 Y8.041 Z12.281 
N50 X-140.887 Y8.041 Z12.281 
N51 X-141.025 Y8.041 Z12.281 
N52 X-141.164 Y8.041 Z12.281 
N53 X-141.303 Y8.041 Z12.281 
N54 X-141.442 Y8.041 Z12.281 
N55 X-141.581 Y8.041 Z12.281 
N56 X-141.720 Y8.041 Z12.281 
N57 X-141.859 Y8.041 Z12.281 
N58 X-141.998 Y8.041 Z12.281 
N59 X-142.137 Y8.041 Z12.281 
N60 X-142.275 Y8.041 Z12.281 
N61 X-142.414 Y8.041 Z12.281 
N62 X-142.553 Y8.041 Z12.281 
N63 X-142.692 Y8.041 Z12.281 
N64 X-142.831 Y8.041 Z12.281 
N65 X-142.970 Y8.041 Z12.281 
N66 X-143.109 Y8.041 Z12.281 
N67 X-143.248 Y8.041 Z12.281 
N68 X-143.387 Y8.041 Z12.281 
N69 X-143.525 Y8.041 Z12.281 
N70 X-143.664 Y8.041 Z12.281 
N71 X-143.803 Y8.041 Z12.281 
N72 X-143.942 Y8.041 Z12.281 
N73 X-144.081 Y8.041 Z12.281 
N74 X-144.220 Y8.041 Z12.281 
N75 X-144.359 Y8.041 Z12.281 
N76 X-144.498 Y8.041 Z12.281 
N77 X-144.637 Y8.041 Z12.281 F543 
N78 X-144.775 Y8.041 Z12.281 F544 
N79 X-144.914 Y8.041 Z12.281 
N80 X-145.053 Y8.041 Z12.281 
N81 X-145.192 Y8.041 Z12.281 
N82 X-145.331 Y8.041 Z12.281 
N83 X-145.470 Y8.041 Z12.281 
N84 X-145.609 Y8.041 Z12.281 
N85 X-145.748 Y8.041 Z12.281 
N86 X-145.887 Y8.041 Z12.281 
N87 X-146.025 Y8.041 Z12.281 
N88 X-146.164 Y8.041 Z12.281 
N89 X-146.303 Y8.041 Z12.281 
N90 X-146.442 Y8.041 Z12.281 
N91 X-146.581 Y8.041 Z12.281 
N92 X-146.720 Y8.041 Z12.281 
N93 X-146.859 Y8.041 Z12.281 
N94 X-146.998 Y8.041 Z12.281 
N95 X-147.135 Y8.041 Z12.281 
N96 X-147.273 Y8.041 Z12.281 
N97 X-147.410 Y8.041 Z12.281 
N98 X-147.548 Y8.041 Z12.281 
N99 X-147.685 Y8.041 Z12.281 
N100 X-147.823 Y8.041 Z12.281 
N101 X-147.960 Y8.041 Z12.281 
N102 X-148.098 Y8.041 Z12.281 
N103 X-148.235 Y8.041 Z12.281 
N104 X-148.373 Y8.041 Z12.281 
N105 X-148.510 Y8.041 Z12.281 
N106 X-148.648 Y8.041 Z12.281 
N107 X-148.785 Y8.041 Z12.281 
N108 X-148.923 Y8.041 Z12.281 
N109 X-149.060 Y8.041 Z12.281 
N110 X-149.198 Y8.041 Z12.281 
N111 X-149.335 Y8.041 Z12.281 
N112 X-149.473 Y8.041 Z12.281 
N113 X-149.610 Y8.041 Z12.281 
N114 X-149.748 Y8.041 Z12.281 
N115 X-149.885 Y8.041 Z12.281 
N116 X-150.023 Y8.041 Z12.281 
N117 X-150.160 Y8.041 Z12.281 
N118 X-150.298 Y8.041 Z12.281 
N119 X-150.435 Y8.041 Z12.281 
N120 X-150.573 Y8.041 Z12.281 
N121 X-150.710 Y8.041 Z12.281 
N122 X-150.848 Y8.041 Z12.281 
N123 X-150.985 Y8.041 Z12.281 
N124 X-151.123 Y8.041 Z12.281 
N125 X-151.260 Y8.041 Z12.281 
N126 X-151.398 Y8.041 Z12.281 
N127 X-151.535 Y8.041 Z12.281 
N128 X-151.673 Y8.041 Z12.281 
N129 X-151.810 Y8.041 Z12.281 
N130 X-151.948 Y8.041 Z12.281 
N131 X-152.085 Y8.041 Z12.281 
N132 X-152.223 Y8.041 Z12.281 
N133 X-152.360 Y8.041 Z12.281 
N134 X-152.498 Y8.041 Z12.281 
N135 X-152.635 Y8.041 Z12.281 
N136 X-152.773 Y8.041 Z12.281 
N137 X-152.910 Y8.041 Z12.281 
N138 X-153.048 Y8.041 Z12.281 
N139 X-153.185 Y8.041 Z12.281 
N140 X-153.323 Y8.041 Z12.281 
N141 X-153.460 Y8.041 Z12.281 
N142 X-153.598 Y8.041 Z12.281 
N143 X-153.735 Y8.041 Z12.281 
N144 X-153.873 Y8.041 Z12.281 
N145 X-154.010 Y8.041 Z12.281 
N146 X-154.148 Y8.041 Z12.281 
N147 X-154.285 Y8.041 Z12.281 
N148 X-154.423 Y8.041 Z12.281 
N149 X-154.560 Y8.041 Z12.281 
N150 X-154.698 Y8.041 Z12.281 
N151 X-154.835 Y8.041 Z12.281 
N152 X-154.973 Y8.041 Z12.281 
N153 X-155.110 Y8.041 Z12.281 
N154 X-155.248 Y8.041 Z12.281 
N155 X-155.385 Y8.041 Z12.281 
N156 X-155.523 Y8.041 Z12.281 
N157 X-155.660 Y8.041 Z12.281 
N158 X-155.798 Y8.041 Z12.281 
N159 X-155.935 Y8.041 Z12.281 
N160 X-156.073 Y8.041 Z12.281 
N161 X-156.210 Y8.041 Z12.281 
N162 X-156.348 Y8.041 Z12.281 
N163 X-156.485 Y8.041 Z12.281 
N164 X-156.623 Y8.041 Z12.281 
N165 X-156.760 Y8.041 Z12.281 
N166 X-156.898 Y8.041 Z12.281 
N167 X-157.035 Y8.041 Z12.281 
N168 X-157.173 Y8.041 Z12.281 
N169 X-157.310 Y8.041 Z12.281 
N170 X-157.448 Y8.041 Z12.281 
N171 X-157.585 Y8.041 Z12.281 
N172 X-157.723 Y8.041 Z12.281 
N173 X-157.860 Y8.041 Z12.281 
N174 X-157.998 Y8.041 Z12.281 
N175 X-158.137 Y8.041 Z12.281 F543 
N176 X-158.275 Y8.041 Z12.281 F544 
N177 X-158.414 Y8.041 Z12.281 
N178 X-158.553 Y8.041 Z12.281 
N179 X-158.692 Y8.041 Z12.281 
N180 X-158.831 Y8.041 Z12.281 
N181 X-158.970 Y8.041 Z12.281 
N182 X-159.109 Y8.041 Z12.281 
N183 X-159.248 Y8.041 Z12.281 
N184 X-159.387 Y8.041 Z12.281 
N185 X-159.525 Y8.041 Z12.281 
N186 X-159.664 Y8.041 Z12.281 
N187 X-159.803 Y8.041 Z12.281 
N188 X-159.942 Y8.041 Z12.281 
N189 X-160.081 Y8.041 Z12.281 
N190 X-160.220 Y8.041 Z12.281 
N191 X-160.359 Y8.041 Z12.281 
N192 X-160.498 Y8.041 Z12.281 
N193 X-160.807 Y8.041 Z12.330 
N194 X-161.085 Y8.041 Z12.472 
N195 X-161.307 Y8.041 Z12.693 
N196 X-161.449 Y8.041 Z12.972 
N197 X-161.498 Y8.041 Z13.281 
N198 G00 X-161.507 Y8.041 Z63.281 
;RAPORT("TB000000","Contact Milling:165 End")
;trailer : concat=None
; points cnt = 163
N200 M9 ; chlodziwo wyl.
N201 MSG (" --- KONIEC PODPROGRAMU --- ")
N202 FGROUP()
N203 TRAFOOF
N204 STOPRE
N205 G0 G53 D0 Z550.0 M9 M5
N206 G0 G53 Y150 A0 B0
N207 M17
