; PROGRAM NAME: B00000041
; ORDER       : B000000
; OPER. NAME  : Side Milling:119
; OPER. DESCR.: Side Milling/HHU zgr
; OPER. TYPE  : sideMill
; GEO. OPTION : 3
; MACHINE     : HSTM_500_SIM840D_Py
;             : HSTM500 - HAMUEL: 5-axis milling machine - SIM840D Traori PP_Script
; CONTROL     : SINUMERIK 840D
; created:   2021-11-15 09:59:01.587225
;-------DODATKOWE DANE-------------------
; PROGRAMISTA : Mariusz Malec
; PARTID      : 139T001534P1001_-
;  ap         : 26.0
;  ae         : 9.6
;  lean_angle : 0.0
;  fin_offset : 0.2
;----------------------------------------
;RAPORT("TB000000","Side Milling:119")
N10 TRAFOOF
N11 D0
N12 G90 G94
N13 G0 G53 D0 Z550 B0
N14 STOPRE
M9 ; chlodziwo wyl
; --- Side Milling:119 - Side Milling/HHU zgr ---
N16 ;ToolChange : concat=None ,current_tdmid=None, PP.tdmId=940676
N17 TRAFOOF
N18 G0 G53 D0 X-200 Y150 Z550 B0
N19 T="7740676"
;RAPORT("TB000000","ToolChangeStart 7740676")
N20 M6
;RAPORT("TB000000","ToolChangeEnd")
N21 STOPRE
N22 MSG(" TLID=940676 D=12.0 R=3.6 Ang=0.0 Len=125.0 ")
N23 ; (Preloading tool)
N24 T="7740677"
N25 S4244 M03
N26 STOPRE
N27 CYCLE832(0.01,1,1)
N28 G0 G53 A49.0000 B0.0000
N29 TRAORI
N30 G54 D1
N31 D1 
STOPRE
E_ZDARZ=500002
;ACS_ROUGH_SLOT=7740676
STOPRE
N32 ; DELTA A > 40.1
N33 TRAFOOF
N34 D1
N35 STOPRE
N36 G00 G54 Z261.000
N37 G01 A49.0000 F10000
N38 TRAORI
N39 G54 D1
N40 STOPRE
N41 TRANS 
N42 G00 X-162.222 Y-90.900 Z7.047 A49.0000 
N43 M342 ; chlodziwo woda
N44 X-162.222 Y-53.164 Z-25.756 
N45 G01 X-162.245 Y-50.511 Z-27.414 F594 
N46 X-162.311 Y-47.476 Z-28.172 
N47 X-162.416 Y-44.357 Z-27.956 
N48 X-162.547 Y-41.458 Z-26.786 
N49 ;NTE
N50 D1 
N51 G01 G41 X-162.692 Y-39.064 Z-24.778 F594
N52 X-162.692 Y-39.064 Z-24.778 
N53 X-162.702 Y-38.933 Z-24.627 
N54 X-162.711 Y-38.802 Z-24.476 
N55 X-162.720 Y-38.670 Z-24.325 
N56 X-162.730 Y-38.539 Z-24.175 
N57 X-162.739 Y-38.408 Z-24.024 
N58 X-162.749 Y-38.277 Z-23.873 
N59 X-162.758 Y-38.146 Z-23.722 
N60 X-162.768 Y-38.015 Z-23.571 
N61 X-162.777 Y-37.884 Z-23.421 
N62 X-162.786 Y-37.753 Z-23.270 
N63 X-162.796 Y-37.622 Z-23.119 
N64 X-162.805 Y-37.491 Z-22.968 
N65 X-162.815 Y-37.360 Z-22.818 
N66 X-162.824 Y-37.229 Z-22.667 
N67 X-162.833 Y-37.098 Z-22.516 
N68 X-162.843 Y-36.967 Z-22.365 
N69 X-162.852 Y-36.836 Z-22.214 
N70 X-162.862 Y-36.704 Z-22.064 
N71 X-162.871 Y-36.573 Z-21.913 
N72 X-162.881 Y-36.442 Z-21.762 
N73 X-162.890 Y-36.311 Z-21.611 
N74 X-162.899 Y-36.180 Z-21.461 
N75 X-162.909 Y-36.049 Z-21.310 
N76 X-162.918 Y-35.918 Z-21.159 
N77 X-162.928 Y-35.787 Z-21.008 
N78 X-162.937 Y-35.656 Z-20.857 
N79 X-162.946 Y-35.525 Z-20.707 
N80 X-162.956 Y-35.394 Z-20.556 
N81 X-162.965 Y-35.263 Z-20.405 
N82 X-162.975 Y-35.132 Z-20.254 
N83 X-162.984 Y-35.001 Z-20.104 
N84 X-162.993 Y-34.870 Z-19.953 
N85 X-163.003 Y-34.738 Z-19.802 
N86 X-163.012 Y-34.607 Z-19.651 
N87 X-163.022 Y-34.476 Z-19.500 
N88 X-163.031 Y-34.347 Z-19.351 
N89 X-163.040 Y-34.217 Z-19.202 
N90 X-163.050 Y-34.087 Z-19.052 
N91 X-163.059 Y-33.957 Z-18.903 
N92 X-163.068 Y-33.827 Z-18.754 
N93 X-163.078 Y-33.697 Z-18.604 
N94 X-163.087 Y-33.568 Z-18.455 
N95 X-163.096 Y-33.438 Z-18.306 
N96 X-163.106 Y-33.308 Z-18.156 
N97 X-163.115 Y-33.178 Z-18.007 
N98 X-163.124 Y-33.048 Z-17.858 
N99 X-163.134 Y-32.918 Z-17.708 
N100 X-163.143 Y-32.789 Z-17.559 
N101 X-163.152 Y-32.659 Z-17.410 
N102 X-163.162 Y-32.529 Z-17.260 
N103 X-163.171 Y-32.399 Z-17.111 
N104 X-163.180 Y-32.269 Z-16.961 
N105 X-163.190 Y-32.139 Z-16.812 
N106 X-163.199 Y-32.010 Z-16.663 
N107 X-163.208 Y-31.880 Z-16.513 
N108 X-163.218 Y-31.750 Z-16.364 
N109 X-163.227 Y-31.620 Z-16.215 
N110 X-163.236 Y-31.490 Z-16.065 
N111 X-163.246 Y-31.360 Z-15.916 
N112 X-163.255 Y-31.231 Z-15.767 
N113 X-163.264 Y-31.101 Z-15.617 
N114 X-163.273 Y-30.971 Z-15.468 
N115 X-163.283 Y-30.841 Z-15.319 
N116 X-163.292 Y-30.711 Z-15.169 
N117 X-163.301 Y-30.581 Z-15.020 
N118 X-163.311 Y-30.452 Z-14.871 
N119 X-163.320 Y-30.322 Z-14.721 
N120 X-163.329 Y-30.192 Z-14.572 
N121 X-163.339 Y-30.062 Z-14.422 
N122 X-163.348 Y-29.932 Z-14.273 
N123 X-163.357 Y-29.802 Z-14.124 
N124 X-163.365 Y-29.673 Z-13.974 
N125 X-163.372 Y-29.543 Z-13.825 
N126 X-163.379 Y-29.413 Z-13.676 
N127 X-163.387 Y-29.283 Z-13.526 
N128 X-163.394 Y-29.153 Z-13.377 
N129 X-163.401 Y-29.023 Z-13.227 
N130 X-163.409 Y-28.893 Z-13.078 
N131 X-163.416 Y-28.763 Z-12.928 
N132 X-163.423 Y-28.633 Z-12.779 
N133 X-163.431 Y-28.504 Z-12.630 
N134 X-163.438 Y-28.374 Z-12.480 
N135 X-163.445 Y-28.244 Z-12.331 
N136 X-163.453 Y-28.114 Z-12.181 
N137 X-163.460 Y-27.984 Z-12.032 
N138 X-163.468 Y-27.854 Z-11.883 
N139 X-163.475 Y-27.724 Z-11.733 
N140 X-163.482 Y-27.594 Z-11.584 
N141 X-163.490 Y-27.464 Z-11.434 
N142 X-163.497 Y-27.335 Z-11.285 
N143 X-163.504 Y-27.205 Z-11.135 
N144 X-163.512 Y-27.075 Z-10.986 
N145 X-163.519 Y-26.945 Z-10.837 
N146 X-163.526 Y-26.815 Z-10.687 
N147 X-163.534 Y-26.685 Z-10.538 
N148 X-163.541 Y-26.555 Z-10.388 
N149 X-163.548 Y-26.425 Z-10.239 
N150 X-163.556 Y-26.296 Z-10.090 
N151 X-163.563 Y-26.166 Z-9.940 
N152 X-163.570 Y-26.036 Z-9.791 
N153 X-163.578 Y-25.906 Z-9.641 
N154 X-163.585 Y-25.776 Z-9.492 
N155 X-163.592 Y-25.646 Z-9.342 
N156 X-163.600 Y-25.516 Z-9.193 
N157 X-163.607 Y-25.386 Z-9.044 
N158 X-163.614 Y-25.256 Z-8.894 
N159 X-163.622 Y-25.127 Z-8.745 
N160 X-163.629 Y-24.997 Z-8.595 
N161 X-163.637 Y-24.867 Z-8.446 
N162 X-163.644 Y-24.737 Z-8.297 
N163 X-163.651 Y-24.607 Z-8.147 
N164 X-163.659 Y-24.477 Z-7.998 
N165 X-163.666 Y-24.347 Z-7.848 
N166 X-163.671 Y-24.217 Z-7.699 
N167 X-163.676 Y-24.087 Z-7.549 
N168 X-163.681 Y-23.957 Z-7.400 
N169 X-163.686 Y-23.828 Z-7.250 
N170 X-163.691 Y-23.698 Z-7.101 
N171 X-163.696 Y-23.568 Z-6.951 
N172 X-163.701 Y-23.438 Z-6.802 
N173 X-163.706 Y-23.308 Z-6.653 
N174 X-163.711 Y-23.178 Z-6.503 
N175 X-163.716 Y-23.048 Z-6.354 
N176 X-163.721 Y-22.918 Z-6.204 
N177 X-163.726 Y-22.788 Z-6.055 
N178 X-163.731 Y-22.658 Z-5.905 
N179 X-163.736 Y-22.528 Z-5.756 
N180 X-163.741 Y-22.398 Z-5.606 
N181 X-163.746 Y-22.268 Z-5.457 
N182 X-163.751 Y-22.138 Z-5.307 
N183 X-163.756 Y-22.008 Z-5.158 
N184 X-163.761 Y-21.879 Z-5.008 
N185 X-163.766 Y-21.749 Z-4.859 
N186 X-163.771 Y-21.619 Z-4.709 
N187 X-163.776 Y-21.489 Z-4.560 
N188 X-163.781 Y-21.359 Z-4.410 
N189 X-163.786 Y-21.229 Z-4.261 
N190 X-163.790 Y-21.099 Z-4.112 
N191 X-163.795 Y-20.969 Z-3.962 
N192 X-163.800 Y-20.839 Z-3.813 
N193 X-163.805 Y-20.709 Z-3.663 
N194 X-163.810 Y-20.579 Z-3.514 
N195 X-163.815 Y-20.449 Z-3.364 
N196 X-163.820 Y-20.319 Z-3.215 
N197 X-163.825 Y-20.189 Z-3.065 
N198 X-163.830 Y-20.059 Z-2.916 
N199 X-163.835 Y-19.929 Z-2.766 
N200 X-163.840 Y-19.800 Z-2.617 
N201 X-163.845 Y-19.670 Z-2.467 
N202 X-163.850 Y-19.540 Z-2.318 
N203 X-163.855 Y-19.410 Z-2.168 
N204 X-163.860 Y-19.280 Z-2.019 
N205 X-163.865 Y-19.150 Z-1.869 
N206 X-163.870 Y-19.020 Z-1.720 
N207 X-163.875 Y-18.890 Z-1.570 
N208 X-163.880 Y-18.760 Z-1.421 
N209 X-163.885 Y-18.630 Z-1.272 
N210 X-163.890 Y-18.500 Z-1.122 
N211 X-163.895 Y-18.370 Z-0.973 
N212 X-163.900 Y-18.240 Z-0.823 
N213 X-163.904 Y-18.110 Z-0.674 
N214 X-163.909 Y-17.980 Z-0.524 
N215 X-163.914 Y-17.851 Z-0.375 
N216 X-163.919 Y-17.721 Z-0.225 
N217 X-163.924 Y-17.591 Z-0.076 
N218 X-163.928 Y-17.461 Z0.074 
N219 X-163.931 Y-17.331 Z0.223 
N220 X-163.934 Y-17.201 Z0.373 
N221 X-163.937 Y-17.071 Z0.522 
N222 X-163.940 Y-16.941 Z0.672 
N223 X-163.942 Y-16.811 Z0.821 
N224 X-163.945 Y-16.681 Z0.971 
N225 X-163.948 Y-16.551 Z1.120 
N226 X-163.951 Y-16.421 Z1.270 
N227 X-163.954 Y-16.291 Z1.419 
N228 X-163.957 Y-16.161 Z1.569 
N229 X-163.959 Y-16.031 Z1.718 
N230 X-163.962 Y-15.901 Z1.868 
N231 X-163.965 Y-15.771 Z2.017 
N232 X-163.968 Y-15.641 Z2.167 
N233 X-163.971 Y-15.511 Z2.316 
N234 X-163.974 Y-15.381 Z2.466 
N235 X-163.977 Y-15.251 Z2.615 
N236 X-163.979 Y-15.121 Z2.765 
N237 X-163.982 Y-14.991 Z2.914 
N238 X-163.985 Y-14.862 Z3.064 
N239 X-163.988 Y-14.732 Z3.213 
N240 X-163.991 Y-14.602 Z3.363 
N241 X-163.994 Y-14.472 Z3.512 
N242 X-163.996 Y-14.342 Z3.662 
N243 X-163.999 Y-14.212 Z3.811 
N244 X-164.002 Y-14.082 Z3.961 
N245 X-164.005 Y-13.952 Z4.110 
N246 X-164.008 Y-13.822 Z4.260 
N247 X-164.011 Y-13.692 Z4.409 
N248 X-164.014 Y-13.562 Z4.559 
N249 X-164.016 Y-13.432 Z4.708 
N250 X-164.017 Y-13.302 Z4.858 
N251 X-164.018 Y-13.172 Z5.007 
N252 X-164.019 Y-13.042 Z5.157 
N253 X-164.021 Y-12.912 Z5.306 
N254 X-164.022 Y-12.782 Z5.456 
N255 X-164.023 Y-12.652 Z5.605 
N256 X-164.024 Y-12.522 Z5.755 
N257 X-164.025 Y-12.392 Z5.904 
N258 X-164.027 Y-12.262 Z6.054 
N259 X-164.028 Y-12.132 Z6.204 
N260 X-164.029 Y-12.002 Z6.353 
N261 X-164.030 Y-11.872 Z6.503 
N262 X-164.031 Y-11.742 Z6.652 
N263 X-164.033 Y-11.612 Z6.802 
N264 X-164.034 Y-11.482 Z6.951 
N265 X-164.035 Y-11.352 Z7.101 
N266 X-164.036 Y-11.222 Z7.250 
N267 X-164.037 Y-11.092 Z7.400 
N268 X-164.039 Y-10.962 Z7.549 
N269 X-164.040 Y-10.832 Z7.699 
N270 X-164.041 Y-10.702 Z7.848 
N271 X-164.042 Y-10.573 Z7.998 
N272 X-164.043 Y-10.443 Z8.147 
N273 X-164.044 Y-10.313 Z8.297 
N274 X-164.046 Y-10.183 Z8.446 
N275 X-164.047 Y-10.053 Z8.596 
N276 X-164.048 Y-9.923 Z8.745 
N277 X-164.049 Y-9.793 Z8.895 
N278 X-164.050 Y-9.663 Z9.044 
N279 X-164.052 Y-9.533 Z9.194 
N280 X-164.053 Y-9.403 Z9.343 
N281 X-164.054 Y-9.273 Z9.493 
N282 X-164.055 Y-9.143 Z9.642 
N283 X-164.056 Y-9.013 Z9.792 
N284 X-164.058 Y-8.882 Z9.943 
N285 X-164.059 Y-8.750 Z10.094 
N286 X-164.060 Y-8.619 Z10.245 
N287 X-164.061 Y-8.488 Z10.396 
N288 X-164.062 Y-8.357 Z10.547 
N289 X-164.064 Y-8.226 Z10.698 
N290 X-164.065 Y-8.094 Z10.848 
N291 X-164.066 Y-7.963 Z10.999 
N292 X-164.067 Y-7.832 Z11.150 
N293 X-164.068 Y-7.701 Z11.301 
N294 X-164.070 Y-7.570 Z11.452 
N295 X-164.071 Y-7.438 Z11.603 
N296 X-164.072 Y-7.307 Z11.754 
N297 X-164.073 Y-7.176 Z11.905 
N298 X-164.074 Y-7.045 Z12.056 
N299 X-164.076 Y-6.914 Z12.207 
N300 X-164.077 Y-6.782 Z12.358 
N301 X-164.078 Y-6.651 Z12.509 
N302 X-164.079 Y-6.520 Z12.660 
N303 X-164.080 Y-6.389 Z12.811 
N304 X-164.082 Y-6.257 Z12.962 
N305 X-164.083 Y-6.126 Z13.113 
N306 X-164.084 Y-5.995 Z13.264 
N307 X-164.085 Y-5.864 Z13.414 
N308 X-164.086 Y-5.733 Z13.565 
N309 X-164.088 Y-5.601 Z13.716 
N310 X-164.089 Y-5.470 Z13.867 
N311 X-164.090 Y-5.339 Z14.018 
N312 X-164.091 Y-5.208 Z14.169 
N313 X-164.092 Y-5.077 Z14.320 
N314 G40 X-164.093 Y-4.932 Z14.487 F723
N315 X-164.093 Y-4.932 Z14.487 
N316 X-164.093 Y-4.728 Z14.721 F1111 
N317 X-164.096 Y-4.407 Z15.090 F1759 
N318 X-164.104 Y-3.929 Z15.640 F2406 
N319 X-164.127 Y-3.333 Z16.325 F2795 
N320 X-164.171 Y-2.680 Z17.078 F2924 
N321 X-164.240 Y-2.045 Z17.808 
N322 X-164.340 Y-1.412 Z18.536 
N323 X-164.475 Y-0.782 Z19.261 
N324 X-164.646 Y-0.155 Z19.981 
N325 X-164.854 Y0.466 Z20.697 
N326 X-165.097 Y1.083 Z21.405 
N327 X-165.373 Y1.692 Z22.107 
N328 X-165.685 Y2.295 Z22.800 
N329 X-166.035 Y2.889 Z23.483 
N330 X-166.436 Y3.468 Z24.149 
N331 X-166.933 Y4.013 Z24.777 
N332 X-167.667 Y4.104 Z24.881 
N333 X-167.881 Y3.484 Z24.168 
N334 X-167.953 Y2.837 Z23.423 F2795 
N335 X-167.981 Y2.238 Z22.735 F2406 
N336 X-167.989 Y1.751 Z22.174 F1759 
N337 X-167.991 Y1.433 Z21.809 F1111 
N338 X-167.991 Y1.239 Z21.585 F723 
N339 ;NNTE
N340 D2 
N341 G01 G41 X-167.991 Y1.104 Z21.430 F594
N342 X-167.991 Y1.104 Z21.430 F594 
N343 X-167.992 Y0.973 Z21.279 
N344 X-167.993 Y0.842 Z21.128 
N345 X-167.994 Y0.711 Z20.977 
N346 X-167.995 Y0.579 Z20.826 
N347 X-167.996 Y0.448 Z20.675 
N348 X-167.997 Y0.317 Z20.525 
N349 X-167.998 Y0.186 Z20.374 
N350 X-167.999 Y0.054 Z20.223 
N351 X-168.000 Y-0.077 Z20.072 
N352 X-168.001 Y-0.208 Z19.921 
N353 X-168.002 Y-0.339 Z19.770 
N354 X-168.003 Y-0.470 Z19.619 
N355 X-168.004 Y-0.602 Z19.468 
N356 X-168.005 Y-0.733 Z19.317 
N357 X-168.006 Y-0.864 Z19.166 
N358 X-168.006 Y-0.995 Z19.015 
N359 X-168.007 Y-1.126 Z18.864 
N360 X-168.008 Y-1.258 Z18.713 
N361 X-168.009 Y-1.389 Z18.562 
N362 X-168.010 Y-1.520 Z18.411 
N363 X-168.011 Y-1.651 Z18.260 
N364 X-168.012 Y-1.782 Z18.110 
N365 X-168.013 Y-1.914 Z17.959 
N366 X-168.014 Y-2.045 Z17.808 
N367 X-168.015 Y-2.176 Z17.657 
N368 X-168.016 Y-2.307 Z17.506 
N369 X-168.017 Y-2.439 Z17.355 
N370 X-168.018 Y-2.570 Z17.204 
N371 X-168.019 Y-2.701 Z17.053 
N372 X-168.020 Y-2.832 Z16.902 
N373 X-168.021 Y-2.963 Z16.751 
N374 X-168.022 Y-3.095 Z16.600 
N375 X-168.023 Y-3.226 Z16.449 
N376 X-168.024 Y-3.357 Z16.298 
N377 X-168.025 Y-3.488 Z16.147 
N378 X-168.025 Y-3.618 Z15.998 
N379 X-168.026 Y-3.748 Z15.849 
N380 X-168.027 Y-3.878 Z15.699 
N381 X-168.028 Y-4.008 Z15.550 
N382 X-168.029 Y-4.137 Z15.400 
N383 X-168.030 Y-4.267 Z15.251 
N384 X-168.031 Y-4.397 Z15.102 
N385 X-168.032 Y-4.527 Z14.952 
N386 X-168.033 Y-4.657 Z14.803 
N387 X-168.034 Y-4.787 Z14.654 
N388 X-168.035 Y-4.916 Z14.504 
N389 X-168.036 Y-5.046 Z14.355 
N390 X-168.037 Y-5.176 Z14.206 
N391 X-168.038 Y-5.306 Z14.056 
N392 X-168.039 Y-5.436 Z13.907 
N393 X-168.040 Y-5.566 Z13.758 
N394 X-168.040 Y-5.695 Z13.608 
N395 X-168.041 Y-5.825 Z13.459 
N396 X-168.042 Y-5.955 Z13.309 
N397 X-168.043 Y-6.085 Z13.160 
N398 X-168.044 Y-6.215 Z13.011 
N399 X-168.045 Y-6.345 Z12.861 
N400 X-168.046 Y-6.474 Z12.712 
N401 X-168.047 Y-6.604 Z12.563 
N402 X-168.048 Y-6.734 Z12.413 
N403 X-168.049 Y-6.864 Z12.264 
N404 X-168.050 Y-6.994 Z12.115 
N405 X-168.051 Y-7.124 Z11.965 
N406 X-168.052 Y-7.253 Z11.816 
N407 X-168.053 Y-7.383 Z11.667 
N408 X-168.054 Y-7.513 Z11.517 
N409 X-168.055 Y-7.643 Z11.368 
N410 X-168.056 Y-7.773 Z11.218 
N411 X-168.056 Y-7.903 Z11.069 
N412 X-168.057 Y-8.032 Z10.920 
N413 X-168.056 Y-8.162 Z10.770 
N414 X-168.056 Y-8.292 Z10.621 
N415 X-168.055 Y-8.422 Z10.472 
N416 X-168.054 Y-8.552 Z10.322 
N417 X-168.053 Y-8.682 Z10.173 
N418 X-168.052 Y-8.811 Z10.024 
N419 X-168.052 Y-8.941 Z9.874 
N420 X-168.051 Y-9.071 Z9.725 
N421 X-168.050 Y-9.201 Z9.575 
N422 X-168.049 Y-9.331 Z9.426 
N423 X-168.048 Y-9.461 Z9.277 
N424 X-168.047 Y-9.590 Z9.127 
N425 X-168.047 Y-9.720 Z8.978 
N426 X-168.046 Y-9.850 Z8.829 
N427 X-168.045 Y-9.980 Z8.679 
N428 X-168.044 Y-10.110 Z8.530 
N429 X-168.043 Y-10.240 Z8.381 
N430 X-168.043 Y-10.369 Z8.231 
N431 X-168.042 Y-10.499 Z8.082 
N432 X-168.041 Y-10.629 Z7.933 
N433 X-168.040 Y-10.759 Z7.783 
N434 X-168.039 Y-10.889 Z7.634 
N435 X-168.038 Y-11.019 Z7.484 
N436 X-168.038 Y-11.149 Z7.335 
N437 X-168.037 Y-11.278 Z7.186 
N438 X-168.036 Y-11.408 Z7.036 
N439 X-168.035 Y-11.538 Z6.887 
N440 X-168.034 Y-11.668 Z6.738 
N441 X-168.033 Y-11.798 Z6.588 
N442 X-168.033 Y-11.928 Z6.439 
N443 X-168.032 Y-12.057 Z6.290 
N444 X-168.031 Y-12.187 Z6.140 
N445 X-168.030 Y-12.317 Z5.991 
N446 X-168.029 Y-12.447 Z5.842 
N447 X-168.029 Y-12.577 Z5.692 
N448 X-168.026 Y-12.707 Z5.543 
N449 X-168.023 Y-12.836 Z5.393 
N450 X-168.020 Y-12.966 Z5.244 
N451 X-168.017 Y-13.096 Z5.095 
N452 X-168.013 Y-13.226 Z4.945 
N453 X-168.010 Y-13.356 Z4.796 
N454 X-168.007 Y-13.485 Z4.647 
N455 X-168.004 Y-13.615 Z4.497 
N456 X-168.001 Y-13.745 Z4.348 
N457 X-167.998 Y-13.875 Z4.199 
N458 X-167.995 Y-14.005 Z4.049 
N459 X-167.992 Y-14.135 Z3.900 
N460 X-167.989 Y-14.264 Z3.751 
N461 X-167.986 Y-14.394 Z3.601 
N462 X-167.983 Y-14.524 Z3.452 
N463 X-167.980 Y-14.654 Z3.303 
N464 X-167.977 Y-14.784 Z3.153 
N465 X-167.974 Y-14.913 Z3.004 
N466 X-167.971 Y-15.043 Z2.855 
N467 X-167.967 Y-15.173 Z2.705 
N468 X-167.964 Y-15.303 Z2.556 
N469 X-167.961 Y-15.433 Z2.407 
N470 X-167.958 Y-15.563 Z2.257 
N471 X-167.955 Y-15.692 Z2.108 
N472 X-167.952 Y-15.822 Z1.959 
N473 X-167.949 Y-15.952 Z1.809 
N474 X-167.946 Y-16.082 Z1.660 
N475 X-167.943 Y-16.212 Z1.511 
N476 X-167.940 Y-16.342 Z1.361 
N477 X-167.937 Y-16.471 Z1.212 
N478 X-167.934 Y-16.601 Z1.063 
N479 X-167.931 Y-16.731 Z0.913 
N480 X-167.928 Y-16.861 Z0.764 
N481 X-167.924 Y-16.991 Z0.615 
N482 X-167.921 Y-17.120 Z0.465 
N483 X-167.918 Y-17.250 Z0.316 
N484 X-167.915 Y-17.380 Z0.166 
N485 X-167.912 Y-17.510 Z0.017 
N486 X-167.909 Y-17.640 Z-0.132 
N487 X-167.906 Y-17.770 Z-0.282 
N488 X-167.903 Y-17.899 Z-0.431 
N489 X-167.900 Y-18.029 Z-0.580 
N490 X-167.897 Y-18.159 Z-0.730 
N491 X-167.894 Y-18.289 Z-0.879 
N492 X-167.891 Y-18.419 Z-1.028 
N493 X-167.888 Y-18.548 Z-1.178 
N494 X-167.885 Y-18.678 Z-1.327 
N495 X-167.882 Y-18.808 Z-1.476 
N496 X-167.878 Y-18.938 Z-1.626 
N497 X-167.875 Y-19.068 Z-1.775 
N498 X-167.872 Y-19.198 Z-1.924 
N499 X-167.869 Y-19.327 Z-2.074 
N500 X-167.866 Y-19.457 Z-2.223 
N501 X-167.863 Y-19.587 Z-2.372 
N502 X-167.859 Y-19.717 Z-2.522 
N503 X-167.853 Y-19.847 Z-2.671 
N504 X-167.848 Y-19.976 Z-2.820 
N505 X-167.842 Y-20.106 Z-2.970 
N506 X-167.837 Y-20.236 Z-3.119 
N507 X-167.832 Y-20.366 Z-3.268 
N508 X-167.826 Y-20.496 Z-3.417 
N509 X-167.821 Y-20.625 Z-3.567 
N510 X-167.815 Y-20.755 Z-3.716 
N511 X-167.810 Y-20.885 Z-3.865 
N512 X-167.804 Y-21.015 Z-4.015 
N513 X-167.799 Y-21.145 Z-4.164 
N514 X-167.794 Y-21.274 Z-4.313 
N515 X-167.788 Y-21.404 Z-4.463 
N516 X-167.783 Y-21.534 Z-4.612 
N517 X-167.777 Y-21.664 Z-4.761 
N518 X-167.772 Y-21.793 Z-4.911 
N519 X-167.766 Y-21.923 Z-5.060 
N520 X-167.761 Y-22.053 Z-5.209 
N521 X-167.756 Y-22.183 Z-5.358 
N522 X-167.750 Y-22.313 Z-5.508 
N523 X-167.745 Y-22.442 Z-5.657 
N524 X-167.739 Y-22.572 Z-5.806 
N525 X-167.734 Y-22.702 Z-5.956 
N526 X-167.729 Y-22.832 Z-6.105 
N527 X-167.723 Y-22.962 Z-6.254 
N528 X-167.718 Y-23.091 Z-6.404 
N529 X-167.712 Y-23.221 Z-6.553 
N530 X-167.707 Y-23.351 Z-6.702 
N531 X-167.701 Y-23.481 Z-6.851 
N532 X-167.696 Y-23.611 Z-7.001 
N533 X-167.691 Y-23.740 Z-7.150 
N534 X-167.685 Y-23.870 Z-7.299 
N535 X-167.680 Y-24.000 Z-7.449 
N536 X-167.674 Y-24.130 Z-7.598 
N537 X-167.669 Y-24.259 Z-7.747 
N538 X-167.663 Y-24.389 Z-7.897 
N539 X-167.658 Y-24.519 Z-8.046 
N540 X-167.653 Y-24.649 Z-8.195 
N541 X-167.647 Y-24.779 Z-8.345 
N542 X-167.640 Y-24.908 Z-8.494 
N543 X-167.633 Y-25.038 Z-8.643 
N544 X-167.625 Y-25.168 Z-8.792 
N545 X-167.618 Y-25.298 Z-8.942 
N546 X-167.611 Y-25.427 Z-9.091 
N547 X-167.604 Y-25.557 Z-9.240 
N548 X-167.597 Y-25.687 Z-9.389 
N549 X-167.589 Y-25.817 Z-9.539 
N550 X-167.582 Y-25.946 Z-9.688 
N551 X-167.575 Y-26.076 Z-9.837 
N552 X-167.568 Y-26.206 Z-9.986 
N553 X-167.560 Y-26.336 Z-10.136 
N554 X-167.553 Y-26.465 Z-10.285 
N555 X-167.546 Y-26.595 Z-10.434 
N556 X-167.539 Y-26.725 Z-10.583 
N557 X-167.532 Y-26.855 Z-10.733 
N558 X-167.524 Y-26.984 Z-10.882 
N559 X-167.517 Y-27.114 Z-11.031 
N560 X-167.510 Y-27.244 Z-11.180 
N561 X-167.503 Y-27.374 Z-11.330 
N562 X-167.495 Y-27.503 Z-11.479 
N563 X-167.488 Y-27.633 Z-11.628 
N564 X-167.481 Y-27.763 Z-11.778 
N565 X-167.474 Y-27.893 Z-11.927 
N566 X-167.467 Y-28.022 Z-12.076 
N567 X-167.459 Y-28.152 Z-12.225 
N568 X-167.452 Y-28.282 Z-12.375 
N569 X-167.445 Y-28.412 Z-12.524 
N570 X-167.438 Y-28.541 Z-12.673 
N571 X-167.430 Y-28.671 Z-12.822 
N572 X-167.423 Y-28.801 Z-12.972 
N573 X-167.416 Y-28.931 Z-13.121 
N574 X-167.409 Y-29.062 Z-13.272 
N575 X-167.401 Y-29.193 Z-13.423 
N576 X-167.394 Y-29.324 Z-13.573 
N577 X-167.387 Y-29.455 Z-13.724 
N578 X-167.380 Y-29.586 Z-13.875 
N579 X-167.372 Y-29.717 Z-14.026 
N580 X-167.365 Y-29.849 Z-14.177 
N581 X-167.358 Y-29.980 Z-14.328 
N582 X-167.350 Y-30.111 Z-14.478 
N583 X-167.343 Y-30.242 Z-14.629 
N584 X-167.336 Y-30.373 Z-14.780 
N585 X-167.328 Y-30.504 Z-14.931 
N586 X-167.321 Y-30.635 Z-15.082 
N587 X-167.314 Y-30.766 Z-15.233 
N588 X-167.307 Y-30.898 Z-15.384 
N589 X-167.299 Y-31.029 Z-15.534 
N590 X-167.292 Y-31.160 Z-15.685 
N591 X-167.285 Y-31.291 Z-15.836 
N592 X-167.277 Y-31.422 Z-15.987 
N593 X-167.270 Y-31.553 Z-16.138 
N594 X-167.263 Y-31.684 Z-16.289 
N595 X-167.255 Y-31.815 Z-16.439 
N596 X-167.248 Y-31.946 Z-16.590 
N597 X-167.241 Y-32.078 Z-16.741 
N598 X-167.234 Y-32.209 Z-16.892 
N599 X-167.226 Y-32.340 Z-17.043 
N600 X-167.219 Y-32.471 Z-17.194 
N601 X-167.212 Y-32.602 Z-17.344 
N602 X-167.204 Y-32.733 Z-17.495 
N603 X-167.197 Y-32.864 Z-17.646 
N604 G40 X-166.832 Y-39.421 Z-25.188 F594
N605 X-166.832 Y-39.421 Z-25.188 
N606 G00 X-166.832 Y-77.156 Z7.615 
;RAPORT("TB000000","Side Milling:119 End")
;trailer : concat=None
; points cnt = 553
N608 MSG (" --- GROUPED OF SUBPROGRAM --- ")
N609 FGROUP()
N610 TRAFOOF
; PROGRAM NAME: B00000041
; ORDER       : B000000
; OPER. NAME  : Side Milling:120
; OPER. DESCR.: HHU rough milling NGA
; OPER. TYPE  : sideMill
; GEO. OPTION : 3
; MACHINE     : HSTM_500_SIM840D_Py
;             : HSTM500 - HAMUEL: 5-axis milling machine - SIM840D Traori PP_Script
; CONTROL     : SINUMERIK 840D
; created:   2021-11-15 09:59:04.668275
;-------DODATKOWE DANE-------------------
; PROGRAMISTA : Mariusz Malec
; PARTID      : 139T001534P1001_-
;  ap         : 26.0
;  ae         : 9.6
;  lean_angle : 0.0
;  fin_offset : 0.2
;----------------------------------------
;RAPORT("TB000000","Side Milling:120")
N10 TRAFOOF
N11 D0
N12 G90 G94
N13 G0 G53 D0 Z550 B0
N14 STOPRE
M9 ; chlodziwo wyl
; --- Side Milling:120 - HHU rough milling NGA ---
N16 ;ToolChange : concat=None ,current_tdmid=None, PP.tdmId=940676
N17 TRAFOOF
N18 G0 G53 D0 Z550 B0
N19 STOPRE
N20 MSG(" TLID=940676 D=12.0 R=3.6 Ang=0.0 Len=125.0 ")
N21 S4244 M03
N22 STOPRE
N23 CYCLE832(0.01,1,1)
N24 G0 G53 A229.0000 B-0.0000
N25 TRAORI
N26 G54 D3
N27 D3 
STOPRE
E_ZDARZ=500002
;ACS_ROUGH_SLOT=7740676
STOPRE
N28 ; DELTA A > 40.1
N29 TRAFOOF
N30 D3
N31 STOPRE
N32 G00 G54 Z261.000
N33 G01 A229.0000 F10000
N34 TRAORI
N35 G54 D3
N36 STOPRE
N37 TRANS 
N38 G00 X-162.271 Y90.897 Z-0.691 A229.0000 
N39 M342 ; chlodziwo woda
N40 X-162.271 Y53.161 Z32.112 
N41 G01 X-162.293 Y50.508 Z33.770 F594 
N42 X-162.359 Y47.473 Z34.528 
N43 X-162.461 Y44.354 Z34.312 
N44 X-162.590 Y41.455 Z33.142 
N45 ;NTA
N46 D3 
N47 G01 G41 X-162.733 Y39.060 Z31.134 F594
N48 X-162.733 Y39.060 Z31.134 
N49 X-162.742 Y38.929 Z30.983 
N50 X-162.751 Y38.798 Z30.832 
N51 X-162.761 Y38.667 Z30.681 
N52 X-162.770 Y38.536 Z30.530 
N53 X-162.779 Y38.405 Z30.380 
N54 X-162.788 Y38.274 Z30.229 
N55 X-162.798 Y38.143 Z30.078 
N56 X-162.807 Y38.012 Z29.927 
N57 X-162.816 Y37.881 Z29.777 
N58 X-162.825 Y37.750 Z29.626 
N59 X-162.835 Y37.619 Z29.475 
N60 X-162.844 Y37.488 Z29.324 
N61 X-162.853 Y37.357 Z29.173 
N62 X-162.862 Y37.225 Z29.023 
N63 X-162.872 Y37.094 Z28.872 
N64 X-162.881 Y36.963 Z28.721 
N65 X-162.890 Y36.832 Z28.570 
N66 X-162.899 Y36.701 Z28.420 
N67 X-162.909 Y36.570 Z28.269 
N68 X-162.918 Y36.439 Z28.118 
N69 X-162.927 Y36.308 Z27.967 
N70 X-162.936 Y36.177 Z27.816 
N71 X-162.946 Y36.046 Z27.666 
N72 X-162.955 Y35.915 Z27.515 
N73 X-162.964 Y35.784 Z27.364 
N74 X-162.973 Y35.653 Z27.213 
N75 X-162.983 Y35.522 Z27.063 
N76 X-162.992 Y35.390 Z26.912 
N77 X-163.001 Y35.259 Z26.761 
N78 X-163.010 Y35.128 Z26.610 
N79 X-163.020 Y34.997 Z26.459 
N80 X-163.029 Y34.866 Z26.309 
N81 X-163.038 Y34.735 Z26.158 
N82 X-163.047 Y34.604 Z26.007 
N83 X-163.057 Y34.473 Z25.856 
N84 X-163.066 Y34.343 Z25.707 
N85 X-163.075 Y34.213 Z25.558 
N86 X-163.084 Y34.083 Z25.408 
N87 X-163.093 Y33.954 Z25.259 
N88 X-163.102 Y33.824 Z25.110 
N89 X-163.112 Y33.694 Z24.960 
N90 X-163.121 Y33.564 Z24.811 
N91 X-163.130 Y33.434 Z24.661 
N92 X-163.139 Y33.305 Z24.512 
N93 X-163.148 Y33.175 Z24.363 
N94 X-163.157 Y33.045 Z24.213 
N95 X-163.167 Y32.915 Z24.064 
N96 X-163.176 Y32.785 Z23.915 
N97 X-163.185 Y32.655 Z23.765 
N98 X-163.194 Y32.526 Z23.616 
N99 X-163.203 Y32.396 Z23.467 
N100 X-163.212 Y32.266 Z23.317 
N101 X-163.221 Y32.136 Z23.168 
N102 X-163.231 Y32.006 Z23.019 
N103 X-163.240 Y31.876 Z22.869 
N104 X-163.249 Y31.747 Z22.720 
N105 X-163.258 Y31.617 Z22.571 
N106 X-163.267 Y31.487 Z22.421 
N107 X-163.276 Y31.357 Z22.272 
N108 X-163.286 Y31.227 Z22.123 
N109 X-163.295 Y31.097 Z21.973 
N110 X-163.304 Y30.968 Z21.824 
N111 X-163.313 Y30.838 Z21.674 
N112 X-163.322 Y30.708 Z21.525 
N113 X-163.331 Y30.578 Z21.376 
N114 X-163.341 Y30.448 Z21.226 
N115 X-163.350 Y30.318 Z21.077 
N116 X-163.359 Y30.189 Z20.928 
N117 X-163.368 Y30.059 Z20.778 
N118 X-163.377 Y29.929 Z20.629 
N119 X-163.386 Y29.799 Z20.480 
N120 X-163.393 Y29.669 Z20.330 
N121 X-163.400 Y29.539 Z20.181 
N122 X-163.407 Y29.409 Z20.031 
N123 X-163.414 Y29.280 Z19.882 
N124 X-163.422 Y29.150 Z19.733 
N125 X-163.429 Y29.020 Z19.583 
N126 X-163.436 Y28.890 Z19.434 
N127 X-163.443 Y28.760 Z19.284 
N128 X-163.450 Y28.630 Z19.135 
N129 X-163.458 Y28.500 Z18.986 
N130 X-163.465 Y28.370 Z18.836 
N131 X-163.472 Y28.241 Z18.687 
N132 X-163.479 Y28.111 Z18.537 
N133 X-163.486 Y27.981 Z18.388 
N134 X-163.494 Y27.851 Z18.238 
N135 X-163.501 Y27.721 Z18.089 
N136 X-163.508 Y27.591 Z17.940 
N137 X-163.515 Y27.461 Z17.790 
N138 X-163.522 Y27.331 Z17.641 
N139 X-163.530 Y27.202 Z17.491 
N140 X-163.537 Y27.072 Z17.342 
N141 X-163.544 Y26.942 Z17.193 
N142 X-163.551 Y26.812 Z17.043 
N143 X-163.558 Y26.682 Z16.894 
N144 X-163.565 Y26.552 Z16.744 
N145 X-163.573 Y26.422 Z16.595 
N146 X-163.580 Y26.292 Z16.446 
N147 X-163.587 Y26.162 Z16.296 
N148 X-163.594 Y26.033 Z16.147 
N149 X-163.601 Y25.903 Z15.997 
N150 X-163.609 Y25.773 Z15.848 
N151 X-163.616 Y25.643 Z15.698 
N152 X-163.623 Y25.513 Z15.549 
N153 X-163.630 Y25.383 Z15.400 
N154 X-163.637 Y25.253 Z15.250 
N155 X-163.645 Y25.123 Z15.101 
N156 X-163.652 Y24.994 Z14.951 
N157 X-163.659 Y24.864 Z14.802 
N158 X-163.666 Y24.734 Z14.653 
N159 X-163.673 Y24.604 Z14.503 
N160 X-163.681 Y24.474 Z14.354 
N161 X-163.687 Y24.344 Z14.204 
N162 X-163.692 Y24.214 Z14.055 
N163 X-163.697 Y24.084 Z13.905 
N164 X-163.702 Y23.954 Z13.756 
N165 X-163.706 Y23.824 Z13.606 
N166 X-163.711 Y23.694 Z13.457 
N167 X-163.716 Y23.565 Z13.308 
N168 X-163.721 Y23.435 Z13.158 
N169 X-163.726 Y23.305 Z13.009 
N170 X-163.730 Y23.175 Z12.859 
N171 X-163.735 Y23.045 Z12.710 
N172 X-163.740 Y22.915 Z12.560 
N173 X-163.745 Y22.785 Z12.411 
N174 X-163.750 Y22.655 Z12.261 
N175 X-163.754 Y22.525 Z12.112 
N176 X-163.759 Y22.395 Z11.962 
N177 X-163.764 Y22.265 Z11.813 
N178 X-163.769 Y22.135 Z11.663 
N179 X-163.774 Y22.005 Z11.514 
N180 X-163.779 Y21.875 Z11.364 
N181 X-163.783 Y21.746 Z11.215 
N182 X-163.788 Y21.616 Z11.066 
N183 X-163.793 Y21.486 Z10.916 
N184 X-163.798 Y21.356 Z10.767 
N185 X-163.803 Y21.226 Z10.617 
N186 X-163.807 Y21.096 Z10.468 
N187 X-163.812 Y20.966 Z10.318 
N188 X-163.817 Y20.836 Z10.169 
N189 X-163.822 Y20.706 Z10.019 
N190 X-163.827 Y20.576 Z9.870 
N191 X-163.831 Y20.446 Z9.720 
N192 X-163.836 Y20.316 Z9.571 
N193 X-163.841 Y20.186 Z9.421 
N194 X-163.846 Y20.056 Z9.272 
N195 X-163.851 Y19.927 Z9.122 
N196 X-163.855 Y19.797 Z8.973 
N197 X-163.860 Y19.667 Z8.824 
N198 X-163.865 Y19.537 Z8.674 
N199 X-163.870 Y19.407 Z8.525 
N200 X-163.875 Y19.277 Z8.375 
N201 X-163.879 Y19.147 Z8.226 
N202 X-163.884 Y19.017 Z8.076 
N203 X-163.889 Y18.887 Z7.927 
N204 X-163.894 Y18.757 Z7.777 
N205 X-163.899 Y18.627 Z7.628 
N206 X-163.904 Y18.497 Z7.478 
N207 X-163.908 Y18.367 Z7.329 
N208 X-163.913 Y18.237 Z7.179 
N209 X-163.918 Y18.107 Z7.030 
N210 X-163.923 Y17.978 Z6.880 
N211 X-163.928 Y17.848 Z6.731 
N212 X-163.932 Y17.718 Z6.582 
N213 X-163.937 Y17.588 Z6.432 
N214 X-163.940 Y17.458 Z6.283 
N215 X-163.943 Y17.328 Z6.133 
N216 X-163.945 Y17.198 Z5.984 
N217 X-163.948 Y17.068 Z5.834 
N218 X-163.951 Y16.938 Z5.685 
N219 X-163.953 Y16.808 Z5.535 
N220 X-163.956 Y16.678 Z5.386 
N221 X-163.959 Y16.548 Z5.236 
N222 X-163.961 Y16.418 Z5.087 
N223 X-163.964 Y16.288 Z4.937 
N224 X-163.967 Y16.158 Z4.788 
N225 X-163.969 Y16.028 Z4.638 
N226 X-163.972 Y15.898 Z4.489 
N227 X-163.975 Y15.768 Z4.339 
N228 X-163.978 Y15.638 Z4.190 
N229 X-163.980 Y15.508 Z4.040 
N230 X-163.983 Y15.379 Z3.891 
N231 X-163.986 Y15.249 Z3.741 
N232 X-163.988 Y15.119 Z3.592 
N233 X-163.991 Y14.989 Z3.442 
N234 X-163.994 Y14.859 Z3.293 
N235 X-163.996 Y14.729 Z3.143 
N236 X-163.999 Y14.599 Z2.994 
N237 X-164.002 Y14.469 Z2.844 
N238 X-164.004 Y14.339 Z2.695 
N239 X-164.007 Y14.209 Z2.545 
N240 X-164.010 Y14.079 Z2.396 
N241 X-164.013 Y13.949 Z2.246 
N242 X-164.015 Y13.819 Z2.097 
N243 X-164.018 Y13.689 Z1.947 
N244 X-164.021 Y13.559 Z1.798 
N245 X-164.022 Y13.429 Z1.648 
N246 X-164.023 Y13.299 Z1.499 
N247 X-164.024 Y13.169 Z1.349 
N248 X-164.025 Y13.039 Z1.200 
N249 X-164.026 Y12.909 Z1.050 
N250 X-164.028 Y12.779 Z0.901 
N251 X-164.029 Y12.649 Z0.751 
N252 X-164.030 Y12.519 Z0.602 
N253 X-164.031 Y12.389 Z0.452 
N254 X-164.032 Y12.260 Z0.303 
N255 X-164.033 Y12.130 Z0.153 
N256 X-164.034 Y12.000 Z0.004 
N257 X-164.035 Y11.870 Z-0.146 
N258 X-164.036 Y11.740 Z-0.295 
N259 X-164.037 Y11.610 Z-0.445 
N260 X-164.038 Y11.480 Z-0.594 
N261 X-164.039 Y11.350 Z-0.744 
N262 X-164.040 Y11.220 Z-0.893 
N263 X-164.041 Y11.090 Z-1.043 
N264 X-164.042 Y10.960 Z-1.192 
N265 X-164.043 Y10.830 Z-1.342 
N266 X-164.044 Y10.700 Z-1.491 
N267 X-164.045 Y10.570 Z-1.641 
N268 X-164.046 Y10.440 Z-1.791 
N269 X-164.047 Y10.310 Z-1.940 
N270 X-164.048 Y10.180 Z-2.090 
N271 X-164.049 Y10.050 Z-2.239 
N272 X-164.050 Y9.920 Z-2.389 
N273 X-164.051 Y9.790 Z-2.538 
N274 X-164.052 Y9.660 Z-2.688 
N275 X-164.053 Y9.530 Z-2.837 
N276 X-164.054 Y9.400 Z-2.987 
N277 X-164.055 Y9.270 Z-3.136 
N278 X-164.056 Y9.140 Z-3.286 
N279 X-164.057 Y9.010 Z-3.435 
N280 X-164.058 Y8.879 Z-3.586 
N281 X-164.059 Y8.748 Z-3.737 
N282 X-164.060 Y8.617 Z-3.888 
N283 X-164.061 Y8.486 Z-4.039 
N284 X-164.062 Y8.354 Z-4.190 
N285 X-164.063 Y8.223 Z-4.341 
N286 X-164.064 Y8.092 Z-4.492 
N287 X-164.065 Y7.961 Z-4.643 
N288 X-164.066 Y7.829 Z-4.794 
N289 X-164.067 Y7.698 Z-4.945 
N290 X-164.069 Y7.567 Z-5.095 
N291 X-164.070 Y7.436 Z-5.246 
N292 X-164.071 Y7.305 Z-5.397 
N293 X-164.072 Y7.173 Z-5.548 
N294 X-164.073 Y7.042 Z-5.699 
N295 X-164.074 Y6.911 Z-5.850 
N296 X-164.075 Y6.780 Z-6.001 
N297 X-164.076 Y6.649 Z-6.152 
N298 X-164.077 Y6.517 Z-6.303 
N299 X-164.078 Y6.386 Z-6.454 
N300 X-164.079 Y6.255 Z-6.605 
N301 X-164.080 Y6.124 Z-6.756 
N302 X-164.081 Y5.993 Z-6.907 
N303 X-164.082 Y5.861 Z-7.058 
N304 X-164.083 Y5.730 Z-7.209 
N305 X-164.084 Y5.599 Z-7.360 
N306 X-164.085 Y5.468 Z-7.510 
N307 X-164.086 Y5.336 Z-7.661 
N308 X-164.087 Y5.205 Z-7.812 
N309 X-164.088 Y5.074 Z-7.963 
N310 G40 X-164.088 Y4.928 Z-8.132 F725
N311 X-164.088 Y4.928 Z-8.132 
N312 X-164.088 Y4.721 Z-8.369 F1121 
N313 X-164.090 Y4.393 Z-8.747 F1781 
N314 X-164.098 Y3.904 Z-9.309 F2441 
N315 X-164.120 Y3.294 Z-10.011 F2836 
N316 X-164.165 Y2.624 Z-10.782 F2968 
N317 X-164.235 Y1.980 Z-11.523 
N318 X-164.336 Y1.337 Z-12.263 
N319 X-164.471 Y0.697 Z-12.999 
N320 X-164.642 Y0.060 Z-13.731 
N321 X-164.847 Y-0.572 Z-14.458 
N322 X-165.085 Y-1.199 Z-15.179 
N323 X-165.354 Y-1.820 Z-15.894 
N324 X-165.655 Y-2.436 Z-16.602 
N325 X-165.991 Y-3.043 Z-17.301 
N326 X-166.373 Y-3.639 Z-17.986 
N327 X-166.831 Y-4.210 Z-18.644 
N328 X-167.556 Y-4.522 Z-19.002 
N329 X-167.841 Y-3.912 Z-18.301 
N330 X-167.923 Y-3.246 Z-17.534 F2836 
N331 X-167.954 Y-2.638 Z-16.835 F2441 
N332 X-167.964 Y-2.136 Z-16.257 F1781 
N333 X-167.966 Y-1.807 Z-15.880 F1121 
N334 X-167.966 Y-1.611 Z-15.653 F725 
N335 ;NNTA
N336 D4 
N337 G01 G41 X-167.967 Y-1.479 Z-15.501 F594
N338 X-167.967 Y-1.479 Z-15.501 F594 
N339 X-167.968 Y-1.347 Z-15.350 
N340 X-167.969 Y-1.216 Z-15.199 
N341 X-167.971 Y-1.085 Z-15.048 
N342 X-167.972 Y-0.954 Z-14.898 
N343 X-167.973 Y-0.823 Z-14.747 
N344 X-167.975 Y-0.691 Z-14.596 
N345 X-167.976 Y-0.560 Z-14.445 
N346 X-167.977 Y-0.429 Z-14.294 
N347 X-167.978 Y-0.298 Z-14.143 
N348 X-167.980 Y-0.167 Z-13.992 
N349 X-167.981 Y-0.035 Z-13.841 
N350 X-167.982 Y0.096 Z-13.690 
N351 X-167.984 Y0.227 Z-13.539 
N352 X-167.985 Y0.358 Z-13.388 
N353 X-167.986 Y0.490 Z-13.237 
N354 X-167.987 Y0.621 Z-13.086 
N355 X-167.989 Y0.752 Z-12.935 
N356 X-167.990 Y0.883 Z-12.784 
N357 X-167.991 Y1.014 Z-12.633 
N358 X-167.993 Y1.146 Z-12.483 
N359 X-167.994 Y1.277 Z-12.332 
N360 X-167.995 Y1.408 Z-12.181 
N361 X-167.997 Y1.539 Z-12.030 
N362 X-167.998 Y1.670 Z-11.879 
N363 X-167.999 Y1.802 Z-11.728 
N364 X-168.000 Y1.933 Z-11.577 
N365 X-168.002 Y2.064 Z-11.426 
N366 X-168.003 Y2.195 Z-11.275 
N367 X-168.004 Y2.326 Z-11.124 
N368 X-168.006 Y2.458 Z-10.973 
N369 X-168.007 Y2.589 Z-10.822 
N370 X-168.008 Y2.720 Z-10.671 
N371 X-168.009 Y2.851 Z-10.520 
N372 X-168.011 Y2.983 Z-10.369 
N373 X-168.012 Y3.114 Z-10.218 
N374 X-168.013 Y3.244 Z-10.069 
N375 X-168.015 Y3.373 Z-9.920 
N376 X-168.016 Y3.503 Z-9.770 
N377 X-168.017 Y3.633 Z-9.621 
N378 X-168.018 Y3.763 Z-9.472 
N379 X-168.020 Y3.893 Z-9.322 
N380 X-168.021 Y4.023 Z-9.173 
N381 X-168.022 Y4.152 Z-9.024 
N382 X-168.024 Y4.282 Z-8.874 
N383 X-168.025 Y4.412 Z-8.725 
N384 X-168.026 Y4.542 Z-8.576 
N385 X-168.027 Y4.672 Z-8.426 
N386 X-168.029 Y4.802 Z-8.277 
N387 X-168.030 Y4.931 Z-8.127 
N388 X-168.031 Y5.061 Z-7.978 
N389 X-168.033 Y5.191 Z-7.829 
N390 X-168.034 Y5.321 Z-7.679 
N391 X-168.035 Y5.451 Z-7.530 
N392 X-168.036 Y5.580 Z-7.381 
N393 X-168.038 Y5.710 Z-7.231 
N394 X-168.039 Y5.840 Z-7.082 
N395 X-168.040 Y5.970 Z-6.933 
N396 X-168.042 Y6.100 Z-6.783 
N397 X-168.043 Y6.230 Z-6.634 
N398 X-168.044 Y6.359 Z-6.485 
N399 X-168.045 Y6.489 Z-6.335 
N400 X-168.047 Y6.619 Z-6.186 
N401 X-168.048 Y6.749 Z-6.037 
N402 X-168.049 Y6.879 Z-5.887 
N403 X-168.050 Y7.009 Z-5.738 
N404 X-168.052 Y7.138 Z-5.588 
N405 X-168.053 Y7.268 Z-5.439 
N406 X-168.054 Y7.398 Z-5.290 
N407 X-168.056 Y7.528 Z-5.140 
N408 X-168.055 Y7.658 Z-4.991 
N409 X-168.055 Y7.788 Z-4.842 
N410 X-168.054 Y7.917 Z-4.692 
N411 X-168.054 Y8.047 Z-4.543 
N412 X-168.053 Y8.177 Z-4.394 
N413 X-168.053 Y8.307 Z-4.244 
N414 X-168.052 Y8.437 Z-4.095 
N415 X-168.052 Y8.567 Z-3.946 
N416 X-168.051 Y8.696 Z-3.796 
N417 X-168.051 Y8.826 Z-3.647 
N418 X-168.050 Y8.956 Z-3.498 
N419 X-168.050 Y9.086 Z-3.348 
N420 X-168.049 Y9.216 Z-3.199 
N421 X-168.049 Y9.346 Z-3.049 
N422 X-168.048 Y9.475 Z-2.900 
N423 X-168.048 Y9.605 Z-2.751 
N424 X-168.047 Y9.735 Z-2.601 
N425 X-168.047 Y9.865 Z-2.452 
N426 X-168.046 Y9.995 Z-2.303 
N427 X-168.046 Y10.125 Z-2.153 
N428 X-168.045 Y10.254 Z-2.004 
N429 X-168.045 Y10.384 Z-1.855 
N430 X-168.045 Y10.514 Z-1.705 
N431 X-168.044 Y10.644 Z-1.556 
N432 X-168.044 Y10.774 Z-1.407 
N433 X-168.043 Y10.904 Z-1.257 
N434 X-168.043 Y11.033 Z-1.108 
N435 X-168.042 Y11.163 Z-0.958 
N436 X-168.042 Y11.293 Z-0.809 
N437 X-168.041 Y11.423 Z-0.660 
N438 X-168.041 Y11.553 Z-0.510 
N439 X-168.040 Y11.683 Z-0.361 
N440 X-168.040 Y11.812 Z-0.212 
N441 X-168.039 Y11.942 Z-0.062 
N442 X-168.039 Y12.072 Z0.087 
N443 X-168.038 Y12.202 Z0.236 
N444 X-168.036 Y12.332 Z0.386 
N445 X-168.033 Y12.462 Z0.535 
N446 X-168.030 Y12.591 Z0.684 
N447 X-168.027 Y12.721 Z0.834 
N448 X-168.025 Y12.851 Z0.983 
N449 X-168.022 Y12.981 Z1.132 
N450 X-168.019 Y13.111 Z1.282 
N451 X-168.016 Y13.241 Z1.431 
N452 X-168.013 Y13.370 Z1.580 
N453 X-168.011 Y13.500 Z1.730 
N454 X-168.008 Y13.630 Z1.879 
N455 X-168.005 Y13.760 Z2.028 
N456 X-168.002 Y13.890 Z2.178 
N457 X-168.000 Y14.019 Z2.327 
N458 X-167.997 Y14.149 Z2.476 
N459 X-167.994 Y14.279 Z2.626 
N460 X-167.991 Y14.409 Z2.775 
N461 X-167.989 Y14.539 Z2.925 
N462 X-167.986 Y14.669 Z3.074 
N463 X-167.983 Y14.798 Z3.223 
N464 X-167.980 Y14.928 Z3.373 
N465 X-167.977 Y15.058 Z3.522 
N466 X-167.975 Y15.188 Z3.671 
N467 X-167.972 Y15.318 Z3.821 
N468 X-167.969 Y15.447 Z3.970 
N469 X-167.966 Y15.577 Z4.119 
N470 X-167.964 Y15.707 Z4.269 
N471 X-167.961 Y15.837 Z4.418 
N472 X-167.958 Y15.967 Z4.567 
N473 X-167.955 Y16.097 Z4.717 
N474 X-167.952 Y16.226 Z4.866 
N475 X-167.950 Y16.356 Z5.015 
N476 X-167.947 Y16.486 Z5.165 
N477 X-167.944 Y16.616 Z5.314 
N478 X-167.941 Y16.746 Z5.463 
N479 X-167.939 Y16.875 Z5.613 
N480 X-167.936 Y17.005 Z5.762 
N481 X-167.933 Y17.135 Z5.911 
N482 X-167.930 Y17.265 Z6.061 
N483 X-167.927 Y17.395 Z6.210 
N484 X-167.925 Y17.525 Z6.359 
N485 X-167.922 Y17.654 Z6.509 
N486 X-167.919 Y17.784 Z6.658 
N487 X-167.916 Y17.914 Z6.807 
N488 X-167.914 Y18.044 Z6.957 
N489 X-167.911 Y18.174 Z7.106 
N490 X-167.908 Y18.304 Z7.255 
N491 X-167.905 Y18.433 Z7.405 
N492 X-167.903 Y18.563 Z7.554 
N493 X-167.900 Y18.693 Z7.703 
N494 X-167.897 Y18.823 Z7.853 
N495 X-167.894 Y18.953 Z8.002 
N496 X-167.891 Y19.082 Z8.151 
N497 X-167.889 Y19.212 Z8.301 
N498 X-167.886 Y19.342 Z8.450 
N499 X-167.882 Y19.472 Z8.599 
N500 X-167.876 Y19.602 Z8.749 
N501 X-167.871 Y19.731 Z8.898 
N502 X-167.866 Y19.861 Z9.047 
N503 X-167.861 Y19.991 Z9.197 
N504 X-167.856 Y20.121 Z9.346 
N505 X-167.851 Y20.251 Z9.495 
N506 X-167.846 Y20.380 Z9.645 
N507 X-167.840 Y20.510 Z9.794 
N508 X-167.835 Y20.640 Z9.943 
N509 X-167.830 Y20.770 Z10.093 
N510 X-167.825 Y20.900 Z10.242 
N511 X-167.820 Y21.029 Z10.391 
N512 X-167.815 Y21.159 Z10.540 
N513 X-167.810 Y21.289 Z10.690 
N514 X-167.804 Y21.419 Z10.839 
N515 X-167.799 Y21.548 Z10.988 
N516 X-167.794 Y21.678 Z11.138 
N517 X-167.789 Y21.808 Z11.287 
N518 X-167.784 Y21.938 Z11.436 
N519 X-167.779 Y22.068 Z11.586 
N520 X-167.774 Y22.197 Z11.735 
N521 X-167.768 Y22.327 Z11.884 
N522 X-167.763 Y22.457 Z12.033 
N523 X-167.758 Y22.587 Z12.183 
N524 X-167.753 Y22.717 Z12.332 
N525 X-167.748 Y22.846 Z12.481 
N526 X-167.743 Y22.976 Z12.631 
N527 X-167.737 Y23.106 Z12.780 
N528 X-167.732 Y23.236 Z12.929 
N529 X-167.727 Y23.366 Z13.079 
N530 X-167.722 Y23.495 Z13.228 
N531 X-167.717 Y23.625 Z13.377 
N532 X-167.712 Y23.755 Z13.527 
N533 X-167.707 Y23.885 Z13.676 
N534 X-167.701 Y24.014 Z13.825 
N535 X-167.696 Y24.144 Z13.974 
N536 X-167.691 Y24.274 Z14.124 
N537 X-167.686 Y24.404 Z14.273 
N538 X-167.680 Y24.534 Z14.422 
N539 X-167.673 Y24.663 Z14.572 
N540 X-167.666 Y24.793 Z14.721 
N541 X-167.659 Y24.923 Z14.870 
N542 X-167.652 Y25.053 Z15.019 
N543 X-167.646 Y25.182 Z15.169 
N544 X-167.639 Y25.312 Z15.318 
N545 X-167.632 Y25.442 Z15.467 
N546 X-167.625 Y25.572 Z15.616 
N547 X-167.618 Y25.701 Z15.766 
N548 X-167.611 Y25.831 Z15.915 
N549 X-167.604 Y25.961 Z16.064 
N550 X-167.597 Y26.091 Z16.214 
N551 X-167.590 Y26.220 Z16.363 
N552 X-167.583 Y26.350 Z16.512 
N553 X-167.576 Y26.480 Z16.661 
N554 X-167.569 Y26.610 Z16.811 
N555 X-167.563 Y26.739 Z16.960 
N556 X-167.556 Y26.869 Z17.109 
N557 X-167.549 Y26.999 Z17.258 
N558 X-167.542 Y27.129 Z17.408 
N559 X-167.535 Y27.258 Z17.557 
N560 X-167.528 Y27.388 Z17.706 
N561 X-167.521 Y27.518 Z17.855 
N562 X-167.514 Y27.648 Z18.005 
N563 X-167.507 Y27.777 Z18.154 
N564 X-167.500 Y27.907 Z18.303 
N565 X-167.493 Y28.037 Z18.453 
N566 X-167.486 Y28.167 Z18.602 
N567 X-167.479 Y28.296 Z18.751 
N568 X-167.473 Y28.426 Z18.900 
N569 X-167.466 Y28.556 Z19.050 
N570 X-167.459 Y28.687 Z19.200 
N571 X-167.452 Y28.818 Z19.351 
N572 X-167.445 Y28.949 Z19.502 
N573 X-167.438 Y29.081 Z19.653 
N574 X-167.431 Y29.212 Z19.804 
N575 X-167.424 Y29.343 Z19.955 
N576 X-167.417 Y29.474 Z20.106 
N577 X-167.410 Y29.605 Z20.256 
N578 X-167.403 Y29.736 Z20.407 
N579 X-167.396 Y29.867 Z20.558 
N580 X-167.389 Y29.998 Z20.709 
N581 X-167.382 Y30.130 Z20.860 
N582 X-167.375 Y30.261 Z21.011 
N583 X-167.368 Y30.392 Z21.161 
N584 X-167.361 Y30.523 Z21.312 
N585 X-167.354 Y30.654 Z21.463 
N586 X-167.347 Y30.785 Z21.614 
N587 X-167.340 Y30.916 Z21.765 
N588 X-167.333 Y31.048 Z21.916 
N589 X-167.326 Y31.179 Z22.067 
N590 X-167.319 Y31.310 Z22.217 
N591 X-167.312 Y31.441 Z22.368 
N592 X-167.305 Y31.572 Z22.519 
N593 X-167.298 Y31.703 Z22.670 
N594 X-167.291 Y31.834 Z22.821 
N595 X-167.284 Y31.965 Z22.972 
N596 X-167.277 Y32.097 Z23.123 
N597 X-167.270 Y32.228 Z23.273 
N598 X-167.263 Y32.359 Z23.424 
N599 X-167.256 Y32.490 Z23.575 
N600 G40 X-166.906 Y39.047 Z31.118 F594
N601 X-166.906 Y39.047 Z31.118 
N602 G00 X-166.906 Y76.782 Z-1.685 
;RAPORT("TB000000","Side Milling:120 End")
;trailer : concat=None
; points cnt = 553
N604 M9 ; chlodziwo wyl.
N605 MSG (" --- KONIEC PODPROGRAMU --- ")
N606 FGROUP()
N607 TRAFOOF
N608 STOPRE
N609 G0 G53 D0 Z550.0 M9 M5
N610 G0 G53 Y150 A0 B0
N611 M17
