; PROGRAM NAME: B00000039
; ORDER       : B000000
; OPER. NAME  : Side Milling:163
; OPER. DESCR.: Side Milling/czolo nozki po luku wk
; OPER. TYPE  : sideMill
; GEO. OPTION : 1
; MACHINE     : HSTM_500_SIM840D_Py
;             : HSTM500 - HAMUEL: 5-axis milling machine - SIM840D Traori PP_Script
; CONTROL     : SINUMERIK 840D
; created:   2021-11-15 10:01:47.469199
;-------DODATKOWE DANE-------------------
; PROGRAMISTA : Mariusz Malec
; PARTID      : 139T001534P1001_-
;  ap         : 22.0
;  ae         : 0.05
;  lean_angle : 0.0
;  fin_offset : -13.5
;----------------------------------------
;RAPORT("TB000000","Side Milling:163")
N10 TRAFOOF
N11 D0
N12 G90 G94
N13 G0 G53 D0 Z550 B0
N14 STOPRE
M9 ; chlodziwo wyl
; --- Side Milling:163 - Side Milling/czolo nozki po luku wk ---
N16 ;ToolChange : concat=None ,current_tdmid=None, PP.tdmId=957773
N17 TRAFOOF
N18 G0 G53 D0 X-200 Y150 Z550 B0
N19 T="7757773"
;RAPORT("TB000000","ToolChangeStart 7757773")
N20 M6
;RAPORT("TB000000","ToolChangeEnd")
N21 STOPRE
N22 MSG(" TLID=957773 D=9.5 R=1.0 Ang=0.0 Len=129.0 ")
N23 ; (Preloading tool)
N24 T="7757453"
N25 S6701 M03
N26 STOPRE
N27 CYCLE832(0.01,1,1)
N28 G0 G53 A49.0000 B0.0000
N29 TRAORI
N30 G54 D1
;tol5=0.15
N31 D1 
STOPRE
E_ZDARZ=300007
;ACS_FINISH_ROOT_FRONT=7757773
STOPRE
;UWAGA : ZMIENIONA TOLERANCJA OSI A i B, ruchy osi A i B beda usuniete : TOL5=0.15
N32 ; DELTA A > 40.1
N33 TRAFOOF
N34 D1
N35 STOPRE
N36 G00 G54 Z257.000
N37 G01 A49.0000 F10000
N38 TRAORI
N39 G54 D1
N40 STOPRE
N41 TRANS 
N42 G00 X-134.610 Y-38.521 Z49.864 A49.0000 
N43 M342 ; chlodziwo woda
N44 X-134.610 Y-0.785 Z17.061 
N45 ;finish FSE
N46 G01 G41 X-134.617 Y-1.442 Z16.307 F804
N47 G01 X-134.617 Y-1.442 Z16.307 F804 
N48 X-134.619 Y-1.723 Z15.983 
N49 X-134.622 Y-2.004 Z15.660 
N50 X-134.625 Y-2.285 Z15.336 
N51 X-134.628 Y-2.566 Z15.013 
N52 X-134.631 Y-2.847 Z14.690 
N53 X-134.634 Y-3.129 Z14.366 
N54 X-134.636 Y-3.410 Z14.043 
N55 X-134.640 Y-3.721 Z13.684 
N56 X-134.642 Y-3.986 Z13.380 
N57 X-134.645 Y-4.250 Z13.076 
N58 X-134.647 Y-4.515 Z12.771 
N59 X-134.649 Y-4.779 Z12.467 
N60 X-134.651 Y-5.044 Z12.163 
N61 X-134.652 Y-5.309 Z11.858 
N62 X-134.654 Y-5.573 Z11.554 
N63 X-134.655 Y-5.838 Z11.250 
N64 X-134.656 Y-6.102 Z10.945 
N65 X-134.657 Y-6.367 Z10.641 
N66 X-134.657 Y-6.631 Z10.337 
N67 X-134.657 Y-6.896 Z10.032 
N68 X-134.657 Y-7.160 Z9.728 
N69 X-134.657 Y-7.425 Z9.424 
N70 X-134.657 Y-7.689 Z9.119 
N71 X-134.656 Y-7.954 Z8.815 
N72 X-134.655 Y-8.218 Z8.511 
N73 X-134.654 Y-8.483 Z8.206 
N74 X-134.653 Y-8.748 Z7.902 
N75 X-134.652 Y-9.012 Z7.598 
N76 X-134.650 Y-9.277 Z7.294 
N77 X-134.648 Y-9.541 Z6.989 
N78 X-134.646 Y-9.806 Z6.685 
N79 X-134.644 Y-10.070 Z6.381 
N80 X-134.641 Y-10.335 Z6.076 
N81 X-134.638 Y-10.599 Z5.772 
N82 X-134.635 Y-10.864 Z5.468 
N83 X-134.632 Y-11.128 Z5.163 
N84 X-134.629 Y-11.393 Z4.859 
N85 X-134.625 Y-11.657 Z4.555 
N86 X-134.621 Y-11.922 Z4.250 
N87 X-134.617 Y-12.186 Z3.946 
N88 X-134.613 Y-12.451 Z3.642 
N89 X-134.608 Y-12.716 Z3.338 
N90 X-134.604 Y-12.980 Z3.033 
N91 X-134.599 Y-13.245 Z2.729 
N92 X-134.593 Y-13.509 Z2.425 
N93 X-134.588 Y-13.774 Z2.120 
N94 X-134.582 Y-14.038 Z1.816 
N95 X-134.577 Y-14.303 Z1.512 
N96 X-134.571 Y-14.567 Z1.207 
N97 X-134.564 Y-14.832 Z0.903 
N98 X-134.558 Y-15.096 Z0.599 
N99 X-134.551 Y-15.361 Z0.295 
N100 X-134.544 Y-15.625 Z-0.010 
N101 X-134.537 Y-15.890 Z-0.314 
N102 X-134.530 Y-16.154 Z-0.618 
N103 X-134.522 Y-16.419 Z-0.922 
N104 X-134.514 Y-16.683 Z-1.227 
N105 X-134.506 Y-16.948 Z-1.531 
N106 X-134.498 Y-17.212 Z-1.835 
N107 X-134.490 Y-17.477 Z-2.140 
N108 X-134.481 Y-17.741 Z-2.444 
N109 X-134.472 Y-18.006 Z-2.748 
N110 X-134.463 Y-18.270 Z-3.052 
N111 X-134.454 Y-18.535 Z-3.356 
N112 X-134.444 Y-18.799 Z-3.661 
N113 X-134.435 Y-19.063 Z-3.965 
N114 X-134.425 Y-19.328 Z-4.269 
N115 X-134.414 Y-19.592 Z-4.573 
N116 X-134.404 Y-19.857 Z-4.878 
N117 X-134.393 Y-20.121 Z-5.182 
N118 X-134.383 Y-20.386 Z-5.486 
N119 X-134.372 Y-20.650 Z-5.790 
N120 X-134.360 Y-20.915 Z-6.094 
N121 X-134.349 Y-21.179 Z-6.399 
N122 X-134.337 Y-21.443 Z-6.703 
N123 X-134.325 Y-21.708 Z-7.007 
N124 X-134.313 Y-21.972 Z-7.311 
N125 X-134.301 Y-22.237 Z-7.615 
N126 X-134.288 Y-22.501 Z-7.920 
N127 X-134.275 Y-22.766 Z-8.224 
N128 X-134.262 Y-23.030 Z-8.528 
N129 X-134.249 Y-23.294 Z-8.832 
N130 X-134.236 Y-23.559 Z-9.136 
N131 X-134.222 Y-23.823 Z-9.440 
N132 X-134.208 Y-24.088 Z-9.744 
N133 X-134.194 Y-24.352 Z-10.049 
N134 X-134.180 Y-24.616 Z-10.353 
N135 X-134.165 Y-24.881 Z-10.657 
N136 X-134.150 Y-25.145 Z-10.961 
N137 X-134.135 Y-25.409 Z-11.265 
N138 X-134.120 Y-25.674 Z-11.569 
N139 X-134.105 Y-25.938 Z-11.873 
N140 X-134.089 Y-26.202 Z-12.177 
N141 X-134.073 Y-26.467 Z-12.481 
N142 X-134.057 Y-26.731 Z-12.786 
N143 X-134.041 Y-26.995 Z-13.090 
N144 X-134.024 Y-27.260 Z-13.394 
N145 X-134.008 Y-27.524 Z-13.698 
N146 X-133.991 Y-27.788 Z-14.002 
N147 X-133.974 Y-28.053 Z-14.306 
N148 X-133.956 Y-28.317 Z-14.610 
N149 X-133.936 Y-28.628 Z-14.968 
N150 G40 X-133.893 Y-29.284 Z-15.722 F804
N151 X-133.893 Y-29.284 Z-15.722 
N152 G00 X-133.893 Y-51.925 Z3.960 
N153 X-134.660 Y-23.427 Z36.744 
N154 X-134.660 Y-0.785 Z17.062 
N155 ;finish FSE
N156 G01 G41 X-134.667 Y-1.441 Z16.307 F804
N157 G01 X-134.667 Y-1.441 Z16.307 F804 
N158 X-134.669 Y-1.722 Z15.984 
N159 X-134.672 Y-2.004 Z15.660 
N160 X-134.675 Y-2.285 Z15.337 
N161 X-134.678 Y-2.566 Z15.013 
N162 X-134.681 Y-2.847 Z14.690 
N163 X-134.684 Y-3.128 Z14.366 
N164 X-134.686 Y-3.409 Z14.043 
N165 X-134.690 Y-3.721 Z13.684 
N166 X-134.692 Y-3.986 Z13.380 
N167 X-134.695 Y-4.250 Z13.076 
N168 X-134.697 Y-4.515 Z12.771 
N169 X-134.699 Y-4.779 Z12.467 
N170 X-134.701 Y-5.044 Z12.163 
N171 X-134.702 Y-5.308 Z11.858 
N172 X-134.704 Y-5.573 Z11.554 
N173 X-134.705 Y-5.838 Z11.250 
N174 X-134.706 Y-6.102 Z10.945 
N175 X-134.707 Y-6.367 Z10.641 
N176 X-134.707 Y-6.631 Z10.337 
N177 X-134.707 Y-6.896 Z10.032 
N178 X-134.707 Y-7.160 Z9.728 
N179 X-134.707 Y-7.425 Z9.424 
N180 X-134.707 Y-7.689 Z9.119 
N181 X-134.706 Y-7.954 Z8.815 
N182 X-134.705 Y-8.219 Z8.511 
N183 X-134.704 Y-8.483 Z8.206 
N184 X-134.703 Y-8.748 Z7.902 
N185 X-134.702 Y-9.012 Z7.598 
N186 X-134.700 Y-9.277 Z7.293 
N187 X-134.698 Y-9.541 Z6.989 
N188 X-134.696 Y-9.806 Z6.685 
N189 X-134.694 Y-10.070 Z6.380 
N190 X-134.691 Y-10.335 Z6.076 
N191 X-134.688 Y-10.600 Z5.772 
N192 X-134.685 Y-10.864 Z5.467 
N193 X-134.682 Y-11.129 Z5.163 
N194 X-134.679 Y-11.393 Z4.859 
N195 X-134.675 Y-11.658 Z4.554 
N196 X-134.671 Y-11.922 Z4.250 
N197 X-134.667 Y-12.187 Z3.946 
N198 X-134.663 Y-12.451 Z3.641 
N199 X-134.658 Y-12.716 Z3.337 
N200 X-134.654 Y-12.980 Z3.033 
N201 X-134.649 Y-13.245 Z2.728 
N202 X-134.643 Y-13.510 Z2.424 
N203 X-134.638 Y-13.774 Z2.120 
N204 X-134.632 Y-14.039 Z1.816 
N205 X-134.627 Y-14.303 Z1.511 
N206 X-134.621 Y-14.568 Z1.207 
N207 X-134.614 Y-14.832 Z0.903 
N208 X-134.608 Y-15.097 Z0.598 
N209 X-134.601 Y-15.361 Z0.294 
N210 X-134.594 Y-15.626 Z-0.010 
N211 X-134.587 Y-15.890 Z-0.315 
N212 X-134.580 Y-16.155 Z-0.619 
N213 X-134.572 Y-16.419 Z-0.923 
N214 X-134.564 Y-16.684 Z-1.227 
N215 X-134.556 Y-16.948 Z-1.532 
N216 X-134.548 Y-17.213 Z-1.836 
N217 X-134.540 Y-17.477 Z-2.140 
N218 X-134.531 Y-17.742 Z-2.445 
N219 X-134.522 Y-18.006 Z-2.749 
N220 X-134.513 Y-18.271 Z-3.053 
N221 X-134.504 Y-18.535 Z-3.357 
N222 X-134.494 Y-18.800 Z-3.662 
N223 X-134.485 Y-19.064 Z-3.966 
N224 X-134.475 Y-19.329 Z-4.270 
N225 X-134.464 Y-19.593 Z-4.574 
N226 X-134.454 Y-19.858 Z-4.879 
N227 X-134.443 Y-20.122 Z-5.183 
N228 X-134.433 Y-20.387 Z-5.487 
N229 X-134.421 Y-20.651 Z-5.791 
N230 X-134.410 Y-20.916 Z-6.096 
N231 X-134.399 Y-21.180 Z-6.400 
N232 X-134.387 Y-21.444 Z-6.704 
N233 X-134.375 Y-21.709 Z-7.008 
N234 X-134.363 Y-21.973 Z-7.312 
N235 X-134.351 Y-22.238 Z-7.617 
N236 X-134.338 Y-22.502 Z-7.921 
N237 X-134.325 Y-22.767 Z-8.225 
N238 X-134.312 Y-23.031 Z-8.529 
N239 X-134.299 Y-23.295 Z-8.833 
N240 X-134.286 Y-23.560 Z-9.137 
N241 X-134.272 Y-23.824 Z-9.442 
N242 X-134.258 Y-24.089 Z-9.746 
N243 X-134.244 Y-24.353 Z-10.050 
N244 X-134.230 Y-24.617 Z-10.354 
N245 X-134.215 Y-24.882 Z-10.658 
N246 X-134.200 Y-25.146 Z-10.962 
N247 X-134.185 Y-25.411 Z-11.267 
N248 X-134.170 Y-25.675 Z-11.571 
N249 X-134.155 Y-25.939 Z-11.875 
N250 X-134.139 Y-26.204 Z-12.179 
N251 X-134.123 Y-26.468 Z-12.483 
N252 X-134.107 Y-26.732 Z-12.787 
N253 X-134.091 Y-26.997 Z-13.091 
N254 X-134.074 Y-27.261 Z-13.395 
N255 X-134.058 Y-27.525 Z-13.699 
N256 X-134.041 Y-27.790 Z-14.003 
N257 X-134.024 Y-28.054 Z-14.307 
N258 X-134.006 Y-28.318 Z-14.612 
N259 X-133.986 Y-28.630 Z-14.970 
N260 G40 X-133.943 Y-29.285 Z-15.724 F804
N261 X-133.943 Y-29.285 Z-15.724 
N262 G00 X-133.943 Y-67.021 Z17.079 
;RAPORT("TB000000","Side Milling:163 End")
;trailer : concat=None
; points cnt = 208
N264 MSG (" --- GROUPED OF SUBPROGRAM --- ")
N265 FGROUP()
N266 TRAFOOF
; PROGRAM NAME: B00000039
; ORDER       : B000000
; OPER. NAME  : Side Milling:164
; OPER. DESCR.: finish face root outlet FSA
; OPER. TYPE  : sideMill
; GEO. OPTION : 1
; MACHINE     : HSTM_500_SIM840D_Py
;             : HSTM500 - HAMUEL: 5-axis milling machine - SIM840D Traori PP_Script
; CONTROL     : SINUMERIK 840D
; created:   2021-11-15 10:01:53.068783
;-------DODATKOWE DANE-------------------
; PROGRAMISTA : Mariusz Malec
; PARTID      : 139T001534P1001_-
;  ap         : 22.0
;  ae         : 0.05
;  lean_angle : 0.0
;  fin_offset : -13.5
;----------------------------------------
;RAPORT("TB000000","Side Milling:164")
N10 TRAFOOF
N11 D0
N12 G90 G94
N13 G0 G53 D0 Z550 B0
N14 STOPRE
M9 ; chlodziwo wyl
; --- Side Milling:164 - finish face root outlet FSA ---
N16 ;ToolChange : concat=None ,current_tdmid=None, PP.tdmId=957773
N17 TRAFOOF
N18 G0 G53 D0 Z550 B0
N19 STOPRE
N20 MSG(" TLID=957773 D=9.5 R=1.0 Ang=0.0 Len=129.0 ")
N21 S6701 M03
N22 STOPRE
N23 CYCLE832(0.01,1,1)
N24 G0 G53 A229.0000 B-0.0000
N25 TRAORI
N26 G54 D2
;tol5=0.15
N27 D2 
STOPRE
E_ZDARZ=300007
;ACS_FINISH_ROOT_FRONT=7757773
STOPRE
;UWAGA : ZMIENIONA TOLERANCJA OSI A i B, ruchy osi A i B beda usuniete : TOL5=0.15
N28 ; DELTA A > 40.1
N29 TRAFOOF
N30 D2
N31 STOPRE
N32 G00 G54 Z257.000
N33 G01 A229.0000 F10000
N34 TRAORI
N35 G54 D2
N36 STOPRE
N37 TRANS 
N38 G00 X-134.610 Y38.941 Z-43.021 A229.0000 
N39 M342 ; chlodziwo woda
N40 X-134.610 Y1.206 Z-10.219 
N41 ;FSA_1
N42 G01 G41 X-134.616 Y1.862 Z-9.464 F804
N43 G01 X-134.616 Y1.862 Z-9.464 F804 
N44 X-134.619 Y2.143 Z-9.140 
N45 X-134.622 Y2.424 Z-8.817 
N46 X-134.625 Y2.705 Z-8.493 
N47 X-134.628 Y2.986 Z-8.170 
N48 X-134.631 Y3.267 Z-7.847 
N49 X-134.633 Y3.549 Z-7.523 
N50 X-134.636 Y3.830 Z-7.200 
N51 X-134.639 Y4.141 Z-6.841 
N52 X-134.642 Y4.406 Z-6.537 
N53 X-134.645 Y4.670 Z-6.233 
N54 X-134.647 Y4.935 Z-5.928 
N55 X-134.649 Y5.200 Z-5.624 
N56 X-134.651 Y5.464 Z-5.320 
N57 X-134.652 Y5.729 Z-5.015 
N58 X-134.654 Y5.993 Z-4.711 
N59 X-134.655 Y6.258 Z-4.407 
N60 X-134.656 Y6.522 Z-4.102 
N61 X-134.656 Y6.787 Z-3.798 
N62 X-134.657 Y7.051 Z-3.494 
N63 X-134.657 Y7.316 Z-3.190 
N64 X-134.657 Y7.580 Z-2.885 
N65 X-134.657 Y7.845 Z-2.581 
N66 X-134.657 Y8.109 Z-2.277 
N67 X-134.656 Y8.374 Z-1.972 
N68 X-134.656 Y8.638 Z-1.668 
N69 X-134.654 Y8.903 Z-1.364 
N70 X-134.653 Y9.168 Z-1.059 
N71 X-134.652 Y9.432 Z-0.755 
N72 X-134.650 Y9.697 Z-0.451 
N73 X-134.648 Y9.961 Z-0.146 
N74 X-134.646 Y10.226 Z0.158 
N75 X-134.644 Y10.490 Z0.462 
N76 X-134.641 Y10.755 Z0.766 
N77 X-134.639 Y11.019 Z1.071 
N78 X-134.636 Y11.284 Z1.375 
N79 X-134.632 Y11.548 Z1.679 
N80 X-134.629 Y11.813 Z1.984 
N81 X-134.625 Y12.077 Z2.288 
N82 X-134.622 Y12.342 Z2.592 
N83 X-134.617 Y12.606 Z2.897 
N84 X-134.613 Y12.871 Z3.201 
N85 X-134.609 Y13.135 Z3.505 
N86 X-134.604 Y13.400 Z3.809 
N87 X-134.599 Y13.664 Z4.114 
N88 X-134.594 Y13.929 Z4.418 
N89 X-134.588 Y14.193 Z4.722 
N90 X-134.583 Y14.458 Z5.027 
N91 X-134.577 Y14.722 Z5.331 
N92 X-134.571 Y14.987 Z5.635 
N93 X-134.565 Y15.251 Z5.939 
N94 X-134.558 Y15.516 Z6.244 
N95 X-134.552 Y15.780 Z6.548 
N96 X-134.545 Y16.045 Z6.852 
N97 X-134.538 Y16.309 Z7.156 
N98 X-134.530 Y16.574 Z7.461 
N99 X-134.523 Y16.838 Z7.765 
N100 X-134.515 Y17.103 Z8.069 
N101 X-134.507 Y17.367 Z8.373 
N102 X-134.499 Y17.632 Z8.678 
N103 X-134.490 Y17.896 Z8.982 
N104 X-134.482 Y18.161 Z9.286 
N105 X-134.473 Y18.425 Z9.590 
N106 X-134.464 Y18.690 Z9.895 
N107 X-134.455 Y18.954 Z10.199 
N108 X-134.445 Y19.219 Z10.503 
N109 X-134.435 Y19.483 Z10.807 
N110 X-134.425 Y19.748 Z11.112 
N111 X-134.415 Y20.012 Z11.416 
N112 X-134.405 Y20.276 Z11.720 
N113 X-134.394 Y20.541 Z12.024 
N114 X-134.384 Y20.805 Z12.328 
N115 X-134.373 Y21.070 Z12.633 
N116 X-134.361 Y21.334 Z12.937 
N117 X-134.350 Y21.599 Z13.241 
N118 X-134.338 Y21.863 Z13.545 
N119 X-134.326 Y22.128 Z13.849 
N120 X-134.314 Y22.392 Z14.154 
N121 X-134.302 Y22.656 Z14.458 
N122 X-134.289 Y22.921 Z14.762 
N123 X-134.276 Y23.185 Z15.066 
N124 X-134.263 Y23.450 Z15.370 
N125 X-134.250 Y23.714 Z15.674 
N126 X-134.237 Y23.978 Z15.978 
N127 X-134.223 Y24.243 Z16.283 
N128 X-134.209 Y24.507 Z16.587 
N129 X-134.195 Y24.771 Z16.891 
N130 X-134.181 Y25.036 Z17.195 
N131 X-134.166 Y25.300 Z17.499 
N132 X-134.152 Y25.565 Z17.803 
N133 X-134.137 Y25.829 Z18.107 
N134 X-134.122 Y26.093 Z18.411 
N135 X-134.106 Y26.358 Z18.715 
N136 X-134.091 Y26.622 Z19.020 
N137 X-134.075 Y26.886 Z19.324 
N138 X-134.059 Y27.151 Z19.628 
N139 X-134.042 Y27.415 Z19.932 
N140 X-134.026 Y27.679 Z20.236 
N141 X-134.009 Y27.943 Z20.540 
N142 X-133.992 Y28.208 Z20.844 
N143 X-133.975 Y28.472 Z21.148 
N144 X-133.958 Y28.736 Z21.452 
N145 X-133.938 Y29.048 Z21.810 
N146 G40 X-133.895 Y29.703 Z22.564 F804
N147 X-133.895 Y29.703 Z22.564 
N148 G00 X-133.895 Y52.344 Z2.882 
N149 X-134.660 Y23.847 Z-29.901 
N150 X-134.660 Y1.205 Z-10.219 
N151 ;FSA_1
N152 G01 G41 X-134.666 Y1.861 Z-9.464 F804
N153 G01 X-134.666 Y1.861 Z-9.464 F804 
N154 X-134.669 Y2.143 Z-9.141 
N155 X-134.672 Y2.424 Z-8.817 
N156 X-134.675 Y2.705 Z-8.494 
N157 X-134.678 Y2.986 Z-8.170 
N158 X-134.681 Y3.267 Z-7.847 
N159 X-134.683 Y3.548 Z-7.523 
N160 X-134.686 Y3.830 Z-7.200 
N161 X-134.689 Y4.141 Z-6.842 
N162 X-134.692 Y4.406 Z-6.537 
N163 X-134.695 Y4.670 Z-6.233 
N164 X-134.697 Y4.935 Z-5.929 
N165 X-134.699 Y5.199 Z-5.624 
N166 X-134.701 Y5.464 Z-5.320 
N167 X-134.702 Y5.728 Z-5.016 
N168 X-134.704 Y5.993 Z-4.711 
N169 X-134.705 Y6.258 Z-4.407 
N170 X-134.706 Y6.522 Z-4.103 
N171 X-134.706 Y6.787 Z-3.798 
N172 X-134.707 Y7.051 Z-3.494 
N173 X-134.707 Y7.316 Z-3.190 
N174 X-134.707 Y7.580 Z-2.885 
N175 X-134.707 Y7.845 Z-2.581 
N176 X-134.707 Y8.109 Z-2.277 
N177 X-134.706 Y8.374 Z-1.972 
N178 X-134.706 Y8.639 Z-1.668 
N179 X-134.704 Y8.903 Z-1.364 
N180 X-134.703 Y9.168 Z-1.059 
N181 X-134.702 Y9.432 Z-0.755 
N182 X-134.700 Y9.697 Z-0.451 
N183 X-134.698 Y9.961 Z-0.146 
N184 X-134.696 Y10.226 Z0.158 
N185 X-134.694 Y10.490 Z0.462 
N186 X-134.691 Y10.755 Z0.767 
N187 X-134.689 Y11.019 Z1.071 
N188 X-134.686 Y11.284 Z1.375 
N189 X-134.682 Y11.549 Z1.680 
N190 X-134.679 Y11.813 Z1.984 
N191 X-134.675 Y12.078 Z2.288 
N192 X-134.672 Y12.342 Z2.593 
N193 X-134.667 Y12.607 Z2.897 
N194 X-134.663 Y12.871 Z3.201 
N195 X-134.659 Y13.136 Z3.506 
N196 X-134.654 Y13.400 Z3.810 
N197 X-134.649 Y13.665 Z4.114 
N198 X-134.644 Y13.929 Z4.418 
N199 X-134.638 Y14.194 Z4.723 
N200 X-134.633 Y14.458 Z5.027 
N201 X-134.627 Y14.723 Z5.331 
N202 X-134.621 Y14.987 Z5.636 
N203 X-134.615 Y15.252 Z5.940 
N204 X-134.608 Y15.517 Z6.244 
N205 X-134.602 Y15.781 Z6.549 
N206 X-134.595 Y16.046 Z6.853 
N207 X-134.588 Y16.310 Z7.157 
N208 X-134.580 Y16.575 Z7.461 
N209 X-134.573 Y16.839 Z7.766 
N210 X-134.565 Y17.104 Z8.070 
N211 X-134.557 Y17.368 Z8.374 
N212 X-134.549 Y17.633 Z8.679 
N213 X-134.540 Y17.897 Z8.983 
N214 X-134.532 Y18.162 Z9.287 
N215 X-134.523 Y18.426 Z9.591 
N216 X-134.514 Y18.691 Z9.896 
N217 X-134.505 Y18.955 Z10.200 
N218 X-134.495 Y19.219 Z10.504 
N219 X-134.485 Y19.484 Z10.808 
N220 X-134.475 Y19.748 Z11.113 
N221 X-134.465 Y20.013 Z11.417 
N222 X-134.455 Y20.277 Z11.721 
N223 X-134.444 Y20.542 Z12.025 
N224 X-134.433 Y20.806 Z12.329 
N225 X-134.422 Y21.071 Z12.634 
N226 X-134.411 Y21.335 Z12.938 
N227 X-134.400 Y21.600 Z13.242 
N228 X-134.388 Y21.864 Z13.546 
N229 X-134.376 Y22.128 Z13.850 
N230 X-134.364 Y22.393 Z14.155 
N231 X-134.352 Y22.657 Z14.459 
N232 X-134.339 Y22.922 Z14.763 
N233 X-134.326 Y23.186 Z15.067 
N234 X-134.313 Y23.451 Z15.371 
N235 X-134.300 Y23.715 Z15.676 
N236 X-134.287 Y23.979 Z15.980 
N237 X-134.273 Y24.244 Z16.284 
N238 X-134.259 Y24.508 Z16.588 
N239 X-134.245 Y24.773 Z16.892 
N240 X-134.231 Y25.037 Z17.196 
N241 X-134.216 Y25.301 Z17.500 
N242 X-134.202 Y25.566 Z17.805 
N243 X-134.187 Y25.830 Z18.109 
N244 X-134.172 Y26.094 Z18.413 
N245 X-134.156 Y26.359 Z18.717 
N246 X-134.141 Y26.623 Z19.021 
N247 X-134.125 Y26.888 Z19.325 
N248 X-134.109 Y27.152 Z19.629 
N249 X-134.092 Y27.416 Z19.933 
N250 X-134.076 Y27.681 Z20.237 
N251 X-134.059 Y27.945 Z20.541 
N252 X-134.042 Y28.209 Z20.846 
N253 X-134.025 Y28.473 Z21.150 
N254 X-134.008 Y28.738 Z21.454 
N255 X-133.988 Y29.049 Z21.812 
N256 G40 X-133.945 Y29.705 Z22.566 F804
N257 X-133.945 Y29.705 Z22.566 
N258 G00 X-133.945 Y67.440 Z-10.237 
;RAPORT("TB000000","Side Milling:164 End")
;trailer : concat=None
; points cnt = 208
N260 M9 ; chlodziwo wyl.
N261 MSG (" --- KONIEC PODPROGRAMU --- ")
N262 FGROUP()
N263 TRAFOOF
N264 STOPRE
N265 G0 G53 D0 Z550.0 M9 M5
N266 G0 G53 Y150 A0 B0
N267 M17
