; PROGRAM NAME: B00000047
; ORDER       : B000000
; OPER. NAME  : Side Milling:131
; OPER. DESCR.: Side Milling/HHU wk
; OPER. TYPE  : sideMill
; GEO. OPTION : 3
; MACHINE     : HSTM_500_SIM840D_Py
;             : HSTM500 - HAMUEL: 5-axis milling machine - SIM840D Traori PP_Script
; CONTROL     : SINUMERIK 840D
; created:   2021-11-15 09:59:07.787288
;-------DODATKOWE DANE-------------------
; PROGRAMISTA : Mariusz Malec
; PARTID      : 139T001534P1001_-
;  ap         : 26.0
;  ae         : 9.6
;  lean_angle : 0.02
;  fin_offset : 0.0
;----------------------------------------
;RAPORT("TB000000","Side Milling:131")
N10 TRAFOOF
N11 D0
N12 G90 G94
N13 G0 G53 D0 Z550 B0
N14 STOPRE
M9 ; chlodziwo wyl
; --- Side Milling:131 - Side Milling/HHU wk ---
N16 ;ToolChange : concat=None ,current_tdmid=None, PP.tdmId=940677
N17 TRAFOOF
N18 G0 G53 D0 X-200 Y150 Z550 B0
N19 T="7740677"
;RAPORT("TB000000","ToolChangeStart 7740677")
N20 M6
;RAPORT("TB000000","ToolChangeEnd")
N21 STOPRE
N22 MSG(" TLID=940677 D=12.0 R=3.6 Ang=0.0 Len=123.0 ")
N23 ; (Preloading tool)
N24 T="7740661"
N25 S4774 M03
N26 STOPRE
N27 CYCLE832(0.01,1,1)
N28 G0 G53 A48.9800 B-0.0009
N29 TRAORI
N30 G54 D1
;tol5=0.03
N31 D1 
STOPRE
E_ZDARZ=300010
;ACS_FINISH_SLOT=7740677
STOPRE
;UWAGA : ZMIENIONA TOLERANCJA OSI A i B, ruchy osi A i B beda usuniete : TOL5=0.03
N32 ; DELTA A > 40.1
N33 TRAFOOF
N34 D1
N35 STOPRE
N36 G00 G54 Z263.000
N37 G01 A48.9800 F10000
N38 TRAORI
N39 G54 D1
N40 STOPRE
N41 TRANS 
N42 G00 X-162.278 Y-88.092 Z9.973 A48.9800 
N43 M342 ; chlodziwo woda
N44 X-162.277 Y-50.368 Z-22.843 
N45 G01 X-162.300 Y-47.716 Z-24.502 F572 
N46 X-162.365 Y-44.681 Z-25.260 
N47 X-162.467 Y-41.561 Z-25.043 
N48 X-162.595 Y-38.662 Z-23.873 
N49 ;NTE SemiFinishing
N50 D1 
N51 G01 G41 X-162.738 Y-36.268 Z-21.865 F572
N52 X-162.738 Y-36.268 Z-21.865 
N53 X-162.753 Y-36.049 Z-21.613 
N54 X-162.768 Y-35.831 Z-21.362 
N55 X-162.784 Y-35.612 Z-21.111 
N56 X-162.797 Y-35.425 Z-20.895 
N57 X-162.810 Y-35.238 Z-20.680 
N58 X-162.823 Y-35.051 Z-20.465 
N59 X-162.836 Y-34.863 Z-20.249 
N60 X-162.849 Y-34.676 Z-20.034 
N61 X-162.862 Y-34.489 Z-19.818 
N62 X-162.876 Y-34.302 Z-19.603 
N63 X-162.889 Y-34.114 Z-19.388 
N64 X-162.902 Y-33.927 Z-19.172 
N65 X-162.915 Y-33.740 Z-18.957 
N66 X-162.928 Y-33.553 Z-18.741 
N67 X-162.941 Y-33.365 Z-18.526 
N68 X-162.954 Y-33.178 Z-18.311 
N69 X-162.968 Y-32.991 Z-18.095 
N70 X-162.981 Y-32.804 Z-17.880 
N71 X-162.994 Y-32.616 Z-17.664 
N72 X-163.007 Y-32.429 Z-17.449 
N73 X-163.020 Y-32.242 Z-17.234 
N74 X-163.033 Y-32.055 Z-17.018 
N75 X-163.046 Y-31.867 Z-16.803 
N76 X-163.060 Y-31.680 Z-16.587 
N77 X-163.073 Y-31.494 Z-16.373 
N78 X-163.086 Y-31.307 Z-16.158 
N79 X-163.099 Y-31.120 Z-15.943 
N80 X-163.112 Y-30.933 Z-15.728 
N81 X-163.124 Y-30.747 Z-15.514 
N82 X-163.137 Y-30.560 Z-15.299 
N83 X-163.150 Y-30.373 Z-15.084 
N84 X-163.162 Y-30.187 Z-14.869 
N85 X-163.174 Y-30.000 Z-14.655 
N86 X-163.187 Y-29.813 Z-14.440 
N87 X-163.199 Y-29.627 Z-14.225 
N88 X-163.211 Y-29.440 Z-14.010 
N89 X-163.223 Y-29.253 Z-13.796 
N90 X-163.235 Y-29.067 Z-13.581 
N91 X-163.246 Y-28.880 Z-13.366 
N92 X-163.258 Y-28.693 Z-13.151 
N93 X-163.269 Y-28.507 Z-12.937 
N94 X-163.281 Y-28.320 Z-12.722 
N95 X-163.292 Y-28.133 Z-12.507 
N96 X-163.303 Y-27.946 Z-12.292 
N97 X-163.315 Y-27.760 Z-12.077 
N98 X-163.325 Y-27.573 Z-11.863 
N99 X-163.336 Y-27.386 Z-11.648 
N100 X-163.347 Y-27.199 Z-11.433 
N101 X-163.358 Y-27.013 Z-11.218 
N102 X-163.368 Y-26.826 Z-11.003 
N103 X-163.379 Y-26.639 Z-10.789 
N104 X-163.389 Y-26.453 Z-10.574 
N105 X-163.399 Y-26.266 Z-10.359 
N106 X-163.410 Y-26.079 Z-10.144 
N107 X-163.420 Y-25.892 Z-9.929 
N108 X-163.430 Y-25.706 Z-9.714 
N109 X-163.439 Y-25.519 Z-9.500 
N110 X-163.449 Y-25.332 Z-9.285 
N111 X-163.459 Y-25.145 Z-9.070 
N112 X-163.468 Y-24.959 Z-8.855 
N113 X-163.478 Y-24.772 Z-8.640 
N114 X-163.487 Y-24.585 Z-8.425 
N115 X-163.496 Y-24.398 Z-8.211 
N116 X-163.505 Y-24.211 Z-7.996 
N117 X-163.514 Y-24.025 Z-7.781 
N118 X-163.523 Y-23.838 Z-7.566 
N119 X-163.532 Y-23.651 Z-7.351 
N120 X-163.541 Y-23.464 Z-7.136 
N121 X-163.549 Y-23.278 Z-6.921 
N122 X-163.558 Y-23.091 Z-6.707 
N123 X-163.566 Y-22.904 Z-6.492 
N124 X-163.574 Y-22.717 Z-6.277 
N125 X-163.583 Y-22.530 Z-6.062 
N126 X-163.591 Y-22.344 Z-5.847 
N127 X-163.599 Y-22.157 Z-5.632 
N128 X-163.607 Y-21.970 Z-5.417 
N129 X-163.614 Y-21.783 Z-5.202 
N130 X-163.622 Y-21.597 Z-4.988 
N131 X-163.629 Y-21.410 Z-4.773 
N132 X-163.637 Y-21.223 Z-4.558 
N133 X-163.644 Y-21.036 Z-4.343 
N134 X-163.651 Y-20.849 Z-4.128 
N135 X-163.659 Y-20.663 Z-3.913 
N136 X-163.666 Y-20.476 Z-3.698 
N137 X-163.672 Y-20.289 Z-3.483 
N138 X-163.679 Y-20.102 Z-3.268 
N139 X-163.686 Y-19.915 Z-3.054 
N140 X-163.693 Y-19.728 Z-2.839 
N141 X-163.699 Y-19.542 Z-2.624 
N142 X-163.705 Y-19.355 Z-2.409 
N143 X-163.712 Y-19.168 Z-2.194 
N144 X-163.718 Y-18.981 Z-1.979 
N145 X-163.724 Y-18.794 Z-1.764 
N146 X-163.730 Y-18.608 Z-1.549 
N147 X-163.736 Y-18.421 Z-1.334 
N148 X-163.742 Y-18.234 Z-1.119 
N149 X-163.747 Y-18.047 Z-0.904 
N150 X-163.753 Y-17.860 Z-0.689 
N151 X-163.758 Y-17.673 Z-0.475 
N152 X-163.764 Y-17.487 Z-0.260 
N153 X-163.769 Y-17.300 Z-0.045 
N154 X-163.774 Y-17.113 Z0.170 
N155 X-163.779 Y-16.926 Z0.385 
N156 X-163.784 Y-16.739 Z0.600 
N157 X-163.789 Y-16.552 Z0.815 
N158 X-163.793 Y-16.366 Z1.030 
N159 X-163.798 Y-16.179 Z1.245 
N160 X-163.803 Y-15.992 Z1.460 
N161 X-163.807 Y-15.805 Z1.675 
N162 X-163.811 Y-15.618 Z1.890 
N163 X-163.815 Y-15.431 Z2.105 
N164 X-163.820 Y-15.245 Z2.320 
N165 X-163.823 Y-15.058 Z2.534 
N166 X-163.827 Y-14.871 Z2.749 
N167 X-163.831 Y-14.684 Z2.964 
N168 X-163.835 Y-14.497 Z3.179 
N169 X-163.838 Y-14.310 Z3.394 
N170 X-163.842 Y-14.124 Z3.609 
N171 X-163.845 Y-13.937 Z3.824 
N172 X-163.848 Y-13.750 Z4.039 
N173 X-163.852 Y-13.563 Z4.254 
N174 X-163.855 Y-13.376 Z4.469 
N175 X-163.858 Y-13.189 Z4.684 
N176 X-163.860 Y-13.002 Z4.899 
N177 X-163.863 Y-12.816 Z5.114 
N178 X-163.866 Y-12.629 Z5.329 
N179 X-163.868 Y-12.442 Z5.544 
N180 X-163.871 Y-12.255 Z5.759 
N181 X-163.873 Y-12.068 Z5.974 
N182 X-163.875 Y-11.881 Z6.189 
N183 X-163.877 Y-11.694 Z6.404 
N184 X-163.879 Y-11.508 Z6.618 
N185 X-163.881 Y-11.320 Z6.834 
N186 X-163.883 Y-11.133 Z7.050 
N187 X-163.886 Y-10.945 Z7.265 
N188 X-163.888 Y-10.758 Z7.481 
N189 X-163.890 Y-10.570 Z7.697 
N190 X-163.892 Y-10.383 Z7.912 
N191 X-163.894 Y-10.195 Z8.128 
N192 X-163.896 Y-10.008 Z8.343 
N193 X-163.898 Y-9.821 Z8.559 
N194 X-163.900 Y-9.633 Z8.775 
N195 X-163.902 Y-9.446 Z8.990 
N196 X-163.904 Y-9.258 Z9.206 
N197 X-163.906 Y-9.071 Z9.422 
N198 X-163.908 Y-8.883 Z9.637 
N199 X-163.910 Y-8.696 Z9.853 
N200 X-163.912 Y-8.509 Z10.069 
N201 X-163.915 Y-8.321 Z10.284 
N202 X-163.917 Y-8.134 Z10.500 
N203 X-163.919 Y-7.946 Z10.715 
N204 X-163.921 Y-7.759 Z10.931 
N205 X-163.923 Y-7.571 Z11.147 
N206 G40 X-163.924 Y-7.355 Z11.395 F840
N207 X-163.924 Y-7.355 Z11.395 
N208 X-163.927 Y-6.964 Z11.845 F1644 
N209 X-163.943 Y-6.281 Z12.631 F2448 
N210 X-163.992 Y-5.423 Z13.618 F2716 
N211 X-164.091 Y-4.539 Z14.635 
N212 X-164.255 Y-3.659 Z15.648 
N213 X-164.494 Y-2.786 Z16.651 
N214 X-164.807 Y-1.924 Z17.643 
N215 X-165.192 Y-1.074 Z18.621 
N216 X-165.646 Y-0.239 Z19.581 
N217 X-166.177 Y0.576 Z20.519 
N218 X-166.828 Y1.352 Z21.412 
N219 X-167.824 Y1.650 Z21.754 A49.0108 
N220 X-168.105 Y0.786 Z20.761 
N221 X-168.170 Y-0.066 Z19.781 F2448 
N222 X-168.185 Y-0.760 Z18.982 F1644 
N223 X-168.186 Y-1.145 Z18.539 F840 
N224 ;NNTE SemiFinishing
N225 D2 
N226 G01 G41 X-168.185 Y-1.348 Z18.306 F572
N227 X-168.185 Y-1.348 Z18.306 F572 
N228 X-168.186 Y-1.567 Z18.054 
N229 X-168.188 Y-1.785 Z17.803 
N230 X-168.189 Y-2.004 Z17.551 
N231 X-168.190 Y-2.191 Z17.336 
N232 X-168.191 Y-2.379 Z17.120 
N233 X-168.192 Y-2.566 Z16.904 
N234 X-168.193 Y-2.754 Z16.689 
N235 X-168.194 Y-2.941 Z16.473 
N236 X-168.195 Y-3.129 Z16.257 
N237 X-168.196 Y-3.316 Z16.042 
N238 X-168.197 Y-3.504 Z15.826 
N239 X-168.198 Y-3.691 Z15.610 
N240 X-168.199 Y-3.878 Z15.395 
N241 X-168.200 Y-4.066 Z15.179 
N242 X-168.201 Y-4.253 Z14.964 
N243 X-168.202 Y-4.441 Z14.748 
N244 X-168.204 Y-4.628 Z14.532 
N245 X-168.205 Y-4.816 Z14.317 
N246 X-168.206 Y-5.003 Z14.101 
N247 X-168.207 Y-5.191 Z13.885 
N248 X-168.208 Y-5.378 Z13.670 
N249 X-168.209 Y-5.565 Z13.454 
N250 X-168.210 Y-5.753 Z13.239 
N251 X-168.211 Y-5.940 Z13.023 
N252 X-168.212 Y-6.128 Z12.807 
N253 X-168.213 Y-6.315 Z12.592 
N254 X-168.214 Y-6.503 Z12.376 
N255 X-168.215 Y-6.690 Z12.160 
N256 X-168.215 Y-6.878 Z11.945 
N257 X-168.216 Y-7.065 Z11.729 
N258 X-168.216 Y-7.252 Z11.513 
N259 X-168.217 Y-7.440 Z11.298 
N260 X-168.217 Y-7.627 Z11.082 
N261 X-168.217 Y-7.815 Z10.867 
N262 X-168.217 Y-8.002 Z10.651 
N263 X-168.217 Y-8.190 Z10.435 
N264 X-168.217 Y-8.377 Z10.220 
N265 X-168.217 Y-8.565 Z10.004 
N266 X-168.217 Y-8.752 Z9.788 
N267 X-168.216 Y-8.940 Z9.573 
N268 X-168.216 Y-9.127 Z9.357 
N269 X-168.215 Y-9.314 Z9.141 
N270 X-168.214 Y-9.502 Z8.926 
N271 X-168.213 Y-9.689 Z8.710 
N272 X-168.212 Y-9.877 Z8.494 
N273 X-168.211 Y-10.064 Z8.279 
N274 X-168.210 Y-10.252 Z8.063 
N275 X-168.209 Y-10.439 Z7.848 
N276 X-168.207 Y-10.627 Z7.632 
N277 X-168.206 Y-10.814 Z7.416 
N278 X-168.204 Y-11.002 Z7.201 
N279 X-168.203 Y-11.189 Z6.985 
N280 X-168.201 Y-11.376 Z6.769 
N281 X-168.199 Y-11.564 Z6.554 
N282 X-168.197 Y-11.751 Z6.338 
N283 X-168.195 Y-11.939 Z6.122 
N284 X-168.192 Y-12.126 Z5.907 
N285 X-168.190 Y-12.314 Z5.691 
N286 X-168.188 Y-12.501 Z5.476 
N287 X-168.185 Y-12.689 Z5.260 
N288 X-168.182 Y-12.876 Z5.044 
N289 X-168.180 Y-13.063 Z4.829 
N290 X-168.177 Y-13.251 Z4.613 
N291 X-168.174 Y-13.438 Z4.397 
N292 X-168.171 Y-13.626 Z4.182 
N293 X-168.168 Y-13.813 Z3.966 
N294 X-168.164 Y-14.001 Z3.751 
N295 X-168.161 Y-14.188 Z3.535 
N296 X-168.157 Y-14.376 Z3.319 
N297 X-168.154 Y-14.563 Z3.104 
N298 X-168.150 Y-14.750 Z2.888 
N299 X-168.146 Y-14.938 Z2.672 
N300 X-168.142 Y-15.125 Z2.457 
N301 X-168.138 Y-15.313 Z2.241 
N302 X-168.134 Y-15.500 Z2.026 
N303 X-168.130 Y-15.688 Z1.810 
N304 X-168.126 Y-15.875 Z1.594 
N305 X-168.121 Y-16.062 Z1.379 
N306 X-168.117 Y-16.250 Z1.163 
N307 X-168.112 Y-16.437 Z0.948 
N308 X-168.107 Y-16.625 Z0.732 
N309 X-168.103 Y-16.812 Z0.516 
N310 X-168.098 Y-17.000 Z0.301 
N311 X-168.093 Y-17.187 Z0.085 
N312 X-168.087 Y-17.374 Z-0.131 
N313 X-168.082 Y-17.562 Z-0.346 
N314 X-168.077 Y-17.749 Z-0.562 
N315 X-168.071 Y-17.937 Z-0.777 
N316 X-168.066 Y-18.124 Z-0.993 
N317 X-168.060 Y-18.312 Z-1.209 
N318 X-168.054 Y-18.499 Z-1.424 
N319 X-168.048 Y-18.686 Z-1.640 
N320 X-168.042 Y-18.874 Z-1.855 
N321 X-168.036 Y-19.061 Z-2.071 
N322 X-168.030 Y-19.249 Z-2.287 
N323 X-168.024 Y-19.436 Z-2.502 
N324 X-168.017 Y-19.623 Z-2.718 
N325 X-168.011 Y-19.811 Z-2.933 
N326 X-168.004 Y-19.998 Z-3.149 
N327 X-167.997 Y-20.186 Z-3.364 
N328 X-167.991 Y-20.373 Z-3.580 
N329 X-167.984 Y-20.560 Z-3.796 
N330 X-167.977 Y-20.748 Z-4.011 
N331 X-167.970 Y-20.935 Z-4.227 
N332 X-167.962 Y-21.123 Z-4.442 
N333 X-167.955 Y-21.310 Z-4.658 
N334 X-167.947 Y-21.497 Z-4.873 
N335 X-167.940 Y-21.685 Z-5.089 
N336 X-167.932 Y-21.872 Z-5.305 
N337 X-167.924 Y-22.059 Z-5.520 
N338 X-167.916 Y-22.247 Z-5.736 
N339 X-167.908 Y-22.434 Z-5.951 
N340 X-167.900 Y-22.622 Z-6.167 
N341 X-167.892 Y-22.809 Z-6.382 
N342 X-167.884 Y-22.996 Z-6.598 
N343 X-167.876 Y-23.184 Z-6.813 
N344 X-167.867 Y-23.371 Z-7.029 
N345 X-167.858 Y-23.558 Z-7.245 
N346 X-167.850 Y-23.746 Z-7.460 
N347 X-167.841 Y-23.933 Z-7.676 
N348 X-167.832 Y-24.121 Z-7.891 
N349 X-167.823 Y-24.308 Z-8.107 
N350 X-167.814 Y-24.495 Z-8.322 
N351 X-167.804 Y-24.683 Z-8.538 
N352 X-167.795 Y-24.870 Z-8.753 
N353 X-167.786 Y-25.057 Z-8.969 
N354 X-167.776 Y-25.245 Z-9.184 
N355 X-167.766 Y-25.432 Z-9.400 
N356 X-167.757 Y-25.619 Z-9.615 
N357 X-167.747 Y-25.807 Z-9.831 
N358 X-167.737 Y-25.994 Z-10.046 
N359 X-167.727 Y-26.181 Z-10.262 
N360 X-167.717 Y-26.369 Z-10.477 
N361 X-167.707 Y-26.556 Z-10.693 
N362 X-167.697 Y-26.743 Z-10.908 
N363 X-167.687 Y-26.931 Z-11.124 
N364 X-167.677 Y-27.118 Z-11.339 
N365 X-167.667 Y-27.305 Z-11.555 
N366 X-167.657 Y-27.493 Z-11.770 
N367 X-167.647 Y-27.680 Z-11.986 
N368 X-167.637 Y-27.867 Z-12.201 
N369 X-167.627 Y-28.055 Z-12.417 
N370 X-167.617 Y-28.242 Z-12.632 
N371 X-167.607 Y-28.429 Z-12.848 
N372 X-167.597 Y-28.617 Z-13.063 
N373 X-167.587 Y-28.804 Z-13.279 
N374 X-167.577 Y-28.991 Z-13.494 
N375 X-167.567 Y-29.179 Z-13.710 
N376 X-167.557 Y-29.366 Z-13.925 
N377 X-167.546 Y-29.553 Z-14.141 
N378 X-167.536 Y-29.741 Z-14.356 
N379 X-167.526 Y-29.928 Z-14.572 
N380 X-167.516 Y-30.115 Z-14.787 
N381 G40 X-167.166 Y-36.672 Z-22.330 F572
N382 X-167.166 Y-36.672 Z-22.330 
N383 G00 X-167.165 Y-74.419 Z10.460 
;RAPORT("TB000000","Side Milling:131 End")
;trailer : concat=None
; points cnt = 330
N385 MSG (" --- GROUPED OF SUBPROGRAM --- ")
N386 FGROUP()
N387 TRAFOOF
; PROGRAM NAME: B00000047
; ORDER       : B000000
; OPER. NAME  : Side Milling:132
; OPER. DESCR.: HHU finish milling NGE
; OPER. TYPE  : sideMill
; GEO. OPTION : 3
; MACHINE     : HSTM_500_SIM840D_Py
;             : HSTM500 - HAMUEL: 5-axis milling machine - SIM840D Traori PP_Script
; CONTROL     : SINUMERIK 840D
; created:   2021-11-15 09:59:11.162962
;-------DODATKOWE DANE-------------------
; PROGRAMISTA : Mariusz Malec
; PARTID      : 139T001534P1001_-
;  ap         : 26.0
;  ae         : 9.6
;  lean_angle : 0.02
;  fin_offset : 0.03
;----------------------------------------
;RAPORT("TB000000","Side Milling:132")
N10 TRAFOOF
N11 D0
N12 G90 G94
N13 G0 G53 D0 Z550 B0
N14 STOPRE
M9 ; chlodziwo wyl
; --- Side Milling:132 - HHU finish milling NGE ---
N16 ;ToolChange : concat=None ,current_tdmid=None, PP.tdmId=940677
N17 TRAFOOF
N18 G0 G53 D0 Z550 B0
N19 STOPRE
N20 MSG(" TLID=940677 D=12.0 R=3.6 Ang=0.0 Len=123.0 ")
N21 S4774 M03
N22 STOPRE
N23 CYCLE832(0.01,1,1)
N24 G0 G53 A48.9800 B-0.0009
N25 TRAORI
N26 G54 D1
;tol5=0.03
N27 D1 
STOPRE
E_ZDARZ=300010
;ACS_FINISH_SLOT=7740677
STOPRE
;UWAGA : ZMIENIONA TOLERANCJA OSI A i B, ruchy osi A i B beda usuniete : TOL5=0.03
N28 ; DELTA A > 40.1
N29 TRAFOOF
N30 D1
N31 STOPRE
N32 G00 G54 Z263.000
N33 G01 A48.9800 F10000
N34 TRAORI
N35 G54 D1
N36 STOPRE
N37 TRANS 
N38 G00 X-162.238 Y-88.114 Z9.994 A48.9800 
N39 M342 ; chlodziwo woda
N40 X-162.237 Y-50.390 Z-22.822 
N41 G01 X-162.260 Y-47.737 Z-24.481 F572 
N42 X-162.325 Y-44.702 Z-25.239 
N43 X-162.427 Y-41.583 Z-25.022 
N44 X-162.555 Y-38.684 Z-23.852 
N45 ;NTE Finishing
N46 D1 
N47 G01 G41 X-162.698 Y-36.289 Z-21.844 F572
N48 X-162.698 Y-36.289 Z-21.844 
N49 X-162.713 Y-36.071 Z-21.592 
N50 X-162.728 Y-35.852 Z-21.341 
N51 X-162.744 Y-35.634 Z-21.090 
N52 X-162.757 Y-35.447 Z-20.874 
N53 X-162.770 Y-35.259 Z-20.659 
N54 X-162.783 Y-35.072 Z-20.444 
N55 X-162.796 Y-34.885 Z-20.228 
N56 X-162.809 Y-34.698 Z-20.013 
N57 X-162.822 Y-34.510 Z-19.797 
N58 X-162.836 Y-34.323 Z-19.582 
N59 X-162.849 Y-34.136 Z-19.367 
N60 X-162.862 Y-33.949 Z-19.151 
N61 X-162.875 Y-33.761 Z-18.936 
N62 X-162.888 Y-33.574 Z-18.720 
N63 X-162.901 Y-33.387 Z-18.505 
N64 X-162.915 Y-33.200 Z-18.290 
N65 X-162.928 Y-33.012 Z-18.074 
N66 X-162.941 Y-32.825 Z-17.859 
N67 X-162.954 Y-32.638 Z-17.643 
N68 X-162.967 Y-32.451 Z-17.428 
N69 X-162.980 Y-32.263 Z-17.213 
N70 X-162.993 Y-32.076 Z-16.997 
N71 X-163.007 Y-31.889 Z-16.782 
N72 X-163.020 Y-31.702 Z-16.566 
N73 X-163.033 Y-31.515 Z-16.352 
N74 X-163.046 Y-31.328 Z-16.137 
N75 X-163.059 Y-31.142 Z-15.922 
N76 X-163.072 Y-30.955 Z-15.707 
N77 X-163.085 Y-30.768 Z-15.493 
N78 X-163.097 Y-30.582 Z-15.278 
N79 X-163.110 Y-30.395 Z-15.063 
N80 X-163.122 Y-30.208 Z-14.848 
N81 X-163.134 Y-30.022 Z-14.634 
N82 X-163.147 Y-29.835 Z-14.419 
N83 X-163.159 Y-29.648 Z-14.204 
N84 X-163.171 Y-29.462 Z-13.989 
N85 X-163.183 Y-29.275 Z-13.775 
N86 X-163.195 Y-29.088 Z-13.560 
N87 X-163.206 Y-28.901 Z-13.345 
N88 X-163.218 Y-28.715 Z-13.130 
N89 X-163.229 Y-28.528 Z-12.916 
N90 X-163.241 Y-28.341 Z-12.701 
N91 X-163.252 Y-28.155 Z-12.486 
N92 X-163.263 Y-27.968 Z-12.271 
N93 X-163.275 Y-27.781 Z-12.057 
N94 X-163.286 Y-27.595 Z-11.842 
N95 X-163.296 Y-27.408 Z-11.627 
N96 X-163.307 Y-27.221 Z-11.412 
N97 X-163.318 Y-27.034 Z-11.197 
N98 X-163.328 Y-26.848 Z-10.983 
N99 X-163.339 Y-26.661 Z-10.768 
N100 X-163.349 Y-26.474 Z-10.553 
N101 X-163.359 Y-26.287 Z-10.338 
N102 X-163.370 Y-26.101 Z-10.123 
N103 X-163.380 Y-25.914 Z-9.909 
N104 X-163.390 Y-25.727 Z-9.694 
N105 X-163.399 Y-25.541 Z-9.479 
N106 X-163.409 Y-25.354 Z-9.264 
N107 X-163.419 Y-25.167 Z-9.049 
N108 X-163.428 Y-24.980 Z-8.834 
N109 X-163.438 Y-24.794 Z-8.620 
N110 X-163.447 Y-24.607 Z-8.405 
N111 X-163.456 Y-24.420 Z-8.190 
N112 X-163.465 Y-24.233 Z-7.975 
N113 X-163.474 Y-24.047 Z-7.760 
N114 X-163.483 Y-23.860 Z-7.545 
N115 X-163.492 Y-23.673 Z-7.331 
N116 X-163.501 Y-23.486 Z-7.116 
N117 X-163.509 Y-23.299 Z-6.901 
N118 X-163.518 Y-23.113 Z-6.686 
N119 X-163.526 Y-22.926 Z-6.471 
N120 X-163.534 Y-22.739 Z-6.256 
N121 X-163.543 Y-22.552 Z-6.041 
N122 X-163.551 Y-22.366 Z-5.827 
N123 X-163.559 Y-22.179 Z-5.612 
N124 X-163.567 Y-21.992 Z-5.397 
N125 X-163.574 Y-21.805 Z-5.182 
N126 X-163.582 Y-21.618 Z-4.967 
N127 X-163.589 Y-21.432 Z-4.752 
N128 X-163.597 Y-21.245 Z-4.537 
N129 X-163.604 Y-21.058 Z-4.322 
N130 X-163.611 Y-20.871 Z-4.108 
N131 X-163.619 Y-20.685 Z-3.893 
N132 X-163.626 Y-20.498 Z-3.678 
N133 X-163.632 Y-20.311 Z-3.463 
N134 X-163.639 Y-20.124 Z-3.248 
N135 X-163.646 Y-19.937 Z-3.033 
N136 X-163.653 Y-19.751 Z-2.818 
N137 X-163.659 Y-19.564 Z-2.603 
N138 X-163.665 Y-19.377 Z-2.388 
N139 X-163.672 Y-19.190 Z-2.174 
N140 X-163.678 Y-19.003 Z-1.959 
N141 X-163.684 Y-18.816 Z-1.744 
N142 X-163.690 Y-18.630 Z-1.529 
N143 X-163.696 Y-18.443 Z-1.314 
N144 X-163.702 Y-18.256 Z-1.099 
N145 X-163.707 Y-18.069 Z-0.884 
N146 X-163.713 Y-17.882 Z-0.669 
N147 X-163.718 Y-17.696 Z-0.454 
N148 X-163.724 Y-17.509 Z-0.239 
N149 X-163.729 Y-17.322 Z-0.024 
N150 X-163.734 Y-17.135 Z0.190 
N151 X-163.739 Y-16.948 Z0.405 
N152 X-163.744 Y-16.761 Z0.620 
N153 X-163.749 Y-16.575 Z0.835 
N154 X-163.753 Y-16.388 Z1.050 
N155 X-163.758 Y-16.201 Z1.265 
N156 X-163.763 Y-16.014 Z1.480 
N157 X-163.767 Y-15.827 Z1.695 
N158 X-163.771 Y-15.641 Z1.910 
N159 X-163.775 Y-15.454 Z2.125 
N160 X-163.780 Y-15.267 Z2.340 
N161 X-163.783 Y-15.080 Z2.555 
N162 X-163.787 Y-14.893 Z2.770 
N163 X-163.791 Y-14.706 Z2.984 
N164 X-163.795 Y-14.520 Z3.199 
N165 X-163.798 Y-14.333 Z3.414 
N166 X-163.802 Y-14.146 Z3.629 
N167 X-163.805 Y-13.959 Z3.844 
N168 X-163.808 Y-13.772 Z4.059 
N169 X-163.812 Y-13.585 Z4.274 
N170 X-163.815 Y-13.398 Z4.489 
N171 X-163.818 Y-13.212 Z4.704 
N172 X-163.820 Y-13.025 Z4.919 
N173 X-163.823 Y-12.838 Z5.134 
N174 X-163.826 Y-12.651 Z5.349 
N175 X-163.828 Y-12.464 Z5.564 
N176 X-163.831 Y-12.277 Z5.779 
N177 X-163.833 Y-12.091 Z5.994 
N178 X-163.835 Y-11.904 Z6.208 
N179 X-163.837 Y-11.717 Z6.423 
N180 X-163.839 Y-11.530 Z6.638 
N181 X-163.841 Y-11.343 Z6.854 
N182 X-163.843 Y-11.155 Z7.070 
N183 X-163.846 Y-10.968 Z7.285 
N184 X-163.848 Y-10.780 Z7.501 
N185 X-163.850 Y-10.593 Z7.717 
N186 X-163.852 Y-10.405 Z7.932 
N187 X-163.854 Y-10.218 Z8.148 
N188 X-163.856 Y-10.031 Z8.363 
N189 X-163.858 Y-9.843 Z8.579 
N190 X-163.860 Y-9.656 Z8.795 
N191 X-163.862 Y-9.468 Z9.010 
N192 X-163.864 Y-9.281 Z9.226 
N193 X-163.866 Y-9.093 Z9.442 
N194 X-163.868 Y-8.906 Z9.657 
N195 X-163.870 Y-8.718 Z9.873 
N196 X-163.872 Y-8.531 Z10.088 
N197 X-163.875 Y-8.344 Z10.304 
N198 X-163.877 Y-8.156 Z10.520 
N199 X-163.879 Y-7.969 Z10.735 
N200 X-163.881 Y-7.781 Z10.951 
N201 X-163.883 Y-7.594 Z11.167 
N202 G40 X-163.884 Y-7.377 Z11.415 F840
N203 X-163.884 Y-7.377 Z11.415 
N204 X-163.887 Y-6.985 Z11.866 F1645 
N205 X-163.903 Y-6.301 Z12.654 F2451 
N206 X-163.953 Y-5.441 Z13.643 F2719 
N207 X-164.055 Y-4.556 Z14.661 
N208 X-164.223 Y-3.675 Z15.675 
N209 X-164.467 Y-2.802 Z16.679 
N210 X-164.787 Y-1.939 Z17.671 
N211 X-165.179 Y-1.089 Z18.649 
N212 X-165.642 Y-0.255 Z19.609 
N213 X-166.183 Y0.559 Z20.545 
N214 X-166.845 Y1.332 Z21.434 
N215 X-167.853 Y1.632 Z21.779 A49.0108 
N216 X-168.143 Y0.769 Z20.786 
N217 X-168.210 Y-0.085 Z19.804 F2451 
N218 X-168.225 Y-0.781 Z19.004 F1645 
N219 X-168.226 Y-1.167 Z18.560 F840 
N220 ;NNTE Finishing
N221 D2 
N222 G01 G41 X-168.225 Y-1.370 Z18.326 F572
N223 X-168.225 Y-1.370 Z18.326 F572 
N224 X-168.226 Y-1.589 Z18.074 
N225 X-168.228 Y-1.808 Z17.823 
N226 X-168.229 Y-2.026 Z17.571 
N227 X-168.230 Y-2.214 Z17.355 
N228 X-168.231 Y-2.401 Z17.140 
N229 X-168.232 Y-2.589 Z16.924 
N230 X-168.233 Y-2.776 Z16.708 
N231 X-168.234 Y-2.964 Z16.493 
N232 X-168.235 Y-3.151 Z16.277 
N233 X-168.236 Y-3.339 Z16.062 
N234 X-168.237 Y-3.526 Z15.846 
N235 X-168.238 Y-3.713 Z15.630 
N236 X-168.239 Y-3.901 Z15.415 
N237 X-168.240 Y-4.088 Z15.199 
N238 X-168.241 Y-4.276 Z14.983 
N239 X-168.242 Y-4.463 Z14.768 
N240 X-168.244 Y-4.651 Z14.552 
N241 X-168.245 Y-4.838 Z14.336 
N242 X-168.246 Y-5.026 Z14.121 
N243 X-168.247 Y-5.213 Z13.905 
N244 X-168.248 Y-5.400 Z13.690 
N245 X-168.249 Y-5.588 Z13.474 
N246 X-168.250 Y-5.775 Z13.258 
N247 X-168.251 Y-5.963 Z13.043 
N248 X-168.252 Y-6.150 Z12.827 
N249 X-168.253 Y-6.338 Z12.611 
N250 X-168.254 Y-6.525 Z12.396 
N251 X-168.255 Y-6.713 Z12.180 
N252 X-168.255 Y-6.900 Z11.964 
N253 X-168.256 Y-7.088 Z11.749 
N254 X-168.256 Y-7.275 Z11.533 
N255 X-168.257 Y-7.463 Z11.318 
N256 X-168.257 Y-7.650 Z11.102 
N257 X-168.257 Y-7.837 Z10.886 
N258 X-168.257 Y-8.025 Z10.671 
N259 X-168.257 Y-8.212 Z10.455 
N260 X-168.257 Y-8.400 Z10.239 
N261 X-168.257 Y-8.587 Z10.024 
N262 X-168.257 Y-8.775 Z9.808 
N263 X-168.256 Y-8.962 Z9.592 
N264 X-168.256 Y-9.150 Z9.377 
N265 X-168.255 Y-9.337 Z9.161 
N266 X-168.254 Y-9.525 Z8.945 
N267 X-168.253 Y-9.712 Z8.730 
N268 X-168.252 Y-9.900 Z8.514 
N269 X-168.251 Y-10.087 Z8.298 
N270 X-168.250 Y-10.274 Z8.083 
N271 X-168.249 Y-10.462 Z7.867 
N272 X-168.247 Y-10.649 Z7.651 
N273 X-168.246 Y-10.837 Z7.436 
N274 X-168.244 Y-11.024 Z7.220 
N275 X-168.243 Y-11.212 Z7.005 
N276 X-168.241 Y-11.399 Z6.789 
N277 X-168.239 Y-11.587 Z6.573 
N278 X-168.237 Y-11.774 Z6.358 
N279 X-168.235 Y-11.962 Z6.142 
N280 X-168.232 Y-12.149 Z5.926 
N281 X-168.230 Y-12.337 Z5.711 
N282 X-168.228 Y-12.524 Z5.495 
N283 X-168.225 Y-12.711 Z5.279 
N284 X-168.222 Y-12.899 Z5.064 
N285 X-168.220 Y-13.086 Z4.848 
N286 X-168.217 Y-13.274 Z4.632 
N287 X-168.214 Y-13.461 Z4.417 
N288 X-168.211 Y-13.649 Z4.201 
N289 X-168.208 Y-13.836 Z3.986 
N290 X-168.204 Y-14.024 Z3.770 
N291 X-168.201 Y-14.211 Z3.554 
N292 X-168.197 Y-14.398 Z3.339 
N293 X-168.194 Y-14.586 Z3.123 
N294 X-168.190 Y-14.773 Z2.907 
N295 X-168.186 Y-14.961 Z2.692 
N296 X-168.182 Y-15.148 Z2.476 
N297 X-168.178 Y-15.336 Z2.260 
N298 X-168.174 Y-15.523 Z2.045 
N299 X-168.170 Y-15.711 Z1.829 
N300 X-168.166 Y-15.898 Z1.614 
N301 X-168.161 Y-16.085 Z1.398 
N302 X-168.157 Y-16.273 Z1.182 
N303 X-168.152 Y-16.460 Z0.967 
N304 X-168.147 Y-16.648 Z0.751 
N305 X-168.143 Y-16.835 Z0.535 
N306 X-168.138 Y-17.023 Z0.320 
N307 X-168.133 Y-17.210 Z0.104 
N308 X-168.127 Y-17.398 Z-0.111 
N309 X-168.122 Y-17.585 Z-0.327 
N310 X-168.117 Y-17.772 Z-0.543 
N311 X-168.111 Y-17.960 Z-0.758 
N312 X-168.106 Y-18.147 Z-0.974 
N313 X-168.100 Y-18.335 Z-1.189 
N314 X-168.094 Y-18.522 Z-1.405 
N315 X-168.088 Y-18.710 Z-1.621 
N316 X-168.082 Y-18.897 Z-1.836 
N317 X-168.076 Y-19.084 Z-2.052 
N318 X-168.070 Y-19.272 Z-2.267 
N319 X-168.064 Y-19.459 Z-2.483 
N320 X-168.057 Y-19.647 Z-2.699 
N321 X-168.051 Y-19.834 Z-2.914 
N322 X-168.044 Y-20.021 Z-3.130 
N323 X-168.037 Y-20.209 Z-3.345 
N324 X-168.031 Y-20.396 Z-3.561 
N325 X-168.024 Y-20.584 Z-3.777 
N326 X-168.017 Y-20.771 Z-3.992 
N327 X-168.009 Y-20.958 Z-4.208 
N328 X-168.002 Y-21.146 Z-4.423 
N329 X-167.995 Y-21.333 Z-4.639 
N330 X-167.987 Y-21.521 Z-4.855 
N331 X-167.980 Y-21.708 Z-5.070 
N332 X-167.972 Y-21.895 Z-5.286 
N333 X-167.964 Y-22.083 Z-5.501 
N334 X-167.956 Y-22.270 Z-5.717 
N335 X-167.948 Y-22.458 Z-5.932 
N336 X-167.940 Y-22.645 Z-6.148 
N337 X-167.932 Y-22.832 Z-6.364 
N338 X-167.924 Y-23.020 Z-6.579 
N339 X-167.916 Y-23.207 Z-6.795 
N340 X-167.907 Y-23.395 Z-7.010 
N341 X-167.898 Y-23.582 Z-7.226 
N342 X-167.890 Y-23.769 Z-7.441 
N343 X-167.881 Y-23.957 Z-7.657 
N344 X-167.872 Y-24.144 Z-7.872 
N345 X-167.863 Y-24.331 Z-8.088 
N346 X-167.854 Y-24.519 Z-8.303 
N347 X-167.844 Y-24.706 Z-8.519 
N348 X-167.835 Y-24.894 Z-8.735 
N349 X-167.826 Y-25.081 Z-8.950 
N350 X-167.816 Y-25.268 Z-9.166 
N351 X-167.806 Y-25.456 Z-9.381 
N352 X-167.797 Y-25.643 Z-9.597 
N353 X-167.787 Y-25.830 Z-9.812 
N354 X-167.777 Y-26.018 Z-10.028 
N355 X-167.767 Y-26.205 Z-10.243 
N356 X-167.757 Y-26.392 Z-10.459 
N357 X-167.747 Y-26.580 Z-10.674 
N358 X-167.737 Y-26.767 Z-10.890 
N359 X-167.727 Y-26.954 Z-11.105 
N360 X-167.717 Y-27.142 Z-11.321 
N361 X-167.707 Y-27.329 Z-11.536 
N362 X-167.697 Y-27.516 Z-11.752 
N363 X-167.687 Y-27.704 Z-11.967 
N364 X-167.677 Y-27.891 Z-12.183 
N365 X-167.667 Y-28.078 Z-12.398 
N366 X-167.657 Y-28.266 Z-12.614 
N367 X-167.647 Y-28.453 Z-12.829 
N368 X-167.637 Y-28.640 Z-13.045 
N369 X-167.627 Y-28.828 Z-13.260 
N370 X-167.617 Y-29.015 Z-13.476 
N371 X-167.607 Y-29.202 Z-13.691 
N372 X-167.596 Y-29.390 Z-13.907 
N373 X-167.586 Y-29.577 Z-14.122 
N374 X-167.576 Y-29.764 Z-14.338 
N375 X-167.566 Y-29.952 Z-14.553 
N376 X-167.556 Y-30.139 Z-14.769 
N377 G40 X-167.206 Y-36.695 Z-22.311 F572
N378 X-167.206 Y-36.695 Z-22.311 
N379 G00 X-167.205 Y-74.442 Z10.479 
;RAPORT("TB000000","Side Milling:132 End")
;trailer : concat=None
; points cnt = 330
N381 MSG (" --- GROUPED OF SUBPROGRAM --- ")
N382 FGROUP()
N383 TRAFOOF
; PROGRAM NAME: B00000047
; ORDER       : B000000
; OPER. NAME  : Side Milling:133
; OPER. DESCR.: HHU SemiFinish milling NGA
; OPER. TYPE  : sideMill
; GEO. OPTION : 3
; MACHINE     : HSTM_500_SIM840D_Py
;             : HSTM500 - HAMUEL: 5-axis milling machine - SIM840D Traori PP_Script
; CONTROL     : SINUMERIK 840D
; created:   2021-11-15 09:59:14.485446
;-------DODATKOWE DANE-------------------
; PROGRAMISTA : Mariusz Malec
; PARTID      : 139T001534P1001_-
;  ap         : 26.0
;  ae         : 9.6
;  lean_angle : 0.02
;  fin_offset : 0.0
;----------------------------------------
;RAPORT("TB000000","Side Milling:133")
N10 TRAFOOF
N11 D0
N12 G90 G94
N13 G0 G53 D0 Z550 B0
N14 STOPRE
M9 ; chlodziwo wyl
; --- Side Milling:133 - HHU SemiFinish milling NGA ---
N16 ;ToolChange : concat=None ,current_tdmid=None, PP.tdmId=940677
N17 TRAFOOF
N18 G0 G53 D0 Z550 B0
N19 STOPRE
N20 MSG(" TLID=940677 D=12.0 R=3.6 Ang=0.0 Len=123.0 ")
N21 S4774 M03
N22 STOPRE
N23 CYCLE832(0.01,1,1)
N24 G0 G53 A228.9800 B-0.0009
N25 TRAORI
N26 G54 D3
;tol5=0.03
N27 D1 
STOPRE
E_ZDARZ=300010
;ACS_FINISH_SLOT=7740677
STOPRE
;UWAGA : ZMIENIONA TOLERANCJA OSI A i B, ruchy osi A i B beda usuniete : TOL5=0.03
N28 ; DELTA A > 40.1
N29 TRAFOOF
N30 D1
N31 STOPRE
N32 G00 G54 Z263.000
N33 G01 A228.9800 F10000
N34 TRAORI
N35 G54 D1
N36 STOPRE
N37 TRANS 
N38 G00 X-162.324 Y88.090 Z-3.617 A228.9800 
N39 M342 ; chlodziwo woda
N40 X-162.324 Y50.366 Z29.200 
N41 G01 X-162.346 Y47.713 Z30.858 F572 
N42 X-162.410 Y44.678 Z31.616 
N43 X-162.510 Y41.558 Z31.399 
N44 X-162.636 Y38.659 Z30.229 
N45 ;NTA SemiFinishing
N46 D3 
N47 G01 G41 X-162.775 Y36.265 Z28.221 F572
N48 X-162.775 Y36.265 Z28.221 
N49 X-162.790 Y36.046 Z27.969 
N50 X-162.805 Y35.828 Z27.718 
N51 X-162.820 Y35.609 Z27.467 
N52 X-162.833 Y35.422 Z27.251 
N53 X-162.846 Y35.235 Z27.036 
N54 X-162.859 Y35.047 Z26.821 
N55 X-162.872 Y34.860 Z26.605 
N56 X-162.885 Y34.673 Z26.390 
N57 X-162.898 Y34.486 Z26.174 
N58 X-162.910 Y34.298 Z25.959 
N59 X-162.923 Y34.111 Z25.744 
N60 X-162.936 Y33.924 Z25.528 
N61 X-162.949 Y33.737 Z25.313 
N62 X-162.962 Y33.549 Z25.097 
N63 X-162.975 Y33.362 Z24.882 
N64 X-162.988 Y33.175 Z24.666 
N65 X-163.001 Y32.988 Z24.451 
N66 X-163.014 Y32.800 Z24.236 
N67 X-163.026 Y32.613 Z24.020 
N68 X-163.039 Y32.426 Z23.805 
N69 X-163.052 Y32.239 Z23.589 
N70 X-163.065 Y32.051 Z23.374 
N71 X-163.078 Y31.864 Z23.159 
N72 X-163.091 Y31.677 Z22.943 
N73 X-163.104 Y31.490 Z22.728 
N74 X-163.117 Y31.303 Z22.514 
N75 X-163.129 Y31.117 Z22.299 
N76 X-163.142 Y30.930 Z22.084 
N77 X-163.155 Y30.743 Z21.870 
N78 X-163.167 Y30.557 Z21.655 
N79 X-163.179 Y30.370 Z21.440 
N80 X-163.191 Y30.183 Z21.225 
N81 X-163.204 Y29.997 Z21.011 
N82 X-163.216 Y29.810 Z20.796 
N83 X-163.227 Y29.623 Z20.581 
N84 X-163.239 Y29.437 Z20.366 
N85 X-163.251 Y29.250 Z20.152 
N86 X-163.262 Y29.063 Z19.937 
N87 X-163.274 Y28.877 Z19.722 
N88 X-163.285 Y28.690 Z19.507 
N89 X-163.297 Y28.503 Z19.292 
N90 X-163.308 Y28.317 Z19.078 
N91 X-163.319 Y28.130 Z18.863 
N92 X-163.330 Y27.943 Z18.648 
N93 X-163.341 Y27.756 Z18.433 
N94 X-163.351 Y27.570 Z18.218 
N95 X-163.362 Y27.383 Z18.004 
N96 X-163.372 Y27.196 Z17.789 
N97 X-163.383 Y27.010 Z17.574 
N98 X-163.393 Y26.823 Z17.359 
N99 X-163.403 Y26.636 Z17.144 
N100 X-163.414 Y26.449 Z16.930 
N101 X-163.424 Y26.263 Z16.715 
N102 X-163.433 Y26.076 Z16.500 
N103 X-163.443 Y25.889 Z16.285 
N104 X-163.453 Y25.702 Z16.070 
N105 X-163.463 Y25.516 Z15.856 
N106 X-163.472 Y25.329 Z15.641 
N107 X-163.481 Y25.142 Z15.426 
N108 X-163.491 Y24.955 Z15.211 
N109 X-163.500 Y24.769 Z14.996 
N110 X-163.509 Y24.582 Z14.781 
N111 X-163.518 Y24.395 Z14.567 
N112 X-163.527 Y24.208 Z14.352 
N113 X-163.535 Y24.022 Z14.137 
N114 X-163.544 Y23.835 Z13.922 
N115 X-163.553 Y23.648 Z13.707 
N116 X-163.561 Y23.461 Z13.492 
N117 X-163.569 Y23.275 Z13.278 
N118 X-163.578 Y23.088 Z13.063 
N119 X-163.586 Y22.901 Z12.848 
N120 X-163.594 Y22.714 Z12.633 
N121 X-163.602 Y22.527 Z12.418 
N122 X-163.610 Y22.341 Z12.203 
N123 X-163.617 Y22.154 Z11.988 
N124 X-163.625 Y21.967 Z11.774 
N125 X-163.632 Y21.780 Z11.559 
N126 X-163.640 Y21.594 Z11.344 
N127 X-163.647 Y21.407 Z11.129 
N128 X-163.654 Y21.220 Z10.914 
N129 X-163.661 Y21.033 Z10.699 
N130 X-163.668 Y20.846 Z10.484 
N131 X-163.675 Y20.660 Z10.269 
N132 X-163.682 Y20.473 Z10.054 
N133 X-163.689 Y20.286 Z9.840 
N134 X-163.695 Y20.099 Z9.625 
N135 X-163.702 Y19.912 Z9.410 
N136 X-163.708 Y19.726 Z9.195 
N137 X-163.714 Y19.539 Z8.980 
N138 X-163.720 Y19.352 Z8.765 
N139 X-163.726 Y19.165 Z8.550 
N140 X-163.732 Y18.978 Z8.335 
N141 X-163.738 Y18.792 Z8.120 
N142 X-163.744 Y18.605 Z7.906 
N143 X-163.749 Y18.418 Z7.691 
N144 X-163.755 Y18.231 Z7.476 
N145 X-163.760 Y18.044 Z7.261 
N146 X-163.766 Y17.858 Z7.046 
N147 X-163.771 Y17.671 Z6.831 
N148 X-163.776 Y17.484 Z6.616 
N149 X-163.781 Y17.297 Z6.401 
N150 X-163.786 Y17.110 Z6.186 
N151 X-163.791 Y16.923 Z5.971 
N152 X-163.795 Y16.737 Z5.756 
N153 X-163.800 Y16.550 Z5.542 
N154 X-163.804 Y16.363 Z5.327 
N155 X-163.809 Y16.176 Z5.112 
N156 X-163.813 Y15.989 Z4.897 
N157 X-163.817 Y15.802 Z4.682 
N158 X-163.821 Y15.616 Z4.467 
N159 X-163.825 Y15.429 Z4.252 
N160 X-163.829 Y15.242 Z4.037 
N161 X-163.833 Y15.055 Z3.822 
N162 X-163.836 Y14.868 Z3.607 
N163 X-163.840 Y14.681 Z3.392 
N164 X-163.843 Y14.495 Z3.177 
N165 X-163.846 Y14.308 Z2.962 
N166 X-163.850 Y14.121 Z2.748 
N167 X-163.853 Y13.934 Z2.533 
N168 X-163.856 Y13.747 Z2.318 
N169 X-163.859 Y13.560 Z2.103 
N170 X-163.861 Y13.374 Z1.888 
N171 X-163.864 Y13.187 Z1.673 
N172 X-163.867 Y13.000 Z1.458 
N173 X-163.869 Y12.813 Z1.243 
N174 X-163.872 Y12.626 Z1.028 
N175 X-163.874 Y12.439 Z0.813 
N176 X-163.876 Y12.253 Z0.598 
N177 X-163.878 Y12.066 Z0.383 
N178 X-163.880 Y11.879 Z0.168 
N179 X-163.882 Y11.692 Z-0.047 
N180 X-163.884 Y11.505 Z-0.262 
N181 X-163.885 Y11.318 Z-0.477 
N182 X-163.887 Y11.130 Z-0.693 
N183 X-163.889 Y10.943 Z-0.908 
N184 X-163.891 Y10.755 Z-1.124 
N185 X-163.893 Y10.568 Z-1.340 
N186 X-163.895 Y10.381 Z-1.555 
N187 X-163.896 Y10.193 Z-1.771 
N188 X-163.898 Y10.006 Z-1.987 
N189 X-163.900 Y9.818 Z-2.202 
N190 X-163.902 Y9.631 Z-2.418 
N191 X-163.904 Y9.443 Z-2.633 
N192 X-163.906 Y9.256 Z-2.849 
N193 X-163.907 Y9.068 Z-3.065 
N194 X-163.909 Y8.881 Z-3.280 
N195 X-163.911 Y8.694 Z-3.496 
N196 X-163.913 Y8.506 Z-3.712 
N197 X-163.915 Y8.319 Z-3.927 
N198 X-163.916 Y8.131 Z-4.143 
N199 X-163.918 Y7.944 Z-4.358 
N200 X-163.920 Y7.756 Z-4.574 
N201 X-163.922 Y7.569 Z-4.790 
N202 G40 X-163.922 Y7.350 Z-5.041 F845
N203 X-163.922 Y7.350 Z-5.041 
N204 X-163.925 Y6.951 Z-5.501 F1664 
N205 X-163.940 Y6.252 Z-6.305 F2484 
N206 X-163.990 Y5.372 Z-7.317 F2757 
N207 X-164.090 Y4.475 Z-8.349 
N208 X-164.256 Y3.581 Z-9.377 
N209 X-164.494 Y2.695 Z-10.397 
N210 X-164.804 Y1.818 Z-11.405 
N211 X-165.181 Y0.953 Z-12.401 
N212 X-165.621 Y0.101 Z-13.381 
N213 X-166.132 Y-0.735 Z-14.342 
N214 X-166.746 Y-1.539 Z-15.267 
N215 X-167.709 Y-2.062 Z-15.868 A229.0108 
N216 X-168.077 Y-1.208 Z-14.887 
N217 X-168.150 Y-0.338 Z-13.885 F2484 
N218 X-168.166 Y0.375 Z-13.065 F1664 
N219 X-168.168 Y0.772 Z-12.609 F845 
N220 ;NNTA SemiFinishing
N221 D4 
N222 G01 G41 X-168.168 Y0.973 Z-12.377 F572
N223 X-168.168 Y0.973 Z-12.377 F572 
N224 X-168.170 Y1.192 Z-12.126 
N225 X-168.171 Y1.411 Z-11.874 
N226 X-168.173 Y1.629 Z-11.622 
N227 X-168.175 Y1.817 Z-11.407 
N228 X-168.176 Y2.004 Z-11.191 
N229 X-168.178 Y2.192 Z-10.976 
N230 X-168.179 Y2.379 Z-10.760 
N231 X-168.181 Y2.567 Z-10.544 
N232 X-168.182 Y2.754 Z-10.329 
N233 X-168.184 Y2.941 Z-10.113 
N234 X-168.185 Y3.129 Z-9.897 
N235 X-168.187 Y3.316 Z-9.682 
N236 X-168.188 Y3.504 Z-9.466 
N237 X-168.190 Y3.691 Z-9.251 
N238 X-168.191 Y3.879 Z-9.035 
N239 X-168.193 Y4.066 Z-8.819 
N240 X-168.194 Y4.254 Z-8.604 
N241 X-168.196 Y4.441 Z-8.388 
N242 X-168.197 Y4.628 Z-8.172 
N243 X-168.199 Y4.816 Z-7.957 
N244 X-168.200 Y5.003 Z-7.741 
N245 X-168.202 Y5.191 Z-7.526 
N246 X-168.203 Y5.378 Z-7.310 
N247 X-168.205 Y5.566 Z-7.094 
N248 X-168.206 Y5.753 Z-6.879 
N249 X-168.208 Y5.941 Z-6.663 
N250 X-168.209 Y6.128 Z-6.447 
N251 X-168.210 Y6.315 Z-6.232 
N252 X-168.212 Y6.503 Z-6.016 
N253 X-168.213 Y6.690 Z-5.800 
N254 X-168.214 Y6.878 Z-5.585 
N255 X-168.214 Y7.065 Z-5.369 
N256 X-168.215 Y7.253 Z-5.154 
N257 X-168.216 Y7.440 Z-4.938 
N258 X-168.216 Y7.628 Z-4.722 
N259 X-168.217 Y7.815 Z-4.507 
N260 X-168.217 Y8.002 Z-4.291 
N261 X-168.217 Y8.190 Z-4.075 
N262 X-168.217 Y8.377 Z-3.860 
N263 X-168.217 Y8.565 Z-3.644 
N264 X-168.217 Y8.752 Z-3.429 
N265 X-168.217 Y8.940 Z-3.213 
N266 X-168.217 Y9.127 Z-2.997 
N267 X-168.216 Y9.315 Z-2.782 
N268 X-168.216 Y9.502 Z-2.566 
N269 X-168.215 Y9.689 Z-2.350 
N270 X-168.214 Y9.877 Z-2.135 
N271 X-168.214 Y10.064 Z-1.919 
N272 X-168.213 Y10.252 Z-1.703 
N273 X-168.212 Y10.439 Z-1.488 
N274 X-168.210 Y10.627 Z-1.272 
N275 X-168.209 Y10.814 Z-1.057 
N276 X-168.208 Y11.002 Z-0.841 
N277 X-168.206 Y11.189 Z-0.625 
N278 X-168.205 Y11.376 Z-0.410 
N279 X-168.203 Y11.564 Z-0.194 
N280 X-168.201 Y11.751 Z0.022 
N281 X-168.200 Y11.939 Z0.237 
N282 X-168.198 Y12.126 Z0.453 
N283 X-168.195 Y12.314 Z0.668 
N284 X-168.193 Y12.501 Z0.884 
N285 X-168.191 Y12.689 Z1.100 
N286 X-168.189 Y12.876 Z1.315 
N287 X-168.186 Y13.063 Z1.531 
N288 X-168.183 Y13.251 Z1.747 
N289 X-168.181 Y13.438 Z1.962 
N290 X-168.178 Y13.626 Z2.178 
N291 X-168.175 Y13.813 Z2.393 
N292 X-168.172 Y14.001 Z2.609 
N293 X-168.169 Y14.188 Z2.825 
N294 X-168.166 Y14.375 Z3.040 
N295 X-168.162 Y14.563 Z3.256 
N296 X-168.159 Y14.750 Z3.472 
N297 X-168.155 Y14.938 Z3.687 
N298 X-168.152 Y15.125 Z3.903 
N299 X-168.148 Y15.313 Z4.118 
N300 X-168.144 Y15.500 Z4.334 
N301 X-168.140 Y15.687 Z4.550 
N302 X-168.136 Y15.875 Z4.765 
N303 X-168.132 Y16.062 Z4.981 
N304 X-168.127 Y16.250 Z5.196 
N305 X-168.123 Y16.437 Z5.412 
N306 X-168.119 Y16.625 Z5.628 
N307 X-168.114 Y16.812 Z5.843 
N308 X-168.109 Y16.999 Z6.059 
N309 X-168.104 Y17.187 Z6.274 
N310 X-168.099 Y17.374 Z6.490 
N311 X-168.094 Y17.562 Z6.706 
N312 X-168.089 Y17.749 Z6.921 
N313 X-168.084 Y17.937 Z7.137 
N314 X-168.079 Y18.124 Z7.352 
N315 X-168.073 Y18.311 Z7.568 
N316 X-168.068 Y18.499 Z7.784 
N317 X-168.062 Y18.686 Z7.999 
N318 X-168.056 Y18.874 Z8.215 
N319 X-168.051 Y19.061 Z8.430 
N320 X-168.045 Y19.248 Z8.646 
N321 X-168.039 Y19.436 Z8.862 
N322 X-168.032 Y19.623 Z9.077 
N323 X-168.026 Y19.811 Z9.293 
N324 X-168.020 Y19.998 Z9.508 
N325 X-168.013 Y20.185 Z9.724 
N326 X-168.007 Y20.373 Z9.939 
N327 X-168.000 Y20.560 Z10.155 
N328 X-167.993 Y20.748 Z10.371 
N329 X-167.986 Y20.935 Z10.586 
N330 X-167.979 Y21.122 Z10.802 
N331 X-167.972 Y21.310 Z11.017 
N332 X-167.965 Y21.497 Z11.233 
N333 X-167.958 Y21.684 Z11.448 
N334 X-167.950 Y21.872 Z11.664 
N335 X-167.943 Y22.059 Z11.879 
N336 X-167.935 Y22.247 Z12.095 
N337 X-167.927 Y22.434 Z12.311 
N338 X-167.919 Y22.621 Z12.526 
N339 X-167.911 Y22.809 Z12.742 
N340 X-167.903 Y22.996 Z12.957 
N341 X-167.895 Y23.184 Z13.173 
N342 X-167.887 Y23.371 Z13.388 
N343 X-167.879 Y23.558 Z13.604 
N344 X-167.870 Y23.746 Z13.819 
N345 X-167.862 Y23.933 Z14.035 
N346 X-167.853 Y24.120 Z14.250 
N347 X-167.844 Y24.308 Z14.466 
N348 X-167.835 Y24.495 Z14.682 
N349 X-167.826 Y24.682 Z14.897 
N350 X-167.817 Y24.870 Z15.113 
N351 X-167.808 Y25.057 Z15.328 
N352 X-167.799 Y25.244 Z15.544 
N353 X-167.789 Y25.432 Z15.759 
N354 X-167.780 Y25.619 Z15.975 
N355 X-167.770 Y25.806 Z16.190 
N356 X-167.760 Y25.994 Z16.406 
N357 X-167.751 Y26.181 Z16.621 
N358 X-167.741 Y26.368 Z16.837 
N359 X-167.732 Y26.556 Z17.052 
N360 X-167.722 Y26.743 Z17.268 
N361 X-167.713 Y26.931 Z17.483 
N362 X-167.703 Y27.118 Z17.699 
N363 X-167.694 Y27.305 Z17.914 
N364 X-167.684 Y27.493 Z18.130 
N365 X-167.674 Y27.680 Z18.345 
N366 X-167.665 Y27.867 Z18.561 
N367 X-167.655 Y28.055 Z18.776 
N368 X-167.646 Y28.242 Z18.992 
N369 X-167.636 Y28.429 Z19.207 
N370 X-167.627 Y28.617 Z19.423 
N371 X-167.617 Y28.804 Z19.638 
N372 X-167.607 Y28.991 Z19.854 
N373 X-167.598 Y29.179 Z20.069 
N374 X-167.588 Y29.366 Z20.285 
N375 X-167.579 Y29.553 Z20.500 
N376 X-167.569 Y29.741 Z20.716 
N377 G40 X-167.234 Y36.298 Z28.259 F572
N378 X-167.234 Y36.298 Z28.259 
N379 G00 X-167.234 Y74.044 Z-4.531 
;RAPORT("TB000000","Side Milling:133 End")
;trailer : concat=None
; points cnt = 330
N381 MSG (" --- GROUPED OF SUBPROGRAM --- ")
N382 FGROUP()
N383 TRAFOOF
; PROGRAM NAME: B00000047
; ORDER       : B000000
; OPER. NAME  : Side Milling:134
; OPER. DESCR.: HHU finish milling NGA
; OPER. TYPE  : sideMill
; GEO. OPTION : 3
; MACHINE     : HSTM_500_SIM840D_Py
;             : HSTM500 - HAMUEL: 5-axis milling machine - SIM840D Traori PP_Script
; CONTROL     : SINUMERIK 840D
; created:   2021-11-15 09:59:17.952791
;-------DODATKOWE DANE-------------------
; PROGRAMISTA : Mariusz Malec
; PARTID      : 139T001534P1001_-
;  ap         : 26.0
;  ae         : 9.6
;  lean_angle : 0.02
;  fin_offset : 0.03
;----------------------------------------
;RAPORT("TB000000","Side Milling:134")
N10 TRAFOOF
N11 D0
N12 G90 G94
N13 G0 G53 D0 Z550 B0
N14 STOPRE
M9 ; chlodziwo wyl
; --- Side Milling:134 - HHU finish milling NGA ---
N16 ;ToolChange : concat=None ,current_tdmid=None, PP.tdmId=940677
N17 TRAFOOF
N18 G0 G53 D0 Z550 B0
N19 STOPRE
N20 MSG(" TLID=940677 D=12.0 R=3.6 Ang=0.0 Len=123.0 ")
N21 S4774 M03
N22 STOPRE
N23 CYCLE832(0.01,1,1)
N24 G0 G53 A228.9800 B-0.0009
N25 TRAORI
N26 G54 D3
;tol5=0.03
N27 D3 
STOPRE
E_ZDARZ=300010
;ACS_FINISH_SLOT=7740677
STOPRE
;UWAGA : ZMIENIONA TOLERANCJA OSI A i B, ruchy osi A i B beda usuniete : TOL5=0.03
N28 ; DELTA A > 40.1
N29 TRAFOOF
N30 D3
N31 STOPRE
N32 G00 G54 Z263.000
N33 G01 A228.9800 F10000
N34 TRAORI
N35 G54 D3
N36 STOPRE
N37 TRANS 
N38 G00 X-162.284 Y88.111 Z-3.638 A228.9800 
N39 M342 ; chlodziwo woda
N40 X-162.284 Y50.387 Z29.179 
N41 G01 X-162.306 Y47.734 Z30.837 F572 
N42 X-162.370 Y44.699 Z31.595 
N43 X-162.470 Y41.580 Z31.378 
N44 X-162.596 Y38.681 Z30.208 
N45 ;NTA finishing
N46 D3 
N47 G01 G41 X-162.735 Y36.286 Z28.200 F572
N48 X-162.735 Y36.286 Z28.200 
N49 X-162.750 Y36.067 Z27.948 
N50 X-162.765 Y35.849 Z27.697 
N51 X-162.780 Y35.631 Z27.446 
N52 X-162.793 Y35.443 Z27.230 
N53 X-162.806 Y35.256 Z27.015 
N54 X-162.819 Y35.069 Z26.800 
N55 X-162.832 Y34.882 Z26.584 
N56 X-162.845 Y34.694 Z26.369 
N57 X-162.858 Y34.507 Z26.153 
N58 X-162.870 Y34.320 Z25.938 
N59 X-162.883 Y34.133 Z25.722 
N60 X-162.896 Y33.945 Z25.507 
N61 X-162.909 Y33.758 Z25.292 
N62 X-162.922 Y33.571 Z25.076 
N63 X-162.935 Y33.384 Z24.861 
N64 X-162.948 Y33.196 Z24.645 
N65 X-162.961 Y33.009 Z24.430 
N66 X-162.974 Y32.822 Z24.215 
N67 X-162.987 Y32.634 Z23.999 
N68 X-162.999 Y32.447 Z23.784 
N69 X-163.012 Y32.260 Z23.568 
N70 X-163.025 Y32.073 Z23.353 
N71 X-163.038 Y31.885 Z23.138 
N72 X-163.051 Y31.698 Z22.922 
N73 X-163.064 Y31.512 Z22.707 
N74 X-163.077 Y31.325 Z22.493 
N75 X-163.089 Y31.138 Z22.278 
N76 X-163.102 Y30.952 Z22.063 
N77 X-163.115 Y30.765 Z21.849 
N78 X-163.127 Y30.578 Z21.634 
N79 X-163.139 Y30.392 Z21.419 
N80 X-163.151 Y30.205 Z21.204 
N81 X-163.164 Y30.018 Z20.990 
N82 X-163.176 Y29.832 Z20.775 
N83 X-163.187 Y29.645 Z20.560 
N84 X-163.199 Y29.458 Z20.345 
N85 X-163.211 Y29.272 Z20.131 
N86 X-163.222 Y29.085 Z19.916 
N87 X-163.234 Y28.898 Z19.701 
N88 X-163.245 Y28.712 Z19.486 
N89 X-163.257 Y28.525 Z19.272 
N90 X-163.268 Y28.338 Z19.057 
N91 X-163.279 Y28.151 Z18.842 
N92 X-163.290 Y27.965 Z18.627 
N93 X-163.301 Y27.778 Z18.412 
N94 X-163.311 Y27.591 Z18.198 
N95 X-163.322 Y27.405 Z17.983 
N96 X-163.332 Y27.218 Z17.768 
N97 X-163.343 Y27.031 Z17.553 
N98 X-163.353 Y26.844 Z17.339 
N99 X-163.363 Y26.658 Z17.124 
N100 X-163.374 Y26.471 Z16.909 
N101 X-163.384 Y26.284 Z16.694 
N102 X-163.393 Y26.098 Z16.479 
N103 X-163.403 Y25.911 Z16.265 
N104 X-163.413 Y25.724 Z16.050 
N105 X-163.423 Y25.537 Z15.835 
N106 X-163.432 Y25.351 Z15.620 
N107 X-163.441 Y25.164 Z15.405 
N108 X-163.451 Y24.977 Z15.190 
N109 X-163.460 Y24.790 Z14.976 
N110 X-163.469 Y24.604 Z14.761 
N111 X-163.478 Y24.417 Z14.546 
N112 X-163.487 Y24.230 Z14.331 
N113 X-163.495 Y24.043 Z14.116 
N114 X-163.504 Y23.857 Z13.901 
N115 X-163.513 Y23.670 Z13.687 
N116 X-163.521 Y23.483 Z13.472 
N117 X-163.529 Y23.296 Z13.257 
N118 X-163.538 Y23.110 Z13.042 
N119 X-163.546 Y22.923 Z12.827 
N120 X-163.554 Y22.736 Z12.612 
N121 X-163.562 Y22.549 Z12.398 
N122 X-163.570 Y22.363 Z12.183 
N123 X-163.577 Y22.176 Z11.968 
N124 X-163.585 Y21.989 Z11.753 
N125 X-163.592 Y21.802 Z11.538 
N126 X-163.600 Y21.616 Z11.323 
N127 X-163.607 Y21.429 Z11.108 
N128 X-163.614 Y21.242 Z10.894 
N129 X-163.621 Y21.055 Z10.679 
N130 X-163.628 Y20.868 Z10.464 
N131 X-163.635 Y20.682 Z10.249 
N132 X-163.642 Y20.495 Z10.034 
N133 X-163.649 Y20.308 Z9.819 
N134 X-163.655 Y20.121 Z9.604 
N135 X-163.662 Y19.934 Z9.389 
N136 X-163.668 Y19.748 Z9.175 
N137 X-163.674 Y19.561 Z8.960 
N138 X-163.680 Y19.374 Z8.745 
N139 X-163.686 Y19.187 Z8.530 
N140 X-163.692 Y19.000 Z8.315 
N141 X-163.698 Y18.814 Z8.100 
N142 X-163.704 Y18.627 Z7.885 
N143 X-163.709 Y18.440 Z7.670 
N144 X-163.715 Y18.253 Z7.455 
N145 X-163.720 Y18.066 Z7.241 
N146 X-163.726 Y17.880 Z7.026 
N147 X-163.731 Y17.693 Z6.811 
N148 X-163.736 Y17.506 Z6.596 
N149 X-163.741 Y17.319 Z6.381 
N150 X-163.746 Y17.132 Z6.166 
N151 X-163.751 Y16.946 Z5.951 
N152 X-163.755 Y16.759 Z5.736 
N153 X-163.760 Y16.572 Z5.521 
N154 X-163.764 Y16.385 Z5.306 
N155 X-163.769 Y16.198 Z5.092 
N156 X-163.773 Y16.012 Z4.877 
N157 X-163.777 Y15.825 Z4.662 
N158 X-163.781 Y15.638 Z4.447 
N159 X-163.785 Y15.451 Z4.232 
N160 X-163.789 Y15.264 Z4.017 
N161 X-163.793 Y15.077 Z3.802 
N162 X-163.796 Y14.891 Z3.587 
N163 X-163.800 Y14.704 Z3.372 
N164 X-163.803 Y14.517 Z3.157 
N165 X-163.806 Y14.330 Z2.942 
N166 X-163.810 Y14.143 Z2.728 
N167 X-163.813 Y13.956 Z2.513 
N168 X-163.816 Y13.770 Z2.298 
N169 X-163.819 Y13.583 Z2.083 
N170 X-163.821 Y13.396 Z1.868 
N171 X-163.824 Y13.209 Z1.653 
N172 X-163.827 Y13.022 Z1.438 
N173 X-163.829 Y12.836 Z1.223 
N174 X-163.832 Y12.649 Z1.008 
N175 X-163.834 Y12.462 Z0.793 
N176 X-163.836 Y12.275 Z0.578 
N177 X-163.838 Y12.088 Z0.363 
N178 X-163.840 Y11.901 Z0.148 
N179 X-163.842 Y11.715 Z-0.067 
N180 X-163.844 Y11.528 Z-0.281 
N181 X-163.845 Y11.340 Z-0.497 
N182 X-163.847 Y11.153 Z-0.713 
N183 X-163.849 Y10.965 Z-0.928 
N184 X-163.851 Y10.778 Z-1.144 
N185 X-163.853 Y10.590 Z-1.360 
N186 X-163.855 Y10.403 Z-1.575 
N187 X-163.856 Y10.216 Z-1.791 
N188 X-163.858 Y10.028 Z-2.006 
N189 X-163.860 Y9.841 Z-2.222 
N190 X-163.862 Y9.653 Z-2.438 
N191 X-163.864 Y9.466 Z-2.653 
N192 X-163.866 Y9.278 Z-2.869 
N193 X-163.867 Y9.091 Z-3.085 
N194 X-163.869 Y8.903 Z-3.300 
N195 X-163.871 Y8.716 Z-3.516 
N196 X-163.873 Y8.529 Z-3.731 
N197 X-163.875 Y8.341 Z-3.947 
N198 X-163.876 Y8.154 Z-4.163 
N199 X-163.878 Y7.966 Z-4.378 
N200 X-163.880 Y7.779 Z-4.594 
N201 X-163.882 Y7.591 Z-4.810 
N202 G40 X-163.882 Y7.372 Z-5.062 F845
N203 X-163.882 Y7.372 Z-5.062 
N204 X-163.885 Y6.973 Z-5.521 F1666 
N205 X-163.900 Y6.272 Z-6.328 F2487 
N206 X-163.951 Y5.391 Z-7.341 F2761 
N207 X-164.054 Y4.492 Z-8.375 
N208 X-164.224 Y3.598 Z-9.404 
N209 X-164.467 Y2.711 Z-10.424 
N210 X-164.784 Y1.834 Z-11.433 
N211 X-165.168 Y0.968 Z-12.428 
N212 X-165.617 Y0.117 Z-13.408 
N213 X-166.137 Y-0.717 Z-14.368 
N214 X-166.762 Y-1.520 Z-15.291 
N215 X-167.735 Y-2.041 Z-15.891 A229.0107 
N216 X-168.114 Y-1.191 Z-14.912 
N217 X-168.189 Y-0.318 Z-13.908 F2487 
N218 X-168.206 Y0.396 Z-13.087 F1666 
N219 X-168.208 Y0.793 Z-12.630 F845 
N220 ;NNTA finishing
N221 D4 
N222 G01 G41 X-168.208 Y0.996 Z-12.397 F572
N223 X-168.208 Y0.996 Z-12.397 F572 
N224 X-168.210 Y1.214 Z-12.145 
N225 X-168.211 Y1.433 Z-11.894 
N226 X-168.213 Y1.652 Z-11.642 
N227 X-168.215 Y1.839 Z-11.427 
N228 X-168.216 Y2.027 Z-11.211 
N229 X-168.218 Y2.214 Z-10.995 
N230 X-168.219 Y2.402 Z-10.780 
N231 X-168.221 Y2.589 Z-10.564 
N232 X-168.222 Y2.776 Z-10.349 
N233 X-168.224 Y2.964 Z-10.133 
N234 X-168.225 Y3.151 Z-9.917 
N235 X-168.227 Y3.339 Z-9.702 
N236 X-168.228 Y3.526 Z-9.486 
N237 X-168.230 Y3.714 Z-9.270 
N238 X-168.231 Y3.901 Z-9.055 
N239 X-168.233 Y4.089 Z-8.839 
N240 X-168.234 Y4.276 Z-8.624 
N241 X-168.236 Y4.463 Z-8.408 
N242 X-168.237 Y4.651 Z-8.192 
N243 X-168.239 Y4.838 Z-7.977 
N244 X-168.240 Y5.026 Z-7.761 
N245 X-168.242 Y5.213 Z-7.545 
N246 X-168.243 Y5.401 Z-7.330 
N247 X-168.245 Y5.588 Z-7.114 
N248 X-168.246 Y5.776 Z-6.898 
N249 X-168.248 Y5.963 Z-6.683 
N250 X-168.249 Y6.150 Z-6.467 
N251 X-168.250 Y6.338 Z-6.252 
N252 X-168.252 Y6.525 Z-6.036 
N253 X-168.253 Y6.713 Z-5.820 
N254 X-168.254 Y6.900 Z-5.605 
N255 X-168.254 Y7.088 Z-5.389 
N256 X-168.255 Y7.275 Z-5.173 
N257 X-168.256 Y7.463 Z-4.958 
N258 X-168.256 Y7.650 Z-4.742 
N259 X-168.257 Y7.838 Z-4.526 
N260 X-168.257 Y8.025 Z-4.311 
N261 X-168.257 Y8.212 Z-4.095 
N262 X-168.257 Y8.400 Z-3.879 
N263 X-168.257 Y8.587 Z-3.664 
N264 X-168.257 Y8.775 Z-3.448 
N265 X-168.257 Y8.962 Z-3.233 
N266 X-168.257 Y9.150 Z-3.017 
N267 X-168.256 Y9.337 Z-2.801 
N268 X-168.256 Y9.525 Z-2.586 
N269 X-168.255 Y9.712 Z-2.370 
N270 X-168.254 Y9.900 Z-2.154 
N271 X-168.254 Y10.087 Z-1.939 
N272 X-168.253 Y10.274 Z-1.723 
N273 X-168.252 Y10.462 Z-1.507 
N274 X-168.250 Y10.649 Z-1.292 
N275 X-168.249 Y10.837 Z-1.076 
N276 X-168.248 Y11.024 Z-0.860 
N277 X-168.246 Y11.212 Z-0.645 
N278 X-168.245 Y11.399 Z-0.429 
N279 X-168.243 Y11.587 Z-0.214 
N280 X-168.241 Y11.774 Z0.002 
N281 X-168.240 Y11.962 Z0.218 
N282 X-168.238 Y12.149 Z0.433 
N283 X-168.235 Y12.336 Z0.649 
N284 X-168.233 Y12.524 Z0.865 
N285 X-168.231 Y12.711 Z1.080 
N286 X-168.229 Y12.899 Z1.296 
N287 X-168.226 Y13.086 Z1.512 
N288 X-168.223 Y13.274 Z1.727 
N289 X-168.221 Y13.461 Z1.943 
N290 X-168.218 Y13.649 Z2.158 
N291 X-168.215 Y13.836 Z2.374 
N292 X-168.212 Y14.023 Z2.590 
N293 X-168.209 Y14.211 Z2.805 
N294 X-168.206 Y14.398 Z3.021 
N295 X-168.202 Y14.586 Z3.237 
N296 X-168.199 Y14.773 Z3.452 
N297 X-168.195 Y14.961 Z3.668 
N298 X-168.192 Y15.148 Z3.883 
N299 X-168.188 Y15.336 Z4.099 
N300 X-168.184 Y15.523 Z4.315 
N301 X-168.180 Y15.710 Z4.530 
N302 X-168.176 Y15.898 Z4.746 
N303 X-168.172 Y16.085 Z4.962 
N304 X-168.167 Y16.273 Z5.177 
N305 X-168.163 Y16.460 Z5.393 
N306 X-168.159 Y16.648 Z5.608 
N307 X-168.154 Y16.835 Z5.824 
N308 X-168.149 Y17.023 Z6.040 
N309 X-168.144 Y17.210 Z6.255 
N310 X-168.139 Y17.397 Z6.471 
N311 X-168.134 Y17.585 Z6.686 
N312 X-168.129 Y17.772 Z6.902 
N313 X-168.124 Y17.960 Z7.118 
N314 X-168.119 Y18.147 Z7.333 
N315 X-168.113 Y18.334 Z7.549 
N316 X-168.108 Y18.522 Z7.765 
N317 X-168.102 Y18.709 Z7.980 
N318 X-168.096 Y18.897 Z8.196 
N319 X-168.091 Y19.084 Z8.411 
N320 X-168.085 Y19.272 Z8.627 
N321 X-168.079 Y19.459 Z8.842 
N322 X-168.072 Y19.646 Z9.058 
N323 X-168.066 Y19.834 Z9.274 
N324 X-168.060 Y20.021 Z9.489 
N325 X-168.053 Y20.209 Z9.705 
N326 X-168.047 Y20.396 Z9.920 
N327 X-168.040 Y20.583 Z10.136 
N328 X-168.033 Y20.771 Z10.352 
N329 X-168.026 Y20.958 Z10.567 
N330 X-168.019 Y21.146 Z10.783 
N331 X-168.012 Y21.333 Z10.998 
N332 X-168.005 Y21.520 Z11.214 
N333 X-167.997 Y21.708 Z11.429 
N334 X-167.990 Y21.895 Z11.645 
N335 X-167.983 Y22.083 Z11.861 
N336 X-167.975 Y22.270 Z12.076 
N337 X-167.967 Y22.457 Z12.292 
N338 X-167.959 Y22.645 Z12.507 
N339 X-167.951 Y22.832 Z12.723 
N340 X-167.943 Y23.020 Z12.938 
N341 X-167.935 Y23.207 Z13.154 
N342 X-167.927 Y23.394 Z13.370 
N343 X-167.919 Y23.582 Z13.585 
N344 X-167.910 Y23.769 Z13.801 
N345 X-167.901 Y23.956 Z14.016 
N346 X-167.893 Y24.144 Z14.232 
N347 X-167.884 Y24.331 Z14.447 
N348 X-167.875 Y24.519 Z14.663 
N349 X-167.866 Y24.706 Z14.878 
N350 X-167.857 Y24.893 Z15.094 
N351 X-167.848 Y25.081 Z15.309 
N352 X-167.839 Y25.268 Z15.525 
N353 X-167.829 Y25.455 Z15.740 
N354 X-167.820 Y25.643 Z15.956 
N355 X-167.810 Y25.830 Z16.172 
N356 X-167.800 Y26.017 Z16.387 
N357 X-167.791 Y26.205 Z16.603 
N358 X-167.781 Y26.392 Z16.818 
N359 X-167.772 Y26.579 Z17.034 
N360 X-167.762 Y26.767 Z17.249 
N361 X-167.753 Y26.954 Z17.465 
N362 X-167.743 Y27.141 Z17.680 
N363 X-167.734 Y27.329 Z17.896 
N364 X-167.724 Y27.516 Z18.111 
N365 X-167.714 Y27.703 Z18.327 
N366 X-167.705 Y27.891 Z18.542 
N367 X-167.695 Y28.078 Z18.758 
N368 X-167.686 Y28.265 Z18.973 
N369 X-167.676 Y28.453 Z19.189 
N370 X-167.667 Y28.640 Z19.404 
N371 X-167.657 Y28.827 Z19.620 
N372 X-167.647 Y29.015 Z19.835 
N373 X-167.638 Y29.202 Z20.051 
N374 X-167.628 Y29.389 Z20.266 
N375 X-167.619 Y29.577 Z20.482 
N376 X-167.609 Y29.764 Z20.697 
N377 G40 X-167.274 Y36.321 Z28.240 F572
N378 X-167.274 Y36.321 Z28.240 
N379 G00 X-167.274 Y74.068 Z-4.550 
;RAPORT("TB000000","Side Milling:134 End")
;trailer : concat=None
; points cnt = 330
N381 M9 ; chlodziwo wyl.
N382 MSG (" --- KONIEC PODPROGRAMU --- ")
N383 FGROUP()
N384 TRAFOOF
N385 STOPRE
N386 G0 G53 D0 Z550.0 M9 M5
N387 G0 G53 Y150 A0 B0
N388 M17
