; PROGRAM NAME: B00000113
; ORDER       : B000001
; OPER. NAME  : Spiral Rough Airfoil:104
; OPER. DESCR.: spiral roughing airfoil/pioro zgr
; OPER. TYPE  : rouAirfoil
; GEO. OPTION : 6
; MACHINE     : HSTM_500_SIM840D_Py
;             : HSTM500 - HAMUEL: 5-axis milling machine - SIM840D Traori PP_Script
; CONTROL     : SINUMERIK 840D
; created:   2021-10-27 08:51:22.233575
;-------DODATKOWE DANE-------------------
; PROGRAMISTA : Mariusz Malec
; PARTID      : 137T000339P1001_-
;  ap         : 2.5
;  ae         : 25.0
;  lean_angle : 1.0
;  airf_offset: 1.0
;----------------------------------------
;RAPORT("TB000001","Spiral Rough Airfoil:104")
N10 TRAFOOF
N11 D0
N12 G90 G94
N13 G0 G53 D0 Z550 B0
N14 STOPRE
M9 ; chlodziwo wyl
; --- Spiral Rough Airfoil:104 - spiral roughing airfoil/pioro zgr ---
N16 ;ToolChange : concat=None ,current_tdmid=None, PP.tdmId=941291
N17 TRAFOOF
N18 G0 G53 D0 X-200 Y150 Z550 B0
N19 T="7741291"
;RAPORT("TB000001","ToolChangeStart 7741291")
N20 M6
;RAPORT("TB000001","ToolChangeEnd")
N21 STOPRE
N22 MSG(" TLID=941291 D=50.0 R=6.0 Ang=0.0 Len=90.0 ")
N23 ; (Preloading tool)
N24 T="7741290"
N25 S1718 M03
N26 STOPRE
N27 CYCLE832(0.1,3,1)
N28 G0 G53 A90.8332 B-0.0000
N29 TRAORI
N30 G54 D1
N31 D1 
N32 ; DELTA A > 40.1
N33 TRAFOOF
N34 D1
N35 STOPRE
N36 G00 G54 Z296.000
N37 G01 A90.8332 F10000
N38 TRAORI
N39 G54 D1
N40 STOPRE
N41 TRANS 
N42 G00 X-256.077 Y-108.809 Z50.405 A90.8332 
N43 M348 ; chlodziwo mgla
N44 X-256.077 Y-58.814 Z51.132 
N45 G01 X-256.077 Y-55.725 Z50.633 F2834 
N46 X-256.077 Y-52.942 Z49.205 
N47 X-256.077 Y-50.736 Z46.986 
N48 X-256.077 Y-49.324 Z44.194 
N49 X-256.077 Y-48.843 Z41.103 
N50 X-256.077 Y-48.864 Z36.890 A90.8608 
N51 X-256.077 Y-48.886 Z32.748 A90.8967 
N52 X-256.077 Y-48.900 Z28.742 A90.9143 
N53 X-256.077 Y-48.906 Z24.934 A90.9077 
N54 X-256.077 Y-48.921 Z21.371 A90.9228 
N55 X-256.077 Y-48.935 Z18.093 A90.9418 
N56 X-256.077 Y-48.942 Z15.126 A90.9368 
N57 X-256.077 Y-48.936 Z12.480 A90.8871 
N58 X-256.077 Y-48.945 Z10.162 A90.8811 
N59 X-256.077 Y-48.956 Z8.149 
N60 X-256.077 Y-49.029 Z6.429 A91.0828 
N61 X-256.077 Y-49.214 Z4.979 A91.6540 
N62 X-256.077 Y-49.578 Z3.760 A92.8116 
N63 X-256.077 Y-50.191 Z2.726 A94.7928 
N64 X-256.077 Y-51.098 Z1.811 A97.7459 
N65 X-256.077 Y-52.255 Z0.946 A101.5612 
N66 X-256.077 Y-53.535 Z0.082 A105.8754 
N67 X-256.077 Y-54.787 Z-0.786 A110.2278 
N68 X-256.077 Y-55.927 Z-1.641 A114.3443 
N69 X-256.077 Y-56.946 Z-2.479 A118.1835 
N70 X-256.077 Y-57.852 Z-3.295 A121.7455 
N71 X-256.077 Y-58.648 Z-4.086 A125.0321 
N72 X-256.077 Y-59.345 Z-4.851 A128.0684 
N73 X-256.077 Y-59.968 Z-5.601 A130.9304 
N74 X-256.077 Y-60.535 Z-6.352 A133.6961 
N75 X-256.077 Y-61.057 Z-7.115 A136.4134 
N76 X-256.077 Y-61.544 Z-7.904 A139.1387 
N77 X-256.077 Y-62.004 Z-8.740 A141.9424 
N78 X-256.077 Y-62.439 Z-9.641 A144.8784 
N79 X-256.077 Y-62.845 Z-10.626 A148.0024 
N80 X-256.077 Y-63.221 Z-11.732 A151.4265 
N81 X-256.077 Y-63.554 Z-12.999 A155.2551 
N82 X-256.077 Y-63.800 Z-14.426 A159.4756 
N83 X-256.077 Y-63.894 Z-15.953 A163.8922 
N84 X-256.077 Y-63.781 Z-17.477 A168.2267 
N85 X-256.077 Y-63.429 Z-18.902 A172.2322 
N86 X-256.077 Y-62.827 Z-20.121 A175.6435 
N87 X-256.077 Y-61.979 Z-21.050 A178.2479 
N88 X-256.077 Y-60.891 Z-21.656 A179.9588 
N89 X-256.077 Y-59.554 Z-21.972 A180.8678 
N90 X-256.077 Y-57.947 Z-22.087 A181.2156 
N91 X-256.077 Y-56.041 Z-22.096 A181.2618 
N92 X-256.077 Y-53.807 Z-22.075 A181.2144 
N93 X-256.077 Y-51.224 Z-22.059 A181.1723 
N94 X-256.077 Y-48.283 Z-22.058 
N95 X-256.077 Y-44.981 Z-22.059 
N96 X-256.077 Y-41.334 Z-22.061 
N97 X-256.077 Y-37.371 Z-22.062 A181.1734 
N98 X-256.077 Y-33.133 Z-22.064 A181.1750 
N99 X-256.077 Y-28.676 Z-22.065 A181.1755 
N100 X-256.077 Y-24.063 Z-22.066 A181.1756 
N101 X-256.077 Y-19.368 Z-22.067 A181.1757 
N102 X-256.077 Y-14.666 Z-22.068 A181.1768 
N103 X-256.077 Y-10.036 Z-22.070 A181.1804 
N104 X-256.077 Y-5.550 Z-22.073 A181.1884 
N105 X-256.077 Y-1.275 Z-22.078 A181.2035 
N106 X-256.077 Y2.733 Z-22.086 A181.2259 
N107 X-256.077 Y6.430 Z-22.094 A181.2515 
N108 X-256.077 Y9.785 Z-22.097 A181.2638 
N109 X-256.077 Y12.781 Z-22.094 A181.2508 
N110 X-256.077 Y15.417 Z-22.079 A181.1927 
N111 X-256.077 Y17.697 Z-22.079 A181.1723 
N112 X-256.077 Y19.652 Z-22.087 
N113 X-256.077 Y21.308 Z-22.151 A181.3580 
N114 X-256.077 Y22.689 Z-22.359 A182.0098 
N115 X-256.077 Y23.839 Z-22.748 A183.2576 
N116 X-256.077 Y24.808 Z-23.366 A185.2607 
N117 X-256.077 Y25.661 Z-24.246 A188.1301 
N118 X-256.077 Y26.470 Z-25.386 A191.8826 
N119 X-256.077 Y27.300 Z-26.711 A196.3149 
N120 X-256.077 Y28.171 Z-28.074 A200.9992 
N121 X-256.077 Y29.051 Z-29.317 A205.4511 
N122 X-256.077 Y29.902 Z-30.383 A209.4499 
N123 X-256.077 Y30.715 Z-31.292 A213.0355 
N124 X-256.077 Y31.500 Z-32.085 A216.3197 
N125 X-256.077 Y32.265 Z-32.785 A219.3768 
N126 X-256.077 Y33.015 Z-33.406 A222.2479 
N127 X-256.077 Y33.764 Z-33.968 A225.0093 
N128 X-256.077 Y34.529 Z-34.488 A227.7380 
N129 X-256.077 Y35.323 Z-34.972 A230.4829 
N130 X-256.077 Y36.164 Z-35.428 A233.3041 
N131 X-256.077 Y37.076 Z-35.862 A236.2783 
N132 X-256.077 Y38.076 Z-36.267 A239.4543 
N133 X-256.077 Y39.172 Z-36.628 A242.8456 
N134 X-256.077 Y40.376 Z-36.927 A246.4833 
N135 X-256.077 Y41.699 Z-37.141 A250.3936 
N136 X-256.077 Y43.125 Z-37.234 A254.5412 
N137 X-256.077 Y44.569 Z-37.159 A258.6824 
N138 X-256.077 Y45.895 Z-36.883 A262.4454 
N139 X-256.077 Y46.991 Z-36.409 A265.5404 
N140 X-256.077 Y47.810 Z-35.757 A267.8464 
N141 X-256.077 Y48.370 Z-34.944 A269.4276 
N142 X-256.077 Y48.723 Z-33.978 A270.4318 
N143 X-256.077 Y48.922 Z-32.858 A271.0132 
N144 X-256.077 Y49.016 Z-31.581 A271.3039 
N145 X-256.077 Y49.043 Z-30.148 A271.4089 
N146 X-256.077 Y49.034 Z-28.563 A271.4099 
N147 X-256.077 Y49.013 Z-26.838 A271.3740 
N148 X-256.077 Y48.995 Z-24.990 A271.3399 
N149 X-256.077 Y48.989 Z-23.045 
N150 X-256.077 Y48.984 Z-21.029 
N151 X-256.077 Y48.986 Z-18.978 A271.3597 
N152 X-256.077 Y48.990 Z-16.928 A271.3887 
N153 X-256.077 Y48.994 Z-14.915 A271.4169 
N154 X-256.077 Y48.994 Z-12.973 A271.4322 
N155 X-256.077 Y48.986 Z-11.130 A271.4226 
N156 X-256.077 Y48.969 Z-9.412 A271.3792 
N157 X-256.077 Y48.956 Z-7.837 A271.3399 
N158 X-256.077 Y48.958 Z-6.412 
N159 X-256.077 Y48.980 Z-5.131 A271.4056 
N160 X-256.077 Y49.140 Z-4.009 A271.9058 
N161 X-256.077 Y49.465 Z-3.027 A272.9388 
N162 X-256.077 Y49.999 Z-2.165 A274.6529 
N163 X-256.077 Y50.738 Z-1.389 A277.0498 
N164 X-256.077 Y51.663 Z-0.660 A280.0826 
N165 X-256.077 Y52.733 Z0.062 A283.6388 
N166 X-256.077 Y53.894 Z0.807 A287.5719 
N167 X-256.077 Y55.080 Z1.588 A291.6908 
N168 X-256.077 Y56.206 Z2.393 A295.7363 
N169 X-256.077 Y57.206 Z3.190 A299.4912 
N170 X-256.077 Y58.075 Z3.962 A302.9083 
N171 X-256.077 Y58.837 Z4.711 A306.0550 
N172 X-256.077 Y59.521 Z5.450 A309.0229 
N173 X-256.077 Y60.141 Z6.187 A311.8625 
N174 X-256.077 Y60.706 Z6.928 A314.6134 
N175 X-256.077 Y61.233 Z7.690 A317.3481 
N176 X-256.077 Y61.733 Z8.494 A320.1390 
N177 X-256.077 Y62.208 Z9.355 A323.0410 
N178 X-256.077 Y62.666 Z10.302 A326.1429 
N179 X-256.077 Y63.105 Z11.373 A329.5515 
N180 X-256.077 Y63.505 Z12.586 A333.3121 
N181 X-256.077 Y63.830 Z13.942 A337.4006 
N182 X-256.077 Y64.032 Z15.424 A341.7623 
N183 X-256.077 Y64.063 Z16.994 A346.2970 
N184 X-256.077 Y63.872 Z18.551 A350.7363 
N185 X-256.077 Y63.423 Z19.922 A354.6149 
N186 X-256.077 Y62.724 Z20.970 A357.5734 
N187 X-256.077 Y61.790 Z21.652 A359.5005 
N188 X-256.077 Y60.623 Z22.026 A0.5689 
N189 X-256.077 Y59.203 Z22.194 A1.0596 
N190 X-256.077 Y57.501 Z22.248 A1.2330 
N191 X-256.077 Y55.485 Z22.251 A1.2655 
N192 X-256.077 Y53.130 Z22.237 A1.2495 
N193 X-256.077 Y50.418 Z22.222 A1.2265 
N194 X-256.077 Y47.344 Z22.212 A1.2179 
N195 X-256.077 Y43.911 Z22.205 
N196 X-256.077 Y40.138 Z22.199 
N197 X-256.077 Y36.059 Z22.192 
N198 X-256.077 Y31.721 Z22.185 A1.2209 
N199 X-256.077 Y27.183 Z22.177 A1.2217 
N200 X-256.077 Y22.513 Z22.168 A1.2216 
N201 X-256.077 Y17.786 Z22.159 A1.2212 
N202 X-256.077 Y13.080 Z22.150 A1.2220 
N203 X-256.077 Y8.472 Z22.142 A1.2249 
N204 X-256.077 Y4.035 Z22.135 A1.2308 
N205 X-256.077 Y-0.169 Z22.130 A1.2391 
N206 X-256.077 Y-4.088 Z22.124 A1.2475 
N207 X-256.077 Y-7.680 Z22.118 A1.2502 
N208 X-256.077 Y-10.922 Z22.110 A1.2445 
N209 X-256.077 Y-13.801 Z22.101 A1.2275 
N210 X-256.077 Y-16.319 Z22.095 A1.2179 
N211 X-256.077 Y-18.490 Z22.094 
N212 X-256.077 Y-20.339 Z22.103 A1.2490 
N213 X-256.077 Y-21.889 Z22.182 A1.5062 
N214 X-256.077 Y-23.179 Z22.392 A2.1831 
N215 X-256.077 Y-24.252 Z22.836 A3.6094 
N216 X-256.077 Y-25.173 Z23.613 A6.1127 
N217 X-256.077 Y-26.024 Z24.742 A9.7768 
N218 X-256.077 Y-26.875 Z26.088 A14.2243 
N219 X-256.077 Y-27.739 Z27.435 A18.8087 
N220 X-256.077 Y-28.608 Z28.689 A23.2342 
N221 X-256.077 Y-29.459 Z29.796 A27.3101 
N222 X-256.077 Y-30.277 Z30.753 A30.9998 
N223 X-256.077 Y-31.074 Z31.601 A34.4212 
N224 X-256.077 Y-31.855 Z32.357 A37.6217 
N225 X-256.077 Y-32.627 Z33.037 A40.6577 
N226 X-256.077 Y-33.396 Z33.651 A43.5608 
N227 X-256.077 Y-34.169 Z34.209 A46.3764 
N228 X-256.077 Y-34.959 Z34.719 A49.1511 
N229 X-256.077 Y-35.778 Z35.191 A51.9382 
N230 X-256.077 Y-36.649 Z35.633 A54.8161 
N231 X-256.077 Y-37.592 Z36.046 A57.8492 
N232 X-256.077 Y-38.633 Z36.428 A61.1101 
N233 X-256.077 Y-39.812 Z36.775 A64.7221 
N234 X-256.077 Y-41.136 Z37.056 A68.6882 
N235 X-256.077 Y-42.550 Z37.218 A72.8392 
N236 X-256.077 Y-43.987 Z37.219 A76.9809 
N237 X-256.077 Y-45.378 Z37.034 A80.9499 
N238 X-256.077 Y-46.614 Z36.651 A84.4574 
N239 X-256.077 Y-47.594 Z36.080 A87.2343 
N240 X-256.077 Y-48.273 Z35.341 A89.1637 
N241 X-256.077 Y-48.674 Z34.449 A90.3095 
N242 X-256.077 Y-48.870 Z33.410 A90.8755 
N243 X-256.077 Y-48.939 Z32.219 A91.0825 
N244 X-256.077 Y-48.950 Z30.875 A91.1172 
N245 X-256.077 Y-48.941 Z29.380 A91.0961 
N246 X-256.077 Y-48.933 Z27.742 A91.0709 
N247 X-256.077 Y-48.931 Z25.977 A91.0613 
N248 X-256.077 Y-48.933 Z24.107 
N249 X-256.077 Y-48.937 Z22.159 A91.0649 
N250 X-256.077 Y-48.944 Z20.165 A91.0741 
N251 X-256.077 Y-48.949 Z18.158 A91.0791 
N252 X-256.077 Y-48.953 Z16.174 A91.0770 
N253 X-256.077 Y-48.953 Z14.246 A91.0621 
N254 X-256.077 Y-48.958 Z12.403 A91.0613 
N255 X-256.077 Y-48.964 Z10.669 
N256 X-256.077 Y-48.973 Z9.059 A91.0744 
N257 X-256.077 Y-49.032 Z7.595 A91.2495 
N258 X-256.077 Y-49.153 Z6.280 A91.6330 
N259 X-256.077 Y-49.373 Z5.112 A92.3457 
N260 X-256.077 Y-49.731 Z4.081 A93.5165 
N261 X-256.077 Y-50.271 Z3.166 A95.2882 
N262 X-256.077 Y-51.019 Z2.331 A97.7601 
N263 X-256.077 Y-51.963 Z1.537 A100.9033 
N264 X-256.077 Y-53.037 Z0.749 A104.5361 
N265 X-256.077 Y-54.147 Z-0.047 A108.3784 
N266 X-256.077 Y-55.207 Z-0.844 A112.1706 
N267 X-256.077 Y-56.191 Z-1.637 A115.8143 
N268 X-256.077 Y-57.090 Z-2.422 A119.2785 
N269 X-256.077 Y-57.902 Z-3.195 A122.5463 
N270 X-256.077 Y-58.627 Z-3.952 A125.6098 
N271 X-256.077 Y-59.277 Z-4.695 A128.4970 
N272 X-256.077 Y-59.867 Z-5.435 A131.2691 
N273 X-256.077 Y-60.412 Z-6.183 A133.9800 
N274 X-256.077 Y-60.916 Z-6.948 A136.6643 
N275 X-256.077 Y-61.387 Z-7.743 A139.3746 
N276 X-256.077 Y-61.833 Z-8.587 A142.1722 
N277 X-256.077 Y-62.252 Z-9.496 A145.1008 
N278 X-256.077 Y-62.640 Z-10.490 A148.2196 
N279 X-256.077 Y-62.996 Z-11.603 A151.6312 
N280 X-256.077 Y-63.300 Z-12.866 A155.4139 
N281 X-256.077 Y-63.511 Z-14.270 A159.5290 
N282 X-256.077 Y-63.567 Z-15.754 A163.7881 
N283 X-256.077 Y-63.418 Z-17.231 A167.9514 
N284 X-256.077 Y-63.035 Z-18.611 A171.7932 
N285 X-256.077 Y-62.406 Z-19.793 A175.0650 
N286 X-256.077 Y-61.529 Z-20.707 A177.5892 
N287 X-256.077 Y-60.408 Z-21.330 A179.3109 
N288 X-256.077 Y-59.035 Z-21.698 A180.3355 
N289 X-256.077 Y-57.387 Z-21.884 A180.8606 
N290 X-256.077 Y-55.441 Z-21.959 A181.0841 
N291 X-256.077 Y-53.171 Z-21.979 A181.1559 
N292 X-256.077 Y-50.560 Z-21.975 A181.1615 
N293 X-256.077 Y-47.600 Z-21.964 A181.1469 
N294 X-256.077 Y-44.294 Z-21.954 A181.1323 
N295 X-256.077 Y-40.659 Z-21.949 A181.1312 
N296 X-256.077 Y-36.725 Z-21.945 
N297 X-256.077 Y-32.535 Z-21.941 
N298 X-256.077 Y-28.145 Z-21.938 A181.1334 
N299 X-256.077 Y-23.618 Z-21.934 A181.1360 
N300 X-256.077 Y-19.028 Z-21.930 A181.1395 
N301 X-256.077 Y-14.448 Z-21.927 A181.1450 
N302 X-256.077 Y-9.952 Z-21.925 A181.1520 
N303 X-256.077 Y-5.610 Z-21.922 A181.1579 
N304 X-256.077 Y-1.483 Z-21.918 A181.1574 
N305 X-256.077 Y2.375 Z-21.912 A181.1502 
N306 X-256.077 Y5.928 Z-21.905 A181.1334 
N307 X-256.077 Y9.147 Z-21.905 A181.1312 
N308 X-256.077 Y12.023 Z-21.905 
N309 X-256.077 Y14.557 Z-21.919 A181.1759 
N310 X-256.077 Y16.755 Z-21.986 A181.3946 
N311 X-256.077 Y18.640 Z-22.136 A181.8992 
N312 X-256.077 Y20.243 Z-22.414 A182.8392 
N313 X-256.077 Y21.602 Z-22.854 A184.3342 
N314 X-256.077 Y22.767 Z-23.471 A186.4408 
N315 X-256.077 Y23.791 Z-24.264 A189.1618 
N316 X-256.077 Y24.729 Z-25.216 A192.4483 
N317 X-256.077 Y25.631 Z-26.285 A196.1918 
N318 X-256.077 Y26.528 Z-27.408 A200.2014 
N319 X-256.077 Y27.423 Z-28.498 A204.2210 
N320 X-256.077 Y28.303 Z-29.497 A208.0560 
N321 X-256.077 Y29.161 Z-30.388 A211.6380 
N322 X-256.077 Y29.993 Z-31.175 A214.9664 
N323 X-256.077 Y30.802 Z-31.868 A218.0683 
N324 X-256.077 Y31.592 Z-32.480 A220.9818 
N325 X-256.077 Y32.375 Z-33.030 A223.7718 
N326 X-256.077 Y33.167 Z-33.530 A226.5033 
N327 X-256.077 Y33.976 Z-33.988 A229.2156 
N328 X-256.077 Y34.815 Z-34.407 A231.9446 
N329 X-256.077 Y35.695 Z-34.790 A234.7363 
N330 X-256.077 Y36.628 Z-35.134 A237.6253 
N331 X-256.077 Y37.621 Z-35.430 A240.6238 
N332 X-256.077 Y38.676 Z-35.666 A243.7365 
N333 X-256.077 Y39.791 Z-35.825 A246.9575 
N334 X-256.077 Y40.955 Z-35.886 A250.2583 
N335 X-256.077 Y42.138 Z-35.827 A253.5561 
N336 X-256.077 Y43.294 Z-35.623 A256.7259 
N337 X-256.077 Y44.379 Z-35.263 A259.6605 
N338 X-256.077 Y45.361 Z-34.742 A262.2909 
N339 X-256.077 Y46.217 Z-34.060 A264.5717 
N340 X-256.077 Y46.937 Z-33.220 A266.4819 
N341 X-256.077 Y47.516 Z-32.227 A268.0231 
N342 X-256.077 Y47.961 Z-31.084 A269.2172 
N343 X-256.077 Y48.287 Z-29.799 A270.1064 
N344 X-256.077 Y48.512 Z-28.378 A270.7377 
N345 X-256.077 Y48.653 Z-26.833 A271.1546 
N346 X-256.077 Y48.727 Z-25.180 A271.3983 
N347 X-256.077 Y48.752 Z-23.436 A271.5104 
N348 X-256.077 Y48.746 Z-21.626 A271.5322 
N349 X-256.077 Y48.725 Z-19.776 A271.5045 
N350 X-256.077 Y48.701 Z-17.914 A271.4620 
N351 X-256.077 Y48.682 Z-16.071 A271.4249 
N352 X-256.077 Y48.677 Z-14.275 
N353 X-256.077 Y48.674 Z-12.547 
N354 X-256.077 Y48.670 Z-10.907 
N355 X-256.077 Y48.712 Z-9.381 A271.5715 
N356 X-256.077 Y48.813 Z-7.980 A271.9122 
N357 X-256.077 Y49.006 Z-6.708 A272.5617 
N358 X-256.077 Y49.323 Z-5.561 A273.6300 
N359 X-256.077 Y49.792 Z-4.527 A275.2139 
N360 X-256.077 Y50.421 Z-3.584 A277.3454 
N361 X-256.077 Y51.186 Z-2.707 A279.9662 
N362 X-256.077 Y52.049 Z-1.870 A282.9657 
N363 X-256.077 Y52.965 Z-1.057 A286.2069 
N364 X-256.077 Y53.897 Z-0.254 A289.5825 
N365 X-256.077 Y54.816 Z0.547 A293.0012 
N366 X-256.077 Y55.688 Z1.342 A296.3543 
N367 X-256.077 Y56.489 Z2.123 A299.5577 
N368 X-256.077 Y57.215 Z2.888 A302.5910 
N369 X-256.077 Y57.873 Z3.640 A305.4761 
N370 X-256.077 Y58.474 Z4.385 A308.2472 
N371 X-256.077 Y59.025 Z5.128 A310.9291 
N372 X-256.077 Y59.532 Z5.876 A313.5523 
N373 X-256.077 Y60.004 Z6.641 A316.1635 
N374 X-256.077 Y60.447 Z7.435 A318.8066 
N375 X-256.077 Y60.863 Z8.271 A321.5167 
N376 X-256.077 Y61.253 Z9.165 A324.3513 
N377 X-256.077 Y61.619 Z10.143 A327.3822 
N378 X-256.077 Y61.949 Z11.224 A330.6588 
N379 X-256.077 Y62.223 Z12.420 A334.2024 
N380 X-256.077 Y62.410 Z13.733 A338.0125 
N381 X-256.077 Y62.469 Z15.148 A342.0406 
N382 X-256.077 Y62.350 Z16.608 A346.1294 
N383 X-256.077 Y62.008 Z18.007 A349.9930 
N384 X-256.077 Y61.422 Z19.245 A353.3753 
N385 X-256.077 Y60.587 Z20.260 A356.1367 
N386 X-256.077 Y59.503 Z21.035 A358.2437 
N387 X-256.077 Y58.161 Z21.576 A359.7286 
N388 X-256.077 Y56.548 Z21.907 A0.6563 
N389 X-256.077 Y54.640 Z22.071 A1.1410 
N390 X-256.077 Y52.416 Z22.124 A1.3288 
N391 X-256.077 Y49.858 Z22.121 A1.3616 
N392 X-256.077 Y46.953 Z22.099 A1.3449 
N393 X-256.077 Y43.704 Z22.077 A1.3270 
N394 X-256.077 Y40.125 Z22.061 
N395 X-256.077 Y36.243 Z22.044 
N396 X-256.077 Y32.097 Z22.025 
N397 X-256.077 Y27.743 Z22.006 
N398 X-256.077 Y23.242 Z21.986 A1.3282 
N399 X-256.077 Y18.667 Z21.964 A1.3296 
N400 X-256.077 Y14.091 Z21.943 A1.3313 
N401 X-256.077 Y9.589 Z21.922 A1.3342 
N402 X-256.077 Y5.232 Z21.902 A1.3393 
N403 X-256.077 Y1.085 Z21.883 A1.3466 
N404 X-256.077 Y-2.799 Z21.865 A1.3545 
N405 X-256.077 Y-6.378 Z21.848 A1.3608 
N406 X-256.077 Y-9.623 Z21.831 A1.3602 
N407 X-256.077 Y-12.519 Z21.814 A1.3539 
N408 X-256.077 Y-15.065 Z21.794 A1.3288 
N409 X-256.077 Y-17.268 Z21.785 A1.3270 
N410 X-256.077 Y-19.154 Z21.778 
N411 X-256.077 Y-20.744 Z21.839 A1.5390 
N412 X-256.077 Y-22.074 Z22.048 A2.2190 
N413 X-256.077 Y-23.189 Z22.519 A3.7362 
N414 X-256.077 Y-24.156 Z23.346 A6.4093 
N415 X-256.077 Y-25.059 Z24.520 A10.2385 
N416 X-256.077 Y-25.963 Z25.881 A14.7781 
N417 X-256.077 Y-26.881 Z27.239 A19.4539 
N418 X-256.077 Y-27.798 Z28.485 A23.9217 
N419 X-256.077 Y-28.677 Z29.549 A27.9293 
N420 X-256.077 Y-29.514 Z30.457 A31.5249 
N421 X-256.077 Y-30.321 Z31.255 A34.8401 
N422 X-256.077 Y-31.100 Z31.953 A37.8976 
N423 X-256.077 Y-31.858 Z32.569 A40.7595 
N424 X-256.077 Y-32.607 Z33.124 A43.4913 
N425 X-256.077 Y-33.363 Z33.631 A46.1567 
N426 X-256.077 Y-34.137 Z34.099 A48.8095 
N427 X-256.077 Y-34.940 Z34.534 A51.4854 
N428 X-256.077 Y-35.786 Z34.937 A54.2283 
N429 X-256.077 Y-36.690 Z35.310 A57.0863 
N430 X-256.077 Y-37.662 Z35.644 A60.0855 
N431 X-256.077 Y-38.724 Z35.935 A63.2907 
N432 X-256.077 Y-39.903 Z36.173 A66.7825 
N433 X-256.077 Y-41.190 Z36.326 A70.5315 
N434 X-256.077 Y-42.544 Z36.355 A74.4098 
N435 X-256.077 Y-43.914 Z36.228 A78.2903 
N436 X-256.077 Y-45.228 Z35.922 A81.9937 
N437 X-256.077 Y-46.369 Z35.427 A85.1985 
N438 X-256.077 Y-47.245 Z34.755 A87.6604 
N439 X-256.077 Y-47.825 Z33.928 A89.2932 
N440 X-256.077 Y-48.152 Z32.960 A90.2125 
N441 X-256.077 Y-48.303 Z31.857 A90.6314 
N442 X-256.077 Y-48.353 Z30.621 A90.7630 
N443 X-256.077 Y-48.363 Z29.254 A90.7735 
N444 X-256.077 Y-48.364 Z27.764 A90.7521 
N445 X-256.077 Y-48.368 Z26.166 A90.7358 
N446 X-256.077 Y-48.378 Z24.479 A90.7326 
N447 X-256.077 Y-48.392 Z22.725 A90.7380 
N448 X-256.077 Y-48.407 Z20.933 A90.7453 
N449 X-256.077 Y-48.423 Z19.131 A90.7487 
N450 X-256.077 Y-48.434 Z17.348 A90.7379 
N451 X-256.077 Y-48.445 Z15.613 A90.7240 
N452 X-256.077 Y-48.461 Z13.948 
N453 X-256.077 Y-48.477 Z12.365 A90.7243 
N454 X-256.077 Y-48.580 Z10.893 A91.0077 
N455 X-256.077 Y-48.801 Z9.537 A91.6794 
N456 X-256.077 Y-49.183 Z8.296 A92.8953 
N457 X-256.077 Y-49.736 Z7.159 A94.7114 
N458 X-256.077 Y-50.438 Z6.106 A97.0719 
N459 X-256.077 Y-51.245 Z5.116 A99.8527 
N460 X-256.077 Y-52.109 Z4.172 A102.9084 
N461 X-256.077 Y-52.989 Z3.262 A106.1135 
N462 X-256.077 Y-53.858 Z2.375 A109.3753 
N463 X-256.077 Y-54.684 Z1.511 A112.5880 
N464 X-256.077 Y-55.442 Z0.675 A115.6643 
N465 X-256.077 Y-56.130 Z-0.134 A118.5851 
N466 X-256.077 Y-56.757 Z-0.922 A121.3754 
N467 X-256.077 Y-57.333 Z-1.696 A124.0667 
N468 X-256.077 Y-57.864 Z-2.463 A126.6782 
N469 X-256.077 Y-58.351 Z-3.226 A129.2221 
N470 X-256.077 Y-58.799 Z-3.992 A131.7212 
N471 X-256.077 Y-59.213 Z-4.768 A134.1993 
N472 X-256.077 Y-59.593 Z-5.558 A136.6732 
N473 X-256.077 Y-59.940 Z-6.370 A139.1624 
N474 X-256.077 Y-60.254 Z-7.212 A141.6944 
N475 X-256.077 Y-60.534 Z-8.093 A144.2946 
N476 X-256.077 Y-60.775 Z-9.022 A146.9857 
N477 X-256.077 Y-60.970 Z-10.013 A149.8048 
N478 X-256.077 Y-61.108 Z-11.079 A152.7891 
N479 X-256.077 Y-61.171 Z-12.227 A155.9524 
N480 X-256.077 Y-61.133 Z-13.463 A159.3101 
N481 X-256.077 Y-60.966 Z-14.792 A162.8901 
N482 X-256.077 Y-60.632 Z-16.206 A166.6847 
N483 X-256.077 Y-60.079 Z-17.626 A170.4922 
N484 X-256.077 Y-59.267 Z-18.913 A173.9417 
N485 X-256.077 Y-58.184 Z-19.950 A176.7203 
N486 X-256.077 Y-56.833 Z-20.691 A178.7148 
N487 X-256.077 Y-55.214 Z-21.168 A180.0105 
N488 X-256.077 Y-53.317 Z-21.439 A180.7635 
N489 X-256.077 Y-51.126 Z-21.564 A181.1319 
N490 X-256.077 Y-48.627 Z-21.599 A181.2548 
N491 X-256.077 Y-45.814 Z-21.589 A181.2497 
N492 X-256.077 Y-42.689 Z-21.568 A181.2075 
N493 X-256.077 Y-39.268 Z-21.557 A181.1832 
N494 X-256.077 Y-35.579 Z-21.556 
N495 X-256.077 Y-31.658 Z-21.557 
N496 X-256.077 Y-27.560 Z-21.558 A181.1863 
N497 X-256.077 Y-23.344 Z-21.561 A181.1936 
N498 X-256.077 Y-19.075 Z-21.563 A181.2010 
N499 X-256.077 Y-14.822 Z-21.567 A181.2123 
N500 X-256.077 Y-10.653 Z-21.571 A181.2264 
N501 X-256.077 Y-6.630 Z-21.575 A181.2389 
N502 X-256.077 Y-2.809 Z-21.575 A181.2380 
N503 X-256.077 Y0.764 Z-21.572 A181.2207 
N504 X-256.077 Y4.054 Z-21.564 A181.1832 
N505 X-256.077 Y7.039 Z-21.571 
N506 X-256.077 Y9.716 Z-21.578 
N507 X-256.077 Y12.085 Z-21.620 A181.3032 
N508 X-256.077 Y14.153 Z-21.754 A181.7359 
N509 X-256.077 Y15.945 Z-22.028 A182.6484 
N510 X-256.077 Y17.498 Z-22.505 A184.2585 
N511 X-256.077 Y18.863 Z-23.221 A186.7065 
N512 X-256.077 Y20.099 Z-24.150 A189.9351 
N513 X-256.077 Y21.257 Z-25.201 A193.6786 
N514 X-256.077 Y22.360 Z-26.261 A197.5872 
N515 X-256.077 Y23.413 Z-27.254 A201.4145 
N516 X-256.077 Y24.418 Z-28.153 A205.0498 
N517 X-256.077 Y25.373 Z-28.943 A208.4283 
N518 X-256.077 Y26.279 Z-29.627 A211.5397 
N519 X-256.077 Y27.144 Z-30.221 A214.4264 
N520 X-256.077 Y27.983 Z-30.745 A217.1529 
N521 X-256.077 Y28.805 Z-31.213 A219.7668 
N522 X-256.077 Y29.620 Z-31.629 A222.2930 
N523 X-256.077 Y30.433 Z-31.998 A224.7582 
N524 X-256.077 Y31.252 Z-32.325 A227.1880 
N525 X-256.077 Y32.082 Z-32.610 A229.5993 
N526 X-256.077 Y32.926 Z-32.853 A232.0052 
N527 X-256.077 Y33.791 Z-33.052 A234.4213 
N528 X-256.077 Y34.679 Z-33.205 A236.8604 
N529 X-256.077 Y35.594 Z-33.306 A239.3301 
N530 X-256.077 Y36.539 Z-33.351 A241.8413 
N531 X-256.077 Y37.517 Z-33.332 A244.4089 
N532 X-256.077 Y38.532 Z-33.240 A247.0449 
N533 X-256.077 Y39.581 Z-33.062 A249.7448 
N534 X-256.077 Y40.652 Z-32.784 A252.4842 
N535 X-256.077 Y41.732 Z-32.391 A255.2321 
N536 X-256.077 Y42.801 Z-31.872 A257.9524 
N537 X-256.077 Y43.828 Z-31.213 A260.5680 
N538 X-256.077 Y44.771 Z-30.411 A262.9765 
N539 X-256.077 Y45.594 Z-29.465 A265.0837 
N540 X-256.077 Y46.273 Z-28.385 A266.8330 
N541 X-256.077 Y46.809 Z-27.184 A268.2195 
N542 X-256.077 Y47.209 Z-25.876 A269.2663 
N543 X-256.077 Y47.489 Z-24.476 A270.0077 
N544 X-256.077 Y47.667 Z-23.000 A270.4875 
N545 X-256.077 Y47.767 Z-21.467 A270.7586 
N546 X-256.077 Y47.812 Z-19.896 A270.8790 
N547 X-256.077 Y47.826 Z-18.307 A270.9104 
N548 X-256.077 Y47.828 Z-16.724 A270.9110 
N549 X-256.077 Y47.840 Z-15.167 A270.9386 
N550 X-256.077 Y47.880 Z-13.656 A271.0596 
N551 X-256.077 Y47.972 Z-12.210 A271.3495 
N552 X-256.077 Y48.135 Z-10.841 A271.8795 
N553 X-256.077 Y48.384 Z-9.559 A272.7115 
N554 X-256.077 Y48.730 Z-8.366 A273.8904 
N555 X-256.077 Y49.180 Z-7.258 A275.4455 
N556 X-256.077 Y49.735 Z-6.225 A277.3956 
N557 X-256.077 Y50.392 Z-5.252 A279.7305 
N558 X-256.077 Y51.127 Z-4.323 A282.3871 
N559 X-256.077 Y51.906 Z-3.426 A285.2594 
N560 X-256.077 Y52.689 Z-2.556 A288.2265 
N561 X-256.077 Y53.449 Z-1.710 A291.1997 
N562 X-256.077 Y54.176 Z-0.883 A294.1437 
N563 X-256.077 Y54.864 Z-0.072 A297.0305 
N564 X-256.077 Y55.505 Z0.723 A299.8358 
N565 X-256.077 Y56.097 Z1.505 A302.5521 
N566 X-256.077 Y56.644 Z2.279 A305.1893 
N567 X-256.077 Y57.150 Z3.048 A307.7658 
N568 X-256.077 Y57.619 Z3.819 A310.2970 
N569 X-256.077 Y58.050 Z4.596 A312.7951 
N570 X-256.077 Y58.448 Z5.384 A315.2800 
N571 X-256.077 Y58.814 Z6.190 A317.7744 
N572 X-256.077 Y59.147 Z7.022 A320.2971 
N573 X-256.077 Y59.446 Z7.886 A322.8705 
N574 X-256.077 Y59.710 Z8.795 A325.5278 
N575 X-256.077 Y59.933 Z9.760 A328.2995 
N576 X-256.077 Y60.103 Z10.790 A331.2077 
N577 X-256.077 Y60.209 Z11.899 A334.2890 
N578 X-256.077 Y60.232 Z13.101 A337.5838 
N579 X-256.077 Y60.140 Z14.397 A341.0961 
N580 X-256.077 Y59.893 Z15.757 A344.7464 
N581 X-256.077 Y59.447 Z17.127 A348.3948 
N582 X-256.077 Y58.768 Z18.445 A351.8979 
N583 X-256.077 Y57.831 Z19.630 A355.0604 
N584 X-256.077 Y56.622 Z20.595 A357.6561 
N585 X-256.077 Y55.137 Z21.279 A359.5256 
N586 X-256.077 Y53.373 Z21.684 A0.6649 
N587 X-256.077 Y51.315 Z21.875 A1.2355 
N588 X-256.077 Y48.948 Z21.933 A1.4516 
N589 X-256.077 Y46.257 Z21.928 A1.5005 
N590 X-256.077 Y43.238 Z21.901 A1.4910 
N591 X-256.077 Y39.897 Z21.870 A1.4718 
N592 X-256.077 Y36.254 Z21.842 A1.4639 
N593 X-256.077 Y32.342 Z21.816 
N594 X-256.077 Y28.205 Z21.789 
N595 X-256.077 Y23.900 Z21.761 
N596 X-256.077 Y19.492 Z21.733 A1.4666 
N597 X-256.077 Y15.052 Z21.703 A1.4687 
N598 X-256.077 Y10.652 Z21.673 A1.4707 
N599 X-256.077 Y6.363 Z21.644 A1.4741 
N600 X-256.077 Y2.251 Z21.617 A1.4800 
N601 X-256.077 Y-1.628 Z21.592 A1.4891 
N602 X-256.077 Y-5.227 Z21.570 A1.5004 
N603 X-256.077 Y-8.512 Z21.549 A1.5122 
N604 X-256.077 Y-11.465 Z21.529 A1.5159 
N605 X-256.077 Y-14.075 Z21.508 A1.5072 
N606 X-256.077 Y-16.350 Z21.479 A1.4639 
N607 X-256.077 Y-18.300 Z21.469 
N608 X-256.077 Y-19.961 Z21.464 A1.4780 
N609 X-256.077 Y-21.350 Z21.588 A1.8864 
N610 X-256.077 Y-22.513 Z21.924 A2.9698 
N611 X-256.077 Y-23.501 Z22.587 A5.1036 
N612 X-256.077 Y-24.392 Z23.614 A8.4270 
N613 X-256.077 Y-25.269 Z24.933 A12.7618 
N614 X-256.077 Y-26.182 Z26.377 A17.6304 
N615 X-256.077 Y-27.124 Z27.762 A22.4790 
N616 X-256.077 Y-28.028 Z28.921 A26.7515 
N617 X-256.077 Y-28.872 Z29.874 A30.4580 
N618 X-256.077 Y-29.683 Z30.706 A33.8553 
N619 X-256.077 Y-30.466 Z31.436 A36.9877 
N620 X-256.077 Y-31.226 Z32.079 A39.9042 
N621 X-256.077 Y-31.971 Z32.652 A42.6617 
N622 X-256.077 Y-32.714 Z33.171 A45.3204 
N623 X-256.077 Y-33.469 Z33.648 A47.9395 
N624 X-256.077 Y-34.247 Z34.089 A50.5629 
N625 X-256.077 Y-35.062 Z34.500 A53.2378 
N626 X-256.077 Y-35.931 Z34.884 A56.0170 
N627 X-256.077 Y-36.864 Z35.234 A58.9315 
N628 X-256.077 Y-37.882 Z35.549 A62.0420 
N629 X-256.077 Y-39.021 Z35.823 A65.4578 
N630 X-256.077 Y-40.292 Z36.034 A69.2042 
N631 X-256.077 Y-41.655 Z36.136 A73.1560 
N632 X-256.077 Y-43.049 Z36.090 A77.1419 
N633 X-256.077 Y-44.407 Z35.871 A80.9938 
N634 X-256.077 Y-45.617 Z35.465 A84.4130 
N635 X-256.077 Y-46.577 Z34.884 A87.1242 
N636 X-256.077 Y-47.238 Z34.148 A88.9936 
N637 X-256.077 Y-47.622 Z33.279 A90.0817 
N638 X-256.077 Y-47.804 Z32.283 A90.5937 
N639 X-256.077 Y-47.865 Z31.162 A90.7572 
N640 X-256.077 Y-47.875 Z29.918 A90.7679 
N641 X-256.077 Y-47.874 Z28.557 A90.7411 
N642 X-256.077 Y-47.877 Z27.091 A90.7230 
N643 X-256.077 Y-47.888 Z25.535 A90.7204 
N644 X-256.077 Y-47.900 Z23.910 A90.7210 
N645 X-256.077 Y-47.913 Z22.240 A90.7172 
N646 X-256.077 Y-47.925 Z20.551 A90.7095 
N647 X-256.077 Y-47.941 Z18.869 
N648 X-256.077 Y-47.958 Z17.217 
N649 X-256.077 Y-47.973 Z15.614 
N650 X-256.077 Y-48.044 Z14.090 A90.8882 
N651 X-256.077 Y-48.196 Z12.656 A91.3384 
N652 X-256.077 Y-48.479 Z11.320 A92.2329 
N653 X-256.077 Y-48.930 Z10.080 A93.7010 
N654 X-256.077 Y-49.557 Z8.921 A95.7998 
N655 X-256.077 Y-50.324 Z7.825 A98.4330 
N656 X-256.077 Y-51.162 Z6.777 A101.4001 
N657 X-256.077 Y-52.002 Z5.771 A104.4870 
N658 X-256.077 Y-52.800 Z4.808 A107.5468 
N659 X-256.077 Y-53.549 Z3.882 A110.5432 
N660 X-256.077 Y-54.248 Z2.990 A113.4589 
N661 X-256.077 Y-54.893 Z2.127 A116.2743 
N662 X-256.077 Y-55.484 Z1.290 A118.9842 
N663 X-256.077 Y-56.026 Z0.473 A121.6018 
N664 X-256.077 Y-56.525 Z-0.331 A124.1473 
N665 X-256.077 Y-56.986 Z-1.127 A126.6356 
N666 X-256.077 Y-57.408 Z-1.920 A129.0767 
N667 X-256.077 Y-57.795 Z-2.716 A131.4864 
N668 X-256.077 Y-58.150 Z-3.519 A133.8817 
N669 X-256.077 Y-58.471 Z-4.334 A136.2749 
N670 X-256.077 Y-58.758 Z-5.166 A138.6787 
N671 X-256.077 Y-59.012 Z-6.021 A141.1116 
N672 X-256.077 Y-59.229 Z-6.906 A143.5919 
N673 X-256.077 Y-59.405 Z-7.828 A146.1357 
N674 X-256.077 Y-59.534 Z-8.795 A148.7687 
N675 X-256.077 Y-59.607 Z-9.819 A151.5192 
N676 X-256.077 Y-59.610 Z-10.907 A154.4030 
N677 X-256.077 Y-59.523 Z-12.065 A157.4403 
N678 X-256.077 Y-59.325 Z-13.306 A160.6715 
N679 X-256.077 Y-58.988 Z-14.634 A164.1249 
N680 X-256.077 Y-58.466 Z-16.012 A167.7124 
N681 X-256.077 Y-57.713 Z-17.348 A171.1881 
N682 X-256.077 Y-56.702 Z-18.539 A174.2934 
N683 X-256.077 Y-55.423 Z-19.516 A176.8545 
N684 X-256.077 Y-53.875 Z-20.249 A178.7975 
N685 X-256.077 Y-52.057 Z-20.737 A180.1174 
N686 X-256.077 Y-49.964 Z-21.005 A180.8646 
N687 X-256.077 Y-47.587 Z-21.108 A181.1731 
N688 X-256.077 Y-44.921 Z-21.117 A181.2152 
N689 X-256.077 Y-41.970 Z-21.095 A181.1607 
N690 X-256.077 Y-38.745 Z-21.079 A181.1081 
N691 X-256.077 Y-35.274 Z-21.085 
N692 X-256.077 Y-31.588 Z-21.093 
N693 X-256.077 Y-27.737 Z-21.102 A181.1100 
N694 X-256.077 Y-23.778 Z-21.114 A181.1212 
N695 X-256.077 Y-19.770 Z-21.125 A181.1325 
N696 X-256.077 Y-15.778 Z-21.139 A181.1489 
N697 X-256.077 Y-11.863 Z-21.152 A181.1683 
N698 X-256.077 Y-8.085 Z-21.164 A181.1833 
N699 X-256.077 Y-4.494 Z-21.171 A181.1799 
N700 X-256.077 Y-1.135 Z-21.170 A181.1493 
N701 X-256.077 Y1.963 Z-21.169 A181.1081 
N702 X-256.077 Y4.779 Z-21.183 
N703 X-256.077 Y7.318 Z-21.195 
N704 X-256.077 Y9.565 Z-21.302 A181.4218 
N705 X-256.077 Y11.539 Z-21.521 A182.1298 
N706 X-256.077 Y13.264 Z-21.907 A183.4290 
N707 X-256.077 Y14.782 Z-22.506 A185.4769 
N708 X-256.077 Y16.147 Z-23.334 A188.3586 
N709 X-256.077 Y17.417 Z-24.340 A191.9361 
N710 X-256.077 Y18.627 Z-25.410 A195.8692 
N711 X-256.077 Y19.782 Z-26.422 A199.7765 
N712 X-256.077 Y20.878 Z-27.322 A203.4610 
N713 X-256.077 Y21.917 Z-28.108 A206.8886 
N714 X-256.077 Y22.906 Z-28.788 A210.0661 
N715 X-256.077 Y23.851 Z-29.373 A213.0175 
N716 X-256.077 Y24.763 Z-29.877 A215.7864 
N717 X-256.077 Y25.654 Z-30.315 A218.4242 
N718 X-256.077 Y26.534 Z-30.696 A220.9664 
N719 X-256.077 Y27.410 Z-31.022 A223.4323 
N720 X-256.077 Y28.286 Z-31.296 A225.8398 
N721 X-256.077 Y29.166 Z-31.518 A228.2033 
N722 X-256.077 Y30.053 Z-31.687 A230.5298 
N723 X-256.077 Y30.948 Z-31.802 A232.8237 
N724 X-256.077 Y31.850 Z-31.860 A235.0894 
N725 X-256.077 Y32.761 Z-31.858 A237.3306 
N726 X-256.077 Y33.680 Z-31.793 A239.5495 
N727 X-256.077 Y34.608 Z-31.662 A241.7518 
N728 X-256.077 Y35.545 Z-31.461 A243.9472 
N729 X-256.077 Y36.493 Z-31.188 A246.1465 
N730 X-256.077 Y37.453 Z-30.836 A248.3560 
N731 X-256.077 Y38.419 Z-30.401 A250.5739 
N732 X-256.077 Y39.388 Z-29.875 A252.7953 
N733 X-256.077 Y40.351 Z-29.254 A255.0111 
N734 X-256.077 Y41.295 Z-28.532 A257.1910 
N735 X-256.077 Y42.198 Z-27.707 A259.2873 
N736 X-256.077 Y43.039 Z-26.779 A261.2474 
N737 X-256.077 Y43.798 Z-25.753 A263.0260 
N738 X-256.077 Y44.465 Z-24.638 A264.5926 
N739 X-256.077 Y45.031 Z-23.448 A265.9254 
N740 X-256.077 Y45.492 Z-22.198 A267.0095 
N741 X-256.077 Y45.855 Z-20.902 A267.8565 
N742 X-256.077 Y46.138 Z-19.578 A268.5108 
N743 X-256.077 Y46.368 Z-18.242 A269.0446 
N744 X-256.077 Y46.575 Z-16.910 A269.5465 
N745 X-256.077 Y46.785 Z-15.597 A270.0941 
N746 X-256.077 Y47.017 Z-14.314 A270.7509 
N747 X-256.077 Y47.287 Z-13.072 A271.5702 
N748 X-256.077 Y47.607 Z-11.880 A272.5962 
N749 X-256.077 Y47.986 Z-10.741 A273.8623 
N750 X-256.077 Y48.426 Z-9.655 A275.3830 
N751 X-256.077 Y48.920 Z-8.620 A277.1436 
N752 X-256.077 Y49.459 Z-7.633 A279.1131 
N753 X-256.077 Y50.031 Z-6.688 A281.2589 
N754 X-256.077 Y50.627 Z-5.779 A283.5492 
N755 X-256.077 Y51.238 Z-4.900 A285.9539 
N756 X-256.077 Y51.851 Z-4.045 A288.4364 
N757 X-256.077 Y52.457 Z-3.210 A290.9584 
N758 X-256.077 Y53.046 Z-2.392 A293.4945 
N759 X-256.077 Y53.615 Z-1.586 A296.0307 
N760 X-256.077 Y54.160 Z-0.789 A298.5537 
N761 X-256.077 Y54.676 Z0.001 A301.0533 
N762 X-256.077 Y55.163 Z0.787 A303.5260 
N763 X-256.077 Y55.620 Z1.573 A305.9744 
N764 X-256.077 Y56.047 Z2.361 A308.4038 
N765 X-256.077 Y56.443 Z3.155 A310.8191 
N766 X-256.077 Y56.809 Z3.957 A313.2262 
N767 X-256.077 Y57.144 Z4.772 A315.6354 
N768 X-256.077 Y57.447 Z5.603 A318.0591 
N769 X-256.077 Y57.717 Z6.456 A320.5089 
N770 X-256.077 Y57.952 Z7.337 A323.0013 
N771 X-256.077 Y58.149 Z8.255 A325.5608 
N772 X-256.077 Y58.303 Z9.218 A328.2107 
N773 X-256.077 Y58.402 Z10.235 A330.9713 
N774 X-256.077 Y58.437 Z11.318 A333.8750 
N775 X-256.077 Y58.389 Z12.479 A336.9540 
N776 X-256.077 Y58.233 Z13.719 A340.2146 
N777 X-256.077 Y57.935 Z15.027 A343.6319 
N778 X-256.077 Y57.457 Z16.381 A347.1609 
N779 X-256.077 Y56.763 Z17.744 A350.7254 
N780 X-256.077 Y55.813 Z19.022 A354.0971 
N781 X-256.077 Y54.585 Z20.097 A356.9603 
N782 X-256.077 Y53.077 Z20.880 A359.0784 
N783 X-256.077 Y51.289 Z21.368 A0.4305 
N784 X-256.077 Y49.214 Z21.622 A1.1753 
N785 X-256.077 Y46.840 Z21.722 A1.5206 
N786 X-256.077 Y44.154 Z21.737 A1.6418 
N787 X-256.077 Y41.154 Z21.709 A1.6525 
N788 X-256.077 Y37.847 Z21.666 A1.6251 
N789 X-256.077 Y34.253 Z21.625 A1.6003 
N790 X-256.077 Y30.407 Z21.592 
N791 X-256.077 Y26.350 Z21.558 
N792 X-256.077 Y22.139 Z21.522 
N793 X-256.077 Y17.841 Z21.486 A1.6047 
N794 X-256.077 Y13.522 Z21.449 A1.6070 
N795 X-256.077 Y9.255 Z21.411 A1.6090 
N796 X-256.077 Y5.106 Z21.375 A1.6123 
N797 X-256.077 Y1.139 Z21.341 A1.6188 
N798 X-256.077 Y-2.593 Z21.310 A1.6296 
N799 X-256.077 Y-6.045 Z21.283 A1.6443 
N800 X-256.077 Y-9.188 Z21.259 A1.6604 
N801 X-256.077 Y-12.003 Z21.234 A1.6659 
N802 X-256.077 Y-14.485 Z21.208 A1.6529 
N803 X-256.077 Y-16.641 Z21.173 A1.6003 
N804 X-256.077 Y-18.483 Z21.160 
N805 X-256.077 Y-20.050 Z21.157 A1.6253 
N806 X-256.077 Y-21.357 Z21.300 A2.1000 
N807 X-256.077 Y-22.450 Z21.668 A3.2893 
N808 X-256.077 Y-23.384 Z22.364 A5.5281 
N809 X-256.077 Y-24.236 Z23.417 A8.9375 
N810 X-256.077 Y-25.092 Z24.776 A13.3957 
N811 X-256.077 Y-26.010 Z26.290 A18.4939 
N812 X-256.077 Y-26.960 Z27.704 A23.4521 
N813 X-256.077 Y-27.851 Z28.837 A27.6552 
N814 X-256.077 Y-28.685 Z29.776 A31.3248 
N815 X-256.077 Y-29.491 Z30.598 A34.6978 
N816 X-256.077 Y-30.267 Z31.316 A37.7996 
N817 X-256.077 Y-31.021 Z31.948 A40.6869 
N818 X-256.077 Y-31.760 Z32.511 A43.4193 
N819 X-256.077 Y-32.501 Z33.023 A46.0629 
N820 X-256.077 Y-33.254 Z33.494 A48.6744 
N821 X-256.077 Y-34.033 Z33.931 A51.2960 
N822 X-256.077 Y-34.851 Z34.338 A53.9789 
N823 X-256.077 Y-35.724 Z34.717 A56.7701 
N824 X-256.077 Y-36.662 Z35.064 A59.7002 
N825 X-256.077 Y-37.692 Z35.375 A62.8464 
N826 X-256.077 Y-38.840 Z35.643 A66.2887 
N827 X-256.077 Y-40.102 Z35.839 A70.0066 
N828 X-256.077 Y-41.448 Z35.925 A73.9068 
N829 X-256.077 Y-42.837 Z35.870 A77.8872 
N830 X-256.077 Y-44.193 Z35.645 A81.7510 
N831 X-256.077 Y-45.383 Z35.237 A85.1311 
N832 X-256.077 Y-46.302 Z34.661 A87.7438 
N833 X-256.077 Y-46.911 Z33.941 A89.4840 
N834 X-256.077 Y-47.255 Z33.096 A90.4709 
N835 X-256.077 Y-47.412 Z32.134 A90.9293 
N836 X-256.077 Y-47.464 Z31.055 A91.0850 
N837 X-256.077 Y-47.473 Z29.860 A91.1136 
N838 X-256.077 Y-47.469 Z28.557 A91.1062 
N839 X-256.077 Y-47.466 Z27.155 A91.0980 
N840 X-256.077 Y-47.464 Z25.671 A91.0903 
N841 X-256.077 Y-47.462 Z24.125 A91.0784 
N842 X-256.077 Y-47.459 Z22.538 A91.0576 
N843 X-256.077 Y-47.463 Z20.936 A91.0562 
N844 X-256.077 Y-47.469 Z19.339 
N845 X-256.077 Y-47.474 Z17.767 
N846 X-256.077 Y-47.525 Z16.248 A91.2008 
N847 X-256.077 Y-47.643 Z14.799 A91.5705 
N848 X-256.077 Y-47.869 Z13.431 A92.3066 
N849 X-256.077 Y-48.243 Z12.147 A93.5468 
N850 X-256.077 Y-48.786 Z10.938 A95.3839 
N851 X-256.077 Y-49.485 Z9.790 A97.8014 
N852 X-256.077 Y-50.281 Z8.688 A100.6332 
N853 X-256.077 Y-51.100 Z7.625 A103.6589 
N854 X-256.077 Y-51.883 Z6.603 A106.6839 
N855 X-256.077 Y-52.607 Z5.625 A109.6251 
N856 X-256.077 Y-53.277 Z4.685 A112.4792 
N857 X-256.077 Y-53.894 Z3.778 A115.2420 
N858 X-256.077 Y-54.460 Z2.900 A117.9095 
N859 X-256.077 Y-54.978 Z2.046 A120.4884 
N860 X-256.077 Y-55.452 Z1.209 A122.9952 
N861 X-256.077 Y-55.888 Z0.383 A125.4469 
N862 X-256.077 Y-56.288 Z-0.437 A127.8537 
N863 X-256.077 Y-56.652 Z-1.256 A130.2265 
N864 X-256.077 Y-56.982 Z-2.078 A132.5798 
N865 X-256.077 Y-57.280 Z-2.908 A134.9264 
N866 X-256.077 Y-57.544 Z-3.751 A137.2756 
N867 X-256.077 Y-57.773 Z-4.610 A139.6404 
N868 X-256.077 Y-57.967 Z-5.492 A142.0363 
N869 X-256.077 Y-58.120 Z-6.402 A144.4770 
N870 X-256.077 Y-58.229 Z-7.346 A146.9791 
N871 X-256.077 Y-58.287 Z-8.335 A149.5669 
N872 X-256.077 Y-58.284 Z-9.375 A152.2612 
N873 X-256.077 Y-58.203 Z-10.472 A155.0760 
N874 X-256.077 Y-58.029 Z-11.637 A158.0396 
N875 X-256.077 Y-57.738 Z-12.878 A161.1888 
N876 X-256.077 Y-57.300 Z-14.192 A164.5272 
N877 X-256.077 Y-56.673 Z-15.534 A167.9436 
N878 X-256.077 Y-55.816 Z-16.831 A171.2515 
N879 X-256.077 Y-54.707 Z-18.008 A174.2743 
N880 X-256.077 Y-53.333 Z-18.998 A176.8458 
N881 X-256.077 Y-51.692 Z-19.749 A178.8282 
N882 X-256.077 Y-49.786 Z-20.236 A180.1408 
N883 X-256.077 Y-47.615 Z-20.486 A180.8320 
N884 X-256.077 Y-45.177 Z-20.571 A181.0734 
N885 X-256.077 Y-42.473 Z-20.573 A181.0784 
N886 X-256.077 Y-39.510 Z-20.558 A181.0208 
N887 X-256.077 Y-36.309 Z-20.557 A180.9885 
N888 X-256.077 Y-32.898 Z-20.570 
N889 X-256.077 Y-29.316 Z-20.584 
N890 X-256.077 Y-25.615 Z-20.603 A180.9964 
N891 X-256.077 Y-21.850 Z-20.623 A181.0098 
N892 X-256.077 Y-18.078 Z-20.644 A181.0271 
N893 X-256.077 Y-14.360 Z-20.666 A181.0486 
N894 X-256.077 Y-10.752 Z-20.687 A181.0676 
N895 X-256.077 Y-7.304 Z-20.702 A181.0693 
N896 X-256.077 Y-4.058 Z-20.709 A181.0418 
N897 X-256.077 Y-1.047 Z-20.710 A180.9885 
N898 X-256.077 Y1.705 Z-20.730 
N899 X-256.077 Y4.205 Z-20.748 
N900 X-256.077 Y6.431 Z-20.880 A181.3643 
N901 X-256.077 Y8.402 Z-21.142 A182.2032 
N902 X-256.077 Y10.141 Z-21.580 A183.6683 
N903 X-256.077 Y11.685 Z-22.212 A185.8453 
N904 X-256.077 Y13.085 Z-23.042 A188.7710 
N905 X-256.077 Y14.394 Z-24.027 A192.3265 
N906 X-256.077 Y15.645 Z-25.064 A196.2116 
N907 X-256.077 Y16.841 Z-26.039 A200.0626 
N908 X-256.077 Y17.974 Z-26.892 A203.6619 
N909 X-256.077 Y19.049 Z-27.628 A207.0018 
N910 X-256.077 Y20.078 Z-28.265 A210.1258 
N911 X-256.077 Y21.072 Z-28.818 A213.0703 
N912 X-256.077 Y22.041 Z-29.294 A215.8634 
N913 X-256.077 Y22.995 Z-29.701 A218.5415 
N914 X-256.077 Y23.945 Z-30.047 A221.1350 
N915 X-256.077 Y24.895 Z-30.331 A223.6596 
N916 X-256.077 Y25.850 Z-30.553 A226.1240 
N917 X-256.077 Y26.809 Z-30.710 A228.5323 
N918 X-256.077 Y27.774 Z-30.799 A230.8827 
N919 X-256.077 Y28.741 Z-30.816 A233.1689 
N920 X-256.077 Y29.705 Z-30.756 A235.3834 
N921 X-256.077 Y30.664 Z-30.619 A237.5189 
N922 X-256.077 Y31.614 Z-30.400 A239.5699 
N923 X-256.077 Y32.550 Z-30.100 A241.5367 
N924 X-256.077 Y33.474 Z-29.720 A243.4264 
N925 X-256.077 Y34.385 Z-29.261 A245.2521 
N926 X-256.077 Y35.284 Z-28.728 A247.0282 
N927 X-256.077 Y36.172 Z-28.120 A248.7639 
N928 X-256.077 Y37.047 Z-27.441 A250.4633 
N929 X-256.077 Y37.903 Z-26.693 A252.1272 
N930 X-256.077 Y38.739 Z-25.880 A253.7539 
N931 X-256.077 Y39.548 Z-25.006 A255.3386 
N932 X-256.077 Y40.324 Z-24.077 A256.8737 
N933 X-256.077 Y41.063 Z-23.100 A258.3507 
N934 X-256.077 Y41.761 Z-22.082 A259.7685 
N935 X-256.077 Y42.419 Z-21.035 A261.1339 
N936 X-256.077 Y43.040 Z-19.967 A262.4603 
N937 X-256.077 Y43.628 Z-18.888 A263.7650 
N938 X-256.077 Y44.190 Z-17.809 A265.0678 
N939 X-256.077 Y44.732 Z-16.736 A266.3903 
N940 X-256.077 Y45.261 Z-15.678 A267.7554 
N941 X-256.077 Y45.784 Z-14.639 A269.1841 
N942 X-256.077 Y46.306 Z-13.625 A270.6920 
N943 X-256.077 Y46.830 Z-12.638 A272.2887 
N944 X-256.077 Y47.357 Z-11.678 A273.9764 
N945 X-256.077 Y47.889 Z-10.745 A275.7546 
N946 X-256.077 Y48.424 Z-9.840 A277.6204 
N947 X-256.077 Y48.961 Z-8.958 A279.5674 
N948 X-256.077 Y49.499 Z-8.099 A281.5864 
N949 X-256.077 Y50.035 Z-7.260 A283.6666 
N950 X-256.077 Y50.565 Z-6.437 A285.7976 
N951 X-256.077 Y51.088 Z-5.628 A287.9712 
N952 X-256.077 Y51.602 Z-4.829 A290.1787 
N953 X-256.077 Y52.103 Z-4.038 A292.4111 
N954 X-256.077 Y52.590 Z-3.253 A294.6614 
N955 X-256.077 Y53.060 Z-2.471 A296.9252 
N956 X-256.077 Y53.511 Z-1.689 A299.1986 
N957 X-256.077 Y53.943 Z-0.906 A301.4782 
N958 X-256.077 Y54.353 Z-0.120 A303.7624 
N959 X-256.077 Y54.741 Z0.671 A306.0507 
N960 X-256.077 Y55.104 Z1.469 A308.3436 
N961 X-256.077 Y55.442 Z2.275 A310.6421 
N962 X-256.077 Y55.753 Z3.091 A312.9479 
N963 X-256.077 Y56.036 Z3.920 A315.2654 
N964 X-256.077 Y56.289 Z4.764 A317.6011 
N965 X-256.077 Y56.510 Z5.626 A319.9625 
N966 X-256.077 Y56.696 Z6.512 A322.3603 
N967 X-256.077 Y56.845 Z7.427 A324.8118 
N968 X-256.077 Y56.951 Z8.379 A327.3367 
N969 X-256.077 Y57.007 Z9.376 A329.9521 
N970 X-256.077 Y57.003 Z10.426 A332.6826 
N971 X-256.077 Y56.923 Z11.541 A335.5584 
N972 X-256.077 Y56.748 Z12.726 A338.5960 
N973 X-256.077 Y56.450 Z13.981 A341.7978 
N974 X-256.077 Y55.996 Z15.300 A345.1643 
N975 X-256.077 Y55.351 Z16.670 A348.6797 
N976 X-256.077 Y54.472 Z18.023 A352.1911 
N977 X-256.077 Y53.322 Z19.238 A355.3769 
N978 X-256.077 Y51.889 Z20.198 A357.9322 
N979 X-256.077 Y50.177 Z20.862 A359.7322 
N980 X-256.077 Y48.185 Z21.260 A0.8588 
N981 X-256.077 Y45.905 Z21.459 A1.4763 
N982 X-256.077 Y43.328 Z21.524 A1.7513 
N983 X-256.077 Y40.448 Z21.510 A1.8209 
N984 X-256.077 Y37.271 Z21.462 A1.7969 
N985 X-256.077 Y33.813 Z21.408 A1.7554 
N986 X-256.077 Y30.104 Z21.366 A1.7486 
N987 X-256.077 Y26.181 Z21.326 
N988 X-256.077 Y22.097 Z21.284 
N989 X-256.077 Y17.915 Z21.243 A1.7531 
N990 X-256.077 Y13.701 Z21.199 A1.7564 
N991 X-256.077 Y9.523 Z21.155 A1.7579 
N992 X-256.077 Y5.448 Z21.112 A1.7603 
N993 X-256.077 Y1.539 Z21.072 A1.7657 
N994 X-256.077 Y-2.149 Z21.035 A1.7762 
N995 X-256.077 Y-5.572 Z21.003 A1.7924 
N996 X-256.077 Y-8.697 Z20.975 A1.8126 
N997 X-256.077 Y-11.505 Z20.948 A1.8249 
N998 X-256.077 Y-13.986 Z20.919 A1.8192 
N999 X-256.077 Y-16.147 Z20.881 A1.7691 
N1000 X-256.077 Y-17.997 Z20.858 A1.7486 
N1001 X-256.077 Y-19.569 Z20.845 
N1002 X-256.077 Y-20.888 Z20.929 A2.0406 
N1003 X-256.077 Y-21.986 Z21.216 A2.9749 
N1004 X-256.077 Y-22.915 Z21.799 A4.8476 
N1005 X-256.077 Y-23.742 Z22.737 A7.8724 
N1006 X-256.077 Y-24.560 Z24.034 A12.0893 
N1007 X-256.077 Y-25.450 Z25.585 A17.2386 
N1008 X-256.077 Y-26.406 Z27.112 A22.4982 
N1009 X-256.077 Y-27.314 Z28.339 A26.9658 
N1010 X-256.077 Y-28.157 Z29.329 A30.7726 
N1011 X-256.077 Y-28.971 Z30.192 A34.2543 
N1012 X-256.077 Y-29.753 Z30.942 A37.4426 
N1013 X-256.077 Y-30.510 Z31.599 A40.3910 
N1014 X-256.077 Y-31.249 Z32.181 A43.1620 
N1015 X-256.077 Y-31.985 Z32.706 A45.8258 
N1016 X-256.077 Y-32.732 Z33.189 A48.4437 
N1017 X-256.077 Y-33.500 Z33.635 A51.0588 
N1018 X-256.077 Y-34.304 Z34.050 A53.7203 
N1019 X-256.077 Y-35.158 Z34.438 A56.4774 
N1020 X-256.077 Y-36.073 Z34.794 A59.3611 
N1021 X-256.077 Y-37.070 Z35.116 A62.4339 
N1022 X-256.077 Y-38.174 Z35.397 A65.7669 
N1023 X-256.077 Y-39.383 Z35.612 A69.3517 
N1024 X-256.077 Y-40.681 Z35.732 A73.1394 
N1025 X-256.077 Y-42.047 Z35.727 A77.0770 
N1026 X-256.077 Y-43.422 Z35.567 A81.0160 
N1027 X-256.077 Y-44.671 Z35.231 A84.5829 
N1028 X-256.077 Y-45.672 Z34.725 A87.4460 
N1029 X-256.077 Y-46.369 Z34.075 A89.4514 
N1030 X-256.077 Y-46.790 Z33.304 A90.6764 
N1031 X-256.077 Y-47.006 Z32.421 A91.3269 
N1032 X-256.077 Y-47.095 Z31.427 A91.6196 
N1033 X-256.077 Y-47.120 Z30.324 A91.7314 
N1034 X-256.077 Y-47.116 Z29.115 A91.7642 
N1035 X-256.077 Y-47.102 Z27.810 A91.7662 
N1036 X-256.077 Y-47.081 Z26.421 A91.7532 
N1037 X-256.077 Y-47.059 Z24.966 A91.7316 
N1038 X-256.077 Y-47.035 Z23.464 A91.7026 
N1039 X-256.077 Y-47.021 Z21.940 A91.6973 
N1040 X-256.077 Y-47.009 Z20.411 
N1041 X-256.077 Y-46.997 Z18.896 
N1042 X-256.077 Y-47.032 Z17.423 A91.8452 
N1043 X-256.077 Y-47.136 Z16.007 A92.2203 
N1044 X-256.077 Y-47.350 Z14.660 A92.9653 
N1045 X-256.077 Y-47.714 Z13.384 A94.2196 
N1046 X-256.077 Y-48.249 Z12.172 A96.0743 
N1047 X-256.077 Y-48.939 Z11.010 A98.5076 
N1048 X-256.077 Y-49.720 Z9.886 A101.3425 
N1049 X-256.077 Y-50.516 Z8.797 A104.3481 
N1050 X-256.077 Y-51.266 Z7.750 A107.3278 
N1051 X-256.077 Y-51.951 Z6.745 A110.2042 
N1052 X-256.077 Y-52.579 Z5.781 A112.9854 
N1053 X-256.077 Y-53.156 Z4.850 A115.6783 
N1054 X-256.077 Y-53.683 Z3.948 A118.2848 
N1055 X-256.077 Y-54.164 Z3.069 A120.8116 
N1056 X-256.077 Y-54.604 Z2.209 A123.2728 
N1057 X-256.077 Y-55.005 Z1.360 A125.6830 
N1058 X-256.077 Y-55.371 Z0.517 A128.0517 
N1059 X-256.077 Y-55.701 Z-0.323 A130.3891 
N1060 X-256.077 Y-55.998 Z-1.166 A132.7086 
N1061 X-256.077 Y-56.262 Z-2.015 A135.0221 
N1062 X-256.077 Y-56.491 Z-2.876 A137.3380 
N1063 X-256.077 Y-56.685 Z-3.751 A139.6682 
N1064 X-256.077 Y-56.843 Z-4.647 A142.0266 
N1065 X-256.077 Y-56.959 Z-5.568 A144.4257 
N1066 X-256.077 Y-57.030 Z-6.521 A146.8810 
N1067 X-256.077 Y-57.050 Z-7.514 A149.4144 
N1068 X-256.077 Y-57.007 Z-8.554 A152.0453 
N1069 X-256.077 Y-56.888 Z-9.648 A154.7878 
N1070 X-256.077 Y-56.676 Z-10.803 A157.6675 
N1071 X-256.077 Y-56.350 Z-12.027 A160.7149 
N1072 X-256.077 Y-55.881 Z-13.317 A163.9319 
N1073 X-256.077 Y-55.231 Z-14.639 A167.2362 
N1074 X-256.077 Y-54.363 Z-15.935 A170.4921 
N1075 X-256.077 Y-53.251 Z-17.144 A173.5585 
N1076 X-256.077 Y-51.880 Z-18.191 A176.2489 
N1077 X-256.077 Y-50.247 Z-19.003 A178.3709 
N1078 X-256.077 Y-48.356 Z-19.539 A179.7934 
N1079 X-256.077 Y-46.213 Z-19.823 A180.5533 
N1080 X-256.077 Y-43.820 Z-19.929 A180.8321 
N1081 X-256.077 Y-41.182 Z-19.948 A180.8569 
N1082 X-256.077 Y-38.308 Z-19.945 A180.8092 
N1083 X-256.077 Y-35.219 Z-19.951 A180.7702 
N1084 X-256.077 Y-31.949 Z-19.973 
N1085 X-256.077 Y-28.533 Z-19.998 
N1086 X-256.077 Y-25.022 Z-20.026 A180.7785 
N1087 X-256.077 Y-21.468 Z-20.058 A180.7936 
N1088 X-256.077 Y-17.927 Z-20.090 A180.8113 
N1089 X-256.077 Y-14.453 Z-20.122 A180.8302 
N1090 X-256.077 Y-11.097 Z-20.151 A180.8393 
N1091 X-256.077 Y-7.904 Z-20.174 A180.8317 
N1092 X-256.077 Y-4.910 Z-20.185 A180.7832 
N1093 X-256.077 Y-2.146 Z-20.210 A180.7702 
N1094 X-256.077 Y0.383 Z-20.238 
N1095 X-256.077 Y2.669 Z-20.327 A180.9776 
N1096 X-256.077 Y4.707 Z-20.567 A181.6997 
N1097 X-256.077 Y6.519 Z-20.987 A183.0652 
N1098 X-256.077 Y8.135 Z-21.601 A185.1492 
N1099 X-256.077 Y9.599 Z-22.388 A187.9079 
N1100 X-256.077 Y10.957 Z-23.307 A191.2318 
N1101 X-256.077 Y12.246 Z-24.291 A194.9234 
N1102 X-256.077 Y13.482 Z-25.256 A198.7158 
N1103 X-256.077 Y14.662 Z-26.124 A202.3537 
N1104 X-256.077 Y15.784 Z-26.875 A205.7412 
N1105 X-256.077 Y16.859 Z-27.523 A208.9141 
N1106 X-256.077 Y17.902 Z-28.087 A211.9243 
N1107 X-256.077 Y18.925 Z-28.575 A214.8040 
N1108 X-256.077 Y19.937 Z-28.992 A217.5757 
N1109 X-256.077 Y20.948 Z-29.340 A220.2641 
N1110 X-256.077 Y21.963 Z-29.621 A222.8857 
N1111 X-256.077 Y22.986 Z-29.831 A225.4437 
N1112 X-256.077 Y24.015 Z-29.963 A227.9309 
N1113 X-256.077 Y25.046 Z-30.013 A230.3335 
N1114 X-256.077 Y26.073 Z-29.973 A232.6343 
N1115 X-256.077 Y27.087 Z-29.841 A234.8160 
N1116 X-256.077 Y28.083 Z-29.613 A236.8636 
N1117 X-256.077 Y29.052 Z-29.289 A238.7655 
N1118 X-256.077 Y29.990 Z-28.871 A240.5182 
N1119 X-256.077 Y30.897 Z-28.366 A242.1330 
N1120 X-256.077 Y31.777 Z-27.781 A243.6333 
N1121 X-256.077 Y32.634 Z-27.125 A245.0506 
N1122 X-256.077 Y33.476 Z-26.408 A246.4164 
N1123 X-256.077 Y34.307 Z-25.637 A247.7566 
N1124 X-256.077 Y35.128 Z-24.822 A249.0913 
N1125 X-256.077 Y35.940 Z-23.968 A250.4363 
N1126 X-256.077 Y36.745 Z-23.085 A251.8038 
N1127 X-256.077 Y37.540 Z-22.178 A253.2025 
N1128 X-256.077 Y38.323 Z-21.255 A254.6367 
N1129 X-256.077 Y39.094 Z-20.322 A256.1078 
N1130 X-256.077 Y39.849 Z-19.386 A257.6183 
N1131 X-256.077 Y40.588 Z-18.452 A259.1712 
N1132 X-256.077 Y41.312 Z-17.526 A260.7690 
N1133 X-256.077 Y42.019 Z-16.611 A262.4137 
N1134 X-256.077 Y42.712 Z-15.711 A264.1074 
N1135 X-256.077 Y43.389 Z-14.829 A265.8513 
N1136 X-256.077 Y44.054 Z-13.965 A267.6461 
N1137 X-256.077 Y44.705 Z-13.120 A269.4910 
N1138 X-256.077 Y45.345 Z-12.294 A271.3845 
N1139 X-256.077 Y45.973 Z-11.485 A273.3243 
N1140 X-256.077 Y46.589 Z-10.693 A275.3074 
N1141 X-256.077 Y47.194 Z-9.915 A277.3297 
N1142 X-256.077 Y47.787 Z-9.149 A279.3868 
N1143 X-256.077 Y48.367 Z-8.393 A281.4749 
N1144 X-256.077 Y48.934 Z-7.644 A283.5897 
N1145 X-256.077 Y49.487 Z-6.901 A285.7267 
N1146 X-256.077 Y50.024 Z-6.161 A287.8823 
N1147 X-256.077 Y50.545 Z-5.422 A290.0534 
N1148 X-256.077 Y51.049 Z-4.682 A292.2372 
N1149 X-256.077 Y51.535 Z-3.940 A294.4311 
N1150 X-256.077 Y52.002 Z-3.194 A296.6330 
N1151 X-256.077 Y52.448 Z-2.443 A298.8417 
N1152 X-256.077 Y52.872 Z-1.685 A301.0561 
N1153 X-256.077 Y53.274 Z-0.919 A303.2756 
N1154 X-256.077 Y53.652 Z-0.146 A305.4997 
N1155 X-256.077 Y54.005 Z0.638 A307.7289 
N1156 X-256.077 Y54.332 Z1.432 A309.9643 
N1157 X-256.077 Y54.631 Z2.237 A312.2072 
N1158 X-256.077 Y54.902 Z3.056 A314.4600 
N1159 X-256.077 Y55.142 Z3.889 A316.7274 
N1160 X-256.077 Y55.350 Z4.739 A319.0152 
N1161 X-256.077 Y55.523 Z5.609 A321.3304 
N1162 X-256.077 Y55.659 Z6.504 A323.6840 
N1163 X-256.077 Y55.754 Z7.428 A326.0925 
N1164 X-256.077 Y55.802 Z8.389 A328.5723 
N1165 X-256.077 Y55.795 Z9.394 A331.1401 
N1166 X-256.077 Y55.721 Z10.451 A333.8210 
N1167 X-256.077 Y55.566 Z11.569 A336.6388 
N1168 X-256.077 Y55.306 Z12.751 A339.6037 
N1169 X-256.077 Y54.916 Z13.998 A342.7275 
N1170 X-256.077 Y54.366 Z15.310 A346.0265 
N1171 X-256.077 Y53.617 Z16.667 A349.4765 
N1172 X-256.077 Y52.626 Z17.986 A352.8716 
N1173 X-256.077 Y51.362 Z19.145 A355.8936 
N1174 X-256.077 Y49.816 Z20.049 A358.2879 
N1175 X-256.077 Y47.992 Z20.673 A359.9884 
N1176 X-256.077 Y45.889 Z21.050 A1.0712 
N1177 X-256.077 Y43.501 Z21.231 A1.6617 
N1178 X-256.077 Y40.822 Z21.276 A1.9018 
N1179 X-256.077 Y37.851 Z21.243 A1.9338 
N1180 X-256.077 Y34.598 Z21.181 A1.8870 
N1181 X-256.077 Y31.085 Z21.122 A1.8453 
N1182 X-256.077 Y27.344 Z21.078 
N1183 X-256.077 Y23.419 Z21.033 
N1184 X-256.077 Y19.366 Z20.986 A1.8456 
N1185 X-256.077 Y15.249 Z20.939 A1.8519 
N1186 X-256.077 Y11.133 Z20.890 A1.8539 
N1187 X-256.077 Y7.086 Z20.842 A1.8558 
N1188 X-256.077 Y3.172 Z20.796 A1.8594 
N1189 X-256.077 Y-0.553 Z20.753 A1.8679 
N1190 X-256.077 Y-4.037 Z20.715 A1.8837 
N1191 X-256.077 Y-7.245 Z20.683 A1.9063 
N1192 X-256.077 Y-10.148 Z20.654 A1.9300 
N1193 X-256.077 Y-12.735 Z20.624 A1.9361 
N1194 X-256.077 Y-15.001 Z20.590 A1.9130 
N1195 X-256.077 Y-16.959 Z20.546 A1.8453 
N1196 X-256.077 Y-18.620 Z20.531 
N1197 X-256.077 Y-20.031 Z20.524 A1.8631 
N1198 X-256.077 Y-21.201 Z20.680 A2.3809 
N1199 X-256.077 Y-22.177 Z21.060 A3.6104 
N1200 X-256.077 Y-23.013 Z21.764 A5.8686 
N1201 X-256.077 Y-23.791 Z22.857 A9.3839 
N1202 X-256.077 Y-24.616 Z24.342 A14.2163 
N1203 X-256.077 Y-25.552 Z26.014 A19.8097 
N1204 X-256.077 Y-26.503 Z27.460 A24.8878 
N1205 X-256.077 Y-27.374 Z28.572 A29.0314 
N1206 X-256.077 Y-28.202 Z29.511 A32.7112 
N1207 X-256.077 Y-29.000 Z30.327 A36.0721 
N1208 X-256.077 Y-29.766 Z31.034 A39.1449 
N1209 X-256.077 Y-30.508 Z31.653 A41.9942 
N1210 X-256.077 Y-31.237 Z32.205 A44.6914 
N1211 X-256.077 Y-31.968 Z32.708 A47.3082 
N1212 X-256.077 Y-32.713 Z33.170 A49.8943 
N1213 X-256.077 Y-33.483 Z33.599 A52.4915 
N1214 X-256.077 Y-34.292 Z33.998 A55.1494 
N1215 X-256.077 Y-35.152 Z34.369 A57.9051 
N1216 X-256.077 Y-36.075 Z34.708 A60.7976 
N1217 X-256.077 Y-37.085 Z35.012 A63.8933 
N1218 X-256.077 Y-38.190 Z35.268 A67.2166 
N1219 X-256.077 Y-39.389 Z35.452 A70.7575 
N1220 X-256.077 Y-40.684 Z35.542 A74.5311 
N1221 X-256.077 Y-42.062 Z35.512 A78.5116 
N1222 X-256.077 Y-43.424 Z35.323 A82.4285 
N1223 X-256.077 Y-44.621 Z34.960 A85.8656 
N1224 X-256.077 Y-45.548 Z34.440 A88.5404 
N1225 X-256.077 Y-46.181 Z33.790 A90.3885 
N1226 X-256.077 Y-46.567 Z33.028 A91.5454 
N1227 X-256.077 Y-46.773 Z32.161 A92.2046 
N1228 X-256.077 Y-46.864 Z31.189 A92.5458 
N1229 X-256.077 Y-46.885 Z30.113 A92.7003 
N1230 X-256.077 Y-46.868 Z28.939 A92.7497 
N1231 X-256.077 Y-46.829 Z27.674 A92.7444 
N1232 X-256.077 Y-46.783 Z26.331 A92.7172 
N1233 X-256.077 Y-46.735 Z24.926 A92.6869 
N1234 X-256.077 Y-46.692 Z23.480 A92.6701 
N1235 X-256.077 Y-46.655 Z22.011 
N1236 X-256.077 Y-46.619 Z20.540 
N1237 X-256.077 Y-46.586 Z19.084 A92.6807 
N1238 X-256.077 Y-46.612 Z17.669 A92.8760 
N1239 X-256.077 Y-46.724 Z16.306 A93.3500 
N1240 X-256.077 Y-46.974 Z15.004 A94.2808 
N1241 X-256.077 Y-47.394 Z13.761 A95.7904 
N1242 X-256.077 Y-47.987 Z12.566 A97.9185 
N1243 X-256.077 Y-48.706 Z11.409 A100.5439 
N1244 X-256.077 Y-49.474 Z10.283 A103.4468 
N1245 X-256.077 Y-50.223 Z9.193 A106.4147 
N1246 X-256.077 Y-50.917 Z8.145 A109.3187 
N1247 X-256.077 Y-51.554 Z7.136 A112.1389 
N1248 X-256.077 Y-52.138 Z6.163 A114.8718 
N1249 X-256.077 Y-52.668 Z5.223 A117.5118 
N1250 X-256.077 Y-53.149 Z4.311 A120.0631 
N1251 X-256.077 Y-53.586 Z3.422 A122.5404 
N1252 X-256.077 Y-53.982 Z2.547 A124.9602 
N1253 X-256.077 Y-54.342 Z1.683 A127.3340 
N1254 X-256.077 Y-54.665 Z0.824 A129.6709 
N1255 X-256.077 Y-54.953 Z-0.034 A131.9839 
N1256 X-256.077 Y-55.208 Z-0.896 A134.2858 
N1257 X-256.077 Y-55.428 Z-1.767 A136.5856 
N1258 X-256.077 Y-55.613 Z-2.649 A138.8940 
N1259 X-256.077 Y-55.761 Z-3.549 A141.2243 
N1260 X-256.077 Y-55.870 Z-4.471 A143.5895 
N1261 X-256.077 Y-55.933 Z-5.422 A146.0026 
N1262 X-256.077 Y-55.947 Z-6.407 A148.4835 
N1263 X-256.077 Y-55.902 Z-7.436 A151.0523 
N1264 X-256.077 Y-55.785 Z-8.514 A153.7232 
N1265 X-256.077 Y-55.581 Z-9.647 A156.5166 
N1266 X-256.077 Y-55.272 Z-10.845 A159.4605 
N1267 X-256.077 Y-54.831 Z-12.107 A162.5683 
N1268 X-256.077 Y-54.224 Z-13.413 A165.7930 
N1269 X-256.077 Y-53.417 Z-14.718 A169.0316 
N1270 X-256.077 Y-52.381 Z-15.971 A172.1688 
N1271 X-256.077 Y-51.095 Z-17.098 A175.0298 
N1272 X-256.077 Y-49.552 Z-18.016 A177.3919 
N1273 X-256.077 Y-47.757 Z-18.662 A179.0730 
N1274 X-256.077 Y-45.719 Z-19.037 A180.0484 
N1275 X-256.077 Y-43.444 Z-19.208 A180.4736 
N1276 X-256.077 Y-40.940 Z-19.264 A180.5738 
N1277 X-256.077 Y-38.216 Z-19.282 A180.5523 
N1278 X-256.077 Y-35.292 Z-19.298 A180.5141 
N1279 X-256.077 Y-32.198 Z-19.329 A180.5028 
N1280 X-256.077 Y-28.969 Z-19.366 
N1281 X-256.077 Y-25.652 Z-19.407 A180.5074 
N1282 X-256.077 Y-22.297 Z-19.452 A180.5227 
N1283 X-256.077 Y-18.954 Z-19.497 A180.5384 
N1284 X-256.077 Y-15.675 Z-19.541 A180.5513 
N1285 X-256.077 Y-12.508 Z-19.581 A180.5531 
N1286 X-256.077 Y-9.495 Z-19.615 A180.5402 
N1287 X-256.077 Y-6.669 Z-19.642 A180.5028 
N1288 X-256.077 Y-4.058 Z-19.680 
N1289 X-256.077 Y-1.663 Z-19.716 
N1290 X-256.077 Y0.496 Z-19.852 A180.8407 
N1291 X-256.077 Y2.427 Z-20.148 A181.7289 
N1292 X-256.077 Y4.151 Z-20.653 A183.3614 
N1293 X-256.077 Y5.705 Z-21.365 A185.7645 
N1294 X-256.077 Y7.131 Z-22.232 A188.8073 
N1295 X-256.077 Y8.467 Z-23.184 A192.2836 
N1296 X-256.077 Y9.741 Z-24.153 A195.9768 
N1297 X-256.077 Y10.964 Z-25.075 A199.6858 
N1298 X-256.077 Y12.135 Z-25.900 A203.2303 
N1299 X-256.077 Y13.255 Z-26.612 A206.5434 
N1300 X-256.077 Y14.335 Z-27.227 A209.6609 
N1301 X-256.077 Y15.390 Z-27.760 A212.6334 
N1302 X-256.077 Y16.432 Z-28.219 A215.4932 
N1303 X-256.077 Y17.469 Z-28.606 A218.2573 
N1304 X-256.077 Y18.508 Z-28.921 A220.9415 
N1305 X-256.077 Y19.554 Z-29.162 A223.5539 
N1306 X-256.077 Y20.606 Z-29.324 A226.0910 
N1307 X-256.077 Y21.661 Z-29.400 A228.5370 
N1308 X-256.077 Y22.710 Z-29.384 A230.8692 
N1309 X-256.077 Y23.745 Z-29.268 A233.0628 
N1310 X-256.077 Y24.757 Z-29.051 A235.1001 
N1311 X-256.077 Y25.740 Z-28.735 A236.9735 
N1312 X-256.077 Y26.691 Z-28.322 A238.6830 
N1313 X-256.077 Y27.608 Z-27.818 A240.2381 
N1314 X-256.077 Y28.494 Z-27.233 A241.6627 
N1315 X-256.077 Y29.358 Z-26.578 A242.9935 
N1316 X-256.077 Y30.209 Z-25.864 A244.2756 
N1317 X-256.077 Y31.055 Z-25.103 A245.5515 
N1318 X-256.077 Y31.902 Z-24.304 A246.8514 
N1319 X-256.077 Y32.751 Z-23.473 A248.1938 
N1320 X-256.077 Y33.600 Z-22.617 A249.5877 
N1321 X-256.077 Y34.447 Z-21.743 A251.0369 
N1322 X-256.077 Y35.287 Z-20.855 A252.5406 
N1323 X-256.077 Y36.115 Z-19.959 A254.0918 
N1324 X-256.077 Y36.927 Z-19.060 A255.6800 
N1325 X-256.077 Y37.716 Z-18.161 A257.2978 
N1326 X-256.077 Y38.483 Z-17.268 A258.9415 
N1327 X-256.077 Y39.225 Z-16.386 A260.6105 
N1328 X-256.077 Y39.944 Z-15.518 A262.3062 
N1329 X-256.077 Y40.642 Z-14.667 A264.0312 
N1330 X-256.077 Y41.321 Z-13.836 A265.7905 
N1331 X-256.077 Y41.984 Z-13.024 A267.5905 
N1332 X-256.077 Y42.634 Z-12.233 A269.4359 
N1333 X-256.077 Y43.274 Z-11.461 A271.3294 
N1334 X-256.077 Y43.905 Z-10.706 A273.2712 
N1335 X-256.077 Y44.527 Z-9.967 A275.2597 
N1336 X-256.077 Y45.140 Z-9.240 A277.2921 
N1337 X-256.077 Y45.745 Z-8.524 A279.3643 
N1338 X-256.077 Y46.339 Z-7.816 A281.4720 
N1339 X-256.077 Y46.924 Z-7.114 A283.6100 
N1340 X-256.077 Y47.495 Z-6.414 A285.7731 
N1341 X-256.077 Y48.054 Z-5.715 A287.9569 
N1342 X-256.077 Y48.597 Z-5.014 A290.1580 
N1343 X-256.077 Y49.124 Z-4.310 A292.3725 
N1344 X-256.077 Y49.634 Z-3.602 A294.5975 
N1345 X-256.077 Y50.125 Z-2.887 A296.8305 
N1346 X-256.077 Y50.595 Z-2.165 A299.0700 
N1347 X-256.077 Y51.044 Z-1.434 A301.3146 
N1348 X-256.077 Y51.470 Z-0.694 A303.5632 
N1349 X-256.077 Y51.872 Z0.057 A305.8156 
N1350 X-256.077 Y52.248 Z0.819 A308.0721 
N1351 X-256.077 Y52.598 Z1.594 A310.3339 
N1352 X-256.077 Y52.920 Z2.382 A312.6026 
N1353 X-256.077 Y53.212 Z3.185 A314.8810 
N1354 X-256.077 Y53.474 Z4.004 A317.1741 
N1355 X-256.077 Y53.702 Z4.843 A319.4879 
N1356 X-256.077 Y53.895 Z5.703 A321.8292 
N1357 X-256.077 Y54.050 Z6.589 A324.2099 
N1358 X-256.077 Y54.163 Z7.507 A326.6480 
N1359 X-256.077 Y54.228 Z8.465 A329.1617 
N1360 X-256.077 Y54.235 Z9.470 A331.7700 
N1361 X-256.077 Y54.174 Z10.531 A334.4990 
N1362 X-256.077 Y54.028 Z11.657 A337.3711 
N1363 X-256.077 Y53.772 Z12.847 A340.3925 
N1364 X-256.077 Y53.381 Z14.103 A343.5707 
N1365 X-256.077 Y52.822 Z15.419 A346.9170 
N1366 X-256.077 Y52.058 Z16.770 A350.3892 
N1367 X-256.077 Y51.045 Z18.062 A353.7495 
N1368 X-256.077 Y49.758 Z19.168 A356.6666 
N1369 X-256.077 Y48.194 Z19.999 A358.9000 
N1370 X-256.077 Y46.355 Z20.548 A0.4219 
N1371 X-256.077 Y44.242 Z20.859 A1.3435 
N1372 X-256.077 Y41.845 Z20.992 A1.8153 
N1373 X-256.077 Y39.161 Z21.009 A1.9863 
N1374 X-256.077 Y36.190 Z20.963 A1.9921 
N1375 X-256.077 Y32.944 Z20.899 A1.9442 
N1376 X-256.077 Y29.447 Z20.841 A1.9161 
N1377 X-256.077 Y25.734 Z20.793 
N1378 X-256.077 Y21.850 Z20.743 
N1379 X-256.077 Y17.854 Z20.693 A1.9186 
N1380 X-256.077 Y13.809 Z20.641 A1.9236 
N1381 X-256.077 Y9.780 Z20.588 A1.9251 
N1382 X-256.077 Y5.834 Z20.536 A1.9268 
N1383 X-256.077 Y2.032 Z20.487 A1.9309 
N1384 X-256.077 Y-1.570 Z20.442 A1.9403 
N1385 X-256.077 Y-4.927 Z20.402 A1.9569 
N1386 X-256.077 Y-8.003 Z20.367 A1.9798 
N1387 X-256.077 Y-10.775 Z20.336 A2.0007 
N1388 X-256.077 Y-13.234 Z20.303 A2.0028 
N1389 X-256.077 Y-15.379 Z20.265 A1.9700 
N1390 X-256.077 Y-17.223 Z20.225 A1.9161 
N1391 X-256.077 Y-18.784 Z20.209 
N1392 X-256.077 Y-20.104 Z20.226 A2.0103 
N1393 X-256.077 Y-21.195 Z20.417 A2.6424 
N1394 X-256.077 Y-22.108 Z20.852 A4.0437 
N1395 X-256.077 Y-22.900 Z21.627 A6.5289 
N1396 X-256.077 Y-23.659 Z22.814 A10.3462 
N1397 X-256.077 Y-24.496 Z24.395 A15.5000 
N1398 X-256.077 Y-25.447 Z26.079 A21.1689 
N1399 X-256.077 Y-26.376 Z27.448 A26.0321 
N1400 X-256.077 Y-27.230 Z28.519 A30.0599 
N1401 X-256.077 Y-28.054 Z29.444 A33.7086 
N1402 X-256.077 Y-28.843 Z30.242 A37.0209 
N1403 X-256.077 Y-29.601 Z30.932 A40.0474 
N1404 X-256.077 Y-30.335 Z31.537 A42.8582 
N1405 X-256.077 Y-31.060 Z32.080 A45.5324 
N1406 X-256.077 Y-31.788 Z32.574 A48.1340 
N1407 X-256.077 Y-32.530 Z33.030 A50.7045 
N1408 X-256.077 Y-33.297 Z33.452 A53.2900 
N1409 X-256.077 Y-34.103 Z33.845 A55.9351 
N1410 X-256.077 Y-34.957 Z34.209 A58.6734 
N1411 X-256.077 Y-35.877 Z34.544 A61.5565 
N1412 X-256.077 Y-36.878 Z34.842 A64.6298 
N1413 X-256.077 Y-37.963 Z35.088 A67.8942 
N1414 X-256.077 Y-39.145 Z35.268 A71.3944 
N1415 X-256.077 Y-40.443 Z35.364 A75.1932 
N1416 X-256.077 Y-41.831 Z35.342 A79.2213 
N1417 X-256.077 Y-43.181 Z35.161 A83.1203 
N1418 X-256.077 Y-44.355 Z34.811 A86.5096 
N1419 X-256.077 Y-45.272 Z34.314 A89.1783 
N1420 X-256.077 Y-45.927 Z33.694 A91.1176 
N1421 X-256.077 Y-46.357 Z32.967 A92.4380 
N1422 X-256.077 Y-46.608 Z32.140 A93.2716 
N1423 X-256.077 Y-46.723 Z31.215 A93.7389 
N1424 X-256.077 Y-46.743 Z30.191 A93.9490 
N1425 X-256.077 Y-46.703 Z29.074 A93.9986 
N1426 X-256.077 Y-46.634 Z27.867 A93.9723 
N1427 X-256.077 Y-46.558 Z26.583 A93.9337 
N1428 X-256.077 Y-46.485 Z25.236 A93.9104 
N1429 X-256.077 Y-46.419 Z23.844 A93.9076 
N1430 X-256.077 Y-46.354 Z22.428 
N1431 X-256.077 Y-46.289 Z21.008 
N1432 X-256.077 Y-46.225 Z19.600 
N1433 X-256.077 Y-46.194 Z18.219 A94.0089 
N1434 X-256.077 Y-46.276 Z16.885 A94.4644 
N1435 X-256.077 Y-46.510 Z15.601 A95.4135 
N1436 X-256.077 Y-46.923 Z14.366 A96.9743 
N1437 X-256.077 Y-47.501 Z13.171 A99.1253 
N1438 X-256.077 Y-48.184 Z12.010 A101.7107 
N1439 X-256.077 Y-48.906 Z10.880 A104.5386 
N1440 X-256.077 Y-49.616 Z9.783 A107.4450 
N1441 X-256.077 Y-50.289 Z8.722 A110.3430 
N1442 X-256.077 Y-50.914 Z7.695 A113.1873 
N1443 X-256.077 Y-51.482 Z6.705 A115.9353 
N1444 X-256.077 Y-51.990 Z5.749 A118.5709 
N1445 X-256.077 Y-52.447 Z4.822 A121.1106 
N1446 X-256.077 Y-52.859 Z3.918 A123.5776 
N1447 X-256.077 Y-53.231 Z3.028 A125.9887 
N1448 X-256.077 Y-53.565 Z2.149 A128.3532 
N1449 X-256.077 Y-53.862 Z1.276 A130.6827 
N1450 X-256.077 Y-54.124 Z0.403 A132.9912 
N1451 X-256.077 Y-54.352 Z-0.475 A135.2898 
N1452 X-256.077 Y-54.544 Z-1.362 A137.5880 
N1453 X-256.077 Y-54.699 Z-2.261 A139.8985 
N1454 X-256.077 Y-54.816 Z-3.179 A142.2350 
N1455 X-256.077 Y-54.890 Z-4.121 A144.6091 
N1456 X-256.077 Y-54.916 Z-5.092 A147.0372 
N1457 X-256.077 Y-54.888 Z-6.102 A149.5394 
N1458 X-256.077 Y-54.796 Z-7.155 A152.1316 
N1459 X-256.077 Y-54.625 Z-8.257 A154.8287 
N1460 X-256.077 Y-54.359 Z-9.417 A157.6528 
N1461 X-256.077 Y-53.977 Z-10.636 A160.6208 
N1462 X-256.077 Y-53.450 Z-11.906 A163.7189 
N1463 X-256.077 Y-52.746 Z-13.202 A166.8905 
N1464 X-256.077 Y-51.837 Z-14.487 A170.0642 
N1465 X-256.077 Y-50.695 Z-15.706 A173.1147 
N1466 X-256.077 Y-49.304 Z-16.766 A175.8051 
N1467 X-256.077 Y-47.663 Z-17.580 A177.8896 
N1468 X-256.077 Y-45.784 Z-18.108 A179.2401 
N1469 X-256.077 Y-43.677 Z-18.395 A179.9461 
N1470 X-256.077 Y-41.352 Z-18.522 A180.2147 
N1471 X-256.077 Y-38.818 Z-18.574 A180.2670 
N1472 X-256.077 Y-36.092 Z-18.606 A180.2474 
N1473 X-256.077 Y-33.199 Z-18.640 A180.2207 
N1474 X-256.077 Y-30.174 Z-18.684 A180.2109 
N1475 X-256.077 Y-27.056 Z-18.734 
N1476 X-256.077 Y-23.890 Z-18.790 A180.2222 
N1477 X-256.077 Y-20.726 Z-18.847 A180.2380 
N1478 X-256.077 Y-17.611 Z-18.902 A180.2485 
N1479 X-256.077 Y-14.592 Z-18.952 A180.2480 
N1480 X-256.077 Y-11.708 Z-18.997 A180.2328 
N1481 X-256.077 Y-8.995 Z-19.039 A180.2109 
N1482 X-256.077 Y-6.477 Z-19.087 
N1483 X-256.077 Y-4.160 Z-19.133 A180.2196 
N1484 X-256.077 Y-2.067 Z-19.281 A180.5719 
N1485 X-256.077 Y-0.188 Z-19.582 A181.4547 
N1486 X-256.077 Y1.495 Z-20.100 A183.1014 
N1487 X-256.077 Y3.018 Z-20.837 A185.5608 
N1488 X-256.077 Y4.424 Z-21.734 A188.6772 
N1489 X-256.077 Y5.747 Z-22.704 A192.1916 
N1490 X-256.077 Y7.008 Z-23.668 A195.8592 
N1491 X-256.077 Y8.220 Z-24.580 A199.5201 
N1492 X-256.077 Y9.385 Z-25.401 A203.0411 
N1493 X-256.077 Y10.504 Z-26.117 A206.3567 
N1494 X-256.077 Y11.588 Z-26.736 A209.4864 
N1495 X-256.077 Y12.649 Z-27.274 A212.4743 
N1496 X-256.077 Y13.701 Z-27.737 A215.3533 
N1497 X-256.077 Y14.750 Z-28.126 A218.1395 
N1498 X-256.077 Y15.803 Z-28.440 A220.8435 
N1499 X-256.077 Y16.862 Z-28.677 A223.4696 
N1500 X-256.077 Y17.927 Z-28.831 A226.0121 
N1501 X-256.077 Y18.992 Z-28.894 A228.4524 
N1502 X-256.077 Y20.048 Z-28.860 A230.7625 
N1503 X-256.077 Y21.084 Z-28.723 A232.9115 
N1504 X-256.077 Y22.089 Z-28.479 A234.8775 
N1505 X-256.077 Y23.059 Z-28.133 A236.6546 
N1506 X-256.077 Y23.990 Z-27.689 A238.2481 
N1507 X-256.077 Y24.884 Z-27.157 A239.6735 
N1508 X-256.077 Y25.745 Z-26.546 A240.9634 
N1509 X-256.077 Y26.587 Z-25.872 A242.1679 
N1510 X-256.077 Y27.423 Z-25.148 A243.3505 
N1511 X-256.077 Y28.269 Z-24.389 A244.5739 
N1512 X-256.077 Y29.132 Z-23.603 A245.8799 
N1513 X-256.077 Y30.014 Z-22.797 A247.2887 
N1514 X-256.077 Y30.910 Z-21.974 A248.8016 
N1515 X-256.077 Y31.814 Z-21.136 A250.4090 
N1516 X-256.077 Y32.717 Z-20.285 A252.0945 
N1517 X-256.077 Y33.607 Z-19.423 A253.8327 
N1518 X-256.077 Y34.473 Z-18.552 A255.5925 
N1519 X-256.077 Y35.305 Z-17.675 A257.3488 
N1520 X-256.077 Y36.098 Z-16.796 A259.0859 
N1521 X-256.077 Y36.850 Z-15.922 A260.7980 
N1522 X-256.077 Y37.563 Z-15.058 A262.4863 
N1523 X-256.077 Y38.240 Z-14.207 A264.1574 
N1524 X-256.077 Y38.887 Z-13.374 A265.8245 
N1525 X-256.077 Y39.511 Z-12.561 A267.5058 
N1526 X-256.077 Y40.119 Z-11.769 A269.2186 
N1527 X-256.077 Y40.718 Z-10.999 A270.9768 
N1528 X-256.077 Y41.311 Z-10.249 A272.7898 
N1529 X-256.077 Y41.901 Z-9.517 A274.6632 
N1530 X-256.077 Y42.491 Z-8.802 A276.5998 
N1531 X-256.077 Y43.081 Z-8.099 A278.5986 
N1532 X-256.077 Y43.669 Z-7.407 A280.6545 
N1533 X-256.077 Y44.254 Z-6.722 A282.7604 
N1534 X-256.077 Y44.834 Z-6.041 A284.9088 
N1535 X-256.077 Y45.406 Z-5.363 A287.0930 
N1536 X-256.077 Y45.969 Z-4.685 A289.3071 
N1537 X-256.077 Y46.520 Z-4.004 A291.5445 
N1538 X-256.077 Y47.056 Z-3.319 A293.7992 
N1539 X-256.077 Y47.577 Z-2.628 A296.0669 
N1540 X-256.077 Y48.080 Z-1.930 A298.3444 
N1541 X-256.077 Y48.563 Z-1.224 A300.6288 
N1542 X-256.077 Y49.025 Z-0.508 A302.9179 
N1543 X-256.077 Y49.464 Z0.219 A305.2110 
N1544 X-256.077 Y49.879 Z0.957 A307.5082 
N1545 X-256.077 Y50.269 Z1.708 A309.8103 
N1546 X-256.077 Y50.633 Z2.472 A312.1188 
N1547 X-256.077 Y50.968 Z3.252 A314.4364 
N1548 X-256.077 Y51.273 Z4.050 A316.7689 
N1549 X-256.077 Y51.548 Z4.868 A319.1238 
N1550 X-256.077 Y51.790 Z5.709 A321.5098 
N1551 X-256.077 Y51.995 Z6.579 A323.9414 
N1552 X-256.077 Y52.162 Z7.486 A326.4407 
N1553 X-256.077 Y52.284 Z8.439 A329.0302 
N1554 X-256.077 Y52.352 Z9.445 A331.7320 
N1555 X-256.077 Y52.354 Z10.516 A334.5767 
N1556 X-256.077 Y52.273 Z11.661 A337.5905 
N1557 X-256.077 Y52.083 Z12.881 A340.7768 
N1558 X-256.077 Y51.753 Z14.171 A344.1303 
N1559 X-256.077 Y51.249 Z15.519 A347.6421 
N1560 X-256.077 Y50.533 Z16.889 A351.2416 
N1561 X-256.077 Y49.563 Z18.172 A354.6486 
N1562 X-256.077 Y48.320 Z19.232 A357.5045 
N1563 X-256.077 Y46.807 Z19.986 A359.5752 
N1564 X-256.077 Y45.028 Z20.445 A0.8837 
N1565 X-256.077 Y42.978 Z20.675 A1.6032 
N1566 X-256.077 Y40.648 Z20.754 A1.9336 
N1567 X-256.077 Y38.031 Z20.745 A2.0350 
N1568 X-256.077 Y35.127 Z20.693 A2.0257 
N1569 X-256.077 Y31.949 Z20.630 A1.9865 
N1570 X-256.077 Y28.521 Z20.574 A1.9718 
N1571 X-256.077 Y24.877 Z20.521 
N1572 X-256.077 Y21.066 Z20.467 
N1573 X-256.077 Y17.143 Z20.412 A1.9751 
N1574 X-256.077 Y13.174 Z20.355 A1.9789 
N1575 X-256.077 Y9.221 Z20.297 A1.9801 
N1576 X-256.077 Y5.352 Z20.241 A1.9816 
N1577 X-256.077 Y1.627 Z20.187 A1.9856 
N1578 X-256.077 Y-1.899 Z20.137 A1.9948 
N1579 X-256.077 Y-5.181 Z20.093 A2.0109 
N1580 X-256.077 Y-8.185 Z20.055 A2.0324 
N1581 X-256.077 Y-10.889 Z20.019 A2.0505 
N1582 X-256.077 Y-13.283 Z19.983 A2.0503 
N1583 X-256.077 Y-15.369 Z19.942 A2.0152 
N1584 X-256.077 Y-17.157 Z19.904 A1.9718 
N1585 X-256.077 Y-18.671 Z19.885 
N1586 X-256.077 Y-19.944 Z19.910 A2.0956 
N1587 X-256.077 Y-20.997 Z20.096 A2.7193 
N1588 X-256.077 Y-21.876 Z20.517 A4.0792 
N1589 X-256.077 Y-22.637 Z21.281 A6.5268 
N1590 X-256.077 Y-23.375 Z22.495 A10.4157 
N1591 X-256.077 Y-24.213 Z24.147 A15.7816 
N1592 X-256.077 Y-25.169 Z25.868 A21.5715 
N1593 X-256.077 Y-26.089 Z27.228 A26.4077 
N1594 X-256.077 Y-26.944 Z28.308 A30.4626 
N1595 X-256.077 Y-27.769 Z29.241 A34.1403 
N1596 X-256.077 Y-28.558 Z30.039 A37.4576 
N1597 X-256.077 Y-29.312 Z30.727 A40.4755 
N1598 X-256.077 Y-30.041 Z31.330 A43.2737 
N1599 X-256.077 Y-30.761 Z31.870 A45.9365 
N1600 X-256.077 Y-31.483 Z32.362 A48.5208 
N1601 X-256.077 Y-32.215 Z32.813 A51.0664 
N1602 X-256.077 Y-32.970 Z33.231 A53.6182 
N1603 X-256.077 Y-33.758 Z33.620 A56.2149 
N1604 X-256.077 Y-34.590 Z33.979 A58.8926 
N1605 X-256.077 Y-35.483 Z34.311 A61.7015 
N1606 X-256.077 Y-36.446 Z34.606 A64.6701 
N1607 X-256.077 Y-37.484 Z34.855 A67.8111 
N1608 X-256.077 Y-38.624 Z35.048 A71.2050 
N1609 X-256.077 Y-39.888 Z35.169 A74.9256 
N1610 X-256.077 Y-41.243 Z35.182 A78.8798 
N1611 X-256.077 Y-42.577 Z35.048 A82.7466 
N1612 X-256.077 Y-43.777 Z34.756 A86.2275 
N1613 X-256.077 Y-44.781 Z34.320 A89.1594 
N1614 X-256.077 Y-45.563 Z33.760 A91.4873 
N1615 X-256.077 Y-46.124 Z33.092 A93.2186 
N1616 X-256.077 Y-46.476 Z32.329 A94.3859 
N1617 X-256.077 Y-46.645 Z31.475 A95.0586 
N1618 X-256.077 Y-46.676 Z30.531 A95.3583 
N1619 X-256.077 Y-46.620 Z29.497 A95.4242 
N1620 X-256.077 Y-46.525 Z28.374 A95.3915 
N1621 X-256.077 Y-46.423 Z27.170 A95.3520 
N1622 X-256.077 Y-46.326 Z25.896 A95.3387 
N1623 X-256.077 Y-46.233 Z24.570 A95.3456 
N1624 X-256.077 Y-46.135 Z23.210 A95.3396 
N1625 X-256.077 Y-46.034 Z21.837 A95.3240 
N1626 X-256.077 Y-45.941 Z20.468 
N1627 X-256.077 Y-45.847 Z19.109 
N1628 X-256.077 Y-45.865 Z17.784 A95.6648 
N1629 X-256.077 Y-46.022 Z16.500 A96.4539 
N1630 X-256.077 Y-46.345 Z15.257 A97.7995 
N1631 X-256.077 Y-46.821 Z14.054 A99.6895 
N1632 X-256.077 Y-47.411 Z12.883 A102.0271 
N1633 X-256.077 Y-48.072 Z11.741 A104.6920 
N1634 X-256.077 Y-48.761 Z10.623 A107.5604 
N1635 X-256.077 Y-49.443 Z9.531 A110.5183 
N1636 X-256.077 Y-50.083 Z8.469 A113.4512 
N1637 X-256.077 Y-50.656 Z7.445 A116.2654 
N1638 X-256.077 Y-51.160 Z6.462 A118.9377 
N1639 X-256.077 Y-51.607 Z5.511 A121.5000 
N1640 X-256.077 Y-52.008 Z4.585 A123.9841 
N1641 X-256.077 Y-52.368 Z3.676 A126.4084 
N1642 X-256.077 Y-52.688 Z2.780 A128.7819 
N1643 X-256.077 Y-52.970 Z1.890 A131.1177 
N1644 X-256.077 Y-53.216 Z1.002 A133.4300 
N1645 X-256.077 Y-53.427 Z0.111 A135.7295 
N1646 X-256.077 Y-53.600 Z-0.787 A138.0273 
N1647 X-256.077 Y-53.737 Z-1.699 A140.3375 
N1648 X-256.077 Y-53.833 Z-2.628 A142.6731 
N1649 X-256.077 Y-53.885 Z-3.581 A145.0465 
N1650 X-256.077 Y-53.889 Z-4.564 A147.4754 
N1651 X-256.077 Y-53.836 Z-5.584 A149.9785 
N1652 X-256.077 Y-53.715 Z-6.648 A152.5694 
N1653 X-256.077 Y-53.513 Z-7.760 A155.2646 
N1654 X-256.077 Y-53.214 Z-8.926 A158.0833 
N1655 X-256.077 Y-52.794 Z-10.148 A161.0336 
N1656 X-256.077 Y-52.227 Z-11.412 A164.0947 
N1657 X-256.077 Y-51.483 Z-12.697 A167.2239 
N1658 X-256.077 Y-50.536 Z-13.973 A170.3655 
N1659 X-256.077 Y-49.360 Z-15.171 A173.3586 
N1660 X-256.077 Y-47.941 Z-16.193 A175.9400 
N1661 X-256.077 Y-46.283 Z-16.955 A177.8704 
N1662 X-256.077 Y-44.401 Z-17.441 A179.0850 
N1663 X-256.077 Y-42.308 Z-17.709 A179.7141 
N1664 X-256.077 Y-40.013 Z-17.840 A179.9660 
N1665 X-256.077 Y-37.532 Z-17.906 A180.0305 
N1666 X-256.077 Y-34.882 Z-17.951 A180.0211 
N1667 X-256.077 Y-32.092 Z-17.994 A179.9957 
N1668 X-256.077 Y-29.196 Z-18.046 A179.9797 
N1669 X-256.077 Y-26.235 Z-18.105 A179.9804 
N1670 X-256.077 Y-23.252 Z-18.171 A179.9940 
N1671 X-256.077 Y-20.292 Z-18.236 A180.0060 
N1672 X-256.077 Y-17.401 Z-18.296 A180.0060 
N1673 X-256.077 Y-14.617 Z-18.351 A179.9881 
N1674 X-256.077 Y-11.977 Z-18.406 A179.9777 
N1675 X-256.077 Y-9.506 Z-18.464 
N1676 X-256.077 Y-7.216 Z-18.518 A179.9860 
N1677 X-256.077 Y-5.133 Z-18.652 A180.2674 
N1678 X-256.077 Y-3.251 Z-18.910 A180.9813 
N1679 X-256.077 Y-1.561 Z-19.361 A182.3763 
N1680 X-256.077 Y-0.033 Z-20.038 A184.5912 
N1681 X-256.077 Y1.375 Z-20.908 A187.5551 
N1682 X-256.077 Y2.700 Z-21.879 A191.0040 
N1683 X-256.077 Y3.962 Z-22.853 A194.6343 
N1684 X-256.077 Y5.172 Z-23.771 A198.2551 
N1685 X-256.077 Y6.337 Z-24.611 A201.7731 
N1686 X-256.077 Y7.460 Z-25.355 A205.1237 
N1687 X-256.077 Y8.549 Z-26.005 A208.2968 
N1688 X-256.077 Y9.615 Z-26.570 A211.3235 
N1689 X-256.077 Y10.671 Z-27.060 A214.2400 
N1690 X-256.077 Y11.725 Z-27.477 A217.0679 
N1691 X-256.077 Y12.784 Z-27.820 A219.8168 
N1692 X-256.077 Y13.851 Z-28.086 A222.4899 
N1693 X-256.077 Y14.926 Z-28.269 A225.0830 
N1694 X-256.077 Y16.004 Z-28.362 A227.5805 
N1695 X-256.077 Y17.077 Z-28.356 A229.9532 
N1696 X-256.077 Y18.131 Z-28.246 A232.1652 
N1697 X-256.077 Y19.153 Z-28.025 A234.1831 
N1698 X-256.077 Y20.135 Z-27.696 A235.9901 
N1699 X-256.077 Y21.072 Z-27.263 A237.5851 
N1700 X-256.077 Y21.962 Z-26.736 A238.9772 
N1701 X-256.077 Y22.809 Z-26.125 A240.1918 
N1702 X-256.077 Y23.626 Z-25.445 A241.2805 
N1703 X-256.077 Y24.430 Z-24.715 A242.3185 
N1704 X-256.077 Y25.245 Z-23.954 A243.3960 
N1705 X-256.077 Y26.088 Z-23.175 A244.5864 
N1706 X-256.077 Y26.965 Z-22.387 A245.9308 
N1707 X-256.077 Y27.876 Z-21.593 A247.4399 
N1708 X-256.077 Y28.812 Z-20.792 A249.1008 
N1709 X-256.077 Y29.762 Z-19.983 A250.8896 
N1710 X-256.077 Y30.711 Z-19.164 A252.7710 
N1711 X-256.077 Y31.642 Z-18.333 A254.6970 
N1712 X-256.077 Y32.538 Z-17.491 A256.6206 
N1713 X-256.077 Y33.388 Z-16.641 A258.5072 
N1714 X-256.077 Y34.185 Z-15.787 A260.3375 
N1715 X-256.077 Y34.930 Z-14.935 A262.1064 
N1716 X-256.077 Y35.625 Z-14.091 A263.8163 
N1717 X-256.077 Y36.275 Z-13.260 A265.4780 
N1718 X-256.077 Y36.889 Z-12.445 A267.1111 
N1719 X-256.077 Y37.475 Z-11.650 A268.7386 
N1720 X-256.077 Y38.043 Z-10.877 A270.3823 
N1721 X-256.077 Y38.600 Z-10.125 A272.0622 
N1722 X-256.077 Y39.154 Z-9.393 A273.7954 
N1723 X-256.077 Y39.709 Z-8.681 A275.5949 
N1724 X-256.077 Y40.269 Z-7.984 A277.4686 
N1725 X-256.077 Y40.835 Z-7.301 A279.4164 
N1726 X-256.077 Y41.405 Z-6.629 A281.4335 
N1727 X-256.077 Y41.978 Z-5.963 A283.5134 
N1728 X-256.077 Y42.551 Z-5.302 A285.6491 
N1729 X-256.077 Y43.121 Z-4.643 A287.8331 
N1730 X-256.077 Y43.687 Z-3.982 A290.0571 
N1731 X-256.077 Y44.244 Z-3.319 A292.3122 
N1732 X-256.077 Y44.790 Z-2.650 A294.5912 
N1733 X-256.077 Y45.322 Z-1.975 A296.8891 
N1734 X-256.077 Y45.839 Z-1.292 A299.2008 
N1735 X-256.077 Y46.337 Z-0.600 A301.5221 
N1736 X-256.077 Y46.816 Z0.103 A303.8505 
N1737 X-256.077 Y47.272 Z0.818 A306.1850 
N1738 X-256.077 Y47.706 Z1.545 A308.5251 
N1739 X-256.077 Y48.114 Z2.286 A310.8701 
N1740 X-256.077 Y48.495 Z3.042 A313.2203 
N1741 X-256.077 Y48.848 Z3.814 A315.5808 
N1742 X-256.077 Y49.172 Z4.606 A317.9617 
N1743 X-256.077 Y49.466 Z5.423 A320.3763 
N1744 X-256.077 Y49.729 Z6.271 A322.8429 
N1745 X-256.077 Y49.959 Z7.159 A325.3869 
N1746 X-256.077 Y50.150 Z8.096 A328.0342 
N1747 X-256.077 Y50.294 Z9.092 A330.8038 
N1748 X-256.077 Y50.378 Z10.156 A333.7240 
N1749 X-256.077 Y50.386 Z11.302 A336.8318 
N1750 X-256.077 Y50.295 Z12.535 A340.1445 
N1751 X-256.077 Y50.071 Z13.847 A343.6452 
N1752 X-256.077 Y49.677 Z15.218 A347.2919 
N1753 X-256.077 Y49.074 Z16.610 A351.0104 
N1754 X-256.077 Y48.224 Z17.924 A354.5526 
N1755 X-256.077 Y47.107 Z19.021 A357.5478 
N1756 X-256.077 Y45.725 Z19.799 A359.7160 
N1757 X-256.077 Y44.086 Z20.258 A1.0434 
N1758 X-256.077 Y42.186 Z20.472 A1.7268 
N1759 X-256.077 Y40.012 Z20.534 A2.0126 
N1760 X-256.077 Y37.555 Z20.517 A2.0937 
N1761 X-256.077 Y34.810 Z20.465 A2.0870 
N1762 X-256.077 Y31.788 Z20.403 A2.0571 
N1763 X-256.077 Y28.510 Z20.344 A2.0441 
N1764 X-256.077 Y25.007 Z20.288 
N1765 X-256.077 Y21.322 Z20.228 
N1766 X-256.077 Y17.511 Z20.167 A2.0459 
N1767 X-256.077 Y13.634 Z20.105 A2.0497 
N1768 X-256.077 Y9.757 Z20.041 A2.0510 
N1769 X-256.077 Y5.943 Z19.979 A2.0522 
N1770 X-256.077 Y2.255 Z19.918 A2.0552 
N1771 X-256.077 Y-1.251 Z19.862 A2.0624 
N1772 X-256.077 Y-4.527 Z19.811 A2.0757 
N1773 X-256.077 Y-7.538 Z19.766 A2.0945 
N1774 X-256.077 Y-10.258 Z19.725 A2.1133 
N1775 X-256.077 Y-12.674 Z19.685 A2.1167 
N1776 X-256.077 Y-14.785 Z19.643 A2.0948 
N1777 X-256.077 Y-16.602 Z19.598 A2.0441 
N1778 X-256.077 Y-18.139 Z19.576 
N1779 X-256.077 Y-19.435 Z19.570 A2.0858 
N1780 X-256.077 Y-20.505 Z19.695 A2.5222 
N1781 X-256.077 Y-21.392 Z20.012 A3.5580 
N1782 X-256.077 Y-22.144 Z20.639 A5.5660 
N1783 X-256.077 Y-22.847 Z21.715 A8.9969 
N1784 X-256.077 Y-23.630 Z23.308 A14.1201 
N1785 X-256.077 Y-24.565 Z25.125 A20.1343 
N1786 X-256.077 Y-25.509 Z26.630 A25.3766 
N1787 X-256.077 Y-26.381 Z27.794 A29.6692 
N1788 X-256.077 Y-27.223 Z28.788 A33.5221 
N1789 X-256.077 Y-28.027 Z29.634 A36.9764 
N1790 X-256.077 Y-28.791 Z30.356 A40.0909 
N1791 X-256.077 Y-29.526 Z30.982 A42.9517 
N1792 X-256.077 Y-30.246 Z31.541 A45.6523 
N1793 X-256.077 Y-30.965 Z32.046 A48.2559 
N1794 X-256.077 Y-31.690 Z32.507 A50.8016 
N1795 X-256.077 Y-32.431 Z32.932 A53.3322 
N1796 X-256.077 Y-33.199 Z33.326 A55.8869 
N1797 X-256.077 Y-34.004 Z33.690 A58.5022 
N1798 X-256.077 Y-34.861 Z34.026 A61.2251 
N1799 X-256.077 Y-35.781 Z34.330 A64.0866 
N1800 X-256.077 Y-36.768 Z34.592 A67.0984 
N1801 X-256.077 Y-37.845 Z34.806 A70.3310 
N1802 X-256.077 Y-39.034 Z34.958 A73.8536 
N1803 X-256.077 Y-40.316 Z35.020 A77.6139 
N1804 X-256.077 Y-41.619 Z34.956 A81.4062 
N1805 X-256.077 Y-42.867 Z34.749 A85.0330 
N1806 X-256.077 Y-44.005 Z34.398 A88.3597 
N1807 X-256.077 Y-44.972 Z33.915 A91.2314 
N1808 X-256.077 Y-45.718 Z33.317 A93.5131 
N1809 X-256.077 Y-46.215 Z32.624 A95.1254 
N1810 X-256.077 Y-46.476 Z31.847 A96.0934 
N1811 X-256.077 Y-46.552 Z30.989 A96.5593 
N1812 X-256.077 Y-46.509 Z30.046 A96.7045 
N1813 X-256.077 Y-46.408 Z29.016 A96.7068 
N1814 X-256.077 Y-46.291 Z27.902 A96.6827 
N1815 X-256.077 Y-46.174 Z26.711 A96.6761 
N1816 X-256.077 Y-46.056 Z25.459 A96.6809 
N1817 X-256.077 Y-45.930 Z24.162 A96.6719 
N1818 X-256.077 Y-45.792 Z22.839 A96.6308 
N1819 X-256.077 Y-45.670 Z21.509 
N1820 X-256.077 Y-45.548 Z20.179 
N1821 X-256.077 Y-45.488 Z18.864 A96.8202 
N1822 X-256.077 Y-45.555 Z17.581 A97.4097 
N1823 X-256.077 Y-45.760 Z16.333 A98.4575 
N1824 X-256.077 Y-46.111 Z15.121 A100.0083 
N1825 X-256.077 Y-46.591 Z13.941 A102.0317 
N1826 X-256.077 Y-47.177 Z12.785 A104.4794 
N1827 X-256.077 Y-47.835 Z11.646 A107.2604 
N1828 X-256.077 Y-48.516 Z10.523 A110.2318 
N1829 X-256.077 Y-49.167 Z9.426 A113.2229 
N1830 X-256.077 Y-49.749 Z8.368 A116.0946 
N1831 X-256.077 Y-50.255 Z7.354 A118.8087 
N1832 X-256.077 Y-50.701 Z6.376 A121.4033 
N1833 X-256.077 Y-51.098 Z5.425 A123.9149 
N1834 X-256.077 Y-51.453 Z4.495 A126.3630 
N1835 X-256.077 Y-51.768 Z3.579 A128.7563 
N1836 X-256.077 Y-52.044 Z2.673 A131.1077 
N1837 X-256.077 Y-52.282 Z1.771 A133.4315 
N1838 X-256.077 Y-52.485 Z0.868 A135.7386 
N1839 X-256.077 Y-52.649 Z-0.042 A138.0411 
N1840 X-256.077 Y-52.776 Z-0.963 A140.3539 
N1841 X-256.077 Y-52.862 Z-1.900 A142.6902 
N1842 X-256.077 Y-52.904 Z-2.861 A145.0630 
N1843 X-256.077 Y-52.897 Z-3.850 A147.4900 
N1844 X-256.077 Y-52.832 Z-4.876 A149.9891 
N1845 X-256.077 Y-52.700 Z-5.944 A152.5735 
N1846 X-256.077 Y-52.486 Z-7.058 A155.2592 
N1847 X-256.077 Y-52.174 Z-8.225 A158.0622 
N1848 X-256.077 Y-51.742 Z-9.442 A160.9856 
N1849 X-256.077 Y-51.165 Z-10.698 A164.0103 
N1850 X-256.077 Y-50.416 Z-11.975 A167.1054 
N1851 X-256.077 Y-49.470 Z-13.244 A170.2210 
N1852 X-256.077 Y-48.301 Z-14.434 A173.1797 
N1853 X-256.077 Y-46.898 Z-15.443 A175.7114 
N1854 X-256.077 Y-45.268 Z-16.192 A177.5870 
N1855 X-256.077 Y-43.426 Z-16.675 A178.7689 
N1856 X-256.077 Y-41.387 Z-16.951 A179.3940 
N1857 X-256.077 Y-39.164 Z-17.098 A179.6609 
N1858 X-256.077 Y-36.773 Z-17.180 A179.7406 
N1859 X-256.077 Y-34.234 Z-17.238 A179.7377 
N1860 X-256.077 Y-31.576 Z-17.293 A179.7124 
N1861 X-256.077 Y-28.833 Z-17.355 A179.6966 
N1862 X-256.077 Y-26.043 Z-17.427 A179.7004 
N1863 X-256.077 Y-23.247 Z-17.504 A179.7158 
N1864 X-256.077 Y-20.489 Z-17.579 A179.7231 
N1865 X-256.077 Y-17.806 Z-17.646 A179.7084 
N1866 X-256.077 Y-15.236 Z-17.710 A179.6844 
N1867 X-256.077 Y-12.808 Z-17.780 
N1868 X-256.077 Y-10.536 Z-17.846 
N1869 X-256.077 Y-8.446 Z-17.968 A179.8869 
N1870 X-256.077 Y-6.545 Z-18.188 A180.4381 
N1871 X-256.077 Y-4.830 Z-18.557 A181.5251 
N1872 X-256.077 Y-3.280 Z-19.126 A183.3302 
N1873 X-256.077 Y-1.861 Z-19.908 A185.9282 
N1874 X-256.077 Y-0.533 Z-20.845 A189.1666 
N1875 X-256.077 Y0.732 Z-21.832 A192.7352 
N1876 X-256.077 Y1.944 Z-22.775 A196.3344 
N1877 X-256.077 Y3.107 Z-23.639 A199.8359 
N1878 X-256.077 Y4.229 Z-24.418 A203.2035 
N1879 X-256.077 Y5.318 Z-25.109 A206.4194 
N1880 X-256.077 Y6.383 Z-25.716 A209.4897 
N1881 X-256.077 Y7.434 Z-26.246 A212.4422 
N1882 X-256.077 Y8.483 Z-26.705 A215.3065 
N1883 X-256.077 Y9.538 Z-27.093 A218.0991 
N1884 X-256.077 Y10.603 Z-27.408 A220.8252 
N1885 X-256.077 Y11.680 Z-27.643 A223.4826 
N1886 X-256.077 Y12.767 Z-27.793 A226.0623 
N1887 X-256.077 Y13.856 Z-27.848 A228.5421 
N1888 X-256.077 Y14.937 Z-27.801 A230.8858 
N1889 X-256.077 Y15.994 Z-27.643 A233.0523 
N1890 X-256.077 Y17.014 Z-27.372 A235.0069 
N1891 X-256.077 Y17.985 Z-26.990 A236.7310 
N1892 X-256.077 Y18.903 Z-26.502 A238.2184 
N1893 X-256.077 Y19.763 Z-25.918 A239.4707 
N1894 X-256.077 Y20.570 Z-25.250 A240.5170 
N1895 X-256.077 Y21.343 Z-24.518 A241.4247 
N1896 X-256.077 Y22.106 Z-23.745 A242.2946 
N1897 X-256.077 Y22.889 Z-22.955 A243.2434 
N1898 X-256.077 Y23.715 Z-22.162 A244.3585 
N1899 X-256.077 Y24.592 Z-21.376 A245.6881 
N1900 X-256.077 Y25.517 Z-20.597 A247.2427 
N1901 X-256.077 Y26.482 Z-19.823 A249.0063 
N1902 X-256.077 Y27.473 Z-19.049 A250.9459 
N1903 X-256.077 Y28.469 Z-18.268 A253.0068 
N1904 X-256.077 Y29.446 Z-17.475 A255.1164 
N1905 X-256.077 Y30.381 Z-16.668 A257.2085 
N1906 X-256.077 Y31.260 Z-15.850 A259.2368 
N1907 X-256.077 Y32.076 Z-15.024 A261.1789 
N1908 X-256.077 Y32.830 Z-14.197 A263.0289 
N1909 X-256.077 Y33.523 Z-13.376 A264.7886 
N1910 X-256.077 Y34.162 Z-12.565 A266.4685 
N1911 X-256.077 Y34.755 Z-11.769 A268.0880 
N1912 X-256.077 Y35.312 Z-10.991 A269.6704 
N1913 X-256.077 Y35.843 Z-10.234 A271.2418 
N1914 X-256.077 Y36.359 Z-9.499 A272.8303 
N1915 X-256.077 Y36.871 Z-8.784 A274.4625 
N1916 X-256.077 Y37.386 Z-8.090 A276.1601 
N1917 X-256.077 Y37.911 Z-7.413 A277.9375 
N1918 X-256.077 Y38.446 Z-6.749 A279.7999 
N1919 X-256.077 Y38.993 Z-6.097 A281.7483 
N1920 X-256.077 Y39.551 Z-5.452 A283.7803 
N1921 X-256.077 Y40.117 Z-4.811 A285.8899 
N1922 X-256.077 Y40.689 Z-4.171 A288.0672 
N1923 X-256.077 Y41.262 Z-3.529 A290.3003 
N1924 X-256.077 Y41.831 Z-2.882 A292.5782 
N1925 X-256.077 Y42.394 Z-2.229 A294.8924 
N1926 X-256.077 Y42.947 Z-1.568 A297.2348 
N1927 X-256.077 Y43.486 Z-0.897 A299.5962 
N1928 X-256.077 Y44.007 Z-0.216 A301.9670 
N1929 X-256.077 Y44.507 Z0.475 A304.3404 
N1930 X-256.077 Y44.984 Z1.177 A306.7128 
N1931 X-256.077 Y45.436 Z1.892 A309.0847 
N1932 X-256.077 Y45.864 Z2.621 A311.4615 
N1933 X-256.077 Y46.266 Z3.368 A313.8530 
N1934 X-256.077 Y46.644 Z4.136 A316.2708 
N1935 X-256.077 Y46.997 Z4.930 A318.7262 
N1936 X-256.077 Y47.320 Z5.755 A321.2286 
N1937 X-256.077 Y47.612 Z6.615 A323.7948 
N1938 X-256.077 Y47.869 Z7.522 A326.4519 
N1939 X-256.077 Y48.086 Z8.486 A329.2271 
N1940 X-256.077 Y48.252 Z9.517 A332.1486 
N1941 X-256.077 Y48.354 Z10.632 A335.2617 
N1942 X-256.077 Y48.373 Z11.845 A338.6071 
N1943 X-256.077 Y48.278 Z13.153 A342.1820 
N1944 X-256.077 Y48.028 Z14.534 A345.9278 
N1945 X-256.077 Y47.583 Z15.948 A349.7546 
N1946 X-256.077 Y46.906 Z17.320 A353.4901 
N1947 X-256.077 Y45.970 Z18.519 A356.7846 
N1948 X-256.077 Y44.774 Z19.418 A359.3011 
N1949 X-256.077 Y43.329 Z19.973 A0.9041 
N1950 X-256.077 Y41.634 Z20.242 A1.7438 
N1951 X-256.077 Y39.678 Z20.325 A2.0879 
N1952 X-256.077 Y37.446 Z20.314 A2.1847 
N1953 X-256.077 Y34.931 Z20.264 A2.1842 
N1954 X-256.077 Y32.135 Z20.202 A2.1594 
N1955 X-256.077 Y29.072 Z20.139 A2.1435 
N1956 X-256.077 Y25.770 Z20.079 
N1957 X-256.077 Y22.264 Z20.016 
N1958 X-256.077 Y18.603 Z19.949 
N1959 X-256.077 Y14.847 Z19.882 A2.1475 
N1960 X-256.077 Y11.055 Z19.813 A2.1491 
N1961 X-256.077 Y7.294 Z19.743 A2.1498 
N1962 X-256.077 Y3.626 Z19.675 A2.1512 
N1963 X-256.077 Y0.109 Z19.611 A2.1552 
N1964 X-256.077 Y-3.204 Z19.552 A2.1639 
N1965 X-256.077 Y-6.272 Z19.498 A2.1781 
N1966 X-256.077 Y-9.065 Z19.451 A2.1957 
N1967 X-256.077 Y-11.565 Z19.407 A2.2066 
N1968 X-256.077 Y-13.765 Z19.363 A2.2011 
N1969 X-256.077 Y-15.670 Z19.317 A2.1655 
N1970 X-256.077 Y-17.292 Z19.282 A2.1435 
N1971 X-256.077 Y-18.658 Z19.259 
N1972 X-256.077 Y-19.795 Z19.289 A2.2943 
N1973 X-256.077 Y-20.730 Z19.455 A2.8611 
N1974 X-256.077 Y-21.506 Z19.857 A4.1596 
N1975 X-256.077 Y-22.186 Z20.667 A6.7320 
N1976 X-256.077 Y-22.890 Z22.062 A11.1615 
N1977 X-256.077 Y-23.757 Z23.936 A17.2254 
N1978 X-256.077 Y-24.728 Z25.695 A23.1674 
N1979 X-256.077 Y-25.634 Z27.020 A27.9119 
N1980 X-256.077 Y-26.494 Z28.108 A32.0170 
N1981 X-256.077 Y-27.320 Z29.033 A35.6935 
N1982 X-256.077 Y-28.102 Z29.815 A38.9738 
N1983 X-256.077 Y-28.846 Z30.486 A41.9450 
N1984 X-256.077 Y-29.569 Z31.075 A44.7110 
N1985 X-256.077 Y-30.284 Z31.605 A47.3519 
N1986 X-256.077 Y-30.999 Z32.086 A49.9097 
N1987 X-256.077 Y-31.723 Z32.527 A52.4236 
N1988 X-256.077 Y-32.466 Z32.932 A54.9337 
N1989 X-256.077 Y-33.237 Z33.308 A57.4772 
N1990 X-256.077 Y-34.050 Z33.656 A60.0977 
N1991 X-256.077 Y-34.917 Z33.977 A62.8348 
N1992 X-256.077 Y-35.844 Z34.261 A65.7025 
N1993 X-256.077 Y-36.844 Z34.505 A68.7418 
N1994 X-256.077 Y-37.935 Z34.698 A72.0096 
N1995 X-256.077 Y-39.114 Z34.819 A75.4954 
N1996 X-256.077 Y-40.355 Z34.844 A79.1318 
N1997 X-256.077 Y-41.631 Z34.751 A82.8533 
N1998 X-256.077 Y-42.907 Z34.525 A86.5856 
N1999 X-256.077 Y-44.094 Z34.155 A90.0906 
N2000 X-256.077 Y-45.080 Z33.653 A93.0669 
N2001 X-256.077 Y-45.794 Z33.046 A95.3076 
N2002 X-256.077 Y-46.223 Z32.358 A96.7732 
N2003 X-256.077 Y-46.418 Z31.596 A97.6037 
N2004 X-256.077 Y-46.451 Z30.758 A98.0000 
N2005 X-256.077 Y-46.390 Z29.837 A98.1577 
N2006 X-256.077 Y-46.283 Z28.831 A98.2130 
N2007 X-256.077 Y-46.153 Z27.742 A98.2315 
N2008 X-256.077 Y-46.008 Z26.581 A98.2320 
N2009 X-256.077 Y-45.850 Z25.362 A98.2124 
N2010 X-256.077 Y-45.681 Z24.100 A98.1684 
N2011 X-256.077 Y-45.516 Z22.812 A98.1420 
N2012 X-256.077 Y-45.361 Z21.512 
N2013 X-256.077 Y-45.209 Z20.210 A98.1551 
N2014 X-256.077 Y-45.146 Z18.930 A98.4414 
N2015 X-256.077 Y-45.176 Z17.677 A99.0245 
N2016 X-256.077 Y-45.334 Z16.457 A100.0250 
N2017 X-256.077 Y-45.639 Z15.267 A101.5234 
N2018 X-256.077 Y-46.103 Z14.098 A103.5825 
N2019 X-256.077 Y-46.709 Z12.936 A106.1789 
N2020 X-256.077 Y-47.398 Z11.777 A109.1514 
N2021 X-256.077 Y-48.087 Z10.632 A112.2555 
N2022 X-256.077 Y-48.713 Z9.522 A115.2748 
N2023 X-256.077 Y-49.253 Z8.458 A118.1190 
N2024 X-256.077 Y-49.724 Z7.436 A120.8205 
N2025 X-256.077 Y-50.138 Z6.447 A123.4187 
N2026 X-256.077 Y-50.505 Z5.483 A125.9358 
N2027 X-256.077 Y-50.826 Z4.540 A128.3824 
N2028 X-256.077 Y-51.105 Z3.612 A130.7727 
N2029 X-256.077 Y-51.345 Z2.693 A133.1231 
N2030 X-256.077 Y-51.545 Z1.776 A135.4459 
N2031 X-256.077 Y-51.707 Z0.857 A137.7545 
N2032 X-256.077 Y-51.829 Z-0.070 A140.0656 
N2033 X-256.077 Y-51.910 Z-1.012 A142.3938 
N2034 X-256.077 Y-51.947 Z-1.974 A144.7526 
N2035 X-256.077 Y-51.935 Z-2.963 A147.1600 
N2036 X-256.077 Y-51.866 Z-3.986 A149.6342 
N2037 X-256.077 Y-51.731 Z-5.048 A152.1884 
N2038 X-256.077 Y-51.517 Z-6.155 A154.8378 
N2039 X-256.077 Y-51.208 Z-7.311 A157.5970 
N2040 X-256.077 Y-50.784 Z-8.514 A160.4685 
N2041 X-256.077 Y-50.220 Z-9.756 A163.4393 
N2042 X-256.077 Y-49.494 Z-11.023 A166.4919 
N2043 X-256.077 Y-48.582 Z-12.291 A169.5885 
N2044 X-256.077 Y-47.457 Z-13.491 A172.5547 
N2045 X-256.077 Y-46.107 Z-14.520 A175.1175 
N2046 X-256.077 Y-44.539 Z-15.297 A177.0429 
N2047 X-256.077 Y-42.770 Z-15.814 A178.2879 
N2048 X-256.077 Y-40.818 Z-16.125 A178.9779 
N2049 X-256.077 Y-38.696 Z-16.301 A179.2982 
N2050 X-256.077 Y-36.422 Z-16.405 A179.4105 
N2051 X-256.077 Y-34.016 Z-16.477 A179.4203 
N2052 X-256.077 Y-31.507 Z-16.543 A179.3959 
N2053 X-256.077 Y-28.926 Z-16.615 A179.3784 
N2054 X-256.077 Y-26.310 Z-16.697 A179.3823 
N2055 X-256.077 Y-23.698 Z-16.784 A179.3975 
N2056 X-256.077 Y-21.128 Z-16.868 A179.4022 
N2057 X-256.077 Y-18.635 Z-16.941 A179.3747 
N2058 X-256.077 Y-16.255 Z-17.016 A179.3563 
N2059 X-256.077 Y-14.008 Z-17.096 
N2060 X-256.077 Y-11.905 Z-17.181 A179.3970 
N2061 X-256.077 Y-9.979 Z-17.366 A179.7787 
N2062 X-256.077 Y-8.226 Z-17.664 A180.5757 
N2063 X-256.077 Y-6.640 Z-18.126 A181.9646 
N2064 X-256.077 Y-5.197 Z-18.780 A184.0635 
N2065 X-256.077 Y-3.861 Z-19.627 A186.9004 
N2066 X-256.077 Y-2.595 Z-20.599 A190.2875 
N2067 X-256.077 Y-1.378 Z-21.590 A193.9017 
N2068 X-256.077 Y-0.209 Z-22.509 A197.4565 
N2069 X-256.077 Y0.915 Z-23.336 A200.8631 
N2070 X-256.077 Y2.004 Z-24.075 A204.1234 
N2071 X-256.077 Y3.065 Z-24.733 A207.2458 
N2072 X-256.077 Y4.110 Z-25.312 A210.2416 
N2073 X-256.077 Y5.147 Z-25.819 A213.1366 
N2074 X-256.077 Y6.187 Z-26.257 A215.9576 
N2075 X-256.077 Y7.238 Z-26.627 A218.7186 
N2076 X-256.077 Y8.303 Z-26.923 A221.4224 
N2077 X-256.077 Y9.384 Z-27.139 A224.0649 
N2078 X-256.077 Y10.477 Z-27.269 A226.6363 
N2079 X-256.077 Y11.574 Z-27.304 A229.1113 
N2080 X-256.077 Y12.663 Z-27.234 A231.4513 
N2081 X-256.077 Y13.728 Z-27.052 A233.6144 
N2082 X-256.077 Y14.754 Z-26.755 A235.5646 
N2083 X-256.077 Y15.729 Z-26.345 A237.2754 
N2084 X-256.077 Y16.642 Z-25.827 A238.7252 
N2085 X-256.077 Y17.484 Z-25.206 A239.8991 
N2086 X-256.077 Y18.261 Z-24.499 A240.8236 
N2087 X-256.077 Y18.992 Z-23.727 A241.5772 
N2088 X-256.077 Y19.711 Z-22.919 A242.2824 
N2089 X-256.077 Y20.453 Z-22.100 A243.0771 
N2090 X-256.077 Y21.244 Z-21.290 A244.0643 
N2091 X-256.077 Y22.098 Z-20.500 A245.3072 
N2092 X-256.077 Y23.016 Z-19.733 A246.8321 
N2093 X-256.077 Y23.993 Z-18.984 A248.6349 
N2094 X-256.077 Y25.014 Z-18.245 A250.6811 
N2095 X-256.077 Y26.054 Z-17.506 A252.8962 
N2096 X-256.077 Y27.078 Z-16.756 A255.1775 
N2097 X-256.077 Y28.057 Z-15.989 A257.4355 
N2098 X-256.077 Y28.973 Z-15.207 A259.6117 
N2099 X-256.077 Y29.820 Z-14.414 A261.6831 
N2100 X-256.077 Y30.597 Z-13.618 A263.6425 
N2101 X-256.077 Y31.305 Z-12.823 A265.4875 
N2102 X-256.077 Y31.950 Z-12.036 A267.2232 
N2103 X-256.077 Y32.537 Z-11.262 A268.8632 
N2104 X-256.077 Y33.077 Z-10.504 A270.4292 
N2105 X-256.077 Y33.582 Z-9.765 A271.9500 
N2106 X-256.077 Y34.064 Z-9.049 A273.4596 
N2107 X-256.077 Y34.537 Z-8.353 A274.9918 
N2108 X-256.077 Y35.010 Z-7.678 A276.5764 
N2109 X-256.077 Y35.494 Z-7.021 A278.2371 
N2110 X-256.077 Y35.993 Z-6.380 A279.9909 
N2111 X-256.077 Y36.512 Z-5.750 A281.8496 
N2112 X-256.077 Y37.052 Z-5.126 A283.8180 
N2113 X-256.077 Y37.611 Z-4.506 A285.8908 
N2114 X-256.077 Y38.184 Z-3.885 A288.0558 
N2115 X-256.077 Y38.766 Z-3.261 A290.2979 
N2116 X-256.077 Y39.351 Z-2.630 A292.6009 
N2117 X-256.077 Y39.932 Z-1.992 A294.9497 
N2118 X-256.077 Y40.504 Z-1.344 A297.3288 
N2119 X-256.077 Y41.062 Z-0.686 A299.7254 
N2120 X-256.077 Y41.604 Z-0.018 A302.1324 
N2121 X-256.077 Y42.126 Z0.663 A304.5492 
N2122 X-256.077 Y42.628 Z1.358 A306.9754 
N2123 X-256.077 Y43.108 Z2.068 A309.4108 
N2124 X-256.077 Y43.564 Z2.796 A311.8560 
N2125 X-256.077 Y43.994 Z3.543 A314.3153 
N2126 X-256.077 Y44.398 Z4.312 A316.7976 
N2127 X-256.077 Y44.774 Z5.108 A319.3140 
N2128 X-256.077 Y45.120 Z5.937 A321.8792 
N2129 X-256.077 Y45.435 Z6.806 A324.5196 
N2130 X-256.077 Y45.715 Z7.729 A327.2688 
N2131 X-256.077 Y45.954 Z8.717 A330.1555 
N2132 X-256.077 Y46.140 Z9.784 A333.2187 
N2133 X-256.077 Y46.260 Z10.949 A336.5159 
N2134 X-256.077 Y46.289 Z12.225 A340.0811 
N2135 X-256.077 Y46.188 Z13.596 A343.8741 
N2136 X-256.077 Y45.913 Z15.020 A347.7810 
N2137 X-256.077 Y45.425 Z16.433 A351.6555 
N2138 X-256.077 Y44.692 Z17.731 A355.2305 
N2139 X-256.077 Y43.706 Z18.784 A358.1639 
N2140 X-256.077 Y42.474 Z19.508 A0.2254 
N2141 X-256.077 Y41.004 Z19.915 A1.4386 
N2142 X-256.077 Y39.288 Z20.088 A2.0258 
N2143 X-256.077 Y37.311 Z20.123 A2.2471 
N2144 X-256.077 Y35.061 Z20.091 A2.2978 
N2145 X-256.077 Y32.532 Z20.032 A2.2861 
N2146 X-256.077 Y29.732 Z19.965 A2.2623 
N2147 X-256.077 Y26.680 Z19.900 A2.2562 
N2148 X-256.077 Y23.402 Z19.834 
N2149 X-256.077 Y19.942 Z19.764 
N2150 X-256.077 Y16.349 Z19.691 A2.2582 
N2151 X-256.077 Y12.682 Z19.617 A2.2610 
N2152 X-256.077 Y9.004 Z19.541 A2.2617 
N2153 X-256.077 Y5.377 Z19.466 A2.2622 
N2154 X-256.077 Y1.861 Z19.393 A2.2638 
N2155 X-256.077 Y-1.487 Z19.324 A2.2683 
N2156 X-256.077 Y-4.621 Z19.261 A2.2771 
N2157 X-256.077 Y-7.505 Z19.204 A2.2896 
N2158 X-256.077 Y-10.112 Z19.153 A2.3026 
N2159 X-256.077 Y-12.430 Z19.104 A2.3050 
N2160 X-256.077 Y-14.456 Z19.058 A2.2939 
N2161 X-256.077 Y-16.199 Z19.010 A2.2566 
N2162 X-256.077 Y-17.672 Z18.981 A2.2562 
N2163 X-256.077 Y-18.907 Z18.957 
N2164 X-256.077 Y-19.925 Z19.006 A2.4683 
N2165 X-256.077 Y-20.760 Z19.199 A3.1214 
N2166 X-256.077 Y-21.458 Z19.689 A4.6861 
N2167 X-256.077 Y-22.100 Z20.691 A7.8483 
N2168 X-256.077 Y-22.830 Z22.331 A13.0557 
N2169 X-256.077 Y-23.747 Z24.288 A19.4418 
N2170 X-256.077 Y-24.714 Z25.946 A25.1308 
N2171 X-256.077 Y-25.623 Z27.226 A29.7838 
N2172 X-256.077 Y-26.491 Z28.288 A33.8539 
N2173 X-256.077 Y-27.310 Z29.170 A37.4280 
N2174 X-256.077 Y-28.081 Z29.912 A40.6053 
N2175 X-256.077 Y-28.816 Z30.550 A43.4960 
N2176 X-256.077 Y-29.534 Z31.114 A46.2093 
N2177 X-256.077 Y-30.245 Z31.623 A48.8069 
N2178 X-256.077 Y-30.957 Z32.083 A51.3250 
N2179 X-256.077 Y-31.677 Z32.504 A53.8033 
N2180 X-256.077 Y-32.416 Z32.892 A56.2802 
N2181 X-256.077 Y-33.184 Z33.250 A58.7950 
N2182 X-256.077 Y-33.994 Z33.581 A61.3898 
N2183 X-256.077 Y-34.854 Z33.883 A64.0909 
N2184 X-256.077 Y-35.770 Z34.149 A66.9146 
N2185 X-256.077 Y-36.757 Z34.374 A69.9083 
N2186 X-256.077 Y-37.824 Z34.547 A73.0974 
N2187 X-256.077 Y-38.964 Z34.648 A76.4658 
N2188 X-256.077 Y-40.176 Z34.661 A80.0228 
N2189 X-256.077 Y-41.460 Z34.566 A83.7800 
N2190 X-256.077 Y-42.768 Z34.339 A87.6266 
N2191 X-256.077 Y-43.978 Z33.969 A91.2246 
N2192 X-256.077 Y-44.969 Z33.471 A94.2457 
N2193 X-256.077 Y-45.678 Z32.878 A96.5049 
N2194 X-256.077 Y-46.114 Z32.209 A98.0251 
N2195 X-256.077 Y-46.331 Z31.473 A98.9589 
N2196 X-256.077 Y-46.391 Z30.665 A99.4826 
N2197 X-256.077 Y-46.347 Z29.778 A99.7497 
N2198 X-256.077 Y-46.236 Z28.812 A99.8639 
N2199 X-256.077 Y-46.084 Z27.768 A99.8905 
N2200 X-256.077 Y-45.905 Z26.653 A99.8703 
N2201 X-256.077 Y-45.713 Z25.479 A99.8338 
N2202 X-256.077 Y-45.514 Z24.258 A99.7940 
N2203 X-256.077 Y-45.326 Z23.009 
N2204 X-256.077 Y-45.137 Z21.744 
N2205 X-256.077 Y-44.949 Z20.477 A99.7996 
N2206 X-256.077 Y-44.824 Z19.229 A99.9950 
N2207 X-256.077 Y-44.782 Z18.004 A100.4503 
N2208 X-256.077 Y-44.879 Z16.805 A101.3441 
N2209 X-256.077 Y-45.151 Z15.623 A102.8187 
N2210 X-256.077 Y-45.613 Z14.448 A104.9475 
N2211 X-256.077 Y-46.223 Z13.269 A107.6428 
N2212 X-256.077 Y-46.898 Z12.092 A110.6624 
N2213 X-256.077 Y-47.552 Z10.934 A113.7491 
N2214 X-256.077 Y-48.138 Z9.813 A116.7309 
N2215 X-256.077 Y-48.653 Z8.734 A119.5807 
N2216 X-256.077 Y-49.104 Z7.693 A122.3146 
N2217 X-256.077 Y-49.499 Z6.684 A124.9426 
N2218 X-256.077 Y-49.841 Z5.705 A127.4759 
N2219 X-256.077 Y-50.136 Z4.747 A129.9329 
N2220 X-256.077 Y-50.388 Z3.803 A132.3336 
N2221 X-256.077 Y-50.598 Z2.869 A134.6932 
N2222 X-256.077 Y-50.767 Z1.937 A137.0254 
N2223 X-256.077 Y-50.897 Z1.001 A139.3476 
N2224 X-256.077 Y-50.985 Z0.056 A141.6769 
N2225 X-256.077 Y-51.029 Z-0.906 A144.0271 
N2226 X-256.077 Y-51.024 Z-1.891 A146.4156 
N2227 X-256.077 Y-50.966 Z-2.906 A148.8614 
N2228 X-256.077 Y-50.844 Z-3.956 A151.3788 
N2229 X-256.077 Y-50.648 Z-5.047 A153.9816 
N2230 X-256.077 Y-50.363 Z-6.184 A156.6843 
N2231 X-256.077 Y-49.970 Z-7.366 A159.4922 
N2232 X-256.077 Y-49.450 Z-8.586 A162.3963 
N2233 X-256.077 Y-48.779 Z-9.833 A165.3818 
N2234 X-256.077 Y-47.935 Z-11.091 A168.4262 
N2235 X-256.077 Y-46.896 Z-12.304 A171.3990 
N2236 X-256.077 Y-45.644 Z-13.378 A174.0519 
N2237 X-256.077 Y-44.182 Z-14.229 A176.1448 
N2238 X-256.077 Y-42.526 Z-14.829 A177.5881 
N2239 X-256.077 Y-40.696 Z-15.216 A178.4634 
N2240 X-256.077 Y-38.708 Z-15.450 A178.9244 
N2241 X-256.077 Y-36.579 Z-15.590 A179.1230 
N2242 X-256.077 Y-34.329 Z-15.682 A179.1717 
N2243 X-256.077 Y-31.985 Z-15.754 A179.1532 
N2244 X-256.077 Y-29.575 Z-15.829 A179.1267 
N2245 X-256.077 Y-27.134 Z-15.913 A179.1204 
N2246 X-256.077 Y-24.698 Z-16.005 A179.1302 
N2247 X-256.077 Y-22.300 Z-16.095 A179.1355 
N2248 X-256.077 Y-19.974 Z-16.173 A179.1054 
N2249 X-256.077 Y-17.753 Z-16.257 A179.0954 
N2250 X-256.077 Y-15.652 Z-16.341 
N2251 X-256.077 Y-13.685 Z-16.449 A179.1915 
N2252 X-256.077 Y-11.880 Z-16.674 A179.6897 
N2253 X-256.077 Y-10.233 Z-17.031 A180.6684 
N2254 X-256.077 Y-8.736 Z-17.555 A182.2592 
N2255 X-256.077 Y-7.364 Z-18.258 A184.5247 
N2256 X-256.077 Y-6.083 Z-19.131 A187.4575 
N2257 X-256.077 Y-4.858 Z-20.109 A190.8796 
N2258 X-256.077 Y-3.674 Z-21.094 A194.4873 
N2259 X-256.077 Y-2.532 Z-21.997 A198.0030 
N2260 X-256.077 Y-1.433 Z-22.800 A201.3403 
N2261 X-256.077 Y-0.366 Z-23.514 A204.5216 
N2262 X-256.077 Y0.677 Z-24.149 A207.5713 
N2263 X-256.077 Y1.706 Z-24.708 A210.5032 
N2264 X-256.077 Y2.731 Z-25.197 A213.3397 
N2265 X-256.077 Y3.761 Z-25.618 A216.1064 
N2266 X-256.077 Y4.803 Z-25.972 A218.8179 
N2267 X-256.077 Y5.861 Z-26.254 A221.4779 
N2268 X-256.077 Y6.935 Z-26.458 A224.0831 
N2269 X-256.077 Y8.025 Z-26.578 A226.6259 
N2270 X-256.077 Y9.122 Z-26.606 A229.0853 
N2271 X-256.077 Y10.215 Z-26.533 A231.4269 
N2272 X-256.077 Y11.290 Z-26.351 A233.6131 
N2273 X-256.077 Y12.333 Z-26.058 A235.6088 
N2274 X-256.077 Y13.327 Z-25.653 A237.3792 
N2275 X-256.077 Y14.257 Z-25.138 A238.8870 
N2276 X-256.077 Y15.110 Z-24.518 A240.0968 
N2277 X-256.077 Y15.884 Z-23.805 A241.0178 
N2278 X-256.077 Y16.598 Z-23.023 A241.7196 
N2279 X-256.077 Y17.284 Z-22.200 A242.3231 
N2280 X-256.077 Y17.981 Z-21.364 A242.9729 
N2281 X-256.077 Y18.720 Z-20.540 A243.7885 
N2282 X-256.077 Y19.521 Z-19.742 A244.8602 
N2283 X-256.077 Y20.398 Z-18.979 A246.2520 
N2284 X-256.077 Y21.356 Z-18.251 A247.9941 
N2285 X-256.077 Y22.385 Z-17.550 A250.0681 
N2286 X-256.077 Y23.456 Z-16.858 A252.3889 
N2287 X-256.077 Y24.525 Z-16.159 A254.8203 
N2288 X-256.077 Y25.552 Z-15.441 A257.2410 
N2289 X-256.077 Y26.514 Z-14.703 A259.5734 
N2290 X-256.077 Y27.402 Z-13.952 A261.7916 
N2291 X-256.077 Y28.217 Z-13.192 A263.8874 
N2292 X-256.077 Y28.958 Z-12.430 A265.8533 
N2293 X-256.077 Y29.626 Z-11.671 A267.6854 
N2294 X-256.077 Y30.227 Z-10.921 A269.3889 
N2295 X-256.077 Y30.768 Z-10.186 A270.9803 
N2296 X-256.077 Y31.261 Z-9.467 A272.4866 
N2297 X-256.077 Y31.720 Z-8.770 A273.9421 
N2298 X-256.077 Y32.158 Z-8.093 A275.3840 
N2299 X-256.077 Y32.590 Z-7.437 A276.8505 
N2300 X-256.077 Y33.030 Z-6.801 A278.3794 
N2301 X-256.077 Y33.488 Z-6.181 A280.0048 
N2302 X-256.077 Y33.974 Z-5.572 A281.7524 
N2303 X-256.077 Y34.490 Z-4.970 A283.6347 
N2304 X-256.077 Y35.035 Z-4.371 A285.6465 
N2305 X-256.077 Y35.602 Z-3.770 A287.7724 
N2306 X-256.077 Y36.186 Z-3.164 A289.9955 
N2307 X-256.077 Y36.779 Z-2.551 A292.2988 
N2308 X-256.077 Y37.375 Z-1.928 A294.6664 
N2309 X-256.077 Y37.968 Z-1.292 A297.0814 
N2310 X-256.077 Y38.551 Z-0.644 A299.5271 
N2311 X-256.077 Y39.120 Z0.017 A301.9929 
N2312 X-256.077 Y39.671 Z0.693 A304.4734 
N2313 X-256.077 Y40.202 Z1.385 A306.9633 
N2314 X-256.077 Y40.709 Z2.092 A309.4584 
N2315 X-256.077 Y41.190 Z2.817 A311.9571 
N2316 X-256.077 Y41.643 Z3.561 A314.4635 
N2317 X-256.077 Y42.068 Z4.328 A316.9880 
N2318 X-256.077 Y42.465 Z5.122 A319.5446 
N2319 X-256.077 Y42.832 Z5.950 A322.1529 
N2320 X-256.077 Y43.168 Z6.823 A324.8456 
N2321 X-256.077 Y43.471 Z7.755 A327.6608 
N2322 X-256.077 Y43.733 Z8.757 A330.6295 
N2323 X-256.077 Y43.943 Z9.847 A333.7969 
N2324 X-256.077 Y44.084 Z11.044 A337.2235 
N2325 X-256.077 Y44.131 Z12.358 A340.9326 
N2326 X-256.077 Y44.038 Z13.764 A344.8542 
N2327 X-256.077 Y43.761 Z15.204 A348.8433 
N2328 X-256.077 Y43.263 Z16.607 A352.7224 
N2329 X-256.077 Y42.522 Z17.854 A356.1903 
N2330 X-256.077 Y41.534 Z18.825 A358.9266 
N2331 X-256.077 Y40.313 Z19.459 A0.7603 
N2332 X-256.077 Y38.861 Z19.792 A1.7852 
N2333 X-256.077 Y37.168 Z19.916 A2.2488 
N2334 X-256.077 Y35.219 Z19.924 A2.4060 
N2335 X-256.077 Y33.001 Z19.878 A2.4290 
N2336 X-256.077 Y30.513 Z19.812 A2.4092 
N2337 X-256.077 Y27.762 Z19.740 A2.3859 
N2338 X-256.077 Y24.768 Z19.672 A2.3851 
N2339 X-256.077 Y21.561 Z19.600 
N2340 X-256.077 Y18.183 Z19.523 
N2341 X-256.077 Y14.687 Z19.445 A2.3883 
N2342 X-256.077 Y11.129 Z19.365 A2.3902 
N2343 X-256.077 Y7.571 Z19.283 A2.3906 
N2344 X-256.077 Y4.074 Z19.202 A2.3907 
N2345 X-256.077 Y0.696 Z19.125 A2.3921 
N2346 X-256.077 Y-2.509 Z19.051 A2.3963 
N2347 X-256.077 Y-5.498 Z18.984 A2.4042 
N2348 X-256.077 Y-8.237 Z18.924 A2.4149 
N2349 X-256.077 Y-10.704 Z18.869 A2.4250 
N2350 X-256.077 Y-12.888 Z18.818 A2.4256 
N2351 X-256.077 Y-14.788 Z18.770 A2.4159 
N2352 X-256.077 Y-16.416 Z18.723 A2.3855 
N2353 X-256.077 Y-17.787 Z18.692 A2.3851 
N2354 X-256.077 Y-18.930 Z18.667 
N2355 X-256.077 Y-19.869 Z18.712 A2.5869 
N2356 X-256.077 Y-20.637 Z18.919 A3.2780 
N2357 X-256.077 Y-21.285 Z19.466 A5.0187 
N2358 X-256.077 Y-21.903 Z20.591 A8.5539 
N2359 X-256.077 Y-22.645 Z22.353 A14.1505 
N2360 X-256.077 Y-23.579 Z24.326 A20.6168 
N2361 X-256.077 Y-24.547 Z25.955 A26.2448 
N2362 X-256.077 Y-25.465 Z27.233 A30.9177 
N2363 X-256.077 Y-26.334 Z28.278 A34.9557 
N2364 X-256.077 Y-27.146 Z29.138 A38.4745 
N2365 X-256.077 Y-27.909 Z29.861 A41.6000 
N2366 X-256.077 Y-28.640 Z30.485 A44.4576 
N2367 X-256.077 Y-29.355 Z31.039 A47.1502 
N2368 X-256.077 Y-30.063 Z31.537 A49.7244 
N2369 X-256.077 Y-30.770 Z31.987 A52.2159 
N2370 X-256.077 Y-31.484 Z32.398 A54.6655 
