; PROGRAM NAME: B00000109
; ORDER       : B000001
; OPER. NAME  : Pin Milling:101
; OPER. DESCR.: spiral milling pin/zataczanie
; OPER. TYPE  : pinMill
; GEO. OPTION : 1
; MACHINE     : HSTM_500_SIM840D_Py
;             : HSTM500 - HAMUEL: 5-axis milling machine - SIM840D Traori PP_Script
; CONTROL     : SINUMERIK 840D
; created:   2021-10-27 08:50:32.258116
;-------DODATKOWE DANE-------------------
; PROGRAMISTA : Mariusz Malec
; PARTID      : 137T000339P1001_-
;  ap         : 1.0
;  ae         : 1.0
;  lean_angle : 5.0
;  fin_offset : 0.0
;----------------------------------------
;RAPORT("TB000001","Pin Milling:101")
N10 TRAFOOF
N11 D0
N12 G90 G94
N13 G0 G53 D0 Z550 B0
N14 STOPRE
M9 ; chlodziwo wyl
E_ZDARZ=0
STOPRE
E_ZDARZ=1 ; ACS start obrobki
; --- Pin Milling:101 - spiral milling pin/zataczanie ---
N16 ;ToolChange : concat=None ,current_tdmid=None, PP.tdmId=958435
N17 TRAFOOF
N18 G0 G53 D0 X-200 Y150 Z550 B0
N19 T="7758435"
;RAPORT("TB000001","ToolChangeStart 7758435")
N20 M6
;RAPORT("TB000001","ToolChangeEnd")
N21 STOPRE
N22 MSG(" TLID=958435 D=16.0 R=1.0 Ang=0.0 Len=150.0 ")
N23 ; (Preloading tool)
N24 T="7741290"
N25 S3580 M03
N26 STOPRE
N27 CYCLE832(0.1,3,1)
N28 G0 G53 A270.0000 B0.0000
N29 TRAORI
N30 G54 D1
N31 D1 
N32 TRANS  X=R24
N33 ; DELTA A > 40.1
N34 TRAFOOF
N35 D1
N36 STOPRE
N37 G00 G54 Z236.000
N38 G01 A270.0000 F10000
N39 TRAORI
N40 G54 D1
N41 STOPRE
N42 TRANS  X=R24
N43 G00 X-387.581 Y68.617 Z17.000 A270.0000 
N44 M342 ; chlodziwo woda
N45 X-387.581 Y18.617 Z17.000 
N46 G01 X-387.581 Y15.526 Z16.511 F1224 
N47 X-387.581 Y12.739 Z15.090 
N48 X-387.581 Y10.526 Z12.878 
N49 X-387.581 Y9.106 Z10.090 
N50 X-387.581 Y8.617 Z7.000 
N51 X-387.581 Y8.816 Z6.748 A268.3410 
N52 X-387.581 Y9.007 Z6.490 A266.6820 
N53 X-387.581 Y9.191 Z6.226 A265.0230 
N54 X-387.581 Y9.368 Z5.957 A263.3641 
N55 X-387.581 Y9.536 Z5.684 A261.7051 
N56 X-387.581 Y9.697 Z5.405 A260.0461 
N57 X-387.581 Y9.849 Z5.122 A258.3871 
N58 X-387.581 Y9.994 Z4.835 A256.7281 
N59 X-387.581 Y10.129 Z4.544 A255.0691 
N60 X-387.581 Y10.257 Z4.248 A253.4101 
N61 X-387.581 Y10.375 Z3.950 A251.7512 
N62 X-387.581 Y10.485 Z3.648 A250.0922 
N63 X-387.581 Y10.587 Z3.343 A248.4332 
N64 X-387.581 Y10.679 Z3.035 A246.7742 
N65 X-387.581 Y10.762 Z2.724 A245.1152 
N66 X-387.581 Y10.837 Z2.412 A243.4562 
N67 X-387.581 Y10.902 Z2.097 A241.7972 
N68 X-387.581 Y10.958 Z1.780 A240.1382 
N69 X-387.581 Y11.005 Z1.462 A238.4793 
N70 X-387.581 Y11.043 Z1.143 A236.8203 
N71 X-387.581 Y11.071 Z0.823 A235.1613 
N72 X-387.581 Y11.090 Z0.502 A233.5023 
N73 X-387.581 Y11.100 Z0.181 A231.8433 
N74 X-387.581 Y11.101 Z-0.141 A230.1843 
N75 X-387.581 Y11.092 Z-0.462 A228.5253 
N76 X-387.581 Y11.074 Z-0.783 A226.8664 
N77 X-387.581 Y11.047 Z-1.103 A225.2074 
N78 X-387.581 Y11.010 Z-1.423 A223.5484 
N79 X-387.581 Y10.964 Z-1.741 A221.8894 
N80 X-387.581 Y10.909 Z-2.057 A220.2304 
N81 X-387.581 Y10.845 Z-2.372 A218.5714 
N82 X-387.581 Y10.772 Z-2.685 A216.9124 
N83 X-387.581 Y10.690 Z-2.996 A215.2535 
N84 X-387.581 Y10.599 Z-3.304 A213.5945 
N85 X-387.581 Y10.498 Z-3.610 A211.9355 
N86 X-387.581 Y10.390 Z-3.912 A210.2765 
N87 X-387.581 Y10.272 Z-4.211 A208.6175 
N88 X-387.581 Y10.146 Z-4.507 A206.9585 
N89 X-387.581 Y10.011 Z-4.799 A205.2995 
N90 X-387.581 Y9.868 Z-5.087 A203.6406 
N91 X-387.581 Y9.716 Z-5.370 A201.9816 
N92 X-387.581 Y9.557 Z-5.649 A200.3226 
N93 X-387.581 Y9.389 Z-5.923 A198.6636 
N94 X-387.581 Y9.214 Z-6.193 A197.0046 
N95 X-387.581 Y9.031 Z-6.457 A195.3456 
N96 X-387.581 Y8.840 Z-6.716 A193.6866 
N97 X-387.581 Y8.642 Z-6.969 A192.0276 
N98 X-387.581 Y8.437 Z-7.216 A190.3687 
N99 X-387.581 Y8.224 Z-7.457 A188.7097 
N100 X-387.581 Y8.005 Z-7.692 A187.0507 
N101 X-387.581 Y7.779 Z-7.921 A185.3917 
N102 X-387.581 Y7.546 Z-8.143 A183.7327 
N103 X-387.581 Y7.307 Z-8.358 A182.0737 
N104 X-387.581 Y7.062 Z-8.566 A180.4147 
N105 X-387.581 Y6.811 Z-8.767 A178.7558 
N106 X-387.581 Y6.555 Z-8.960 A177.0968 
N107 X-387.581 Y6.292 Z-9.146 A175.4378 
N108 X-387.581 Y6.025 Z-9.324 A173.7788 
N109 X-387.581 Y5.753 Z-9.495 A172.1198 
N110 X-387.581 Y5.475 Z-9.658 A170.4608 
N111 X-387.581 Y5.193 Z-9.812 A168.8018 
N112 X-387.581 Y4.907 Z-9.958 A167.1429 
N113 X-387.581 Y4.617 Z-10.096 A165.4839 
N114 X-387.581 Y4.323 Z-10.226 A163.8249 
N115 X-387.581 Y4.025 Z-10.346 A162.1659 
N116 X-387.581 Y3.723 Z-10.459 A160.5069 
N117 X-387.581 Y3.419 Z-10.562 A158.8479 
N118 X-387.581 Y3.112 Z-10.657 A157.1889 
N119 X-387.581 Y2.802 Z-10.742 A155.5300 
N120 X-387.581 Y2.490 Z-10.819 A153.8710 
N121 X-387.581 Y2.176 Z-10.886 A152.2120 
N122 X-387.581 Y1.860 Z-10.945 A150.5530 
N123 X-387.581 Y1.542 Z-10.994 A148.8940 
N124 X-387.581 Y1.223 Z-11.034 A147.2350 
N125 X-387.581 Y0.903 Z-11.065 A145.5760 
N126 X-387.581 Y0.582 Z-11.086 A143.9171 
N127 X-387.581 Y0.261 Z-11.099 A142.2581 
N128 X-387.581 Y-0.060 Z-11.102 A140.5991 
N129 X-387.581 Y-0.382 Z-11.095 A138.9401 
N130 X-387.581 Y-0.703 Z-11.079 A137.2811 
N131 X-387.581 Y-1.023 Z-11.054 A135.6221 
N132 X-387.581 Y-1.343 Z-11.020 A133.9631 
N133 X-387.581 Y-1.661 Z-10.977 A132.3041 
N134 X-387.581 Y-1.978 Z-10.924 A130.6452 
N135 X-387.581 Y-2.294 Z-10.862 A128.9862 
N136 X-387.581 Y-2.607 Z-10.791 A127.3272 
N137 X-387.581 Y-2.919 Z-10.711 A125.6682 
N138 X-387.581 Y-3.227 Z-10.622 A124.0092 
N139 X-387.581 Y-3.534 Z-10.524 A122.3502 
N140 X-387.581 Y-3.837 Z-10.418 A120.6912 
N141 X-387.581 Y-4.137 Z-10.302 A119.0323 
N142 X-387.581 Y-4.433 Z-10.178 A117.3733 
N143 X-387.581 Y-4.726 Z-10.045 A115.7143 
N144 X-387.581 Y-5.015 Z-9.904 A114.0553 
N145 X-387.581 Y-5.300 Z-9.755 A112.3963 
N146 X-387.581 Y-5.580 Z-9.598 A110.7373 
N147 X-387.581 Y-5.855 Z-9.432 A109.0783 
N148 X-387.581 Y-6.126 Z-9.258 A107.4194 
N149 X-387.581 Y-6.391 Z-9.077 A105.7604 
N150 X-387.581 Y-6.652 Z-8.888 A104.1014 
N151 X-387.581 Y-6.906 Z-8.692 A102.4424 
N152 X-387.581 Y-7.155 Z-8.489 A100.7834 
N153 X-387.581 Y-7.398 Z-8.278 A99.1244 
N154 X-387.581 Y-7.634 Z-8.060 A97.4654 
N155 X-387.581 Y-7.864 Z-7.836 A95.8065 
N156 X-387.581 Y-8.088 Z-7.605 A94.1475 
N157 X-387.581 Y-8.305 Z-7.368 A92.4885 
N158 X-387.581 Y-8.514 Z-7.124 A90.8295 
N159 X-387.581 Y-8.717 Z-6.875 A89.1705 
N160 X-387.581 Y-8.912 Z-6.619 A87.5115 
N161 X-387.581 Y-9.100 Z-6.358 A85.8525 
N162 X-387.581 Y-9.281 Z-6.092 A84.1935 
N163 X-387.581 Y-9.453 Z-5.821 A82.5346 
N164 X-387.581 Y-9.618 Z-5.545 A80.8756 
N165 X-387.581 Y-9.774 Z-5.264 A79.2166 
N166 X-387.581 Y-9.922 Z-4.979 A77.5576 
N167 X-387.581 Y-10.062 Z-4.690 A75.8986 
N168 X-387.581 Y-10.194 Z-4.396 A74.2396 
N169 X-387.581 Y-10.317 Z-4.099 A72.5806 
N170 X-387.581 Y-10.431 Z-3.799 A70.9217 
N171 X-387.581 Y-10.537 Z-3.495 A69.2627 
N172 X-387.581 Y-10.634 Z-3.189 A67.6037 
N173 X-387.581 Y-10.722 Z-2.880 A65.9447 
N174 X-387.581 Y-10.801 Z-2.568 A64.2857 
N175 X-387.581 Y-10.870 Z-2.254 A62.6267 
N176 X-387.581 Y-10.931 Z-1.939 A60.9677 
N177 X-387.581 Y-10.983 Z-1.621 A59.3088 
N178 X-387.581 Y-11.025 Z-1.303 A57.6498 
N179 X-387.581 Y-11.058 Z-0.983 A55.9908 
N180 X-387.581 Y-11.082 Z-0.663 A54.3318 
N181 X-387.581 Y-11.096 Z-0.341 A52.6728 
N182 X-387.581 Y-11.102 Z-0.020 A51.0138 
N183 X-387.581 Y-11.098 Z0.301 A49.3548 
N184 X-387.581 Y-11.084 Z0.623 A47.6959 
N185 X-387.581 Y-11.062 Z0.943 A46.0369 
N186 X-387.581 Y-11.030 Z1.263 A44.3779 
N187 X-387.581 Y-10.988 Z1.582 A42.7189 
N188 X-387.581 Y-10.938 Z1.899 A41.0599 
N189 X-387.581 Y-10.878 Z2.215 A39.4009 
N190 X-387.581 Y-10.810 Z2.529 A37.7419 
N191 X-387.581 Y-10.732 Z2.841 A36.0829 
N192 X-387.581 Y-10.645 Z3.151 A34.4240 
N193 X-387.581 Y-10.550 Z3.457 A32.7650 
N194 X-387.581 Y-10.445 Z3.761 A31.1060 
N195 X-387.581 Y-10.332 Z4.062 A29.4470 
N196 X-387.581 Y-10.210 Z4.360 A27.7880 
N197 X-387.581 Y-10.079 Z4.653 A26.1290 
N198 X-387.581 Y-9.940 Z4.943 A24.4700 
N199 X-387.581 Y-9.793 Z5.229 A22.8111 
N200 X-387.581 Y-9.638 Z5.510 A21.1521 
N201 X-387.581 Y-9.474 Z5.787 A19.4931 
N202 X-387.581 Y-9.303 Z6.059 A17.8341 
N203 X-387.581 Y-9.123 Z6.326 A16.1751 
N204 X-387.581 Y-8.936 Z6.587 A14.5161 
N205 X-387.581 Y-8.742 Z6.843 A12.8571 
N206 X-387.581 Y-8.540 Z7.093 A11.1982 
N207 X-387.581 Y-8.331 Z7.337 A9.5392 
N208 X-387.581 Y-8.115 Z7.576 A7.8802 
N209 X-387.581 Y-7.893 Z7.807 A6.2212 
N210 X-387.581 Y-7.663 Z8.033 A4.5622 
N211 X-387.581 Y-7.427 Z8.251 A2.9032 
N212 X-387.581 Y-7.185 Z8.463 A1.2442 
N213 X-387.581 Y-6.937 Z8.667 A359.5853 
N214 X-387.581 Y-6.684 Z8.864 A357.9263 
N215 X-387.581 Y-6.424 Z9.054 A356.2673 
N216 X-387.581 Y-6.159 Z9.236 A354.6083 
N217 X-387.581 Y-5.889 Z9.411 A352.9493 
N218 X-387.581 Y-5.614 Z9.577 A351.2903 
N219 X-387.581 Y-5.335 Z9.736 A349.6313 
N220 X-387.581 Y-5.051 Z9.886 A347.9724 
N221 X-387.581 Y-4.762 Z10.028 A346.3134 
N222 X-387.581 Y-4.470 Z10.162 A344.6544 
N223 X-387.581 Y-4.174 Z10.287 A342.9954 
N224 X-387.581 Y-3.874 Z10.404 A341.3364 
N225 X-387.581 Y-3.572 Z10.511 A339.6774 
N226 X-387.581 Y-3.266 Z10.610 A338.0184 
N227 X-387.581 Y-2.957 Z10.701 A336.3594 
N228 X-387.581 Y-2.646 Z10.782 A334.7005 
N229 X-387.581 Y-2.333 Z10.854 A333.0415 
N230 X-387.581 Y-2.018 Z10.917 A331.3825 
N231 X-387.581 Y-1.701 Z10.971 A329.7235 
N232 X-387.581 Y-1.383 Z11.015 A328.0645 
N233 X-387.581 Y-1.063 Z11.051 A326.4055 
N234 X-387.581 Y-0.743 Z11.077 A324.7465 
N235 X-387.581 Y-0.422 Z11.094 A323.0876 
N236 X-387.581 Y-0.100 Z11.101 A321.4286 
N237 X-387.581 Y0.221 Z11.099 A319.7696 
N238 X-387.581 Y0.542 Z11.088 A318.1106 
N239 X-387.581 Y0.863 Z11.068 A316.4516 
N240 X-387.581 Y1.183 Z11.038 A314.7926 
N241 X-387.581 Y1.502 Z11.000 A313.1336 
N242 X-387.581 Y1.820 Z10.951 A311.4747 
N243 X-387.581 Y2.136 Z10.894 A309.8157 
N244 X-387.581 Y2.451 Z10.828 A308.1567 
N245 X-387.581 Y2.763 Z10.752 A306.4977 
N246 X-387.581 Y3.073 Z10.668 A304.8387 
N247 X-387.581 Y3.381 Z10.574 A303.1797 
N248 X-387.581 Y3.686 Z10.472 A301.5207 
N249 X-387.581 Y3.987 Z10.361 A299.8618 
N250 X-387.581 Y4.286 Z10.241 A298.2028 
N251 X-387.581 Y4.580 Z10.113 A296.5438 
N252 X-387.581 Y4.871 Z9.976 A294.8848 
N253 X-387.581 Y5.158 Z9.831 A293.2258 
N254 X-387.581 Y5.440 Z9.677 A291.5668 
N255 X-387.581 Y5.718 Z9.516 A289.9078 
N256 X-387.581 Y5.991 Z9.346 A288.2488 
N257 X-387.581 Y6.259 Z9.169 A286.5899 
N258 X-387.581 Y6.522 Z8.984 A284.9309 
N259 X-387.581 Y6.780 Z8.791 A283.2719 
N260 X-387.581 Y7.031 Z8.591 A281.6129 
N261 X-387.581 Y7.277 Z8.384 A279.9539 
N262 X-387.581 Y7.517 Z8.170 A278.2949 
N263 X-387.581 Y7.750 Z7.949 A276.6359 
N264 X-387.581 Y7.977 Z7.721 A274.9770 
N265 X-387.581 Y8.197 Z7.487 A273.3180 
N266 X-387.581 Y8.410 Z7.247 A271.6590 
N267 X-387.581 Y8.617 Z7.000 A270.0000 
N268 X-387.571 Y8.816 Z6.748 A268.3410 
N269 X-387.561 Y9.007 Z6.490 A266.6820 
N270 X-387.550 Y9.191 Z6.226 A265.0230 
N271 X-387.540 Y9.368 Z5.957 A263.3641 
N272 X-387.529 Y9.536 Z5.684 A261.7051 
N273 X-387.519 Y9.697 Z5.405 A260.0461 
N274 X-387.509 Y9.849 Z5.122 A258.3871 
N275 X-387.498 Y9.994 Z4.835 A256.7281 
N276 X-387.488 Y10.129 Z4.544 A255.0691 
N277 X-387.478 Y10.257 Z4.248 A253.4101 
N278 X-387.467 Y10.375 Z3.950 A251.7512 
N279 X-387.457 Y10.485 Z3.648 A250.0922 
N280 X-387.446 Y10.587 Z3.343 A248.4332 
N281 X-387.436 Y10.679 Z3.035 A246.7742 
N282 X-387.426 Y10.762 Z2.724 A245.1152 
N283 X-387.415 Y10.837 Z2.412 A243.4562 
N284 X-387.405 Y10.902 Z2.097 A241.7972 
N285 X-387.395 Y10.958 Z1.780 A240.1382 
N286 X-387.384 Y11.005 Z1.462 A238.4793 
N287 X-387.374 Y11.043 Z1.143 A236.8203 
N288 X-387.363 Y11.071 Z0.823 A235.1613 
N289 X-387.353 Y11.090 Z0.502 A233.5023 
N290 X-387.343 Y11.100 Z0.181 A231.8433 
N291 X-387.332 Y11.101 Z-0.141 A230.1843 
N292 X-387.322 Y11.092 Z-0.462 A228.5253 
N293 X-387.312 Y11.074 Z-0.783 A226.8664 
N294 X-387.301 Y11.047 Z-1.103 A225.2074 
N295 X-387.291 Y11.010 Z-1.423 A223.5484 
N296 X-387.281 Y10.964 Z-1.741 A221.8894 
N297 X-387.270 Y10.909 Z-2.057 A220.2304 
N298 X-387.260 Y10.845 Z-2.372 A218.5714 
N299 X-387.249 Y10.772 Z-2.685 A216.9124 
N300 X-387.239 Y10.690 Z-2.996 A215.2535 
N301 X-387.229 Y10.599 Z-3.304 A213.5945 
N302 X-387.218 Y10.498 Z-3.610 A211.9355 
N303 X-387.208 Y10.390 Z-3.912 A210.2765 
N304 X-387.198 Y10.272 Z-4.211 A208.6175 
N305 X-387.187 Y10.146 Z-4.507 A206.9585 
N306 X-387.177 Y10.011 Z-4.799 A205.2995 
N307 X-387.166 Y9.868 Z-5.087 A203.6406 
N308 X-387.156 Y9.716 Z-5.370 A201.9816 
N309 X-387.146 Y9.557 Z-5.649 A200.3226 
N310 X-387.135 Y9.389 Z-5.923 A198.6636 
N311 X-387.125 Y9.214 Z-6.193 A197.0046 
N312 X-387.115 Y9.031 Z-6.457 A195.3456 
N313 X-387.104 Y8.840 Z-6.716 A193.6866 
N314 X-387.094 Y8.642 Z-6.969 A192.0276 
N315 X-387.084 Y8.437 Z-7.216 A190.3687 
N316 X-387.073 Y8.224 Z-7.457 A188.7097 
N317 X-387.063 Y8.005 Z-7.692 A187.0507 
N318 X-387.052 Y7.779 Z-7.921 A185.3917 
N319 X-387.042 Y7.546 Z-8.143 A183.7327 
N320 X-387.032 Y7.307 Z-8.358 A182.0737 
N321 X-387.021 Y7.062 Z-8.566 A180.4147 
N322 X-387.011 Y6.811 Z-8.767 A178.7558 
N323 X-387.001 Y6.555 Z-8.960 A177.0968 
N324 X-386.990 Y6.292 Z-9.146 A175.4378 
N325 X-386.980 Y6.025 Z-9.324 A173.7788 
N326 X-386.969 Y5.753 Z-9.495 A172.1198 
N327 X-386.959 Y5.475 Z-9.658 A170.4608 
N328 X-386.949 Y5.193 Z-9.812 A168.8018 
N329 X-386.938 Y4.907 Z-9.958 A167.1429 
N330 X-386.928 Y4.617 Z-10.096 A165.4839 
N331 X-386.918 Y4.323 Z-10.226 A163.8249 
N332 X-386.907 Y4.025 Z-10.346 A162.1659 
N333 X-386.897 Y3.723 Z-10.459 A160.5069 
N334 X-386.887 Y3.419 Z-10.562 A158.8479 
N335 X-386.876 Y3.112 Z-10.657 A157.1889 
N336 X-386.866 Y2.802 Z-10.742 A155.5300 
N337 X-386.855 Y2.490 Z-10.819 A153.8710 
N338 X-386.845 Y2.176 Z-10.886 A152.2120 
N339 X-386.835 Y1.860 Z-10.945 A150.5530 
N340 X-386.824 Y1.542 Z-10.994 A148.8940 
N341 X-386.814 Y1.223 Z-11.034 A147.2350 
N342 X-386.804 Y0.903 Z-11.065 A145.5760 
N343 X-386.793 Y0.582 Z-11.086 A143.9171 
N344 X-386.783 Y0.261 Z-11.099 A142.2581 
N345 X-386.772 Y-0.060 Z-11.102 A140.5991 
N346 X-386.762 Y-0.382 Z-11.095 A138.9401 
N347 X-386.752 Y-0.703 Z-11.079 A137.2811 
N348 X-386.741 Y-1.023 Z-11.054 A135.6221 
N349 X-386.731 Y-1.343 Z-11.020 A133.9631 
N350 X-386.721 Y-1.661 Z-10.977 A132.3041 
N351 X-386.710 Y-1.978 Z-10.924 A130.6452 
N352 X-386.700 Y-2.294 Z-10.862 A128.9862 
N353 X-386.690 Y-2.607 Z-10.791 A127.3272 
N354 X-386.679 Y-2.919 Z-10.711 A125.6682 
N355 X-386.669 Y-3.227 Z-10.622 A124.0092 
N356 X-386.658 Y-3.534 Z-10.524 A122.3502 
N357 X-386.648 Y-3.837 Z-10.418 A120.6912 
N358 X-386.638 Y-4.137 Z-10.302 A119.0323 
N359 X-386.627 Y-4.433 Z-10.178 A117.3733 
N360 X-386.617 Y-4.726 Z-10.045 A115.7143 
N361 X-386.607 Y-5.015 Z-9.904 A114.0553 
N362 X-386.596 Y-5.300 Z-9.755 A112.3963 
N363 X-386.586 Y-5.580 Z-9.598 A110.7373 
N364 X-386.575 Y-5.855 Z-9.432 A109.0783 
N365 X-386.565 Y-6.126 Z-9.258 A107.4194 
N366 X-386.555 Y-6.391 Z-9.077 A105.7604 
N367 X-386.544 Y-6.652 Z-8.888 A104.1014 
N368 X-386.534 Y-6.906 Z-8.692 A102.4424 
N369 X-386.524 Y-7.155 Z-8.489 A100.7834 
N370 X-386.513 Y-7.398 Z-8.278 A99.1244 
N371 X-386.503 Y-7.634 Z-8.060 A97.4654 
N372 X-386.493 Y-7.864 Z-7.836 A95.8065 
N373 X-386.482 Y-8.088 Z-7.605 A94.1475 
N374 X-386.472 Y-8.305 Z-7.368 A92.4885 
N375 X-386.461 Y-8.514 Z-7.124 A90.8295 
N376 X-386.451 Y-8.717 Z-6.875 A89.1705 
N377 X-386.441 Y-8.912 Z-6.619 A87.5115 
N378 X-386.430 Y-9.100 Z-6.358 A85.8525 
N379 X-386.420 Y-9.281 Z-6.092 A84.1935 
N380 X-386.410 Y-9.453 Z-5.821 A82.5346 
N381 X-386.399 Y-9.618 Z-5.545 A80.8756 
N382 X-386.389 Y-9.774 Z-5.264 A79.2166 
N383 X-386.378 Y-9.922 Z-4.979 A77.5576 
N384 X-386.368 Y-10.062 Z-4.690 A75.8986 
N385 X-386.358 Y-10.194 Z-4.396 A74.2396 
N386 X-386.347 Y-10.317 Z-4.099 A72.5806 
N387 X-386.337 Y-10.431 Z-3.799 A70.9217 
N388 X-386.327 Y-10.537 Z-3.495 A69.2627 
N389 X-386.316 Y-10.634 Z-3.189 A67.6037 
N390 X-386.306 Y-10.722 Z-2.880 A65.9447 
N391 X-386.296 Y-10.801 Z-2.568 A64.2857 
N392 X-386.285 Y-10.870 Z-2.254 A62.6267 
N393 X-386.275 Y-10.931 Z-1.939 A60.9677 
N394 X-386.264 Y-10.983 Z-1.621 A59.3088 
N395 X-386.254 Y-11.025 Z-1.303 A57.6498 
N396 X-386.244 Y-11.058 Z-0.983 A55.9908 
N397 X-386.233 Y-11.082 Z-0.663 A54.3318 
N398 X-386.223 Y-11.096 Z-0.341 A52.6728 
N399 X-386.213 Y-11.102 Z-0.020 A51.0138 
N400 X-386.202 Y-11.098 Z0.301 A49.3548 
N401 X-386.192 Y-11.084 Z0.623 A47.6959 
N402 X-386.181 Y-11.062 Z0.943 A46.0369 
N403 X-386.171 Y-11.030 Z1.263 A44.3779 
N404 X-386.161 Y-10.988 Z1.582 A42.7189 
N405 X-386.150 Y-10.938 Z1.899 A41.0599 
N406 X-386.140 Y-10.878 Z2.215 A39.4009 
N407 X-386.130 Y-10.810 Z2.529 A37.7419 
N408 X-386.119 Y-10.732 Z2.841 A36.0829 
N409 X-386.109 Y-10.645 Z3.151 A34.4240 
N410 X-386.099 Y-10.550 Z3.457 A32.7650 
N411 X-386.088 Y-10.445 Z3.761 A31.1060 
N412 X-386.078 Y-10.332 Z4.062 A29.4470 
N413 X-386.067 Y-10.210 Z4.360 A27.7880 
N414 X-386.057 Y-10.079 Z4.653 A26.1290 
N415 X-386.047 Y-9.940 Z4.943 A24.4700 
N416 X-386.036 Y-9.793 Z5.229 A22.8111 
N417 X-386.026 Y-9.638 Z5.510 A21.1521 
N418 X-386.016 Y-9.474 Z5.787 A19.4931 
N419 X-386.005 Y-9.303 Z6.059 A17.8341 
N420 X-385.995 Y-9.123 Z6.326 A16.1751 
N421 X-385.984 Y-8.936 Z6.587 A14.5161 
N422 X-385.974 Y-8.742 Z6.843 A12.8571 
N423 X-385.964 Y-8.540 Z7.093 A11.1982 
N424 X-385.953 Y-8.331 Z7.337 A9.5392 
N425 X-385.943 Y-8.115 Z7.576 A7.8802 
N426 X-385.933 Y-7.893 Z7.807 A6.2212 
N427 X-385.922 Y-7.663 Z8.033 A4.5622 
N428 X-385.912 Y-7.427 Z8.251 A2.9032 
N429 X-385.902 Y-7.185 Z8.463 A1.2442 
N430 X-385.891 Y-6.937 Z8.667 A359.5853 
N431 X-385.881 Y-6.684 Z8.864 A357.9263 
N432 X-385.870 Y-6.424 Z9.054 A356.2673 
N433 X-385.860 Y-6.159 Z9.236 A354.6083 
N434 X-385.850 Y-5.889 Z9.411 A352.9493 
N435 X-385.839 Y-5.614 Z9.577 A351.2903 
N436 X-385.829 Y-5.335 Z9.736 A349.6313 
N437 X-385.819 Y-5.051 Z9.886 A347.9724 
N438 X-385.808 Y-4.762 Z10.028 A346.3134 
N439 X-385.798 Y-4.470 Z10.162 A344.6544 
N440 X-385.787 Y-4.174 Z10.287 A342.9954 
N441 X-385.777 Y-3.874 Z10.404 A341.3364 
N442 X-385.767 Y-3.572 Z10.511 A339.6774 
N443 X-385.756 Y-3.266 Z10.610 A338.0184 
N444 X-385.746 Y-2.957 Z10.701 A336.3594 
N445 X-385.736 Y-2.646 Z10.782 A334.7005 
N446 X-385.725 Y-2.333 Z10.854 A333.0415 
N447 X-385.715 Y-2.018 Z10.917 A331.3825 
N448 X-385.705 Y-1.701 Z10.971 A329.7235 
N449 X-385.694 Y-1.383 Z11.015 A328.0645 
N450 X-385.684 Y-1.063 Z11.051 A326.4055 
N451 X-385.673 Y-0.743 Z11.077 A324.7465 
N452 X-385.663 Y-0.422 Z11.094 A323.0876 
N453 X-385.653 Y-0.100 Z11.101 A321.4286 
N454 X-385.642 Y0.221 Z11.099 A319.7696 
N455 X-385.632 Y0.542 Z11.088 A318.1106 
N456 X-385.622 Y0.863 Z11.068 A316.4516 
N457 X-385.611 Y1.183 Z11.038 A314.7926 
N458 X-385.601 Y1.502 Z11.000 A313.1336 
N459 X-385.590 Y1.820 Z10.951 A311.4747 
N460 X-385.580 Y2.136 Z10.894 A309.8157 
N461 X-385.570 Y2.451 Z10.828 A308.1567 
N462 X-385.559 Y2.763 Z10.752 A306.4977 
N463 X-385.549 Y3.073 Z10.668 A304.8387 
N464 X-385.539 Y3.381 Z10.574 A303.1797 
N465 X-385.528 Y3.686 Z10.472 A301.5207 
N466 X-385.518 Y3.987 Z10.361 A299.8618 
N467 X-385.508 Y4.286 Z10.241 A298.2028 
N468 X-385.497 Y4.580 Z10.113 A296.5438 
N469 X-385.487 Y4.871 Z9.976 A294.8848 
N470 X-385.476 Y5.158 Z9.831 A293.2258 
N471 X-385.466 Y5.440 Z9.677 A291.5668 
N472 X-385.456 Y5.718 Z9.516 A289.9078 
N473 X-385.445 Y5.991 Z9.346 A288.2488 
N474 X-385.435 Y6.259 Z9.169 A286.5899 
N475 X-385.425 Y6.522 Z8.984 A284.9309 
N476 X-385.414 Y6.780 Z8.791 A283.2719 
N477 X-385.404 Y7.031 Z8.591 A281.6129 
N478 X-385.393 Y7.277 Z8.384 A279.9539 
N479 X-385.383 Y7.517 Z8.170 A278.2949 
N480 X-385.373 Y7.750 Z7.949 A276.6359 
N481 X-385.362 Y7.977 Z7.721 A274.9770 
N482 X-385.352 Y8.197 Z7.487 A273.3180 
N483 X-385.342 Y8.410 Z7.247 A271.6590 
N484 X-385.331 Y8.617 Z7.000 A270.0000 
N485 X-385.321 Y8.816 Z6.748 A268.3410 
N486 X-385.311 Y9.007 Z6.490 A266.6820 
N487 X-385.300 Y9.191 Z6.226 A265.0230 
N488 X-385.290 Y9.368 Z5.957 A263.3641 
N489 X-385.279 Y9.536 Z5.684 A261.7051 
N490 X-385.269 Y9.697 Z5.405 A260.0461 
N491 X-385.259 Y9.849 Z5.122 A258.3871 
N492 X-385.248 Y9.994 Z4.835 A256.7281 
N493 X-385.238 Y10.129 Z4.544 A255.0691 
N494 X-385.228 Y10.257 Z4.248 A253.4101 
N495 X-385.217 Y10.375 Z3.950 A251.7512 
N496 X-385.207 Y10.485 Z3.648 A250.0922 
N497 X-385.196 Y10.587 Z3.343 A248.4332 
N498 X-385.186 Y10.679 Z3.035 A246.7742 
N499 X-385.176 Y10.762 Z2.724 A245.1152 
N500 X-385.165 Y10.837 Z2.412 A243.4562 
N501 X-385.155 Y10.902 Z2.097 A241.7972 
N502 X-385.145 Y10.958 Z1.780 A240.1382 
N503 X-385.134 Y11.005 Z1.462 A238.4793 
N504 X-385.124 Y11.043 Z1.143 A236.8203 
N505 X-385.113 Y11.071 Z0.823 A235.1613 
N506 X-385.103 Y11.090 Z0.502 A233.5023 
N507 X-385.093 Y11.100 Z0.181 A231.8433 
N508 X-385.082 Y11.101 Z-0.141 A230.1843 
N509 X-385.072 Y11.092 Z-0.462 A228.5253 
N510 X-385.062 Y11.074 Z-0.783 A226.8664 
N511 X-385.051 Y11.047 Z-1.103 A225.2074 
N512 X-385.041 Y11.010 Z-1.423 A223.5484 
N513 X-385.031 Y10.964 Z-1.741 A221.8894 
N514 X-385.020 Y10.909 Z-2.057 A220.2304 
N515 X-385.010 Y10.845 Z-2.372 A218.5714 
N516 X-384.999 Y10.772 Z-2.685 A216.9124 
N517 X-384.989 Y10.690 Z-2.996 A215.2535 
N518 X-384.979 Y10.599 Z-3.304 A213.5945 
N519 X-384.968 Y10.498 Z-3.610 A211.9355 
N520 X-384.958 Y10.390 Z-3.912 A210.2765 
N521 X-384.948 Y10.272 Z-4.211 A208.6175 
N522 X-384.937 Y10.146 Z-4.507 A206.9585 
N523 X-384.927 Y10.011 Z-4.799 A205.2995 
N524 X-384.916 Y9.868 Z-5.087 A203.6406 
N525 X-384.906 Y9.716 Z-5.370 A201.9816 
N526 X-384.896 Y9.557 Z-5.649 A200.3226 
N527 X-384.885 Y9.389 Z-5.923 A198.6636 
N528 X-384.875 Y9.214 Z-6.193 A197.0046 
N529 X-384.865 Y9.031 Z-6.457 A195.3456 
N530 X-384.854 Y8.840 Z-6.716 A193.6866 
N531 X-384.844 Y8.642 Z-6.969 A192.0276 
N532 X-384.834 Y8.437 Z-7.216 A190.3687 
N533 X-384.823 Y8.224 Z-7.457 A188.7097 
N534 X-384.813 Y8.005 Z-7.692 A187.0507 
N535 X-384.802 Y7.779 Z-7.921 A185.3917 
N536 X-384.792 Y7.546 Z-8.143 A183.7327 
N537 X-384.782 Y7.307 Z-8.358 A182.0737 
N538 X-384.771 Y7.062 Z-8.566 A180.4147 
N539 X-384.761 Y6.811 Z-8.767 A178.7558 
N540 X-384.751 Y6.555 Z-8.960 A177.0968 
N541 X-384.740 Y6.292 Z-9.146 A175.4378 
N542 X-384.730 Y6.025 Z-9.324 A173.7788 
N543 X-384.719 Y5.753 Z-9.495 A172.1198 
N544 X-384.709 Y5.475 Z-9.658 A170.4608 
N545 X-384.699 Y5.193 Z-9.812 A168.8018 
N546 X-384.688 Y4.907 Z-9.958 A167.1429 
N547 X-384.678 Y4.617 Z-10.096 A165.4839 
N548 X-384.668 Y4.323 Z-10.226 A163.8249 
N549 X-384.657 Y4.025 Z-10.346 A162.1659 
N550 X-384.647 Y3.723 Z-10.459 A160.5069 
N551 X-384.637 Y3.419 Z-10.562 A158.8479 
N552 X-384.626 Y3.112 Z-10.657 A157.1889 
N553 X-384.616 Y2.802 Z-10.742 A155.5300 
N554 X-384.605 Y2.490 Z-10.819 A153.8710 
N555 X-384.595 Y2.176 Z-10.886 A152.2120 
N556 X-384.585 Y1.860 Z-10.945 A150.5530 
N557 X-384.574 Y1.542 Z-10.994 A148.8940 
N558 X-384.564 Y1.223 Z-11.034 A147.2350 
N559 X-384.554 Y0.903 Z-11.065 A145.5760 
N560 X-384.543 Y0.582 Z-11.086 A143.9171 
N561 X-384.533 Y0.261 Z-11.099 A142.2581 
N562 X-384.522 Y-0.060 Z-11.102 A140.5991 
N563 X-384.512 Y-0.382 Z-11.095 A138.9401 
N564 X-384.502 Y-0.703 Z-11.079 A137.2811 
N565 X-384.491 Y-1.023 Z-11.054 A135.6221 
N566 X-384.481 Y-1.343 Z-11.020 A133.9631 
N567 X-384.471 Y-1.661 Z-10.977 A132.3041 
N568 X-384.460 Y-1.978 Z-10.924 A130.6452 
N569 X-384.450 Y-2.294 Z-10.862 A128.9862 
N570 X-384.440 Y-2.607 Z-10.791 A127.3272 
N571 X-384.429 Y-2.919 Z-10.711 A125.6682 
N572 X-384.419 Y-3.227 Z-10.622 A124.0092 
N573 X-384.408 Y-3.534 Z-10.524 A122.3502 
N574 X-384.398 Y-3.837 Z-10.418 A120.6912 
N575 X-384.388 Y-4.137 Z-10.302 A119.0323 
N576 X-384.377 Y-4.433 Z-10.178 A117.3733 
N577 X-384.367 Y-4.726 Z-10.045 A115.7143 
N578 X-384.357 Y-5.015 Z-9.904 A114.0553 
N579 X-384.346 Y-5.300 Z-9.755 A112.3963 
N580 X-384.336 Y-5.580 Z-9.598 A110.7373 
N581 X-384.325 Y-5.855 Z-9.432 A109.0783 
N582 X-384.315 Y-6.126 Z-9.258 A107.4194 
N583 X-384.305 Y-6.391 Z-9.077 A105.7604 
N584 X-384.294 Y-6.652 Z-8.888 A104.1014 
N585 X-384.284 Y-6.906 Z-8.692 A102.4424 
N586 X-384.274 Y-7.155 Z-8.489 A100.7834 
N587 X-384.263 Y-7.398 Z-8.278 A99.1244 
N588 X-384.253 Y-7.634 Z-8.060 A97.4654 
N589 X-384.243 Y-7.864 Z-7.836 A95.8065 
N590 X-384.232 Y-8.088 Z-7.605 A94.1475 
N591 X-384.222 Y-8.305 Z-7.368 A92.4885 
N592 X-384.211 Y-8.514 Z-7.124 A90.8295 
N593 X-384.201 Y-8.717 Z-6.875 A89.1705 
N594 X-384.191 Y-8.912 Z-6.619 A87.5115 
N595 X-384.180 Y-9.100 Z-6.358 A85.8525 
N596 X-384.170 Y-9.281 Z-6.092 A84.1935 
N597 X-384.160 Y-9.453 Z-5.821 A82.5346 
N598 X-384.149 Y-9.618 Z-5.545 A80.8756 
N599 X-384.139 Y-9.774 Z-5.264 A79.2166 
N600 X-384.128 Y-9.922 Z-4.979 A77.5576 
N601 X-384.118 Y-10.062 Z-4.690 A75.8986 
N602 X-384.108 Y-10.194 Z-4.396 A74.2396 
N603 X-384.097 Y-10.317 Z-4.099 A72.5806 
N604 X-384.087 Y-10.431 Z-3.799 A70.9217 
N605 X-384.077 Y-10.537 Z-3.495 A69.2627 
N606 X-384.066 Y-10.634 Z-3.189 A67.6037 
N607 X-384.056 Y-10.722 Z-2.880 A65.9447 
N608 X-384.046 Y-10.801 Z-2.568 A64.2857 
N609 X-384.035 Y-10.870 Z-2.254 A62.6267 
N610 X-384.025 Y-10.931 Z-1.939 A60.9677 
N611 X-384.014 Y-10.983 Z-1.621 A59.3088 
N612 X-384.004 Y-11.025 Z-1.303 A57.6498 
N613 X-383.994 Y-11.058 Z-0.983 A55.9908 
N614 X-383.983 Y-11.082 Z-0.663 A54.3318 
N615 X-383.973 Y-11.096 Z-0.341 A52.6728 
N616 X-383.963 Y-11.102 Z-0.020 A51.0138 
N617 X-383.952 Y-11.098 Z0.301 A49.3548 
N618 X-383.942 Y-11.084 Z0.623 A47.6959 
N619 X-383.931 Y-11.062 Z0.943 A46.0369 
N620 X-383.921 Y-11.030 Z1.263 A44.3779 
N621 X-383.911 Y-10.988 Z1.582 A42.7189 
N622 X-383.900 Y-10.938 Z1.899 A41.0599 
N623 X-383.890 Y-10.878 Z2.215 A39.4009 
N624 X-383.880 Y-10.810 Z2.529 A37.7419 
N625 X-383.869 Y-10.732 Z2.841 A36.0829 
N626 X-383.859 Y-10.645 Z3.151 A34.4240 
N627 X-383.849 Y-10.550 Z3.457 A32.7650 
N628 X-383.838 Y-10.445 Z3.761 A31.1060 
N629 X-383.828 Y-10.332 Z4.062 A29.4470 
N630 X-383.817 Y-10.210 Z4.360 A27.7880 
N631 X-383.807 Y-10.079 Z4.653 A26.1290 
N632 X-383.797 Y-9.940 Z4.943 A24.4700 
N633 X-383.786 Y-9.793 Z5.229 A22.8111 
N634 X-383.776 Y-9.638 Z5.510 A21.1521 
N635 X-383.766 Y-9.474 Z5.787 A19.4931 
N636 X-383.755 Y-9.303 Z6.059 A17.8341 
N637 X-383.745 Y-9.123 Z6.326 A16.1751 
N638 X-383.734 Y-8.936 Z6.587 A14.5161 
N639 X-383.724 Y-8.742 Z6.843 A12.8571 
N640 X-383.714 Y-8.540 Z7.093 A11.1982 
N641 X-383.703 Y-8.331 Z7.337 A9.5392 
N642 X-383.693 Y-8.115 Z7.576 A7.8802 
N643 X-383.683 Y-7.893 Z7.807 A6.2212 
N644 X-383.672 Y-7.663 Z8.033 A4.5622 
N645 X-383.662 Y-7.427 Z8.251 A2.9032 
N646 X-383.652 Y-7.185 Z8.463 A1.2442 
N647 X-383.641 Y-6.937 Z8.667 A359.5853 
N648 X-383.631 Y-6.684 Z8.864 A357.9263 
N649 X-383.620 Y-6.424 Z9.054 A356.2673 
N650 X-383.610 Y-6.159 Z9.236 A354.6083 
N651 X-383.600 Y-5.889 Z9.411 A352.9493 
N652 X-383.589 Y-5.614 Z9.577 A351.2903 
N653 X-383.579 Y-5.335 Z9.736 A349.6313 
N654 X-383.569 Y-5.051 Z9.886 A347.9724 
N655 X-383.558 Y-4.762 Z10.028 A346.3134 
N656 X-383.548 Y-4.470 Z10.162 A344.6544 
N657 X-383.537 Y-4.174 Z10.287 A342.9954 
N658 X-383.527 Y-3.874 Z10.404 A341.3364 
N659 X-383.517 Y-3.572 Z10.511 A339.6774 
N660 X-383.506 Y-3.266 Z10.610 A338.0184 
N661 X-383.496 Y-2.957 Z10.701 A336.3594 
N662 X-383.486 Y-2.646 Z10.782 A334.7005 
N663 X-383.475 Y-2.333 Z10.854 A333.0415 
N664 X-383.465 Y-2.018 Z10.917 A331.3825 
N665 X-383.455 Y-1.701 Z10.971 A329.7235 
N666 X-383.444 Y-1.383 Z11.015 A328.0645 
N667 X-383.434 Y-1.063 Z11.051 A326.4055 
N668 X-383.423 Y-0.743 Z11.077 A324.7465 
N669 X-383.413 Y-0.422 Z11.094 A323.0876 
N670 X-383.403 Y-0.100 Z11.101 A321.4286 
N671 X-383.392 Y0.221 Z11.099 A319.7696 
N672 X-383.382 Y0.542 Z11.088 A318.1106 
N673 X-383.372 Y0.863 Z11.068 A316.4516 
N674 X-383.361 Y1.183 Z11.038 A314.7926 
N675 X-383.351 Y1.502 Z11.000 A313.1336 
N676 X-383.340 Y1.820 Z10.951 A311.4747 
N677 X-383.330 Y2.136 Z10.894 A309.8157 
N678 X-383.320 Y2.451 Z10.828 A308.1567 
N679 X-383.309 Y2.763 Z10.752 A306.4977 
N680 X-383.299 Y3.073 Z10.668 A304.8387 
N681 X-383.289 Y3.381 Z10.574 A303.1797 
N682 X-383.278 Y3.686 Z10.472 A301.5207 
N683 X-383.268 Y3.987 Z10.361 A299.8618 
N684 X-383.258 Y4.286 Z10.241 A298.2028 
N685 X-383.247 Y4.580 Z10.113 A296.5438 
N686 X-383.237 Y4.871 Z9.976 A294.8848 
N687 X-383.226 Y5.158 Z9.831 A293.2258 
N688 X-383.216 Y5.440 Z9.677 A291.5668 
N689 X-383.206 Y5.718 Z9.516 A289.9078 
N690 X-383.195 Y5.991 Z9.346 A288.2488 
N691 X-383.185 Y6.259 Z9.169 A286.5899 
N692 X-383.175 Y6.522 Z8.984 A284.9309 
N693 X-383.164 Y6.780 Z8.791 A283.2719 
N694 X-383.154 Y7.031 Z8.591 A281.6129 
N695 X-383.143 Y7.277 Z8.384 A279.9539 
N696 X-383.133 Y7.517 Z8.170 A278.2949 
N697 X-383.123 Y7.750 Z7.949 A276.6359 
N698 X-383.112 Y7.977 Z7.721 A274.9770 
N699 X-383.102 Y8.197 Z7.487 A273.3180 
N700 X-383.092 Y8.410 Z7.247 A271.6590 
N701 X-383.081 Y8.617 Z7.000 A270.0000 
N702 X-383.081 Y8.816 Z6.748 A268.3410 
N703 X-383.081 Y9.007 Z6.490 A266.6820 
N704 X-383.081 Y9.191 Z6.226 A265.0230 
N705 X-383.081 Y9.368 Z5.957 A263.3641 
N706 X-383.081 Y9.536 Z5.684 A261.7051 
N707 X-383.081 Y9.697 Z5.405 A260.0461 
N708 X-383.081 Y9.849 Z5.122 A258.3871 
N709 X-383.081 Y9.994 Z4.835 A256.7281 
N710 X-383.081 Y10.129 Z4.544 A255.0691 
N711 X-383.081 Y10.257 Z4.248 A253.4101 
N712 X-383.081 Y10.375 Z3.950 A251.7512 
N713 X-383.081 Y10.485 Z3.648 A250.0922 
N714 X-383.081 Y10.587 Z3.343 A248.4332 
N715 X-383.081 Y10.679 Z3.035 A246.7742 
N716 X-383.081 Y10.762 Z2.724 A245.1152 
N717 X-383.081 Y10.837 Z2.412 A243.4562 
N718 X-383.081 Y10.902 Z2.097 A241.7972 
N719 X-383.081 Y10.958 Z1.780 A240.1382 
N720 X-383.081 Y11.005 Z1.462 A238.4793 
N721 X-383.081 Y11.043 Z1.143 A236.8203 
N722 X-383.081 Y11.071 Z0.823 A235.1613 
N723 X-383.081 Y11.090 Z0.502 A233.5023 
N724 X-383.081 Y11.100 Z0.181 A231.8433 
N725 X-383.081 Y11.101 Z-0.141 A230.1843 
N726 X-383.081 Y11.092 Z-0.462 A228.5253 
N727 X-383.081 Y11.074 Z-0.783 A226.8664 
N728 X-383.081 Y11.047 Z-1.103 A225.2074 
N729 X-383.081 Y11.010 Z-1.423 A223.5484 
N730 X-383.081 Y10.964 Z-1.741 A221.8894 
N731 X-383.081 Y10.909 Z-2.057 A220.2304 
N732 X-383.081 Y10.845 Z-2.372 A218.5714 
N733 X-383.081 Y10.772 Z-2.685 A216.9124 
N734 X-383.081 Y10.690 Z-2.996 A215.2535 
N735 X-383.081 Y10.599 Z-3.304 A213.5945 
N736 X-383.081 Y10.498 Z-3.610 A211.9355 
N737 X-383.081 Y10.390 Z-3.912 A210.2765 
N738 X-383.081 Y10.272 Z-4.211 A208.6175 
N739 X-383.081 Y10.146 Z-4.507 A206.9585 
N740 X-383.081 Y10.011 Z-4.799 A205.2995 
N741 X-383.081 Y9.868 Z-5.087 A203.6406 
N742 X-383.081 Y9.716 Z-5.370 A201.9816 
N743 X-383.081 Y9.557 Z-5.649 A200.3226 
N744 X-383.081 Y9.389 Z-5.923 A198.6636 
N745 X-383.081 Y9.214 Z-6.193 A197.0046 
N746 X-383.081 Y9.031 Z-6.457 A195.3456 
N747 X-383.081 Y8.840 Z-6.716 A193.6866 
N748 X-383.081 Y8.642 Z-6.969 A192.0276 
N749 X-383.081 Y8.437 Z-7.216 A190.3687 
N750 X-383.081 Y8.224 Z-7.457 A188.7097 
N751 X-383.081 Y8.005 Z-7.692 A187.0507 
N752 X-383.081 Y7.779 Z-7.921 A185.3917 
N753 X-383.081 Y7.546 Z-8.143 A183.7327 
N754 X-383.081 Y7.307 Z-8.358 A182.0737 
N755 X-383.081 Y7.062 Z-8.566 A180.4147 
N756 X-383.081 Y6.811 Z-8.767 A178.7558 
N757 X-383.081 Y6.555 Z-8.960 A177.0968 
N758 X-383.081 Y6.292 Z-9.146 A175.4378 
N759 X-383.081 Y6.025 Z-9.324 A173.7788 
N760 X-383.081 Y5.753 Z-9.495 A172.1198 
N761 X-383.081 Y5.475 Z-9.658 A170.4608 
N762 X-383.081 Y5.193 Z-9.812 A168.8018 
N763 X-383.081 Y4.907 Z-9.958 A167.1429 
N764 X-383.081 Y4.617 Z-10.096 A165.4839 
N765 X-383.081 Y4.323 Z-10.226 A163.8249 
N766 X-383.081 Y4.025 Z-10.346 A162.1659 
N767 X-383.081 Y3.723 Z-10.459 A160.5069 
N768 X-383.081 Y3.419 Z-10.562 A158.8479 
N769 X-383.081 Y3.112 Z-10.657 A157.1889 
N770 X-383.081 Y2.802 Z-10.742 A155.5300 
N771 X-383.081 Y2.490 Z-10.819 A153.8710 
N772 X-383.081 Y2.176 Z-10.886 A152.2120 
N773 X-383.081 Y1.860 Z-10.945 A150.5530 
N774 X-383.081 Y1.542 Z-10.994 A148.8940 
N775 X-383.081 Y1.223 Z-11.034 A147.2350 
N776 X-383.081 Y0.903 Z-11.065 A145.5760 
N777 X-383.081 Y0.582 Z-11.086 A143.9171 
N778 X-383.081 Y0.261 Z-11.099 A142.2581 
N779 X-383.081 Y-0.060 Z-11.102 A140.5991 
N780 X-383.081 Y-0.382 Z-11.095 A138.9401 
N781 X-383.081 Y-0.703 Z-11.079 A137.2811 
N782 X-383.081 Y-1.023 Z-11.054 A135.6221 
N783 X-383.081 Y-1.343 Z-11.020 A133.9631 
N784 X-383.081 Y-1.661 Z-10.977 A132.3041 
N785 X-383.081 Y-1.978 Z-10.924 A130.6452 
N786 X-383.081 Y-2.294 Z-10.862 A128.9862 
N787 X-383.081 Y-2.607 Z-10.791 A127.3272 
N788 X-383.081 Y-2.919 Z-10.711 A125.6682 
N789 X-383.081 Y-3.227 Z-10.622 A124.0092 
N790 X-383.081 Y-3.534 Z-10.524 A122.3502 
N791 X-383.081 Y-3.837 Z-10.418 A120.6912 
N792 X-383.081 Y-4.137 Z-10.302 A119.0323 
N793 X-383.081 Y-4.433 Z-10.178 A117.3733 
N794 X-383.081 Y-4.726 Z-10.045 A115.7143 
N795 X-383.081 Y-5.015 Z-9.904 A114.0553 
N796 X-383.081 Y-5.300 Z-9.755 A112.3963 
N797 X-383.081 Y-5.580 Z-9.598 A110.7373 
N798 X-383.081 Y-5.855 Z-9.432 A109.0783 
N799 X-383.081 Y-6.126 Z-9.258 A107.4194 
N800 X-383.081 Y-6.391 Z-9.077 A105.7604 
N801 X-383.081 Y-6.652 Z-8.888 A104.1014 
N802 X-383.081 Y-6.906 Z-8.692 A102.4424 
N803 X-383.081 Y-7.155 Z-8.489 A100.7834 
N804 X-383.081 Y-7.398 Z-8.278 A99.1244 
N805 X-383.081 Y-7.634 Z-8.060 A97.4654 
N806 X-383.081 Y-7.864 Z-7.836 A95.8065 
N807 X-383.081 Y-8.088 Z-7.605 A94.1475 
N808 X-383.081 Y-8.305 Z-7.368 A92.4885 
N809 X-383.081 Y-8.514 Z-7.124 A90.8295 
N810 X-383.081 Y-8.717 Z-6.875 A89.1705 
N811 X-383.081 Y-8.912 Z-6.619 A87.5115 
N812 X-383.081 Y-9.100 Z-6.358 A85.8525 
N813 X-383.081 Y-9.281 Z-6.092 A84.1935 
N814 X-383.081 Y-9.453 Z-5.821 A82.5346 
N815 X-383.081 Y-9.618 Z-5.545 A80.8756 
N816 X-383.081 Y-9.774 Z-5.264 A79.2166 
N817 X-383.081 Y-9.922 Z-4.979 A77.5576 
N818 X-383.081 Y-10.062 Z-4.690 A75.8986 
N819 X-383.081 Y-10.194 Z-4.396 A74.2396 
N820 X-383.081 Y-10.317 Z-4.099 A72.5806 
N821 X-383.081 Y-10.431 Z-3.799 A70.9217 
N822 X-383.081 Y-10.537 Z-3.495 A69.2627 
N823 X-383.081 Y-10.634 Z-3.189 A67.6037 
N824 X-383.081 Y-10.722 Z-2.880 A65.9447 
N825 X-383.081 Y-10.801 Z-2.568 A64.2857 
N826 X-383.081 Y-10.870 Z-2.254 A62.6267 
N827 X-383.081 Y-10.931 Z-1.939 A60.9677 
N828 X-383.081 Y-10.983 Z-1.621 A59.3088 
N829 X-383.081 Y-11.025 Z-1.303 A57.6498 
N830 X-383.081 Y-11.058 Z-0.983 A55.9908 
N831 X-383.081 Y-11.082 Z-0.663 A54.3318 
N832 X-383.081 Y-11.096 Z-0.341 A52.6728 
N833 X-383.081 Y-11.102 Z-0.020 A51.0138 
N834 X-383.081 Y-11.098 Z0.301 A49.3548 
N835 X-383.081 Y-11.084 Z0.623 A47.6959 
N836 X-383.081 Y-11.062 Z0.943 A46.0369 
N837 X-383.081 Y-11.030 Z1.263 A44.3779 
N838 X-383.081 Y-10.988 Z1.582 A42.7189 
N839 X-383.081 Y-10.938 Z1.899 A41.0599 
N840 X-383.081 Y-10.878 Z2.215 A39.4009 
N841 X-383.081 Y-10.810 Z2.529 A37.7419 
N842 X-383.081 Y-10.732 Z2.841 A36.0829 
N843 X-383.081 Y-10.645 Z3.151 A34.4240 
N844 X-383.081 Y-10.550 Z3.457 A32.7650 
N845 X-383.081 Y-10.445 Z3.761 A31.1060 
N846 X-383.081 Y-10.332 Z4.062 A29.4470 
N847 X-383.081 Y-10.210 Z4.360 A27.7880 
N848 X-383.081 Y-10.079 Z4.653 A26.1290 
N849 X-383.081 Y-9.940 Z4.943 A24.4700 
N850 X-383.081 Y-9.793 Z5.229 A22.8111 
N851 X-383.081 Y-9.638 Z5.510 A21.1521 
N852 X-383.081 Y-9.474 Z5.787 A19.4931 
N853 X-383.081 Y-9.303 Z6.059 A17.8341 
N854 X-383.081 Y-9.123 Z6.326 A16.1751 
N855 X-383.081 Y-8.936 Z6.587 A14.5161 
N856 X-383.081 Y-8.742 Z6.843 A12.8571 
N857 X-383.081 Y-8.540 Z7.093 A11.1982 
N858 X-383.081 Y-8.331 Z7.337 A9.5392 
N859 X-383.081 Y-8.115 Z7.576 A7.8802 
N860 X-383.081 Y-7.893 Z7.807 A6.2212 
N861 X-383.081 Y-7.663 Z8.033 A4.5622 
N862 X-383.081 Y-7.427 Z8.251 A2.9032 
N863 X-383.081 Y-7.185 Z8.463 A1.2442 
N864 X-383.081 Y-6.937 Z8.667 A359.5853 
N865 X-383.081 Y-6.684 Z8.864 A357.9263 
N866 X-383.081 Y-6.424 Z9.054 A356.2673 
N867 X-383.081 Y-6.159 Z9.236 A354.6083 
N868 X-383.081 Y-5.889 Z9.411 A352.9493 
N869 X-383.081 Y-5.614 Z9.577 A351.2903 
N870 X-383.081 Y-5.335 Z9.736 A349.6313 
N871 X-383.081 Y-5.051 Z9.886 A347.9724 
N872 X-383.081 Y-4.762 Z10.028 A346.3134 
N873 X-383.081 Y-4.470 Z10.162 A344.6544 
N874 X-383.081 Y-4.174 Z10.287 A342.9954 
N875 X-383.081 Y-3.874 Z10.404 A341.3364 
N876 X-383.081 Y-3.572 Z10.511 A339.6774 
N877 X-383.081 Y-3.266 Z10.610 A338.0184 
N878 X-383.081 Y-2.957 Z10.701 A336.3594 
N879 X-383.081 Y-2.646 Z10.782 A334.7005 
N880 X-383.081 Y-2.333 Z10.854 A333.0415 
N881 X-383.081 Y-2.018 Z10.917 A331.3825 
N882 X-383.081 Y-1.701 Z10.971 A329.7235 
N883 X-383.081 Y-1.383 Z11.015 A328.0645 
N884 X-383.081 Y-1.063 Z11.051 A326.4055 
N885 X-383.081 Y-0.743 Z11.077 A324.7465 
N886 X-383.081 Y-0.422 Z11.094 A323.0876 
N887 X-383.081 Y-0.100 Z11.101 A321.4286 
N888 X-383.081 Y0.221 Z11.099 A319.7696 
N889 X-383.081 Y0.542 Z11.088 A318.1106 
N890 X-383.081 Y0.863 Z11.068 A316.4516 
N891 X-383.081 Y1.183 Z11.038 A314.7926 
N892 X-383.081 Y1.502 Z11.000 A313.1336 
N893 X-383.081 Y1.820 Z10.951 A311.4747 
N894 X-383.081 Y2.136 Z10.894 A309.8157 
N895 X-383.081 Y2.451 Z10.828 A308.1567 
N896 X-383.081 Y2.763 Z10.752 A306.4977 
N897 X-383.081 Y3.073 Z10.668 A304.8387 
N898 X-383.081 Y3.381 Z10.574 A303.1797 
N899 X-383.081 Y3.686 Z10.472 A301.5207 
N900 X-383.081 Y3.987 Z10.361 A299.8618 
N901 X-383.081 Y4.286 Z10.241 A298.2028 
N902 X-383.081 Y4.580 Z10.113 A296.5438 
N903 X-383.081 Y4.871 Z9.976 A294.8848 
N904 X-383.081 Y5.158 Z9.831 A293.2258 
N905 X-383.081 Y5.440 Z9.677 A291.5668 
N906 X-383.081 Y5.718 Z9.516 A289.9078 
N907 X-383.081 Y5.991 Z9.346 A288.2488 
N908 X-383.081 Y6.259 Z9.169 A286.5899 
N909 X-383.081 Y6.522 Z8.984 A284.9309 
N910 X-383.081 Y6.780 Z8.791 A283.2719 
N911 X-383.081 Y7.031 Z8.591 A281.6129 
N912 X-383.081 Y7.277 Z8.384 A279.9539 
N913 X-383.081 Y7.517 Z8.170 A278.2949 
N914 X-383.081 Y7.750 Z7.949 A276.6359 
N915 X-383.081 Y7.977 Z7.721 A274.9770 
N916 X-383.081 Y8.197 Z7.487 A273.3180 
N917 X-383.081 Y8.410 Z7.247 A271.6590 
N918 X-383.081 Y8.617 Z7.000 A270.0000 
N919 X-383.081 Y8.617 Z-3.000 
N920 G00 X-383.081 Y33.617 Z-3.000 
N921 X-387.581 Y32.833 Z17.000 
N922 X-387.581 Y7.833 Z17.000 
N923 G01 X-387.581 Y7.833 Z7.000 F1224 
N924 X-387.581 Y8.053 Z6.747 A268.1726 
N925 X-387.581 Y8.264 Z6.486 A266.3452 
N926 X-387.581 Y8.466 Z6.220 A264.5178 
N927 X-387.581 Y8.660 Z5.946 A262.6904 
N928 X-387.581 Y8.846 Z5.667 A260.8629 
N929 X-387.581 Y9.022 Z5.382 A259.0355 
N930 X-387.581 Y9.189 Z5.092 A257.2081 
N931 X-387.581 Y9.346 Z4.796 A255.3807 
N932 X-387.581 Y9.495 Z4.496 A253.5533 
N933 X-387.581 Y9.633 Z4.191 A251.7259 
N934 X-387.581 Y9.762 Z3.881 A249.8985 
N935 X-387.581 Y9.881 Z3.568 A248.0711 
N936 X-387.581 Y9.990 Z3.251 A246.2437 
N937 X-387.581 Y10.088 Z2.931 A244.4162 
N938 X-387.581 Y10.176 Z2.608 A242.5888 
N939 X-387.581 Y10.254 Z2.282 A240.7614 
N940 X-387.581 Y10.322 Z1.954 A238.9340 
N941 X-387.581 Y10.379 Z1.624 A237.1066 
N942 X-387.581 Y10.426 Z1.292 A235.2792 
N943 X-387.581 Y10.461 Z0.959 A233.4518 
N944 X-387.581 Y10.487 Z0.625 A231.6244 
N945 X-387.581 Y10.501 Z0.290 A229.7970 
N946 X-387.581 Y10.505 Z-0.045 A227.9695 
N947 X-387.581 Y10.498 Z-0.380 A226.1421 
N948 X-387.581 Y10.481 Z-0.715 A224.3147 
N949 X-387.581 Y10.453 Z-1.049 A222.4873 
N950 X-387.581 Y10.414 Z-1.381 A220.6599 
N951 X-387.581 Y10.365 Z-1.713 A218.8325 
N952 X-387.581 Y10.305 Z-2.042 A217.0051 
N953 X-387.581 Y10.234 Z-2.370 A215.1777 
N954 X-387.581 Y10.154 Z-2.695 A213.3503 
N955 X-387.581 Y10.063 Z-3.018 A211.5228 
N956 X-387.581 Y9.961 Z-3.337 A209.6954 
N957 X-387.581 Y9.850 Z-3.653 A207.8680 
N958 X-387.581 Y9.728 Z-3.965 A206.0406 
N959 X-387.581 Y9.597 Z-4.273 A204.2132 
N960 X-387.581 Y9.456 Z-4.577 A202.3858 
N961 X-387.581 Y9.305 Z-4.876 A200.5584 
N962 X-387.581 Y9.145 Z-5.171 A198.7310 
N963 X-387.581 Y8.975 Z-5.460 A196.9036 
N964 X-387.581 Y8.797 Z-5.743 A195.0761 
N965 X-387.581 Y8.609 Z-6.021 A193.2487 
N966 X-387.581 Y8.413 Z-6.292 A191.4213 
N967 X-387.581 Y8.208 Z-6.557 A189.5939 
N968 X-387.581 Y7.994 Z-6.816 A187.7665 
N969 X-387.581 Y7.773 Z-7.067 A185.9391 
N970 X-387.581 Y7.544 Z-7.311 A184.1117 
N971 X-387.581 Y7.307 Z-7.548 A182.2843 
N972 X-387.581 Y7.062 Z-7.777 A180.4569 
N973 X-387.581 Y6.811 Z-7.999 A178.6294 
N974 X-387.581 Y6.552 Z-8.212 A176.8020 
N975 X-387.581 Y6.287 Z-8.416 A174.9746 
N976 X-387.581 Y6.015 Z-8.613 A173.1472 
N977 X-387.581 Y5.738 Z-8.800 A171.3198 
N978 X-387.581 Y5.454 Z-8.979 A169.4924 
N979 X-387.581 Y5.165 Z-9.148 A167.6650 
N980 X-387.581 Y4.871 Z-9.308 A165.8376 
N981 X-387.581 Y4.571 Z-9.459 A164.0102 
N982 X-387.581 Y4.267 Z-9.599 A162.1827 
N983 X-387.581 Y3.959 Z-9.731 A160.3553 
N984 X-387.581 Y3.647 Z-9.852 A158.5279 
N985 X-387.581 Y3.331 Z-9.963 A156.7005 
N986 X-387.581 Y3.011 Z-10.064 A154.8731 
N987 X-387.581 Y2.689 Z-10.155 A153.0457 
N988 X-387.581 Y2.364 Z-10.236 A151.2183 
N989 X-387.581 Y2.036 Z-10.306 A149.3909 
N990 X-387.581 Y1.706 Z-10.366 A147.5635 
N991 X-387.581 Y1.375 Z-10.415 A145.7360 
N992 X-387.581 Y1.042 Z-10.453 A143.9086 
N993 X-387.581 Y0.708 Z-10.481 A142.0812 
N994 X-387.581 Y0.374 Z-10.499 A140.2538 
N995 X-387.581 Y0.039 Z-10.505 A138.4264 
N996 X-387.581 Y-0.296 Z-10.501 A136.5990 
N997 X-387.581 Y-0.631 Z-10.486 A134.7716 
N998 X-387.581 Y-0.965 Z-10.461 A132.9442 
N999 X-387.581 Y-1.298 Z-10.425 A131.1168 
N1000 X-387.581 Y-1.630 Z-10.378 A129.2893 
N1001 X-387.581 Y-1.960 Z-10.321 A127.4619 
N1002 X-387.581 Y-2.288 Z-10.253 A125.6345 
N1003 X-387.581 Y-2.614 Z-10.175 A123.8071 
N1004 X-387.581 Y-2.937 Z-10.086 A121.9797 
N1005 X-387.581 Y-3.257 Z-9.988 A120.1523 
N1006 X-387.581 Y-3.574 Z-9.879 A118.3249 
N1007 X-387.581 Y-3.887 Z-9.760 A116.4975 
N1008 X-387.581 Y-4.197 Z-9.631 A114.6701 
N1009 X-387.581 Y-4.502 Z-9.492 A112.8426 
N1010 X-387.581 Y-4.802 Z-9.344 A111.0152 
N1011 X-387.581 Y-5.098 Z-9.186 A109.1878 
N1012 X-387.581 Y-5.388 Z-9.018 A107.3604 
N1013 X-387.581 Y-5.673 Z-8.842 A105.5330 
N1014 X-387.581 Y-5.952 Z-8.657 A103.7056 
N1015 X-387.581 Y-6.225 Z-8.462 A101.8782 
N1016 X-387.581 Y-6.491 Z-8.260 A100.0508 
N1017 X-387.581 Y-6.752 Z-8.048 A98.2234 
N1018 X-387.581 Y-7.005 Z-7.829 A96.3959 
N1019 X-387.581 Y-7.251 Z-7.602 A94.5685 
N1020 X-387.581 Y-7.490 Z-7.367 A92.7411 
N1021 X-387.581 Y-7.721 Z-7.124 A90.9137 
N1022 X-387.581 Y-7.944 Z-6.874 A89.0863 
N1023 X-387.581 Y-8.159 Z-6.617 A87.2589 
N1024 X-387.581 Y-8.366 Z-6.354 A85.4315 
N1025 X-387.581 Y-8.564 Z-6.084 A83.6041 
N1026 X-387.581 Y-8.754 Z-5.808 A81.7766 
N1027 X-387.581 Y-8.935 Z-5.525 A79.9492 
N1028 X-387.581 Y-9.106 Z-5.238 A78.1218 
N1029 X-387.581 Y-9.269 Z-4.945 A76.2944 
N1030 X-387.581 Y-9.422 Z-4.647 A74.4670 
N1031 X-387.581 Y-9.565 Z-4.344 A72.6396 
N1032 X-387.581 Y-9.699 Z-4.037 A70.8122 
N1033 X-387.581 Y-9.823 Z-3.725 A68.9848 
N1034 X-387.581 Y-9.936 Z-3.410 A67.1574 
N1035 X-387.581 Y-10.040 Z-3.092 A65.3299 
N1036 X-387.581 Y-10.134 Z-2.770 A63.5025 
N1037 X-387.581 Y-10.217 Z-2.445 A61.6751 
N1038 X-387.581 Y-10.290 Z-2.118 A59.8477 
N1039 X-387.581 Y-10.352 Z-1.789 A58.0203 
N1040 X-387.581 Y-10.404 Z-1.458 A56.1929 
N1041 X-387.581 Y-10.445 Z-1.125 A54.3655 
N1042 X-387.581 Y-10.475 Z-0.792 A52.5381 
N1043 X-387.581 Y-10.495 Z-0.457 A50.7107 
N1044 X-387.581 Y-10.505 Z-0.122 A48.8832 
N1045 X-387.581 Y-10.503 Z0.213 A47.0558 
N1046 X-387.581 Y-10.491 Z0.547 A45.2284 
N1047 X-387.581 Y-10.468 Z0.882 A43.4010 
N1048 X-387.581 Y-10.435 Z1.215 A41.5736 
N1049 X-387.581 Y-10.391 Z1.547 A39.7462 
N1050 X-387.581 Y-10.336 Z1.878 A37.9188 
N1051 X-387.581 Y-10.271 Z2.206 A36.0914 
N1052 X-387.581 Y-10.195 Z2.533 A34.2640 
N1053 X-387.581 Y-10.109 Z2.857 A32.4365 
N1054 X-387.581 Y-10.013 Z3.178 A30.6091 
N1055 X-387.581 Y-9.907 Z3.495 A28.7817 
N1056 X-387.581 Y-9.790 Z3.809 A26.9543 
N1057 X-387.581 Y-9.664 Z4.120 A25.1269 
N1058 X-387.581 Y-9.528 Z4.426 A23.2995 
N1059 X-387.581 Y-9.382 Z4.727 A21.4721 
N1060 X-387.581 Y-9.226 Z5.024 A19.6447 
N1061 X-387.581 Y-9.061 Z5.316 A17.8173 
N1062 X-387.581 Y-8.887 Z5.602 A15.9898 
N1063 X-387.581 Y-8.704 Z5.883 A14.1624 
N1064 X-387.581 Y-8.512 Z6.157 A12.3350 
N1065 X-387.581 Y-8.311 Z6.425 A10.5076 
N1066 X-387.581 Y-8.102 Z6.687 A8.6802 
N1067 X-387.581 Y-7.885 Z6.942 A6.8528 
N1068 X-387.581 Y-7.659 Z7.190 A5.0254 
N1069 X-387.581 Y-7.426 Z7.431 A3.1980 
N1070 X-387.581 Y-7.185 Z7.664 A1.3706 
N1071 X-387.581 Y-6.937 Z7.889 A359.5431 
N1072 X-387.581 Y-6.682 Z8.106 A357.7157 
N1073 X-387.581 Y-6.420 Z8.315 A355.8883 
N1074 X-387.581 Y-6.152 Z8.516 A354.0609 
N1075 X-387.581 Y-5.877 Z8.707 A352.2335 
N1076 X-387.581 Y-5.597 Z8.890 A350.4061 
N1077 X-387.581 Y-5.310 Z9.064 A348.5787 
N1078 X-387.581 Y-5.018 Z9.229 A346.7513 
N1079 X-387.581 Y-4.722 Z9.384 A344.9239 
N1080 X-387.581 Y-4.420 Z9.530 A343.0964 
N1081 X-387.581 Y-4.114 Z9.666 A341.2690 
N1082 X-387.581 Y-3.803 Z9.793 A339.4416 
N1083 X-387.581 Y-3.489 Z9.909 A337.6142 
N1084 X-387.581 Y-3.171 Z10.015 A335.7868 
N1085 X-387.581 Y-2.850 Z10.111 A333.9594 
N1086 X-387.581 Y-2.527 Z10.197 A332.1320 
N1087 X-387.581 Y-2.200 Z10.272 A330.3046 
N1088 X-387.581 Y-1.871 Z10.337 A328.4772 
N1089 X-387.581 Y-1.541 Z10.392 A326.6497 
N1090 X-387.581 Y-1.209 Z10.436 A324.8223 
N1091 X-387.581 Y-0.875 Z10.469 A322.9949 
N1092 X-387.581 Y-0.541 Z10.491 A321.1675 
N1093 X-387.581 Y-0.206 Z10.503 A319.3401 
N1094 X-387.581 Y0.129 Z10.504 A317.5127 
N1095 X-387.581 Y0.464 Z10.495 A315.6853 
N1096 X-387.581 Y0.798 Z10.475 A313.8579 
N1097 X-387.581 Y1.132 Z10.444 A312.0305 
N1098 X-387.581 Y1.464 Z10.403 A310.2030 
N1099 X-387.581 Y1.795 Z10.351 A308.3756 
N1100 X-387.581 Y2.124 Z10.288 A306.5482 
N1101 X-387.581 Y2.451 Z10.215 A304.7208 
N1102 X-387.581 Y2.776 Z10.132 A302.8934 
N1103 X-387.581 Y3.098 Z10.038 A301.0660 
N1104 X-387.581 Y3.416 Z9.934 A299.2386 
N1105 X-387.581 Y3.731 Z9.820 A297.4112 
N1106 X-387.581 Y4.043 Z9.696 A295.5838 
N1107 X-387.581 Y4.350 Z9.563 A293.7563 
N1108 X-387.581 Y4.652 Z9.419 A291.9289 
N1109 X-387.581 Y4.950 Z9.266 A290.1015 
N1110 X-387.581 Y5.243 Z9.103 A288.2741 
N1111 X-387.581 Y5.531 Z8.931 A286.4467 
N1112 X-387.581 Y5.813 Z8.750 A284.6193 
N1113 X-387.581 Y6.089 Z8.561 A282.7919 
N1114 X-387.581 Y6.359 Z8.362 A280.9645 
N1115 X-387.581 Y6.622 Z8.155 A279.1371 
N1116 X-387.581 Y6.879 Z7.940 A277.3096 
N1117 X-387.581 Y7.129 Z7.716 A275.4822 
N1118 X-387.581 Y7.371 Z7.485 A273.6548 
N1119 X-387.581 Y7.606 Z7.246 A271.8274 
N1120 X-387.581 Y7.833 Z7.000 A270.0000 
N1121 X-387.570 Y8.053 Z6.747 A268.1726 
N1122 X-387.558 Y8.264 Z6.486 A266.3452 
N1123 X-387.547 Y8.466 Z6.220 A264.5178 
N1124 X-387.536 Y8.660 Z5.946 A262.6904 
N1125 X-387.524 Y8.846 Z5.667 A260.8629 
N1126 X-387.513 Y9.022 Z5.382 A259.0355 
N1127 X-387.501 Y9.189 Z5.092 A257.2081 
N1128 X-387.490 Y9.346 Z4.796 A255.3807 
N1129 X-387.478 Y9.495 Z4.496 A253.5533 
N1130 X-387.467 Y9.633 Z4.191 A251.7259 
N1131 X-387.456 Y9.762 Z3.881 A249.8985 
N1132 X-387.444 Y9.881 Z3.568 A248.0711 
N1133 X-387.433 Y9.990 Z3.251 A246.2437 
N1134 X-387.421 Y10.088 Z2.931 A244.4162 
N1135 X-387.410 Y10.176 Z2.608 A242.5888 
N1136 X-387.398 Y10.254 Z2.282 A240.7614 
N1137 X-387.387 Y10.322 Z1.954 A238.9340 
N1138 X-387.376 Y10.379 Z1.624 A237.1066 
N1139 X-387.364 Y10.426 Z1.292 A235.2792 
N1140 X-387.353 Y10.461 Z0.959 A233.4518 
N1141 X-387.341 Y10.487 Z0.625 A231.6244 
N1142 X-387.330 Y10.501 Z0.290 A229.7970 
N1143 X-387.319 Y10.505 Z-0.045 A227.9695 
N1144 X-387.307 Y10.498 Z-0.380 A226.1421 
N1145 X-387.296 Y10.481 Z-0.715 A224.3147 
N1146 X-387.284 Y10.453 Z-1.049 A222.4873 
N1147 X-387.273 Y10.414 Z-1.381 A220.6599 
N1148 X-387.261 Y10.365 Z-1.713 A218.8325 
N1149 X-387.250 Y10.305 Z-2.042 A217.0051 
N1150 X-387.239 Y10.234 Z-2.370 A215.1777 
N1151 X-387.227 Y10.154 Z-2.695 A213.3503 
N1152 X-387.216 Y10.063 Z-3.018 A211.5228 
N1153 X-387.204 Y9.961 Z-3.337 A209.6954 
N1154 X-387.193 Y9.850 Z-3.653 A207.8680 
N1155 X-387.181 Y9.728 Z-3.965 A206.0406 
N1156 X-387.170 Y9.597 Z-4.273 A204.2132 
N1157 X-387.159 Y9.456 Z-4.577 A202.3858 
N1158 X-387.147 Y9.305 Z-4.876 A200.5584 
N1159 X-387.136 Y9.145 Z-5.171 A198.7310 
N1160 X-387.124 Y8.975 Z-5.460 A196.9036 
N1161 X-387.113 Y8.797 Z-5.743 A195.0761 
N1162 X-387.102 Y8.609 Z-6.021 A193.2487 
N1163 X-387.090 Y8.413 Z-6.292 A191.4213 
N1164 X-387.079 Y8.208 Z-6.557 A189.5939 
N1165 X-387.067 Y7.994 Z-6.816 A187.7665 
N1166 X-387.056 Y7.773 Z-7.067 A185.9391 
N1167 X-387.044 Y7.544 Z-7.311 A184.1117 
N1168 X-387.033 Y7.307 Z-7.548 A182.2843 
N1169 X-387.022 Y7.062 Z-7.777 A180.4569 
N1170 X-387.010 Y6.811 Z-7.999 A178.6294 
N1171 X-386.999 Y6.552 Z-8.212 A176.8020 
N1172 X-386.987 Y6.287 Z-8.416 A174.9746 
N1173 X-386.976 Y6.015 Z-8.613 A173.1472 
N1174 X-386.964 Y5.738 Z-8.800 A171.3198 
N1175 X-386.953 Y5.454 Z-8.979 A169.4924 
N1176 X-386.942 Y5.165 Z-9.148 A167.6650 
N1177 X-386.930 Y4.871 Z-9.308 A165.8376 
N1178 X-386.919 Y4.571 Z-9.459 A164.0102 
N1179 X-386.907 Y4.267 Z-9.599 A162.1827 
N1180 X-386.896 Y3.959 Z-9.731 A160.3553 
N1181 X-386.885 Y3.647 Z-9.852 A158.5279 
N1182 X-386.873 Y3.331 Z-9.963 A156.7005 
N1183 X-386.862 Y3.011 Z-10.064 A154.8731 
N1184 X-386.850 Y2.689 Z-10.155 A153.0457 
N1185 X-386.839 Y2.364 Z-10.236 A151.2183 
N1186 X-386.827 Y2.036 Z-10.306 A149.3909 
N1187 X-386.816 Y1.706 Z-10.366 A147.5635 
N1188 X-386.805 Y1.375 Z-10.415 A145.7360 
N1189 X-386.793 Y1.042 Z-10.453 A143.9086 
N1190 X-386.782 Y0.708 Z-10.481 A142.0812 
N1191 X-386.770 Y0.374 Z-10.499 A140.2538 
N1192 X-386.759 Y0.039 Z-10.505 A138.4264 
N1193 X-386.747 Y-0.296 Z-10.501 A136.5990 
N1194 X-386.736 Y-0.631 Z-10.486 A134.7716 
N1195 X-386.725 Y-0.965 Z-10.461 A132.9442 
N1196 X-386.713 Y-1.298 Z-10.425 A131.1168 
N1197 X-386.702 Y-1.630 Z-10.378 A129.2893 
N1198 X-386.690 Y-1.960 Z-10.321 A127.4619 
N1199 X-386.679 Y-2.288 Z-10.253 A125.6345 
N1200 X-386.668 Y-2.614 Z-10.175 A123.8071 
N1201 X-386.656 Y-2.937 Z-10.086 A121.9797 
N1202 X-386.645 Y-3.257 Z-9.988 A120.1523 
N1203 X-386.633 Y-3.574 Z-9.879 A118.3249 
N1204 X-386.622 Y-3.887 Z-9.760 A116.4975 
N1205 X-386.610 Y-4.197 Z-9.631 A114.6701 
N1206 X-386.599 Y-4.502 Z-9.492 A112.8426 
N1207 X-386.588 Y-4.802 Z-9.344 A111.0152 
N1208 X-386.576 Y-5.098 Z-9.186 A109.1878 
N1209 X-386.565 Y-5.388 Z-9.018 A107.3604 
N1210 X-386.553 Y-5.673 Z-8.842 A105.5330 
N1211 X-386.542 Y-5.952 Z-8.657 A103.7056 
N1212 X-386.530 Y-6.225 Z-8.462 A101.8782 
N1213 X-386.519 Y-6.491 Z-8.260 A100.0508 
N1214 X-386.508 Y-6.752 Z-8.048 A98.2234 
N1215 X-386.496 Y-7.005 Z-7.829 A96.3959 
N1216 X-386.485 Y-7.251 Z-7.602 A94.5685 
N1217 X-386.473 Y-7.490 Z-7.367 A92.7411 
N1218 X-386.462 Y-7.721 Z-7.124 A90.9137 
N1219 X-386.451 Y-7.944 Z-6.874 A89.0863 
N1220 X-386.439 Y-8.159 Z-6.617 A87.2589 
N1221 X-386.428 Y-8.366 Z-6.354 A85.4315 
N1222 X-386.416 Y-8.564 Z-6.084 A83.6041 
N1223 X-386.405 Y-8.754 Z-5.808 A81.7766 
N1224 X-386.393 Y-8.935 Z-5.525 A79.9492 
N1225 X-386.382 Y-9.106 Z-5.238 A78.1218 
N1226 X-386.371 Y-9.269 Z-4.945 A76.2944 
N1227 X-386.359 Y-9.422 Z-4.647 A74.4670 
N1228 X-386.348 Y-9.565 Z-4.344 A72.6396 
N1229 X-386.336 Y-9.699 Z-4.037 A70.8122 
N1230 X-386.325 Y-9.823 Z-3.725 A68.9848 
N1231 X-386.313 Y-9.936 Z-3.410 A67.1574 
N1232 X-386.302 Y-10.040 Z-3.092 A65.3299 
N1233 X-386.291 Y-10.134 Z-2.770 A63.5025 
N1234 X-386.279 Y-10.217 Z-2.445 A61.6751 
N1235 X-386.268 Y-10.290 Z-2.118 A59.8477 
N1236 X-386.256 Y-10.352 Z-1.789 A58.0203 
N1237 X-386.245 Y-10.404 Z-1.458 A56.1929 
N1238 X-386.234 Y-10.445 Z-1.125 A54.3655 
N1239 X-386.222 Y-10.475 Z-0.792 A52.5381 
N1240 X-386.211 Y-10.495 Z-0.457 A50.7107 
N1241 X-386.199 Y-10.505 Z-0.122 A48.8832 
N1242 X-386.188 Y-10.503 Z0.213 A47.0558 
N1243 X-386.176 Y-10.491 Z0.547 A45.2284 
N1244 X-386.165 Y-10.468 Z0.882 A43.4010 
N1245 X-386.154 Y-10.435 Z1.215 A41.5736 
N1246 X-386.142 Y-10.391 Z1.547 A39.7462 
N1247 X-386.131 Y-10.336 Z1.878 A37.9188 
N1248 X-386.119 Y-10.271 Z2.206 A36.0914 
N1249 X-386.108 Y-10.195 Z2.533 A34.2640 
N1250 X-386.096 Y-10.109 Z2.857 A32.4365 
N1251 X-386.085 Y-10.013 Z3.178 A30.6091 
N1252 X-386.074 Y-9.907 Z3.495 A28.7817 
N1253 X-386.062 Y-9.790 Z3.809 A26.9543 
N1254 X-386.051 Y-9.664 Z4.120 A25.1269 
N1255 X-386.039 Y-9.528 Z4.426 A23.2995 
N1256 X-386.028 Y-9.382 Z4.727 A21.4721 
N1257 X-386.017 Y-9.226 Z5.024 A19.6447 
N1258 X-386.005 Y-9.061 Z5.316 A17.8173 
N1259 X-385.994 Y-8.887 Z5.602 A15.9898 
N1260 X-385.982 Y-8.704 Z5.883 A14.1624 
N1261 X-385.971 Y-8.512 Z6.157 A12.3350 
N1262 X-385.959 Y-8.311 Z6.425 A10.5076 
N1263 X-385.948 Y-8.102 Z6.687 A8.6802 
N1264 X-385.937 Y-7.885 Z6.942 A6.8528 
N1265 X-385.925 Y-7.659 Z7.190 A5.0254 
N1266 X-385.914 Y-7.426 Z7.431 A3.1980 
N1267 X-385.902 Y-7.185 Z7.664 A1.3706 
N1268 X-385.891 Y-6.937 Z7.889 A359.5431 
N1269 X-385.879 Y-6.682 Z8.106 A357.7157 
N1270 X-385.868 Y-6.420 Z8.315 A355.8883 
N1271 X-385.857 Y-6.152 Z8.516 A354.0609 
N1272 X-385.845 Y-5.877 Z8.707 A352.2335 
N1273 X-385.834 Y-5.597 Z8.890 A350.4061 
N1274 X-385.822 Y-5.310 Z9.064 A348.5787 
N1275 X-385.811 Y-5.018 Z9.229 A346.7513 
N1276 X-385.800 Y-4.722 Z9.384 A344.9239 
N1277 X-385.788 Y-4.420 Z9.530 A343.0964 
N1278 X-385.777 Y-4.114 Z9.666 A341.2690 
N1279 X-385.765 Y-3.803 Z9.793 A339.4416 
N1280 X-385.754 Y-3.489 Z9.909 A337.6142 
N1281 X-385.742 Y-3.171 Z10.015 A335.7868 
N1282 X-385.731 Y-2.850 Z10.111 A333.9594 
N1283 X-385.720 Y-2.527 Z10.197 A332.1320 
N1284 X-385.708 Y-2.200 Z10.272 A330.3046 
N1285 X-385.697 Y-1.871 Z10.337 A328.4772 
N1286 X-385.685 Y-1.541 Z10.392 A326.6497 
N1287 X-385.674 Y-1.209 Z10.436 A324.8223 
N1288 X-385.662 Y-0.875 Z10.469 A322.9949 
N1289 X-385.651 Y-0.541 Z10.491 A321.1675 
N1290 X-385.640 Y-0.206 Z10.503 A319.3401 
N1291 X-385.628 Y0.129 Z10.504 A317.5127 
N1292 X-385.617 Y0.464 Z10.495 A315.6853 
N1293 X-385.605 Y0.798 Z10.475 A313.8579 
N1294 X-385.594 Y1.132 Z10.444 A312.0305 
N1295 X-385.583 Y1.464 Z10.403 A310.2030 
N1296 X-385.571 Y1.795 Z10.351 A308.3756 
N1297 X-385.560 Y2.124 Z10.288 A306.5482 
N1298 X-385.548 Y2.451 Z10.215 A304.7208 
N1299 X-385.537 Y2.776 Z10.132 A302.8934 
N1300 X-385.525 Y3.098 Z10.038 A301.0660 
N1301 X-385.514 Y3.416 Z9.934 A299.2386 
N1302 X-385.503 Y3.731 Z9.820 A297.4112 
N1303 X-385.491 Y4.043 Z9.696 A295.5838 
N1304 X-385.480 Y4.350 Z9.563 A293.7563 
N1305 X-385.468 Y4.652 Z9.419 A291.9289 
N1306 X-385.457 Y4.950 Z9.266 A290.1015 
N1307 X-385.445 Y5.243 Z9.103 A288.2741 
N1308 X-385.434 Y5.531 Z8.931 A286.4467 
N1309 X-385.423 Y5.813 Z8.750 A284.6193 
N1310 X-385.411 Y6.089 Z8.561 A282.7919 
N1311 X-385.400 Y6.359 Z8.362 A280.9645 
N1312 X-385.388 Y6.622 Z8.155 A279.1371 
N1313 X-385.377 Y6.879 Z7.940 A277.3096 
N1314 X-385.366 Y7.129 Z7.716 A275.4822 
N1315 X-385.354 Y7.371 Z7.485 A273.6548 
N1316 X-385.343 Y7.606 Z7.246 A271.8274 
N1317 X-385.331 Y7.833 Z7.000 A270.0000 
N1318 X-385.320 Y8.053 Z6.747 A268.1726 
N1319 X-385.308 Y8.264 Z6.486 A266.3452 
N1320 X-385.297 Y8.466 Z6.220 A264.5178 
N1321 X-385.286 Y8.660 Z5.946 A262.6904 
N1322 X-385.274 Y8.846 Z5.667 A260.8629 
N1323 X-385.263 Y9.022 Z5.382 A259.0355 
N1324 X-385.251 Y9.189 Z5.092 A257.2081 
N1325 X-385.240 Y9.346 Z4.796 A255.3807 
N1326 X-385.228 Y9.495 Z4.496 A253.5533 
N1327 X-385.217 Y9.633 Z4.191 A251.7259 
N1328 X-385.206 Y9.762 Z3.881 A249.8985 
N1329 X-385.194 Y9.881 Z3.568 A248.0711 
N1330 X-385.183 Y9.990 Z3.251 A246.2437 
N1331 X-385.171 Y10.088 Z2.931 A244.4162 
N1332 X-385.160 Y10.176 Z2.608 A242.5888 
N1333 X-385.148 Y10.254 Z2.282 A240.7614 
N1334 X-385.137 Y10.322 Z1.954 A238.9340 
N1335 X-385.126 Y10.379 Z1.624 A237.1066 
N1336 X-385.114 Y10.426 Z1.292 A235.2792 
N1337 X-385.103 Y10.461 Z0.959 A233.4518 
N1338 X-385.091 Y10.487 Z0.625 A231.6244 
N1339 X-385.080 Y10.501 Z0.290 A229.7970 
N1340 X-385.069 Y10.505 Z-0.045 A227.9695 
N1341 X-385.057 Y10.498 Z-0.380 A226.1421 
N1342 X-385.046 Y10.481 Z-0.715 A224.3147 
N1343 X-385.034 Y10.453 Z-1.049 A222.4873 
N1344 X-385.023 Y10.414 Z-1.381 A220.6599 
N1345 X-385.011 Y10.365 Z-1.713 A218.8325 
N1346 X-385.000 Y10.305 Z-2.042 A217.0051 
N1347 X-384.989 Y10.234 Z-2.370 A215.1777 
N1348 X-384.977 Y10.154 Z-2.695 A213.3503 
N1349 X-384.966 Y10.063 Z-3.018 A211.5228 
N1350 X-384.954 Y9.961 Z-3.337 A209.6954 
N1351 X-384.943 Y9.850 Z-3.653 A207.8680 
N1352 X-384.931 Y9.728 Z-3.965 A206.0406 
N1353 X-384.920 Y9.597 Z-4.273 A204.2132 
N1354 X-384.909 Y9.456 Z-4.577 A202.3858 
N1355 X-384.897 Y9.305 Z-4.876 A200.5584 
N1356 X-384.886 Y9.145 Z-5.171 A198.7310 
N1357 X-384.874 Y8.975 Z-5.460 A196.9036 
N1358 X-384.863 Y8.797 Z-5.743 A195.0761 
N1359 X-384.852 Y8.609 Z-6.021 A193.2487 
N1360 X-384.840 Y8.413 Z-6.292 A191.4213 
N1361 X-384.829 Y8.208 Z-6.557 A189.5939 
N1362 X-384.817 Y7.994 Z-6.816 A187.7665 
N1363 X-384.806 Y7.773 Z-7.067 A185.9391 
N1364 X-384.794 Y7.544 Z-7.311 A184.1117 
N1365 X-384.783 Y7.307 Z-7.548 A182.2843 
N1366 X-384.772 Y7.062 Z-7.777 A180.4569 
N1367 X-384.760 Y6.811 Z-7.999 A178.6294 
N1368 X-384.749 Y6.552 Z-8.212 A176.8020 
N1369 X-384.737 Y6.287 Z-8.416 A174.9746 
N1370 X-384.726 Y6.015 Z-8.613 A173.1472 
N1371 X-384.714 Y5.738 Z-8.800 A171.3198 
N1372 X-384.703 Y5.454 Z-8.979 A169.4924 
N1373 X-384.692 Y5.165 Z-9.148 A167.6650 
N1374 X-384.680 Y4.871 Z-9.308 A165.8376 
N1375 X-384.669 Y4.571 Z-9.459 A164.0102 
N1376 X-384.657 Y4.267 Z-9.599 A162.1827 
N1377 X-384.646 Y3.959 Z-9.731 A160.3553 
N1378 X-384.635 Y3.647 Z-9.852 A158.5279 
N1379 X-384.623 Y3.331 Z-9.963 A156.7005 
N1380 X-384.612 Y3.011 Z-10.064 A154.8731 
N1381 X-384.600 Y2.689 Z-10.155 A153.0457 
N1382 X-384.589 Y2.364 Z-10.236 A151.2183 
N1383 X-384.577 Y2.036 Z-10.306 A149.3909 
N1384 X-384.566 Y1.706 Z-10.366 A147.5635 
N1385 X-384.555 Y1.375 Z-10.415 A145.7360 
N1386 X-384.543 Y1.042 Z-10.453 A143.9086 
N1387 X-384.532 Y0.708 Z-10.481 A142.0812 
N1388 X-384.520 Y0.374 Z-10.499 A140.2538 
N1389 X-384.509 Y0.039 Z-10.505 A138.4264 
N1390 X-384.497 Y-0.296 Z-10.501 A136.5990 
N1391 X-384.486 Y-0.631 Z-10.486 A134.7716 
N1392 X-384.475 Y-0.965 Z-10.461 A132.9442 
N1393 X-384.463 Y-1.298 Z-10.425 A131.1168 
N1394 X-384.452 Y-1.630 Z-10.378 A129.2893 
N1395 X-384.440 Y-1.960 Z-10.321 A127.4619 
N1396 X-384.429 Y-2.288 Z-10.253 A125.6345 
N1397 X-384.418 Y-2.614 Z-10.175 A123.8071 
N1398 X-384.406 Y-2.937 Z-10.086 A121.9797 
N1399 X-384.395 Y-3.257 Z-9.988 A120.1523 
N1400 X-384.383 Y-3.574 Z-9.879 A118.3249 
N1401 X-384.372 Y-3.887 Z-9.760 A116.4975 
N1402 X-384.360 Y-4.197 Z-9.631 A114.6701 
N1403 X-384.349 Y-4.502 Z-9.492 A112.8426 
N1404 X-384.338 Y-4.802 Z-9.344 A111.0152 
N1405 X-384.326 Y-5.098 Z-9.186 A109.1878 
N1406 X-384.315 Y-5.388 Z-9.018 A107.3604 
N1407 X-384.303 Y-5.673 Z-8.842 A105.5330 
N1408 X-384.292 Y-5.952 Z-8.657 A103.7056 
N1409 X-384.280 Y-6.225 Z-8.462 A101.8782 
N1410 X-384.269 Y-6.491 Z-8.260 A100.0508 
N1411 X-384.258 Y-6.752 Z-8.048 A98.2234 
N1412 X-384.246 Y-7.005 Z-7.829 A96.3959 
N1413 X-384.235 Y-7.251 Z-7.602 A94.5685 
N1414 X-384.223 Y-7.490 Z-7.367 A92.7411 
N1415 X-384.212 Y-7.721 Z-7.124 A90.9137 
N1416 X-384.201 Y-7.944 Z-6.874 A89.0863 
N1417 X-384.189 Y-8.159 Z-6.617 A87.2589 
N1418 X-384.178 Y-8.366 Z-6.354 A85.4315 
N1419 X-384.166 Y-8.564 Z-6.084 A83.6041 
N1420 X-384.155 Y-8.754 Z-5.808 A81.7766 
N1421 X-384.143 Y-8.935 Z-5.525 A79.9492 
N1422 X-384.132 Y-9.106 Z-5.238 A78.1218 
N1423 X-384.121 Y-9.269 Z-4.945 A76.2944 
N1424 X-384.109 Y-9.422 Z-4.647 A74.4670 
N1425 X-384.098 Y-9.565 Z-4.344 A72.6396 
N1426 X-384.086 Y-9.699 Z-4.037 A70.8122 
N1427 X-384.075 Y-9.823 Z-3.725 A68.9848 
N1428 X-384.063 Y-9.936 Z-3.410 A67.1574 
N1429 X-384.052 Y-10.040 Z-3.092 A65.3299 
N1430 X-384.041 Y-10.134 Z-2.770 A63.5025 
N1431 X-384.029 Y-10.217 Z-2.445 A61.6751 
N1432 X-384.018 Y-10.290 Z-2.118 A59.8477 
N1433 X-384.006 Y-10.352 Z-1.789 A58.0203 
N1434 X-383.995 Y-10.404 Z-1.458 A56.1929 
N1435 X-383.984 Y-10.445 Z-1.125 A54.3655 
N1436 X-383.972 Y-10.475 Z-0.792 A52.5381 
N1437 X-383.961 Y-10.495 Z-0.457 A50.7107 
N1438 X-383.949 Y-10.505 Z-0.122 A48.8832 
N1439 X-383.938 Y-10.503 Z0.213 A47.0558 
N1440 X-383.926 Y-10.491 Z0.547 A45.2284 
N1441 X-383.915 Y-10.468 Z0.882 A43.4010 
N1442 X-383.904 Y-10.435 Z1.215 A41.5736 
N1443 X-383.892 Y-10.391 Z1.547 A39.7462 
N1444 X-383.881 Y-10.336 Z1.878 A37.9188 
N1445 X-383.869 Y-10.271 Z2.206 A36.0914 
N1446 X-383.858 Y-10.195 Z2.533 A34.2640 
N1447 X-383.846 Y-10.109 Z2.857 A32.4365 
N1448 X-383.835 Y-10.013 Z3.178 A30.6091 
N1449 X-383.824 Y-9.907 Z3.495 A28.7817 
N1450 X-383.812 Y-9.790 Z3.809 A26.9543 
N1451 X-383.801 Y-9.664 Z4.120 A25.1269 
N1452 X-383.789 Y-9.528 Z4.426 A23.2995 
N1453 X-383.778 Y-9.382 Z4.727 A21.4721 
N1454 X-383.767 Y-9.226 Z5.024 A19.6447 
N1455 X-383.755 Y-9.061 Z5.316 A17.8173 
N1456 X-383.744 Y-8.887 Z5.602 A15.9898 
N1457 X-383.732 Y-8.704 Z5.883 A14.1624 
N1458 X-383.721 Y-8.512 Z6.157 A12.3350 
N1459 X-383.709 Y-8.311 Z6.425 A10.5076 
N1460 X-383.698 Y-8.102 Z6.687 A8.6802 
N1461 X-383.687 Y-7.885 Z6.942 A6.8528 
N1462 X-383.675 Y-7.659 Z7.190 A5.0254 
N1463 X-383.664 Y-7.426 Z7.431 A3.1980 
N1464 X-383.652 Y-7.185 Z7.664 A1.3706 
N1465 X-383.641 Y-6.937 Z7.889 A359.5431 
N1466 X-383.629 Y-6.682 Z8.106 A357.7157 
N1467 X-383.618 Y-6.420 Z8.315 A355.8883 
N1468 X-383.607 Y-6.152 Z8.516 A354.0609 
N1469 X-383.595 Y-5.877 Z8.707 A352.2335 
N1470 X-383.584 Y-5.597 Z8.890 A350.4061 
N1471 X-383.572 Y-5.310 Z9.064 A348.5787 
N1472 X-383.561 Y-5.018 Z9.229 A346.7513 
N1473 X-383.550 Y-4.722 Z9.384 A344.9239 
N1474 X-383.538 Y-4.420 Z9.530 A343.0964 
N1475 X-383.527 Y-4.114 Z9.666 A341.2690 
N1476 X-383.515 Y-3.803 Z9.793 A339.4416 
N1477 X-383.504 Y-3.489 Z9.909 A337.6142 
N1478 X-383.492 Y-3.171 Z10.015 A335.7868 
N1479 X-383.481 Y-2.850 Z10.111 A333.9594 
N1480 X-383.470 Y-2.527 Z10.197 A332.1320 
N1481 X-383.458 Y-2.200 Z10.272 A330.3046 
N1482 X-383.447 Y-1.871 Z10.337 A328.4772 
N1483 X-383.435 Y-1.541 Z10.392 A326.6497 
N1484 X-383.424 Y-1.209 Z10.436 A324.8223 
N1485 X-383.412 Y-0.875 Z10.469 A322.9949 
N1486 X-383.401 Y-0.541 Z10.491 A321.1675 
N1487 X-383.390 Y-0.206 Z10.503 A319.3401 
N1488 X-383.378 Y0.129 Z10.504 A317.5127 
N1489 X-383.367 Y0.464 Z10.495 A315.6853 
N1490 X-383.355 Y0.798 Z10.475 A313.8579 
N1491 X-383.344 Y1.132 Z10.444 A312.0305 
N1492 X-383.333 Y1.464 Z10.403 A310.2030 
N1493 X-383.321 Y1.795 Z10.351 A308.3756 
N1494 X-383.310 Y2.124 Z10.288 A306.5482 
N1495 X-383.298 Y2.451 Z10.215 A304.7208 
N1496 X-383.287 Y2.776 Z10.132 A302.8934 
N1497 X-383.275 Y3.098 Z10.038 A301.0660 
N1498 X-383.264 Y3.416 Z9.934 A299.2386 
N1499 X-383.253 Y3.731 Z9.820 A297.4112 
N1500 X-383.241 Y4.043 Z9.696 A295.5838 
N1501 X-383.230 Y4.350 Z9.563 A293.7563 
N1502 X-383.218 Y4.652 Z9.419 A291.9289 
N1503 X-383.207 Y4.950 Z9.266 A290.1015 
N1504 X-383.195 Y5.243 Z9.103 A288.2741 
N1505 X-383.184 Y5.531 Z8.931 A286.4467 
N1506 X-383.173 Y5.813 Z8.750 A284.6193 
N1507 X-383.161 Y6.089 Z8.561 A282.7919 
N1508 X-383.150 Y6.359 Z8.362 A280.9645 
N1509 X-383.138 Y6.622 Z8.155 A279.1371 
N1510 X-383.127 Y6.879 Z7.940 A277.3096 
N1511 X-383.116 Y7.129 Z7.716 A275.4822 
N1512 X-383.104 Y7.371 Z7.485 A273.6548 
N1513 X-383.093 Y7.606 Z7.246 A271.8274 
N1514 X-383.081 Y7.833 Z7.000 A270.0000 
N1515 X-383.081 Y8.053 Z6.747 A268.1726 
N1516 X-383.081 Y8.264 Z6.486 A266.3452 
N1517 X-383.081 Y8.466 Z6.220 A264.5178 
N1518 X-383.081 Y8.660 Z5.946 A262.6904 
N1519 X-383.081 Y8.846 Z5.667 A260.8629 
N1520 X-383.081 Y9.022 Z5.382 A259.0355 
N1521 X-383.081 Y9.189 Z5.092 A257.2081 
N1522 X-383.081 Y9.346 Z4.796 A255.3807 
N1523 X-383.081 Y9.495 Z4.496 A253.5533 
N1524 X-383.081 Y9.633 Z4.191 A251.7259 
N1525 X-383.081 Y9.762 Z3.881 A249.8985 
N1526 X-383.081 Y9.881 Z3.568 A248.0711 
N1527 X-383.081 Y9.990 Z3.251 A246.2437 
N1528 X-383.081 Y10.088 Z2.931 A244.4162 
N1529 X-383.081 Y10.176 Z2.608 A242.5888 
N1530 X-383.081 Y10.254 Z2.282 A240.7614 
N1531 X-383.081 Y10.322 Z1.954 A238.9340 
N1532 X-383.081 Y10.379 Z1.624 A237.1066 
N1533 X-383.081 Y10.426 Z1.292 A235.2792 
N1534 X-383.081 Y10.461 Z0.959 A233.4518 
N1535 X-383.081 Y10.487 Z0.625 A231.6244 
N1536 X-383.081 Y10.501 Z0.290 A229.7970 
N1537 X-383.081 Y10.505 Z-0.045 A227.9695 
N1538 X-383.081 Y10.498 Z-0.380 A226.1421 
N1539 X-383.081 Y10.481 Z-0.715 A224.3147 
N1540 X-383.081 Y10.453 Z-1.049 A222.4873 
N1541 X-383.081 Y10.414 Z-1.381 A220.6599 
N1542 X-383.081 Y10.365 Z-1.713 A218.8325 
N1543 X-383.081 Y10.305 Z-2.042 A217.0051 
N1544 X-383.081 Y10.234 Z-2.370 A215.1777 
N1545 X-383.081 Y10.154 Z-2.695 A213.3503 
N1546 X-383.081 Y10.063 Z-3.018 A211.5228 
N1547 X-383.081 Y9.961 Z-3.337 A209.6954 
N1548 X-383.081 Y9.850 Z-3.653 A207.8680 
N1549 X-383.081 Y9.728 Z-3.965 A206.0406 
N1550 X-383.081 Y9.597 Z-4.273 A204.2132 
N1551 X-383.081 Y9.456 Z-4.577 A202.3858 
N1552 X-383.081 Y9.305 Z-4.876 A200.5584 
N1553 X-383.081 Y9.145 Z-5.171 A198.7310 
N1554 X-383.081 Y8.975 Z-5.460 A196.9036 
N1555 X-383.081 Y8.797 Z-5.743 A195.0761 
N1556 X-383.081 Y8.609 Z-6.021 A193.2487 
N1557 X-383.081 Y8.413 Z-6.292 A191.4213 
N1558 X-383.081 Y8.208 Z-6.557 A189.5939 
N1559 X-383.081 Y7.994 Z-6.816 A187.7665 
N1560 X-383.081 Y7.773 Z-7.067 A185.9391 
N1561 X-383.081 Y7.544 Z-7.311 A184.1117 
N1562 X-383.081 Y7.307 Z-7.548 A182.2843 
N1563 X-383.081 Y7.062 Z-7.777 A180.4569 
N1564 X-383.081 Y6.811 Z-7.999 A178.6294 
N1565 X-383.081 Y6.552 Z-8.212 A176.8020 
N1566 X-383.081 Y6.287 Z-8.416 A174.9746 
N1567 X-383.081 Y6.015 Z-8.613 A173.1472 
N1568 X-383.081 Y5.738 Z-8.800 A171.3198 
N1569 X-383.081 Y5.454 Z-8.979 A169.4924 
N1570 X-383.081 Y5.165 Z-9.148 A167.6650 
N1571 X-383.081 Y4.871 Z-9.308 A165.8376 
N1572 X-383.081 Y4.571 Z-9.459 A164.0102 
N1573 X-383.081 Y4.267 Z-9.599 A162.1827 
N1574 X-383.081 Y3.959 Z-9.731 A160.3553 
N1575 X-383.081 Y3.647 Z-9.852 A158.5279 
N1576 X-383.081 Y3.331 Z-9.963 A156.7005 
N1577 X-383.081 Y3.011 Z-10.064 A154.8731 
N1578 X-383.081 Y2.689 Z-10.155 A153.0457 
N1579 X-383.081 Y2.364 Z-10.236 A151.2183 
N1580 X-383.081 Y2.036 Z-10.306 A149.3909 
N1581 X-383.081 Y1.706 Z-10.366 A147.5635 
N1582 X-383.081 Y1.375 Z-10.415 A145.7360 
N1583 X-383.081 Y1.042 Z-10.453 A143.9086 
N1584 X-383.081 Y0.708 Z-10.481 A142.0812 
N1585 X-383.081 Y0.374 Z-10.499 A140.2538 
N1586 X-383.081 Y0.039 Z-10.505 A138.4264 
N1587 X-383.081 Y-0.296 Z-10.501 A136.5990 
N1588 X-383.081 Y-0.631 Z-10.486 A134.7716 
N1589 X-383.081 Y-0.965 Z-10.461 A132.9442 
N1590 X-383.081 Y-1.298 Z-10.425 A131.1168 
N1591 X-383.081 Y-1.630 Z-10.378 A129.2893 
N1592 X-383.081 Y-1.960 Z-10.321 A127.4619 
N1593 X-383.081 Y-2.288 Z-10.253 A125.6345 
N1594 X-383.081 Y-2.614 Z-10.175 A123.8071 
N1595 X-383.081 Y-2.937 Z-10.086 A121.9797 
N1596 X-383.081 Y-3.257 Z-9.988 A120.1523 
N1597 X-383.081 Y-3.574 Z-9.879 A118.3249 
N1598 X-383.081 Y-3.887 Z-9.760 A116.4975 
N1599 X-383.081 Y-4.197 Z-9.631 A114.6701 
N1600 X-383.081 Y-4.502 Z-9.492 A112.8426 
N1601 X-383.081 Y-4.802 Z-9.344 A111.0152 
N1602 X-383.081 Y-5.098 Z-9.186 A109.1878 
N1603 X-383.081 Y-5.388 Z-9.018 A107.3604 
N1604 X-383.081 Y-5.673 Z-8.842 A105.5330 
N1605 X-383.081 Y-5.952 Z-8.657 A103.7056 
N1606 X-383.081 Y-6.225 Z-8.462 A101.8782 
N1607 X-383.081 Y-6.491 Z-8.260 A100.0508 
N1608 X-383.081 Y-6.752 Z-8.048 A98.2234 
N1609 X-383.081 Y-7.005 Z-7.829 A96.3959 
N1610 X-383.081 Y-7.251 Z-7.602 A94.5685 
N1611 X-383.081 Y-7.490 Z-7.367 A92.7411 
N1612 X-383.081 Y-7.721 Z-7.124 A90.9137 
N1613 X-383.081 Y-7.944 Z-6.874 A89.0863 
N1614 X-383.081 Y-8.159 Z-6.617 A87.2589 
N1615 X-383.081 Y-8.366 Z-6.354 A85.4315 
N1616 X-383.081 Y-8.564 Z-6.084 A83.6041 
N1617 X-383.081 Y-8.754 Z-5.808 A81.7766 
N1618 X-383.081 Y-8.935 Z-5.525 A79.9492 
N1619 X-383.081 Y-9.106 Z-5.238 A78.1218 
N1620 X-383.081 Y-9.269 Z-4.945 A76.2944 
N1621 X-383.081 Y-9.422 Z-4.647 A74.4670 
N1622 X-383.081 Y-9.565 Z-4.344 A72.6396 
N1623 X-383.081 Y-9.699 Z-4.037 A70.8122 
N1624 X-383.081 Y-9.823 Z-3.725 A68.9848 
N1625 X-383.081 Y-9.936 Z-3.410 A67.1574 
N1626 X-383.081 Y-10.040 Z-3.092 A65.3299 
N1627 X-383.081 Y-10.134 Z-2.770 A63.5025 
N1628 X-383.081 Y-10.217 Z-2.445 A61.6751 
N1629 X-383.081 Y-10.290 Z-2.118 A59.8477 
N1630 X-383.081 Y-10.352 Z-1.789 A58.0203 
N1631 X-383.081 Y-10.404 Z-1.458 A56.1929 
N1632 X-383.081 Y-10.445 Z-1.125 A54.3655 
N1633 X-383.081 Y-10.475 Z-0.792 A52.5381 
N1634 X-383.081 Y-10.495 Z-0.457 A50.7107 
N1635 X-383.081 Y-10.505 Z-0.122 A48.8832 
N1636 X-383.081 Y-10.503 Z0.213 A47.0558 
N1637 X-383.081 Y-10.491 Z0.547 A45.2284 
N1638 X-383.081 Y-10.468 Z0.882 A43.4010 
N1639 X-383.081 Y-10.435 Z1.215 A41.5736 
N1640 X-383.081 Y-10.391 Z1.547 A39.7462 
N1641 X-383.081 Y-10.336 Z1.878 A37.9188 
N1642 X-383.081 Y-10.271 Z2.206 A36.0914 
N1643 X-383.081 Y-10.195 Z2.533 A34.2640 
N1644 X-383.081 Y-10.109 Z2.857 A32.4365 
N1645 X-383.081 Y-10.013 Z3.178 A30.6091 
N1646 X-383.081 Y-9.907 Z3.495 A28.7817 
N1647 X-383.081 Y-9.790 Z3.809 A26.9543 
N1648 X-383.081 Y-9.664 Z4.120 A25.1269 
N1649 X-383.081 Y-9.528 Z4.426 A23.2995 
N1650 X-383.081 Y-9.382 Z4.727 A21.4721 
N1651 X-383.081 Y-9.226 Z5.024 A19.6447 
N1652 X-383.081 Y-9.061 Z5.316 A17.8173 
N1653 X-383.081 Y-8.887 Z5.602 A15.9898 
N1654 X-383.081 Y-8.704 Z5.883 A14.1624 
N1655 X-383.081 Y-8.512 Z6.157 A12.3350 
N1656 X-383.081 Y-8.311 Z6.425 A10.5076 
N1657 X-383.081 Y-8.102 Z6.687 A8.6802 
N1658 X-383.081 Y-7.885 Z6.942 A6.8528 
N1659 X-383.081 Y-7.659 Z7.190 A5.0254 
N1660 X-383.081 Y-7.426 Z7.431 A3.1980 
N1661 X-383.081 Y-7.185 Z7.664 A1.3706 
N1662 X-383.081 Y-6.937 Z7.889 A359.5431 
N1663 X-383.081 Y-6.682 Z8.106 A357.7157 
N1664 X-383.081 Y-6.420 Z8.315 A355.8883 
N1665 X-383.081 Y-6.152 Z8.516 A354.0609 
N1666 X-383.081 Y-5.877 Z8.707 A352.2335 
N1667 X-383.081 Y-5.597 Z8.890 A350.4061 
N1668 X-383.081 Y-5.310 Z9.064 A348.5787 
N1669 X-383.081 Y-5.018 Z9.229 A346.7513 
N1670 X-383.081 Y-4.722 Z9.384 A344.9239 
N1671 X-383.081 Y-4.420 Z9.530 A343.0964 
N1672 X-383.081 Y-4.114 Z9.666 A341.2690 
N1673 X-383.081 Y-3.803 Z9.793 A339.4416 
N1674 X-383.081 Y-3.489 Z9.909 A337.6142 
N1675 X-383.081 Y-3.171 Z10.015 A335.7868 
N1676 X-383.081 Y-2.850 Z10.111 A333.9594 
N1677 X-383.081 Y-2.527 Z10.197 A332.1320 
N1678 X-383.081 Y-2.200 Z10.272 A330.3046 
N1679 X-383.081 Y-1.871 Z10.337 A328.4772 
N1680 X-383.081 Y-1.541 Z10.392 A326.6497 
N1681 X-383.081 Y-1.209 Z10.436 A324.8223 
N1682 X-383.081 Y-0.875 Z10.469 A322.9949 
N1683 X-383.081 Y-0.541 Z10.491 A321.1675 
N1684 X-383.081 Y-0.206 Z10.503 A319.3401 
N1685 X-383.081 Y0.129 Z10.504 A317.5127 
N1686 X-383.081 Y0.464 Z10.495 A315.6853 
N1687 X-383.081 Y0.798 Z10.475 A313.8579 
N1688 X-383.081 Y1.132 Z10.444 A312.0305 
N1689 X-383.081 Y1.464 Z10.403 A310.2030 
N1690 X-383.081 Y1.795 Z10.351 A308.3756 
N1691 X-383.081 Y2.124 Z10.288 A306.5482 
N1692 X-383.081 Y2.451 Z10.215 A304.7208 
N1693 X-383.081 Y2.776 Z10.132 A302.8934 
N1694 X-383.081 Y3.098 Z10.038 A301.0660 
N1695 X-383.081 Y3.416 Z9.934 A299.2386 
N1696 X-383.081 Y3.731 Z9.820 A297.4112 
N1697 X-383.081 Y4.043 Z9.696 A295.5838 
N1698 X-383.081 Y4.350 Z9.563 A293.7563 
N1699 X-383.081 Y4.652 Z9.419 A291.9289 
N1700 X-383.081 Y4.950 Z9.266 A290.1015 
N1701 X-383.081 Y5.243 Z9.103 A288.2741 
N1702 X-383.081 Y5.531 Z8.931 A286.4467 
N1703 X-383.081 Y5.813 Z8.750 A284.6193 
N1704 X-383.081 Y6.089 Z8.561 A282.7919 
N1705 X-383.081 Y6.359 Z8.362 A280.9645 
N1706 X-383.081 Y6.622 Z8.155 A279.1371 
N1707 X-383.081 Y6.879 Z7.940 A277.3096 
N1708 X-383.081 Y7.129 Z7.716 A275.4822 
N1709 X-383.081 Y7.371 Z7.485 A273.6548 
N1710 X-383.081 Y7.606 Z7.246 A271.8274 
N1711 X-383.081 Y7.833 Z7.000 A270.0000 
N1712 X-383.081 Y7.833 Z-3.000 
N1713 G00 X-383.081 Y32.833 Z-3.000 
N1714 X-387.581 Y32.050 Z17.000 
N1715 X-387.581 Y7.050 Z17.000 
N1716 G01 X-387.581 Y7.050 Z7.000 F1224 
N1717 X-387.581 Y7.294 Z6.745 A267.9661 
N1718 X-387.581 Y7.529 Z6.482 A265.9322 
N1719 X-387.581 Y7.754 Z6.211 A263.8983 
N1720 X-387.581 Y7.970 Z5.932 A261.8644 
N1721 X-387.581 Y8.175 Z5.645 A259.8305 
N1722 X-387.581 Y8.370 Z5.352 A257.7966 
N1723 X-387.581 Y8.555 Z5.051 A255.7627 
N1724 X-387.581 Y8.729 Z4.744 A253.7288 
N1725 X-387.581 Y8.892 Z4.432 A251.6949 
N1726 X-387.581 Y9.043 Z4.113 A249.6610 
N1727 X-387.581 Y9.184 Z3.790 A247.6271 
N1728 X-387.581 Y9.312 Z3.461 A245.5932 
N1729 X-387.581 Y9.429 Z3.129 A243.5593 
N1730 X-387.581 Y9.535 Z2.792 A241.5254 
N1731 X-387.581 Y9.628 Z2.452 A239.4915 
N1732 X-387.581 Y9.709 Z2.109 A237.4576 
N1733 X-387.581 Y9.777 Z1.763 A235.4237 
N1734 X-387.581 Y9.834 Z1.415 A233.3898 
N1735 X-387.581 Y9.878 Z1.065 A231.3559 
N1736 X-387.581 Y9.909 Z0.713 A229.3220 
N1737 X-387.581 Y9.928 Z0.361 A227.2881 
N1738 X-387.581 Y9.935 Z0.009 A225.2542 
N1739 X-387.581 Y9.929 Z-0.344 A223.2203 
N1740 X-387.581 Y9.911 Z-0.696 A221.1864 
N1741 X-387.581 Y9.880 Z-1.047 A219.1525 
N1742 X-387.581 Y9.836 Z-1.397 A217.1186 
N1743 X-387.581 Y9.780 Z-1.746 A215.0847 
N1744 X-387.581 Y9.712 Z-2.092 A213.0508 
N1745 X-387.581 Y9.632 Z-2.435 A211.0169 
N1746 X-387.581 Y9.539 Z-2.775 A208.9831 
N1747 X-387.581 Y9.435 Z-3.112 A206.9492 
N1748 X-387.581 Y9.319 Z-3.445 A204.9153 
N1749 X-387.581 Y9.190 Z-3.773 A202.8814 
N1750 X-387.581 Y9.051 Z-4.097 A200.8475 
N1751 X-387.581 Y8.900 Z-4.416 A198.8136 
N1752 X-387.581 Y8.737 Z-4.729 A196.7797 
N1753 X-387.581 Y8.564 Z-5.036 A194.7458 
N1754 X-387.581 Y8.380 Z-5.337 A192.7119 
N1755 X-387.581 Y8.185 Z-5.631 A190.6780 
N1756 X-387.581 Y7.980 Z-5.918 A188.6441 
N1757 X-387.581 Y7.765 Z-6.197 A186.6102 
N1758 X-387.581 Y7.540 Z-6.469 A184.5763 
N1759 X-387.581 Y7.306 Z-6.733 A182.5424 
N1760 X-387.581 Y7.062 Z-6.988 A180.5085 
N1761 X-387.581 Y6.810 Z-7.234 A178.4746 
N1762 X-387.581 Y6.549 Z-7.471 A176.4407 
N1763 X-387.581 Y6.280 Z-7.699 A174.4068 
N1764 X-387.581 Y6.002 Z-7.917 A172.3729 
N1765 X-387.581 Y5.718 Z-8.125 A170.3390 
N1766 X-387.581 Y5.426 Z-8.323 A168.3051 
N1767 X-387.581 Y5.127 Z-8.510 A166.2712 
N1768 X-387.581 Y4.822 Z-8.686 A164.2373 
N1769 X-387.581 Y4.510 Z-8.852 A162.2034 
N1770 X-387.581 Y4.193 Z-9.007 A160.1695 
N1771 X-387.581 Y3.871 Z-9.150 A158.1356 
N1772 X-387.581 Y3.544 Z-9.281 A156.1017 
N1773 X-387.581 Y3.212 Z-9.401 A154.0678 
N1774 X-387.581 Y2.876 Z-9.509 A152.0339 
N1775 X-387.581 Y2.537 Z-9.605 A150.0000 
N1776 X-387.581 Y2.195 Z-9.689 A147.9661 
N1777 X-387.581 Y1.849 Z-9.761 A145.9322 
N1778 X-387.581 Y1.502 Z-9.821 A143.8983 
N1779 X-387.581 Y1.152 Z-9.868 A141.8644 
N1780 X-387.581 Y0.801 Z-9.903 A139.8305 
N1781 X-387.581 Y0.449 Z-9.925 A137.7966 
N1782 X-387.581 Y0.097 Z-9.934 A135.7627 
N1783 X-387.581 Y-0.256 Z-9.932 A133.7288 
N1784 X-387.581 Y-0.608 Z-9.916 A131.6949 
N1785 X-387.581 Y-0.960 Z-9.888 A129.6610 
N1786 X-387.581 Y-1.310 Z-9.848 A127.6271 
N1787 X-387.581 Y-1.659 Z-9.795 A125.5932 
N1788 X-387.581 Y-2.005 Z-9.730 A123.5593 
N1789 X-387.581 Y-2.349 Z-9.653 A121.5254 
N1790 X-387.581 Y-2.690 Z-9.564 A119.4915 
N1791 X-387.581 Y-3.028 Z-9.462 A117.4576 
N1792 X-387.581 Y-3.362 Z-9.349 A115.4237 
N1793 X-387.581 Y-3.692 Z-9.224 A113.3898 
N1794 X-387.581 Y-4.017 Z-9.087 A111.3559 
N1795 X-387.581 Y-4.337 Z-8.938 A109.3220 
N1796 X-387.581 Y-4.651 Z-8.779 A107.2881 
N1797 X-387.581 Y-4.960 Z-8.608 A105.2542 
N1798 X-387.581 Y-5.262 Z-8.427 A103.2203 
N1799 X-387.581 Y-5.558 Z-8.235 A101.1864 
N1800 X-387.581 Y-5.847 Z-8.032 A99.1525 
N1801 X-387.581 Y-6.128 Z-7.820 A97.1186 
N1802 X-387.581 Y-6.402 Z-7.597 A95.0847 
N1803 X-387.581 Y-6.667 Z-7.365 A93.0508 
N1804 X-387.581 Y-6.925 Z-7.124 A91.0169 
N1805 X-387.581 Y-7.173 Z-6.874 A88.9831 
N1806 X-387.581 Y-7.413 Z-6.615 A86.9492 
N1807 X-387.581 Y-7.643 Z-6.348 A84.9153 
N1808 X-387.581 Y-7.863 Z-6.072 A82.8814 
N1809 X-387.581 Y-8.074 Z-5.789 A80.8475 
N1810 X-387.581 Y-8.274 Z-5.499 A78.8136 
N1811 X-387.581 Y-8.464 Z-5.202 A76.7797 
N1812 X-387.581 Y-8.643 Z-4.899 A74.7458 
N1813 X-387.581 Y-8.812 Z-4.589 A72.7119 
N1814 X-387.581 Y-8.969 Z-4.273 A70.6780 
N1815 X-387.581 Y-9.115 Z-3.952 A68.6441 
N1816 X-387.581 Y-9.250 Z-3.626 A66.6102 
N1817 X-387.581 Y-9.372 Z-3.295 A64.5763 
N1818 X-387.581 Y-9.483 Z-2.961 A62.5424 
N1819 X-387.581 Y-9.583 Z-2.622 A60.5085 
N1820 X-387.581 Y-9.670 Z-2.281 A58.4746 
N1821 X-387.581 Y-9.744 Z-1.936 A56.4407 
N1822 X-387.581 Y-9.807 Z-1.589 A54.4068 
N1823 X-387.581 Y-9.857 Z-1.240 A52.3729 
N1824 X-387.581 Y-9.895 Z-0.889 A50.3390 
N1825 X-387.581 Y-9.920 Z-0.537 A48.3051 
N1826 X-387.581 Y-9.933 Z-0.185 A46.2712 
N1827 X-387.581 Y-9.933 Z0.168 A44.2373 
N1828 X-387.581 Y-9.921 Z0.520 A42.2034 
N1829 X-387.581 Y-9.897 Z0.872 A40.1695 
N1830 X-387.581 Y-9.859 Z1.223 A38.1356 
N1831 X-387.581 Y-9.810 Z1.572 A36.1017 
N1832 X-387.581 Y-9.748 Z1.919 A34.0678 
N1833 X-387.581 Y-9.674 Z2.264 A32.0339 
N1834 X-387.581 Y-9.587 Z2.605 A30.0000 
N1835 X-387.581 Y-9.489 Z2.944 A27.9661 
N1836 X-387.581 Y-9.378 Z3.279 A25.9322 
N1837 X-387.581 Y-9.256 Z3.610 A23.8983 
N1838 X-387.581 Y-9.122 Z3.936 A21.8644 
N1839 X-387.581 Y-8.977 Z4.257 A19.8305 
N1840 X-387.581 Y-8.820 Z4.573 A17.7966 
N1841 X-387.581 Y-8.652 Z4.883 A15.7627 
N1842 X-387.581 Y-8.473 Z5.187 A13.7288 
N1843 X-387.581 Y-8.284 Z5.485 A11.6949 
N1844 X-387.581 Y-8.084 Z5.775 A9.6610 
N1845 X-387.581 Y-7.874 Z6.059 A7.6271 
N1846 X-387.581 Y-7.654 Z6.334 A5.5932 
N1847 X-387.581 Y-7.424 Z6.602 A3.5593 
N1848 X-387.581 Y-7.185 Z6.861 A1.5254 
N1849 X-387.581 Y-6.937 Z7.112 A359.4915 
N1850 X-387.581 Y-6.680 Z7.354 A357.4576 
N1851 X-387.581 Y-6.415 Z7.586 A355.4237 
N1852 X-387.581 Y-6.142 Z7.809 A353.3898 
N1853 X-387.581 Y-5.861 Z8.022 A351.3559 
N1854 X-387.581 Y-5.573 Z8.225 A349.3220 
N1855 X-387.581 Y-5.277 Z8.418 A347.2881 
N1856 X-387.581 Y-4.975 Z8.600 A345.2542 
N1857 X-387.581 Y-4.667 Z8.771 A343.2203 
N1858 X-387.581 Y-4.352 Z8.931 A341.1864 
N1859 X-387.581 Y-4.033 Z9.080 A339.1525 
N1860 X-387.581 Y-3.708 Z9.217 A337.1186 
N1861 X-387.581 Y-3.379 Z9.343 A335.0847 
N1862 X-387.581 Y-3.045 Z9.457 A333.0508 
N1863 X-387.581 Y-2.707 Z9.559 A331.0169 
N1864 X-387.581 Y-2.366 Z9.649 A328.9831 
N1865 X-387.581 Y-2.022 Z9.727 A326.9492 
N1866 X-387.581 Y-1.676 Z9.793 A324.9153 
N1867 X-387.581 Y-1.327 Z9.846 A322.8814 
N1868 X-387.581 Y-0.977 Z9.887 A320.8475 
N1869 X-387.581 Y-0.625 Z9.915 A318.8136 
N1870 X-387.581 Y-0.273 Z9.931 A316.7797 
N1871 X-387.581 Y0.079 Z9.935 A314.7458 
N1872 X-387.581 Y0.432 Z9.926 A312.7119 
N1873 X-387.581 Y0.784 Z9.904 A310.6780 
N1874 X-387.581 Y1.135 Z9.870 A308.6441 
N1875 X-387.581 Y1.485 Z9.823 A306.6102 
N1876 X-387.581 Y1.832 Z9.764 A304.5763 
N1877 X-387.581 Y2.178 Z9.693 A302.5424 
N1878 X-387.581 Y2.520 Z9.610 A300.5085 
N1879 X-387.581 Y2.860 Z9.514 A298.4746 
N1880 X-387.581 Y3.196 Z9.407 A296.4407 
N1881 X-387.581 Y3.527 Z9.288 A294.4068 
N1882 X-387.581 Y3.855 Z9.157 A292.3729 
N1883 X-387.581 Y4.177 Z9.014 A290.3390 
N1884 X-387.581 Y4.495 Z8.860 A288.3051 
N1885 X-387.581 Y4.806 Z8.695 A286.2712 
N1886 X-387.581 Y5.112 Z8.519 A284.2373 
N1887 X-387.581 Y5.411 Z8.332 A282.2034 
N1888 X-387.581 Y5.703 Z8.135 A280.1695 
N1889 X-387.581 Y5.988 Z7.927 A278.1356 
N1890 X-387.581 Y6.266 Z7.710 A276.1017 
N1891 X-387.581 Y6.536 Z7.482 A274.0678 
N1892 X-387.581 Y6.797 Z7.246 A272.0339 
N1893 X-387.581 Y7.050 Z7.000 A270.0000 
N1894 X-387.569 Y7.294 Z6.745 A267.9661 
N1895 X-387.556 Y7.529 Z6.482 A265.9322 
N1896 X-387.543 Y7.754 Z6.211 A263.8983 
N1897 X-387.530 Y7.970 Z5.932 A261.8644 
N1898 X-387.518 Y8.175 Z5.645 A259.8305 
N1899 X-387.505 Y8.370 Z5.352 A257.7966 
N1900 X-387.492 Y8.555 Z5.051 A255.7627 
N1901 X-387.480 Y8.729 Z4.744 A253.7288 
N1902 X-387.467 Y8.892 Z4.432 A251.6949 
N1903 X-387.454 Y9.043 Z4.113 A249.6610 
N1904 X-387.441 Y9.184 Z3.790 A247.6271 
N1905 X-387.429 Y9.312 Z3.461 A245.5932 
N1906 X-387.416 Y9.429 Z3.129 A243.5593 
N1907 X-387.403 Y9.535 Z2.792 A241.5254 
N1908 X-387.391 Y9.628 Z2.452 A239.4915 
N1909 X-387.378 Y9.709 Z2.109 A237.4576 
N1910 X-387.365 Y9.777 Z1.763 A235.4237 
N1911 X-387.352 Y9.834 Z1.415 A233.3898 
N1912 X-387.340 Y9.878 Z1.065 A231.3559 
N1913 X-387.327 Y9.909 Z0.713 A229.3220 
N1914 X-387.314 Y9.928 Z0.361 A227.2881 
N1915 X-387.302 Y9.935 Z0.009 A225.2542 
N1916 X-387.289 Y9.929 Z-0.344 A223.2203 
N1917 X-387.276 Y9.911 Z-0.696 A221.1864 
N1918 X-387.263 Y9.880 Z-1.047 A219.1525 
N1919 X-387.251 Y9.836 Z-1.397 A217.1186 
N1920 X-387.238 Y9.780 Z-1.746 A215.0847 
N1921 X-387.225 Y9.712 Z-2.092 A213.0508 
N1922 X-387.213 Y9.632 Z-2.435 A211.0169 
N1923 X-387.200 Y9.539 Z-2.775 A208.9831 
N1924 X-387.187 Y9.435 Z-3.112 A206.9492 
N1925 X-387.174 Y9.319 Z-3.445 A204.9153 
N1926 X-387.162 Y9.190 Z-3.773 A202.8814 
N1927 X-387.149 Y9.051 Z-4.097 A200.8475 
N1928 X-387.136 Y8.900 Z-4.416 A198.8136 
N1929 X-387.124 Y8.737 Z-4.729 A196.7797 
N1930 X-387.111 Y8.564 Z-5.036 A194.7458 
N1931 X-387.098 Y8.380 Z-5.337 A192.7119 
N1932 X-387.085 Y8.185 Z-5.631 A190.6780 
N1933 X-387.073 Y7.980 Z-5.918 A188.6441 
N1934 X-387.060 Y7.765 Z-6.197 A186.6102 
N1935 X-387.047 Y7.540 Z-6.469 A184.5763 
N1936 X-387.035 Y7.306 Z-6.733 A182.5424 
N1937 X-387.022 Y7.062 Z-6.988 A180.5085 
N1938 X-387.009 Y6.810 Z-7.234 A178.4746 
N1939 X-386.996 Y6.549 Z-7.471 A176.4407 
N1940 X-386.984 Y6.280 Z-7.699 A174.4068 
N1941 X-386.971 Y6.002 Z-7.917 A172.3729 
N1942 X-386.958 Y5.718 Z-8.125 A170.3390 
N1943 X-386.946 Y5.426 Z-8.323 A168.3051 
N1944 X-386.933 Y5.127 Z-8.510 A166.2712 
N1945 X-386.920 Y4.822 Z-8.686 A164.2373 
N1946 X-386.908 Y4.510 Z-8.852 A162.2034 
N1947 X-386.895 Y4.193 Z-9.007 A160.1695 
N1948 X-386.882 Y3.871 Z-9.150 A158.1356 
N1949 X-386.869 Y3.544 Z-9.281 A156.1017 
N1950 X-386.857 Y3.212 Z-9.401 A154.0678 
N1951 X-386.844 Y2.876 Z-9.509 A152.0339 
N1952 X-386.831 Y2.537 Z-9.605 A150.0000 
N1953 X-386.819 Y2.195 Z-9.689 A147.9661 
N1954 X-386.806 Y1.849 Z-9.761 A145.9322 
N1955 X-386.793 Y1.502 Z-9.821 A143.8983 
N1956 X-386.780 Y1.152 Z-9.868 A141.8644 
N1957 X-386.768 Y0.801 Z-9.903 A139.8305 
N1958 X-386.755 Y0.449 Z-9.925 A137.7966 
N1959 X-386.742 Y0.097 Z-9.934 A135.7627 
N1960 X-386.730 Y-0.256 Z-9.932 A133.7288 
N1961 X-386.717 Y-0.608 Z-9.916 A131.6949 
N1962 X-386.704 Y-0.960 Z-9.888 A129.6610 
N1963 X-386.691 Y-1.310 Z-9.848 A127.6271 
N1964 X-386.679 Y-1.659 Z-9.795 A125.5932 
N1965 X-386.666 Y-2.005 Z-9.730 A123.5593 
N1966 X-386.653 Y-2.349 Z-9.653 A121.5254 
N1967 X-386.641 Y-2.690 Z-9.564 A119.4915 
N1968 X-386.628 Y-3.028 Z-9.462 A117.4576 
N1969 X-386.615 Y-3.362 Z-9.349 A115.4237 
N1970 X-386.602 Y-3.692 Z-9.224 A113.3898 
N1971 X-386.590 Y-4.017 Z-9.087 A111.3559 
N1972 X-386.577 Y-4.337 Z-8.938 A109.3220 
N1973 X-386.564 Y-4.651 Z-8.779 A107.2881 
N1974 X-386.552 Y-4.960 Z-8.608 A105.2542 
N1975 X-386.539 Y-5.262 Z-8.427 A103.2203 
N1976 X-386.526 Y-5.558 Z-8.235 A101.1864 
N1977 X-386.513 Y-5.847 Z-8.032 A99.1525 
N1978 X-386.501 Y-6.128 Z-7.820 A97.1186 
N1979 X-386.488 Y-6.402 Z-7.597 A95.0847 
N1980 X-386.475 Y-6.667 Z-7.365 A93.0508 
N1981 X-386.463 Y-6.925 Z-7.124 A91.0169 
N1982 X-386.450 Y-7.173 Z-6.874 A88.9831 
N1983 X-386.437 Y-7.413 Z-6.615 A86.9492 
N1984 X-386.424 Y-7.643 Z-6.348 A84.9153 
N1985 X-386.412 Y-7.863 Z-6.072 A82.8814 
N1986 X-386.399 Y-8.074 Z-5.789 A80.8475 
N1987 X-386.386 Y-8.274 Z-5.499 A78.8136 
N1988 X-386.374 Y-8.464 Z-5.202 A76.7797 
N1989 X-386.361 Y-8.643 Z-4.899 A74.7458 
N1990 X-386.348 Y-8.812 Z-4.589 A72.7119 
N1991 X-386.335 Y-8.969 Z-4.273 A70.6780 
N1992 X-386.323 Y-9.115 Z-3.952 A68.6441 
N1993 X-386.310 Y-9.250 Z-3.626 A66.6102 
N1994 X-386.297 Y-9.372 Z-3.295 A64.5763 
N1995 X-386.285 Y-9.483 Z-2.961 A62.5424 
N1996 X-386.272 Y-9.583 Z-2.622 A60.5085 
N1997 X-386.259 Y-9.670 Z-2.281 A58.4746 
N1998 X-386.246 Y-9.744 Z-1.936 A56.4407 
N1999 X-386.234 Y-9.807 Z-1.589 A54.4068 
N2000 X-386.221 Y-9.857 Z-1.240 A52.3729 
N2001 X-386.208 Y-9.895 Z-0.889 A50.3390 
N2002 X-386.196 Y-9.920 Z-0.537 A48.3051 
N2003 X-386.183 Y-9.933 Z-0.185 A46.2712 
N2004 X-386.170 Y-9.933 Z0.168 A44.2373 
N2005 X-386.158 Y-9.921 Z0.520 A42.2034 
N2006 X-386.145 Y-9.897 Z0.872 A40.1695 
N2007 X-386.132 Y-9.859 Z1.223 A38.1356 
N2008 X-386.119 Y-9.810 Z1.572 A36.1017 
N2009 X-386.107 Y-9.748 Z1.919 A34.0678 
N2010 X-386.094 Y-9.674 Z2.264 A32.0339 
N2011 X-386.081 Y-9.587 Z2.605 A30.0000 
N2012 X-386.069 Y-9.489 Z2.944 A27.9661 
N2013 X-386.056 Y-9.378 Z3.279 A25.9322 
N2014 X-386.043 Y-9.256 Z3.610 A23.8983 
N2015 X-386.030 Y-9.122 Z3.936 A21.8644 
N2016 X-386.018 Y-8.977 Z4.257 A19.8305 
N2017 X-386.005 Y-8.820 Z4.573 A17.7966 
N2018 X-385.992 Y-8.652 Z4.883 A15.7627 
N2019 X-385.980 Y-8.473 Z5.187 A13.7288 
N2020 X-385.967 Y-8.284 Z5.485 A11.6949 
N2021 X-385.954 Y-8.084 Z5.775 A9.6610 
N2022 X-385.941 Y-7.874 Z6.059 A7.6271 
N2023 X-385.929 Y-7.654 Z6.334 A5.5932 
N2024 X-385.916 Y-7.424 Z6.602 A3.5593 
N2025 X-385.903 Y-7.185 Z6.861 A1.5254 
N2026 X-385.891 Y-6.937 Z7.112 A359.4915 
N2027 X-385.878 Y-6.680 Z7.354 A357.4576 
N2028 X-385.865 Y-6.415 Z7.586 A355.4237 
N2029 X-385.852 Y-6.142 Z7.809 A353.3898 
N2030 X-385.840 Y-5.861 Z8.022 A351.3559 
N2031 X-385.827 Y-5.573 Z8.225 A349.3220 
N2032 X-385.814 Y-5.277 Z8.418 A347.2881 
N2033 X-385.802 Y-4.975 Z8.600 A345.2542 
N2034 X-385.789 Y-4.667 Z8.771 A343.2203 
N2035 X-385.776 Y-4.352 Z8.931 A341.1864 
N2036 X-385.763 Y-4.033 Z9.080 A339.1525 
N2037 X-385.751 Y-3.708 Z9.217 A337.1186 
N2038 X-385.738 Y-3.379 Z9.343 A335.0847 
N2039 X-385.725 Y-3.045 Z9.457 A333.0508 
N2040 X-385.713 Y-2.707 Z9.559 A331.0169 
N2041 X-385.700 Y-2.366 Z9.649 A328.9831 
N2042 X-385.687 Y-2.022 Z9.727 A326.9492 
N2043 X-385.674 Y-1.676 Z9.793 A324.9153 
N2044 X-385.662 Y-1.327 Z9.846 A322.8814 
N2045 X-385.649 Y-0.977 Z9.887 A320.8475 
N2046 X-385.636 Y-0.625 Z9.915 A318.8136 
N2047 X-385.624 Y-0.273 Z9.931 A316.7797 
N2048 X-385.611 Y0.079 Z9.935 A314.7458 
N2049 X-385.598 Y0.432 Z9.926 A312.7119 
N2050 X-385.585 Y0.784 Z9.904 A310.6780 
N2051 X-385.573 Y1.135 Z9.870 A308.6441 
N2052 X-385.560 Y1.485 Z9.823 A306.6102 
N2053 X-385.547 Y1.832 Z9.764 A304.5763 
N2054 X-385.535 Y2.178 Z9.693 A302.5424 
N2055 X-385.522 Y2.520 Z9.610 A300.5085 
N2056 X-385.509 Y2.860 Z9.514 A298.4746 
N2057 X-385.496 Y3.196 Z9.407 A296.4407 
N2058 X-385.484 Y3.527 Z9.288 A294.4068 
N2059 X-385.471 Y3.855 Z9.157 A292.3729 
N2060 X-385.458 Y4.177 Z9.014 A290.3390 
N2061 X-385.446 Y4.495 Z8.860 A288.3051 
N2062 X-385.433 Y4.806 Z8.695 A286.2712 
N2063 X-385.420 Y5.112 Z8.519 A284.2373 
N2064 X-385.408 Y5.411 Z8.332 A282.2034 
N2065 X-385.395 Y5.703 Z8.135 A280.1695 
N2066 X-385.382 Y5.988 Z7.927 A278.1356 
N2067 X-385.369 Y6.266 Z7.710 A276.1017 
N2068 X-385.357 Y6.536 Z7.482 A274.0678 
N2069 X-385.344 Y6.797 Z7.246 A272.0339 
N2070 X-385.331 Y7.050 Z7.000 A270.0000 
N2071 X-385.319 Y7.294 Z6.745 A267.9661 
N2072 X-385.306 Y7.529 Z6.482 A265.9322 
N2073 X-385.293 Y7.754 Z6.211 A263.8983 
N2074 X-385.280 Y7.970 Z5.932 A261.8644 
N2075 X-385.268 Y8.175 Z5.645 A259.8305 
N2076 X-385.255 Y8.370 Z5.352 A257.7966 
N2077 X-385.242 Y8.555 Z5.051 A255.7627 
N2078 X-385.230 Y8.729 Z4.744 A253.7288 
N2079 X-385.217 Y8.892 Z4.432 A251.6949 
N2080 X-385.204 Y9.043 Z4.113 A249.6610 
N2081 X-385.191 Y9.184 Z3.790 A247.6271 
N2082 X-385.179 Y9.312 Z3.461 A245.5932 
N2083 X-385.166 Y9.429 Z3.129 A243.5593 
N2084 X-385.153 Y9.535 Z2.792 A241.5254 
N2085 X-385.141 Y9.628 Z2.452 A239.4915 
N2086 X-385.128 Y9.709 Z2.109 A237.4576 
N2087 X-385.115 Y9.777 Z1.763 A235.4237 
N2088 X-385.102 Y9.834 Z1.415 A233.3898 
N2089 X-385.090 Y9.878 Z1.065 A231.3559 
N2090 X-385.077 Y9.909 Z0.713 A229.3220 
N2091 X-385.064 Y9.928 Z0.361 A227.2881 
N2092 X-385.052 Y9.935 Z0.009 A225.2542 
N2093 X-385.039 Y9.929 Z-0.344 A223.2203 
N2094 X-385.026 Y9.911 Z-0.696 A221.1864 
N2095 X-385.013 Y9.880 Z-1.047 A219.1525 
N2096 X-385.001 Y9.836 Z-1.397 A217.1186 
N2097 X-384.988 Y9.780 Z-1.746 A215.0847 
N2098 X-384.975 Y9.712 Z-2.092 A213.0508 
N2099 X-384.963 Y9.632 Z-2.435 A211.0169 
N2100 X-384.950 Y9.539 Z-2.775 A208.9831 
N2101 X-384.937 Y9.435 Z-3.112 A206.9492 
N2102 X-384.924 Y9.319 Z-3.445 A204.9153 
N2103 X-384.912 Y9.190 Z-3.773 A202.8814 
N2104 X-384.899 Y9.051 Z-4.097 A200.8475 
N2105 X-384.886 Y8.900 Z-4.416 A198.8136 
N2106 X-384.874 Y8.737 Z-4.729 A196.7797 
N2107 X-384.861 Y8.564 Z-5.036 A194.7458 
N2108 X-384.848 Y8.380 Z-5.337 A192.7119 
N2109 X-384.835 Y8.185 Z-5.631 A190.6780 
N2110 X-384.823 Y7.980 Z-5.918 A188.6441 
N2111 X-384.810 Y7.765 Z-6.197 A186.6102 
N2112 X-384.797 Y7.540 Z-6.469 A184.5763 
N2113 X-384.785 Y7.306 Z-6.733 A182.5424 
N2114 X-384.772 Y7.062 Z-6.988 A180.5085 
N2115 X-384.759 Y6.810 Z-7.234 A178.4746 
N2116 X-384.746 Y6.549 Z-7.471 A176.4407 
N2117 X-384.734 Y6.280 Z-7.699 A174.4068 
N2118 X-384.721 Y6.002 Z-7.917 A172.3729 
N2119 X-384.708 Y5.718 Z-8.125 A170.3390 
N2120 X-384.696 Y5.426 Z-8.323 A168.3051 
N2121 X-384.683 Y5.127 Z-8.510 A166.2712 
N2122 X-384.670 Y4.822 Z-8.686 A164.2373 
N2123 X-384.658 Y4.510 Z-8.852 A162.2034 
N2124 X-384.645 Y4.193 Z-9.007 A160.1695 
N2125 X-384.632 Y3.871 Z-9.150 A158.1356 
N2126 X-384.619 Y3.544 Z-9.281 A156.1017 
N2127 X-384.607 Y3.212 Z-9.401 A154.0678 
N2128 X-384.594 Y2.876 Z-9.509 A152.0339 
N2129 X-384.581 Y2.537 Z-9.605 A150.0000 
N2130 X-384.569 Y2.195 Z-9.689 A147.9661 
N2131 X-384.556 Y1.849 Z-9.761 A145.9322 
N2132 X-384.543 Y1.502 Z-9.821 A143.8983 
N2133 X-384.530 Y1.152 Z-9.868 A141.8644 
N2134 X-384.518 Y0.801 Z-9.903 A139.8305 
N2135 X-384.505 Y0.449 Z-9.925 A137.7966 
N2136 X-384.492 Y0.097 Z-9.934 A135.7627 
N2137 X-384.480 Y-0.256 Z-9.932 A133.7288 
N2138 X-384.467 Y-0.608 Z-9.916 A131.6949 
N2139 X-384.454 Y-0.960 Z-9.888 A129.6610 
N2140 X-384.441 Y-1.310 Z-9.848 A127.6271 
N2141 X-384.429 Y-1.659 Z-9.795 A125.5932 
N2142 X-384.416 Y-2.005 Z-9.730 A123.5593 
N2143 X-384.403 Y-2.349 Z-9.653 A121.5254 
N2144 X-384.391 Y-2.690 Z-9.564 A119.4915 
N2145 X-384.378 Y-3.028 Z-9.462 A117.4576 
N2146 X-384.365 Y-3.362 Z-9.349 A115.4237 
N2147 X-384.352 Y-3.692 Z-9.224 A113.3898 
N2148 X-384.340 Y-4.017 Z-9.087 A111.3559 
N2149 X-384.327 Y-4.337 Z-8.938 A109.3220 
N2150 X-384.314 Y-4.651 Z-8.779 A107.2881 
N2151 X-384.302 Y-4.960 Z-8.608 A105.2542 
N2152 X-384.289 Y-5.262 Z-8.427 A103.2203 
N2153 X-384.276 Y-5.558 Z-8.235 A101.1864 
N2154 X-384.263 Y-5.847 Z-8.032 A99.1525 
N2155 X-384.251 Y-6.128 Z-7.820 A97.1186 
N2156 X-384.238 Y-6.402 Z-7.597 A95.0847 
N2157 X-384.225 Y-6.667 Z-7.365 A93.0508 
N2158 X-384.213 Y-6.925 Z-7.124 A91.0169 
N2159 X-384.200 Y-7.173 Z-6.874 A88.9831 
N2160 X-384.187 Y-7.413 Z-6.615 A86.9492 
N2161 X-384.174 Y-7.643 Z-6.348 A84.9153 
N2162 X-384.162 Y-7.863 Z-6.072 A82.8814 
N2163 X-384.149 Y-8.074 Z-5.789 A80.8475 
N2164 X-384.136 Y-8.274 Z-5.499 A78.8136 
N2165 X-384.124 Y-8.464 Z-5.202 A76.7797 
N2166 X-384.111 Y-8.643 Z-4.899 A74.7458 
N2167 X-384.098 Y-8.812 Z-4.589 A72.7119 
N2168 X-384.085 Y-8.969 Z-4.273 A70.6780 
N2169 X-384.073 Y-9.115 Z-3.952 A68.6441 
N2170 X-384.060 Y-9.250 Z-3.626 A66.6102 
N2171 X-384.047 Y-9.372 Z-3.295 A64.5763 
N2172 X-384.035 Y-9.483 Z-2.961 A62.5424 
N2173 X-384.022 Y-9.583 Z-2.622 A60.5085 
N2174 X-384.009 Y-9.670 Z-2.281 A58.4746 
N2175 X-383.996 Y-9.744 Z-1.936 A56.4407 
N2176 X-383.984 Y-9.807 Z-1.589 A54.4068 
N2177 X-383.971 Y-9.857 Z-1.240 A52.3729 
N2178 X-383.958 Y-9.895 Z-0.889 A50.3390 
N2179 X-383.946 Y-9.920 Z-0.537 A48.3051 
N2180 X-383.933 Y-9.933 Z-0.185 A46.2712 
N2181 X-383.920 Y-9.933 Z0.168 A44.2373 
N2182 X-383.908 Y-9.921 Z0.520 A42.2034 
N2183 X-383.895 Y-9.897 Z0.872 A40.1695 
N2184 X-383.882 Y-9.859 Z1.223 A38.1356 
N2185 X-383.869 Y-9.810 Z1.572 A36.1017 
N2186 X-383.857 Y-9.748 Z1.919 A34.0678 
N2187 X-383.844 Y-9.674 Z2.264 A32.0339 
N2188 X-383.831 Y-9.587 Z2.605 A30.0000 
N2189 X-383.819 Y-9.489 Z2.944 A27.9661 
N2190 X-383.806 Y-9.378 Z3.279 A25.9322 
N2191 X-383.793 Y-9.256 Z3.610 A23.8983 
N2192 X-383.780 Y-9.122 Z3.936 A21.8644 
N2193 X-383.768 Y-8.977 Z4.257 A19.8305 
N2194 X-383.755 Y-8.820 Z4.573 A17.7966 
N2195 X-383.742 Y-8.652 Z4.883 A15.7627 
N2196 X-383.730 Y-8.473 Z5.187 A13.7288 
N2197 X-383.717 Y-8.284 Z5.485 A11.6949 
N2198 X-383.704 Y-8.084 Z5.775 A9.6610 
N2199 X-383.691 Y-7.874 Z6.059 A7.6271 
N2200 X-383.679 Y-7.654 Z6.334 A5.5932 
N2201 X-383.666 Y-7.424 Z6.602 A3.5593 
N2202 X-383.653 Y-7.185 Z6.861 A1.5254 
N2203 X-383.641 Y-6.937 Z7.112 A359.4915 
N2204 X-383.628 Y-6.680 Z7.354 A357.4576 
N2205 X-383.615 Y-6.415 Z7.586 A355.4237 
N2206 X-383.602 Y-6.142 Z7.809 A353.3898 
N2207 X-383.590 Y-5.861 Z8.022 A351.3559 
N2208 X-383.577 Y-5.573 Z8.225 A349.3220 
N2209 X-383.564 Y-5.277 Z8.418 A347.2881 
N2210 X-383.552 Y-4.975 Z8.600 A345.2542 
N2211 X-383.539 Y-4.667 Z8.771 A343.2203 
N2212 X-383.526 Y-4.352 Z8.931 A341.1864 
N2213 X-383.513 Y-4.033 Z9.080 A339.1525 
N2214 X-383.501 Y-3.708 Z9.217 A337.1186 
N2215 X-383.488 Y-3.379 Z9.343 A335.0847 
N2216 X-383.475 Y-3.045 Z9.457 A333.0508 
N2217 X-383.463 Y-2.707 Z9.559 A331.0169 
N2218 X-383.450 Y-2.366 Z9.649 A328.9831 
N2219 X-383.437 Y-2.022 Z9.727 A326.9492 
N2220 X-383.424 Y-1.676 Z9.793 A324.9153 
N2221 X-383.412 Y-1.327 Z9.846 A322.8814 
N2222 X-383.399 Y-0.977 Z9.887 A320.8475 
N2223 X-383.386 Y-0.625 Z9.915 A318.8136 
N2224 X-383.374 Y-0.273 Z9.931 A316.7797 
N2225 X-383.361 Y0.079 Z9.935 A314.7458 
N2226 X-383.348 Y0.432 Z9.926 A312.7119 
N2227 X-383.335 Y0.784 Z9.904 A310.6780 
N2228 X-383.323 Y1.135 Z9.870 A308.6441 
N2229 X-383.310 Y1.485 Z9.823 A306.6102 
N2230 X-383.297 Y1.832 Z9.764 A304.5763 
N2231 X-383.285 Y2.178 Z9.693 A302.5424 
N2232 X-383.272 Y2.520 Z9.610 A300.5085 
N2233 X-383.259 Y2.860 Z9.514 A298.4746 
N2234 X-383.246 Y3.196 Z9.407 A296.4407 
N2235 X-383.234 Y3.527 Z9.288 A294.4068 
N2236 X-383.221 Y3.855 Z9.157 A292.3729 
N2237 X-383.208 Y4.177 Z9.014 A290.3390 
N2238 X-383.196 Y4.495 Z8.860 A288.3051 
N2239 X-383.183 Y4.806 Z8.695 A286.2712 
N2240 X-383.170 Y5.112 Z8.519 A284.2373 
N2241 X-383.158 Y5.411 Z8.332 A282.2034 
N2242 X-383.145 Y5.703 Z8.135 A280.1695 
N2243 X-383.132 Y5.988 Z7.927 A278.1356 
N2244 X-383.119 Y6.266 Z7.710 A276.1017 
N2245 X-383.107 Y6.536 Z7.482 A274.0678 
N2246 X-383.094 Y6.797 Z7.246 A272.0339 
N2247 X-383.081 Y7.050 Z7.000 A270.0000 
N2248 X-383.081 Y7.294 Z6.745 A267.9661 
N2249 X-383.081 Y7.529 Z6.482 A265.9322 
N2250 X-383.081 Y7.754 Z6.211 A263.8983 
N2251 X-383.081 Y7.970 Z5.932 A261.8644 
N2252 X-383.081 Y8.175 Z5.645 A259.8305 
N2253 X-383.081 Y8.370 Z5.352 A257.7966 
N2254 X-383.081 Y8.555 Z5.051 A255.7627 
N2255 X-383.081 Y8.729 Z4.744 A253.7288 
N2256 X-383.081 Y8.892 Z4.432 A251.6949 
N2257 X-383.081 Y9.043 Z4.113 A249.6610 
N2258 X-383.081 Y9.184 Z3.790 A247.6271 
N2259 X-383.081 Y9.312 Z3.461 A245.5932 
N2260 X-383.081 Y9.429 Z3.129 A243.5593 
N2261 X-383.081 Y9.535 Z2.792 A241.5254 
N2262 X-383.081 Y9.628 Z2.452 A239.4915 
N2263 X-383.081 Y9.709 Z2.109 A237.4576 
N2264 X-383.081 Y9.777 Z1.763 A235.4237 
N2265 X-383.081 Y9.834 Z1.415 A233.3898 
N2266 X-383.081 Y9.878 Z1.065 A231.3559 
N2267 X-383.081 Y9.909 Z0.713 A229.3220 
N2268 X-383.081 Y9.928 Z0.361 A227.2881 
N2269 X-383.081 Y9.935 Z0.009 A225.2542 
N2270 X-383.081 Y9.929 Z-0.344 A223.2203 
N2271 X-383.081 Y9.911 Z-0.696 A221.1864 
N2272 X-383.081 Y9.880 Z-1.047 A219.1525 
N2273 X-383.081 Y9.836 Z-1.397 A217.1186 
N2274 X-383.081 Y9.780 Z-1.746 A215.0847 
N2275 X-383.081 Y9.712 Z-2.092 A213.0508 
N2276 X-383.081 Y9.632 Z-2.435 A211.0169 
N2277 X-383.081 Y9.539 Z-2.775 A208.9831 
N2278 X-383.081 Y9.435 Z-3.112 A206.9492 
N2279 X-383.081 Y9.319 Z-3.445 A204.9153 
N2280 X-383.081 Y9.190 Z-3.773 A202.8814 
N2281 X-383.081 Y9.051 Z-4.097 A200.8475 
N2282 X-383.081 Y8.900 Z-4.416 A198.8136 
N2283 X-383.081 Y8.737 Z-4.729 A196.7797 
N2284 X-383.081 Y8.564 Z-5.036 A194.7458 
N2285 X-383.081 Y8.380 Z-5.337 A192.7119 
N2286 X-383.081 Y8.185 Z-5.631 A190.6780 
N2287 X-383.081 Y7.980 Z-5.918 A188.6441 
N2288 X-383.081 Y7.765 Z-6.197 A186.6102 
N2289 X-383.081 Y7.540 Z-6.469 A184.5763 
N2290 X-383.081 Y7.306 Z-6.733 A182.5424 
N2291 X-383.081 Y7.062 Z-6.988 A180.5085 
N2292 X-383.081 Y6.810 Z-7.234 A178.4746 
N2293 X-383.081 Y6.549 Z-7.471 A176.4407 
N2294 X-383.081 Y6.280 Z-7.699 A174.4068 
N2295 X-383.081 Y6.002 Z-7.917 A172.3729 
N2296 X-383.081 Y5.718 Z-8.125 A170.3390 
N2297 X-383.081 Y5.426 Z-8.323 A168.3051 
N2298 X-383.081 Y5.127 Z-8.510 A166.2712 
N2299 X-383.081 Y4.822 Z-8.686 A164.2373 
N2300 X-383.081 Y4.510 Z-8.852 A162.2034 
N2301 X-383.081 Y4.193 Z-9.007 A160.1695 
N2302 X-383.081 Y3.871 Z-9.150 A158.1356 
N2303 X-383.081 Y3.544 Z-9.281 A156.1017 
N2304 X-383.081 Y3.212 Z-9.401 A154.0678 
N2305 X-383.081 Y2.876 Z-9.509 A152.0339 
N2306 X-383.081 Y2.537 Z-9.605 A150.0000 
N2307 X-383.081 Y2.195 Z-9.689 A147.9661 
N2308 X-383.081 Y1.849 Z-9.761 A145.9322 
N2309 X-383.081 Y1.502 Z-9.821 A143.8983 
N2310 X-383.081 Y1.152 Z-9.868 A141.8644 
N2311 X-383.081 Y0.801 Z-9.903 A139.8305 
N2312 X-383.081 Y0.449 Z-9.925 A137.7966 
N2313 X-383.081 Y0.097 Z-9.934 A135.7627 
N2314 X-383.081 Y-0.256 Z-9.932 A133.7288 
N2315 X-383.081 Y-0.608 Z-9.916 A131.6949 
N2316 X-383.081 Y-0.960 Z-9.888 A129.6610 
N2317 X-383.081 Y-1.310 Z-9.848 A127.6271 
N2318 X-383.081 Y-1.659 Z-9.795 A125.5932 
N2319 X-383.081 Y-2.005 Z-9.730 A123.5593 
N2320 X-383.081 Y-2.349 Z-9.653 A121.5254 
N2321 X-383.081 Y-2.690 Z-9.564 A119.4915 
N2322 X-383.081 Y-3.028 Z-9.462 A117.4576 
N2323 X-383.081 Y-3.362 Z-9.349 A115.4237 
N2324 X-383.081 Y-3.692 Z-9.224 A113.3898 
N2325 X-383.081 Y-4.017 Z-9.087 A111.3559 
N2326 X-383.081 Y-4.337 Z-8.938 A109.3220 
N2327 X-383.081 Y-4.651 Z-8.779 A107.2881 
N2328 X-383.081 Y-4.960 Z-8.608 A105.2542 
N2329 X-383.081 Y-5.262 Z-8.427 A103.2203 
N2330 X-383.081 Y-5.558 Z-8.235 A101.1864 
N2331 X-383.081 Y-5.847 Z-8.032 A99.1525 
N2332 X-383.081 Y-6.128 Z-7.820 A97.1186 
N2333 X-383.081 Y-6.402 Z-7.597 A95.0847 
N2334 X-383.081 Y-6.667 Z-7.365 A93.0508 
N2335 X-383.081 Y-6.925 Z-7.124 A91.0169 
N2336 X-383.081 Y-7.173 Z-6.874 A88.9831 
N2337 X-383.081 Y-7.413 Z-6.615 A86.9492 
N2338 X-383.081 Y-7.643 Z-6.348 A84.9153 
N2339 X-383.081 Y-7.863 Z-6.072 A82.8814 
N2340 X-383.081 Y-8.074 Z-5.789 A80.8475 
N2341 X-383.081 Y-8.274 Z-5.499 A78.8136 
N2342 X-383.081 Y-8.464 Z-5.202 A76.7797 
N2343 X-383.081 Y-8.643 Z-4.899 A74.7458 
N2344 X-383.081 Y-8.812 Z-4.589 A72.7119 
N2345 X-383.081 Y-8.969 Z-4.273 A70.6780 
N2346 X-383.081 Y-9.115 Z-3.952 A68.6441 
N2347 X-383.081 Y-9.250 Z-3.626 A66.6102 
N2348 X-383.081 Y-9.372 Z-3.295 A64.5763 
N2349 X-383.081 Y-9.483 Z-2.961 A62.5424 
N2350 X-383.081 Y-9.583 Z-2.622 A60.5085 
N2351 X-383.081 Y-9.670 Z-2.281 A58.4746 
N2352 X-383.081 Y-9.744 Z-1.936 A56.4407 
N2353 X-383.081 Y-9.807 Z-1.589 A54.4068 
N2354 X-383.081 Y-9.857 Z-1.240 A52.3729 
N2355 X-383.081 Y-9.895 Z-0.889 A50.3390 
N2356 X-383.081 Y-9.920 Z-0.537 A48.3051 
N2357 X-383.081 Y-9.933 Z-0.185 A46.2712 
N2358 X-383.081 Y-9.933 Z0.168 A44.2373 
N2359 X-383.081 Y-9.921 Z0.520 A42.2034 
N2360 X-383.081 Y-9.897 Z0.872 A40.1695 
N2361 X-383.081 Y-9.859 Z1.223 A38.1356 
N2362 X-383.081 Y-9.810 Z1.572 A36.1017 
N2363 X-383.081 Y-9.748 Z1.919 A34.0678 
N2364 X-383.081 Y-9.674 Z2.264 A32.0339 
N2365 X-383.081 Y-9.587 Z2.605 A30.0000 
N2366 X-383.081 Y-9.489 Z2.944 A27.9661 
N2367 X-383.081 Y-9.378 Z3.279 A25.9322 
N2368 X-383.081 Y-9.256 Z3.610 A23.8983 
N2369 X-383.081 Y-9.122 Z3.936 A21.8644 
N2370 X-383.081 Y-8.977 Z4.257 A19.8305 
N2371 X-383.081 Y-8.820 Z4.573 A17.7966 
N2372 X-383.081 Y-8.652 Z4.883 A15.7627 
N2373 X-383.081 Y-8.473 Z5.187 A13.7288 
N2374 X-383.081 Y-8.284 Z5.485 A11.6949 
N2375 X-383.081 Y-8.084 Z5.775 A9.6610 
N2376 X-383.081 Y-7.874 Z6.059 A7.6271 
N2377 X-383.081 Y-7.654 Z6.334 A5.5932 
N2378 X-383.081 Y-7.424 Z6.602 A3.5593 
N2379 X-383.081 Y-7.185 Z6.861 A1.5254 
N2380 X-383.081 Y-6.937 Z7.112 A359.4915 
N2381 X-383.081 Y-6.680 Z7.354 A357.4576 
N2382 X-383.081 Y-6.415 Z7.586 A355.4237 
N2383 X-383.081 Y-6.142 Z7.809 A353.3898 
N2384 X-383.081 Y-5.861 Z8.022 A351.3559 
N2385 X-383.081 Y-5.573 Z8.225 A349.3220 
N2386 X-383.081 Y-5.277 Z8.418 A347.2881 
N2387 X-383.081 Y-4.975 Z8.600 A345.2542 
N2388 X-383.081 Y-4.667 Z8.771 A343.2203 
N2389 X-383.081 Y-4.352 Z8.931 A341.1864 
N2390 X-383.081 Y-4.033 Z9.080 A339.1525 
N2391 X-383.081 Y-3.708 Z9.217 A337.1186 
N2392 X-383.081 Y-3.379 Z9.343 A335.0847 
N2393 X-383.081 Y-3.045 Z9.457 A333.0508 
N2394 X-383.081 Y-2.707 Z9.559 A331.0169 
N2395 X-383.081 Y-2.366 Z9.649 A328.9831 
N2396 X-383.081 Y-2.022 Z9.727 A326.9492 
N2397 X-383.081 Y-1.676 Z9.793 A324.9153 
N2398 X-383.081 Y-1.327 Z9.846 A322.8814 
N2399 X-383.081 Y-0.977 Z9.887 A320.8475 
N2400 X-383.081 Y-0.625 Z9.915 A318.8136 
N2401 X-383.081 Y-0.273 Z9.931 A316.7797 
N2402 X-383.081 Y0.079 Z9.935 A314.7458 
N2403 X-383.081 Y0.432 Z9.926 A312.7119 
N2404 X-383.081 Y0.784 Z9.904 A310.6780 
N2405 X-383.081 Y1.135 Z9.870 A308.6441 
N2406 X-383.081 Y1.485 Z9.823 A306.6102 
N2407 X-383.081 Y1.832 Z9.764 A304.5763 
N2408 X-383.081 Y2.178 Z9.693 A302.5424 
N2409 X-383.081 Y2.520 Z9.610 A300.5085 
N2410 X-383.081 Y2.860 Z9.514 A298.4746 
N2411 X-383.081 Y3.196 Z9.407 A296.4407 
N2412 X-383.081 Y3.527 Z9.288 A294.4068 
N2413 X-383.081 Y3.855 Z9.157 A292.3729 
N2414 X-383.081 Y4.177 Z9.014 A290.3390 
