; PROGRAM NAME: B00000011
; ORDER       : B000000
; OPER. NAME  : Spiral Rough Rhombic:102
; OPER. DESCR.: spiral roughing rhombic/nozka zgr
; OPER. TYPE  : rouRoot
; GEO. OPTION : 4
; MACHINE     : HSTM_500_SIM840D_Py
;             : HSTM500 - HAMUEL: 5-axis milling machine - SIM840D Traori PP_Script
; CONTROL     : SINUMERIK 840D
; created:   2021-11-15 09:57:35.311419
;-------DODATKOWE DANE-------------------
; PROGRAMISTA : Mariusz Malec
; PARTID      : 139T001534P1001_-
;  ap         : 2.5
;  ae         : 30.0
;  lean_angle : 1.0
;  fin_offset : 0.6
;----------------------------------------
;RAPORT("TB000000","Spiral Rough Rhombic:102")
N10 TRAFOOF
N11 D0
N12 G90 G94
N13 G0 G53 D0 Z550 B0
N14 STOPRE
M9 ; chlodziwo wyl
; --- Spiral Rough Rhombic:102 - spiral roughing rhombic/nozka zgr ---
N16 ;ToolChange : concat=None ,current_tdmid=None, PP.tdmId=941290
N17 TRAFOOF
N18 G0 G53 D0 X-200 Y150 Z550 B0
N19 T="7741290"
;RAPORT("TB000000","ToolChangeStart 7741290")
N20 M6
;RAPORT("TB000000","ToolChangeEnd")
N21 STOPRE
N22 MSG(" TLID=941290 D=50.0 R=6.0 Ang=0.0 Len=90.0 ")
N23 ; (Preloading tool)
N24 T="7741293"
N25 S1718 M03
N26 STOPRE
N27 CYCLE832(0.1,3,1)
N28 G0 G53 A271.0185 B0.0000
N29 TRAORI
N30 G54 D1
N31 D2 
N32 ; DELTA A > 40.1
N33 TRAFOOF
N34 D2
N35 STOPRE
N36 G00 G54 Z296.000
N37 G01 A271.0185 F10000
N38 TRAORI
N39 G54 D2
N40 STOPRE
N41 TRANS 
N42 G00 X-151.998 Y104.482 Z-46.710 A271.0185 
N43 M348 ; chlodziwo mgla
N44 X-151.998 Y54.490 Z-47.598 
N45 G01 X-151.998 Y51.400 Z-47.110 F2834 
N46 X-151.998 Y48.612 Z-45.691 
N47 X-151.998 Y46.399 Z-43.479 
N48 X-151.998 Y44.977 Z-40.692 
N49 X-151.998 Y44.487 Z-37.602 
N50 X-151.998 Y44.486 Z-34.041 
N51 X-151.998 Y44.485 Z-30.543 
N52 X-151.998 Y44.483 Z-27.165 
N53 X-151.998 Y44.482 Z-23.960 
N54 X-151.998 Y44.481 Z-20.970 
N55 X-151.998 Y44.481 Z-18.227 
N56 X-151.998 Y44.480 Z-15.754 
N57 X-151.998 Y44.479 Z-13.560 
N58 X-151.998 Y44.478 Z-11.644 A271.0185 
N59 X-151.998 Y44.482 Z-9.996 A271.0310 
N60 X-151.998 Y44.519 Z-8.598 A271.1481 
N61 X-151.998 Y44.691 Z-7.425 A271.6855 
N62 X-151.998 Y45.182 Z-6.436 A273.2270 
N63 X-151.998 Y46.050 Z-5.571 A275.9834 
N64 X-151.998 Y47.152 Z-4.770 A279.5442 
N65 X-151.998 Y48.318 Z-3.999 A283.4029 
N66 X-151.998 Y49.461 Z-3.245 A287.2850 
N67 X-151.998 Y50.537 Z-2.504 A291.0439 
N68 X-151.998 Y51.519 Z-1.782 A294.5819 
N69 X-151.998 Y52.395 Z-1.084 A297.8521 
N70 X-151.998 Y53.173 Z-0.411 A300.8628 
N71 X-151.998 Y53.867 Z0.238 A303.6544 
N72 X-151.998 Y54.492 Z0.871 A306.2693 
N73 X-151.998 Y55.059 Z1.493 A308.7474 
N74 X-151.998 Y55.579 Z2.111 A311.1256 
N75 X-151.998 Y56.061 Z2.731 A313.4381 
N76 X-151.998 Y56.511 Z3.359 A315.7165 
N77 X-151.998 Y56.935 Z4.004 A317.9877 
N78 X-151.998 Y57.334 Z4.670 A320.2758 
N79 X-151.998 Y57.711 Z5.366 A322.6056 
N80 X-151.998 Y58.066 Z6.101 A325.0055 
N81 X-151.998 Y58.398 Z6.886 A327.5100 
N82 X-151.998 Y58.706 Z7.737 A330.1605 
N83 X-151.998 Y58.982 Z8.669 A333.0031 
N84 X-151.998 Y59.214 Z9.699 A336.0814 
N85 X-151.998 Y59.382 Z10.840 A339.4240 
N86 X-151.998 Y59.453 Z12.090 A343.0246 
N87 X-151.998 Y59.387 Z13.424 A346.8170 
N88 X-151.998 Y59.143 Z14.784 A350.6510 
N89 X-151.998 Y58.682 Z16.070 A354.2644 
N90 X-151.998 Y57.986 Z17.152 A357.3115 
N91 X-151.998 Y57.056 Z17.917 A359.4830 
N92 X-151.998 Y55.896 Z18.312 A0.6174 
N93 X-151.998 Y54.493 Z18.421 A0.9295 
N94 X-151.998 Y52.821 Z18.429 A0.9503 
N95 X-151.998 Y50.851 Z18.431 
N96 X-151.998 Y48.563 Z18.433 
N97 X-151.998 Y45.945 Z18.435 
N98 X-151.998 Y42.997 Z18.438 
N99 X-151.998 Y39.728 Z18.441 
N100 X-151.998 Y36.163 Z18.444 
N101 X-151.998 Y32.338 Z18.447 
N102 X-151.998 Y28.302 Z18.450 
N103 X-151.998 Y24.116 Z18.454 
N104 X-151.998 Y19.846 Z18.458 
N105 X-151.998 Y15.563 Z18.462 
N106 X-151.998 Y11.340 Z18.465 
N107 X-151.998 Y7.245 Z18.469 
N108 X-151.998 Y3.342 Z18.472 
N109 X-151.998 Y-0.317 Z18.475 
N110 X-151.998 Y-3.690 Z18.478 
N111 X-151.998 Y-6.750 Z18.481 
N112 X-151.998 Y-9.481 Z18.483 
N113 X-151.998 Y-11.881 Z18.485 
N114 X-151.998 Y-13.957 Z18.487 A0.9503 
N115 X-151.998 Y-15.728 Z18.497 A0.9748 
N116 X-151.998 Y-17.219 Z18.571 A1.2008 
N117 X-151.998 Y-18.464 Z18.812 A1.9588 
N118 X-151.998 Y-19.509 Z19.335 A3.6162 
N119 X-151.998 Y-20.416 Z20.186 A6.3480 B-0.0001 
N120 X-151.998 Y-21.250 Z21.271 A9.8818 B-0.0006 
N121 X-151.998 Y-22.047 Z22.428 A13.7396 B-0.0020 
N122 X-151.998 Y-22.820 Z23.557 A17.6014 B-0.0042 
N123 X-151.998 Y-23.573 Z24.611 A21.3150 B-0.0070 
N124 X-151.998 Y-24.302 Z25.569 A24.7998 B-0.0099 
N125 X-151.998 Y-25.003 Z26.425 A28.0203 B-0.0123 
N126 X-151.998 Y-25.676 Z27.183 A30.9837 B-0.0138 
N127 X-151.998 Y-26.324 Z27.859 A33.7250 B-0.0145 
N128 X-151.998 Y-26.952 Z28.466 A36.2887 B-0.0142 
N129 X-151.998 Y-27.569 Z29.017 A38.7188 B-0.0131 
N130 X-151.998 Y-28.180 Z29.524 A41.0541 B-0.0114 
N131 X-151.998 Y-28.794 Z29.994 A43.3269 B-0.0090 
N132 X-151.998 Y-29.414 Z30.434 A45.5637 B-0.0062 
N133 X-151.998 Y-30.047 Z30.846 A47.7868 B-0.0032 
N134 X-151.998 Y-30.699 Z31.234 A50.0172 B0.0000 
N135 X-151.998 Y-31.375 Z31.600 A52.2764 B0.0032 
N136 X-151.998 Y-32.082 Z31.944 A54.5885 B0.0063 
N137 X-151.998 Y-32.830 Z32.267 A56.9801 B0.0091 
N138 X-151.998 Y-33.628 Z32.567 A59.4809 B0.0115 
N139 X-151.998 Y-34.488 Z32.839 A62.1208 B0.0134 
N140 X-151.998 Y-35.419 Z33.075 A64.9250 B0.0144 
N141 X-151.998 Y-36.427 Z33.261 A67.9065 B0.0146 
N142 X-151.998 Y-37.510 Z33.378 A71.0579 B0.0137 
N143 X-151.998 Y-38.656 Z33.405 A74.3473 B0.0119 
N144 X-151.998 Y-39.843 Z33.318 A77.7220 B0.0093 
N145 X-151.998 Y-41.034 Z33.094 A81.0885 B0.0064 
N146 X-151.998 Y-42.158 Z32.715 A84.2608 B0.0036 
N147 X-151.998 Y-43.110 Z32.175 A86.9552 B0.0017 
N148 X-151.998 Y-43.799 Z31.486 A88.9123 B0.0009 
N149 X-151.998 Y-44.215 Z30.663 A90.0987 B0.0011 
N150 X-151.998 Y-44.424 Z29.716 A90.6979 B0.0025 
N151 X-151.998 Y-44.509 Z28.646 A90.9421 B0.0050 
N152 X-151.998 Y-44.531 Z27.456 A91.0092 B0.0089 
N153 X-151.998 Y-44.533 Z26.151 A91.0167 B0.0143 
N154 X-151.998 Y-44.533 Z24.741 A91.0167 B0.0212 
N155 X-151.997 Y-44.533 Z23.244 B0.0296 
N156 X-151.997 Y-44.532 Z21.680 B0.0393 
N157 X-151.997 Y-44.532 Z20.074 B0.0498 
N158 X-151.997 Y-44.531 Z18.453 B0.0596 
N159 X-151.997 Y-44.531 Z16.844 B0.0674 
N160 X-151.997 Y-44.530 Z15.274 B0.0729 
N161 X-151.997 Y-44.530 Z13.768 B0.0772 
N162 X-151.997 Y-44.529 Z12.349 B0.0811 
N163 X-151.997 Y-44.530 Z11.032 A91.0195 B0.0848 
N164 X-151.997 Y-44.540 Z9.829 A91.0530 B0.0882 
N165 X-151.997 Y-44.585 Z8.747 A91.1932 B0.0916 
N166 X-151.997 Y-44.724 Z7.785 A91.6270 B0.0959 
N167 X-151.997 Y-45.058 Z6.934 A92.6769 B0.1026 
N168 X-151.997 Y-45.659 Z6.171 A94.5816 B0.1140 
N169 X-151.997 Y-46.499 Z5.460 A97.2718 B0.1312 
N170 X-151.997 Y-47.467 Z4.777 A100.4251 B0.1537 
N171 X-151.997 Y-48.462 Z4.109 A103.7374 B0.1799 
N172 X-151.996 Y-49.426 Z3.454 A107.0265 B0.2079 
N173 X-151.996 Y-50.348 Z2.807 A110.2514 B0.2360 
N174 X-151.996 Y-51.241 Z2.156 A113.4482 B0.2623 
N175 X-151.996 Y-52.105 Z1.494 A116.6253 B0.2848 
N176 X-151.996 Y-52.912 Z0.830 A119.6870 B0.3018 
N177 X-151.996 Y-53.633 Z0.182 A122.5341 B0.3131 
N178 X-151.996 Y-54.266 Z-0.442 A125.1439 B0.3191 
N179 X-151.996 Y-54.824 Z-1.044 A127.5556 B0.3210 
N180 X-151.996 Y-55.327 Z-1.633 A129.8293 B0.3196 
N181 X-151.996 Y-55.789 Z-2.219 A132.0191 B0.3156 
N182 X-151.996 Y-56.221 Z-2.810 A134.1686 B0.3096 
N183 X-151.996 Y-56.630 Z-3.415 A136.3131 B0.3020 
N184 X-151.996 Y-57.020 Z-4.041 A138.4823 B0.2929 
N185 X-151.996 Y-57.395 Z-4.698 A140.7027 B0.2825 
N186 X-151.996 Y-57.755 Z-5.392 A142.9996 B0.2708 
N187 X-151.996 Y-58.099 Z-6.134 A145.3996 B0.2578 
N188 X-151.996 Y-58.425 Z-6.935 A147.9363 B0.2433 
N189 X-151.996 Y-58.728 Z-7.812 A150.6504 B0.2272 
N190 X-151.996 Y-58.999 Z-8.779 A153.5854 B0.2094 
N191 X-151.997 Y-59.223 Z-9.854 A156.7796 B0.1897 
N192 X-151.997 Y-59.374 Z-11.044 A160.2532 B0.1683 
N193 X-151.997 Y-59.418 Z-12.344 A163.9855 B0.1457 
N194 X-151.997 Y-59.310 Z-13.715 A167.8762 B0.1224 
N195 X-151.997 Y-59.007 Z-15.080 A171.7187 B0.0995 
N196 X-151.997 Y-58.477 Z-16.323 A175.2103 B0.0786 
N197 X-151.997 Y-57.711 Z-17.320 A178.0218 B0.0617 
N198 X-151.997 Y-56.712 Z-17.975 A179.8836 B0.0509 
N199 X-151.997 Y-55.481 Z-18.269 A180.7267 B0.0460 
N200 X-151.997 Y-54.001 Z-18.331 A180.8996 B0.0441 
N201 X-151.997 Y-52.242 Z-18.335 A180.9044 B0.0427 
N202 X-151.997 Y-50.178 Z-18.339 B0.0412 
N203 X-151.997 Y-47.792 Z-18.343 B0.0395 
N204 X-151.997 Y-45.074 Z-18.347 B0.0376 
N205 X-151.997 Y-42.027 Z-18.352 B0.0355 
N206 X-151.997 Y-38.664 Z-18.358 B0.0333 
N207 X-151.997 Y-35.015 Z-18.364 B0.0309 
N208 X-151.997 Y-31.120 Z-18.370 B0.0285 
N209 X-151.997 Y-27.030 Z-18.377 B0.0260 
N210 X-151.997 Y-22.809 Z-18.384 B0.0235 
N211 X-151.998 Y-18.525 Z-18.391 B0.0211 
N212 X-151.998 Y-14.250 Z-18.399 B0.0189 
N213 X-151.998 Y-10.056 Z-18.406 B0.0167 
N214 X-151.998 Y-6.011 Z-18.412 B0.0148 
N215 X-151.998 Y-2.175 Z-18.419 B0.0130 
N216 X-151.998 Y1.403 Z-18.425 B0.0114 
N217 X-151.998 Y4.685 Z-18.430 B0.0100 
N218 X-151.998 Y7.647 Z-18.435 B0.0088 
N219 X-151.998 Y10.277 Z-18.439 B0.0077 
N220 X-151.998 Y12.577 Z-18.443 B0.0067 
N221 X-151.998 Y14.557 Z-18.447 A180.9049 B0.0054 
N222 X-151.998 Y16.238 Z-18.463 A180.9471 B0.0040 
N223 X-151.998 Y17.647 Z-18.554 A181.2233 B0.0029 
N224 X-151.998 Y18.820 Z-18.828 A182.0811 B0.0034 
N225 X-151.998 Y19.806 Z-19.420 A183.9514 B0.0063 
N226 X-151.998 Y20.674 Z-20.356 A186.9473 B0.0121 
N227 X-151.998 Y21.484 Z-21.497 A190.6658 B0.0196 
N228 X-151.997 Y22.266 Z-22.678 A194.6067 B0.0272 
N229 X-151.997 Y23.026 Z-23.805 A198.4746 B0.0332 
N230 X-151.997 Y23.764 Z-24.841 A202.1382 B0.0369 
N231 X-151.997 Y24.475 Z-25.773 A205.5425 B0.0384 
N232 X-151.997 Y25.159 Z-26.603 A208.6820 B0.0378 
N233 X-151.997 Y25.817 Z-27.344 A211.5858 B0.0357 
N234 X-151.997 Y26.456 Z-28.011 A214.2975 B0.0324 
N235 X-151.997 Y27.082 Z-28.617 A216.8592 B0.0284 
N236 X-151.997 Y27.701 Z-29.173 A219.3083 B0.0238 
N237 X-151.998 Y28.319 Z-29.686 A221.6764 B0.0189 
N238 X-151.998 Y28.942 Z-30.164 A223.9896 B0.0137 
N239 X-151.998 Y29.573 Z-30.610 A226.2692 B0.0085 
N240 X-151.998 Y30.218 Z-31.028 A228.5340 B0.0033 
N241 X-151.998 Y30.881 Z-31.419 A230.8028 B-0.0018 
N242 X-151.998 Y31.569 Z-31.785 A233.0971 B-0.0065 
N243 X-151.998 Y32.288 Z-32.128 A235.4413 B-0.0109 
N244 X-151.998 Y33.048 Z-32.447 A237.8640 B-0.0148 
N245 X-151.998 Y33.860 Z-32.740 A240.3967 B-0.0178 
N246 X-151.998 Y34.735 Z-33.003 A243.0712 B-0.0199 
N247 X-151.998 Y35.683 Z-33.226 A245.9146 B-0.0207 
N248 X-151.998 Y36.709 Z-33.395 A248.9396 B-0.0200 
N249 X-151.998 Y37.811 Z-33.490 A252.1364 B-0.0176 
N250 X-151.998 Y38.973 Z-33.489 A255.4672 B-0.0139 
N251 X-151.998 Y40.171 Z-33.366 A258.8681 B-0.0096 
N252 X-151.998 Y41.357 Z-33.099 A262.2234 B-0.0057 
N253 X-151.998 Y42.450 Z-32.674 A265.3192 B-0.0028 
N254 X-151.998 Y43.339 Z-32.089 A267.8455 B-0.0011 
N255 X-151.998 Y43.938 Z-31.358 A269.5572 B-0.0003 
N256 X-151.998 Y44.261 Z-30.498 A270.4839 B-0.0000 
N257 X-151.998 Y44.401 Z-29.514 A270.8879 B-0.0000 
N258 X-151.998 Y44.448 Z-28.406 A271.0291 
N259 X-151.998 Y44.458 Z-27.178 A271.0621 
N260 X-151.998 Y44.457 Z-25.835 A271.0645 
N261 X-151.998 Y44.456 Z-24.390 
N262 X-151.998 Y44.454 Z-22.861 
N263 X-151.998 Y44.452 Z-21.271 
N264 X-151.998 Y44.450 Z-19.645 
N265 X-151.998 Y44.449 Z-18.010 
N266 X-151.998 Y44.447 Z-16.396 
N267 X-151.998 Y44.445 Z-14.828 
N268 X-151.998 Y44.443 Z-13.331 
N269 X-151.998 Y44.442 Z-11.926 
N270 X-151.998 Y44.441 Z-10.628 A271.0666 
N271 X-151.998 Y44.449 Z-9.449 A271.0938 
N272 X-151.998 Y44.487 Z-8.393 A271.2183 
N273 X-151.998 Y44.629 Z-7.458 A271.6622 
N274 X-151.998 Y44.992 Z-6.633 A272.8018 
N275 X-151.998 Y45.641 Z-5.890 A274.8518 
N276 X-151.998 Y46.522 Z-5.195 A277.6697 
N277 X-151.998 Y47.516 Z-4.523 A280.9110 
N278 X-151.998 Y48.539 Z-3.859 A284.3167 
N279 X-151.998 Y49.544 Z-3.198 A287.7401 
N280 X-151.998 Y50.502 Z-2.541 A291.0896 
N281 X-151.998 Y51.393 Z-1.889 A294.2959 
N282 X-151.998 Y52.207 Z-1.249 A297.3185 
N283 X-151.998 Y52.946 Z-0.623 A300.1540 
N284 X-151.998 Y53.618 Z-0.009 A302.8263 
N285 X-151.998 Y54.233 Z0.597 A305.3644 
N286 X-151.998 Y54.799 Z1.199 A307.7956 
N287 X-151.998 Y55.324 Z1.800 A310.1457 
N288 X-151.998 Y55.813 Z2.406 A312.4395 
N289 X-151.998 Y56.271 Z3.021 A314.7021 
N290 X-151.998 Y56.704 Z3.652 A316.9567 
N291 X-151.998 Y57.113 Z4.304 A319.2241 
N292 X-151.998 Y57.501 Z4.983 A321.5261 
N293 X-151.998 Y57.867 Z5.696 A323.8875 
N294 X-151.998 Y58.212 Z6.455 A326.3386 
N295 X-151.998 Y58.535 Z7.272 A328.9173 
N296 X-151.998 Y58.830 Z8.163 A331.6677 
N297 X-151.998 Y59.088 Z9.145 A334.6351 
N298 X-151.998 Y59.293 Z10.233 A337.8554 
N299 X-151.998 Y59.418 Z11.430 A341.3383 
N300 X-151.998 Y59.428 Z12.725 A345.0442 
N301 X-151.998 Y59.280 Z14.074 A348.8650 
N302 X-151.998 Y58.934 Z15.402 A352.6025 
N303 X-151.998 Y58.363 Z16.593 A355.9534 
N304 X-151.998 Y57.560 Z17.523 A358.5884 
N305 X-151.998 Y56.530 Z18.107 A0.2603 
N306 X-151.998 Y55.269 Z18.346 A0.9558 
N307 X-151.998 Y53.757 Z18.385 A1.0756 
N308 X-151.998 Y51.966 Z18.383 A1.0774 
N309 X-151.998 Y49.872 Z18.380 
N310 X-151.998 Y47.459 Z18.377 
N311 X-151.998 Y44.719 Z18.373 
N312 X-151.998 Y41.659 Z18.369 
N313 X-151.998 Y38.294 Z18.365 
N314 X-151.998 Y34.654 Z18.360 
N315 X-151.998 Y30.781 Z18.354 
N316 X-151.998 Y26.729 Z18.349 
N317 X-151.998 Y22.559 Z18.343 
N318 X-151.998 Y18.340 Z18.338 
N319 X-151.998 Y14.142 Z18.332 
N320 X-151.998 Y10.035 Z18.326 
N321 X-151.998 Y6.082 Z18.321 
N322 X-151.998 Y2.341 Z18.316 A1.0786 
N323 X-151.998 Y-1.143 Z18.329 A1.1327 
N324 X-151.998 Y-4.335 Z18.370 A1.2915 
N325 X-151.998 Y-7.214 Z18.425 A1.5154 
N326 X-151.998 Y-9.771 Z18.494 A1.8093 
N327 X-151.998 Y-12.007 Z18.536 A2.0458 
N328 X-151.998 Y-13.932 Z18.523 A2.1172 
N329 X-151.998 Y-15.570 Z18.514 A2.1892 
N330 X-151.998 Y-16.951 Z18.632 A2.6389 
N331 X-151.998 Y-18.116 Z18.997 A3.8644 B-0.0002 
N332 X-151.998 Y-19.117 Z19.661 A6.0553 B-0.0015 
N333 X-151.998 Y-20.018 Z20.593 A9.1356 B-0.0048 
N334 X-151.998 Y-20.865 Z21.672 A12.7602 B-0.0103 
N335 X-151.998 Y-21.680 Z22.770 A16.5369 B-0.0168 
N336 X-151.998 Y-22.467 Z23.812 A20.2261 B-0.0230 
N337 X-151.998 Y-23.226 Z24.769 A23.7210 B-0.0277 
N338 X-151.998 Y-23.955 Z25.630 A26.9766 B-0.0305 
N339 X-151.998 Y-24.654 Z26.398 A29.9860 B-0.0313 
N340 X-151.998 Y-25.324 Z27.082 A32.7723 B-0.0305 
N341 X-151.998 Y-25.972 Z27.695 A35.3748 B-0.0284 
N342 X-151.998 Y-26.605 Z28.251 A37.8356 B-0.0253 
N343 X-151.998 Y-27.230 Z28.760 A40.1932 B-0.0216 
N344 X-151.998 Y-27.853 Z29.231 A42.4804 B-0.0172 
N345 X-151.998 Y-28.482 Z29.669 A44.7243 B-0.0125 
N346 X-151.998 Y-29.121 Z30.079 A46.9478 B-0.0074 
N347 X-151.998 Y-29.775 Z30.464 A49.1708 B-0.0020 
N348 X-151.998 Y-30.451 Z30.824 A51.4134 B0.0035 
N349 X-151.998 Y-31.155 Z31.162 A53.6974 B0.0091 
N350 X-151.998 Y-31.895 Z31.478 A56.0471 B0.0148 
N351 X-151.998 Y-32.679 Z31.769 A58.4895 B0.0206 
N352 X-151.997 Y-33.518 Z32.033 A61.0524 B0.0264 
N353 X-151.997 Y-34.422 Z32.261 A63.7611 B0.0322 
N354 X-151.997 Y-35.397 Z32.444 A66.6315 B0.0379 
N355 X-151.997 Y-36.443 Z32.563 A69.6625 B0.0436 
N356 X-151.997 Y-37.552 Z32.600 A72.8313 B0.0491 
N357 X-151.997 Y-38.706 Z32.531 A76.0937 B0.0543 
N358 X-151.997 Y-39.874 Z32.335 A79.3702 B0.0593 
N359 X-151.997 Y-40.996 Z31.993 A82.5064 B0.0640 
N360 X-151.997 Y-41.985 Z31.495 A85.2661 B0.0685 
N361 X-151.997 Y-42.754 Z30.845 A87.4121 B0.0728 
N362 X-151.997 Y-43.276 Z30.059 A88.8590 B0.0771 
N363 X-151.997 Y-43.578 Z29.149 A89.6865 B0.0817 
N364 X-151.997 Y-43.722 Z28.121 A90.0596 B0.0865 
N365 X-151.997 Y-43.776 Z26.981 A90.1688 B0.0916 
N366 X-151.997 Y-43.798 Z25.734 A90.1822 B0.0971 
N367 X-151.997 Y-43.818 Z24.391 A90.1823 B0.1030 
N368 X-151.997 Y-43.838 Z22.968 B0.1092 
N369 X-151.997 Y-43.859 Z21.484 A90.1824 B0.1157 
N370 X-151.997 Y-43.882 Z19.963 A90.1852 B0.1223 
N371 X-151.997 Y-43.909 Z18.430 A90.2033 B0.1288 
N372 X-151.997 Y-43.951 Z16.910 A90.2665 B0.1349 
N373 X-151.997 Y-44.017 Z15.428 A90.4133 B0.1404 
N374 X-151.997 Y-44.096 Z14.007 A90.6134 B0.1459 
N375 X-151.997 Y-44.157 Z12.668 A90.7766 B0.1518 
N376 X-151.997 Y-44.193 Z11.425 A90.8708 B0.1580 
N377 X-151.997 Y-44.219 Z10.291 A90.9435 B0.1642 
N378 X-151.997 Y-44.274 Z9.270 A91.1117 B0.1701 
N379 X-151.997 Y-44.421 Z8.361 A91.5650 B0.1761 
N380 X-151.997 Y-44.746 Z7.557 A92.5836 B0.1838 
N381 X-151.996 Y-45.328 Z6.834 A94.4167 B0.1958 
N382 X-151.996 Y-46.159 Z6.160 A97.0663 B0.2136 
N383 X-151.996 Y-47.144 Z5.503 A100.2549 B0.2369 
N384 X-151.996 Y-48.172 Z4.851 A103.6534 B0.2638 
N385 X-151.996 Y-49.167 Z4.205 A107.0243 B0.2924 
N386 X-151.996 Y-50.095 Z3.569 A110.2562 B0.3209 
N387 X-151.996 Y-50.958 Z2.942 A113.3423 B0.3480 
N388 X-151.995 Y-51.769 Z2.317 A116.3253 B0.3727 
N389 X-151.995 Y-52.536 Z1.687 A119.2327 B0.3937 
N390 X-151.995 Y-53.250 Z1.057 A122.0267 B0.4102 
N391 X-151.995 Y-53.896 Z0.437 A124.6581 B0.4220 
N392 X-151.995 Y-54.472 Z-0.167 A127.1136 B0.4292 
N393 X-151.995 Y-54.989 Z-0.756 A129.4170 B0.4325 
N394 X-151.995 Y-55.458 Z-1.338 A131.6128 B0.4326 
N395 X-151.995 Y-55.891 Z-1.921 A133.7463 B0.4300 
N396 X-151.995 Y-56.298 Z-2.513 A135.8568 B0.4251 
N397 X-151.995 Y-56.685 Z-3.123 A137.9788 B0.4184 
N398 X-151.995 Y-57.056 Z-3.760 A140.1435 B0.4098 
N399 X-151.995 Y-57.414 Z-4.433 A142.3815 B0.3996 
N400 X-151.995 Y-57.759 Z-5.152 A144.7234 B0.3877 
N401 X-151.995 Y-58.090 Z-5.929 A147.2008 B0.3740 
N402 X-151.996 Y-58.401 Z-6.777 A149.8502 B0.3584 
N403 X-151.996 Y-58.685 Z-7.713 A152.7116 B0.3406 
N404 X-151.996 Y-58.929 Z-8.751 A155.8217 B0.3206 
N405 X-151.996 Y-59.109 Z-9.901 A159.2009 B0.2983 
N406 X-151.996 Y-59.194 Z-11.159 A162.8359 B0.2740 
N407 X-151.996 Y-59.145 Z-12.499 A166.6558 B0.2488 
N408 X-151.996 Y-58.917 Z-13.862 A170.5032 B0.2240 
N409 X-151.996 Y-58.477 Z-15.150 A174.1272 B0.2017 
N410 X-151.997 Y-57.807 Z-16.245 A177.2156 B0.1838 
N411 X-151.997 Y-56.908 Z-17.042 A179.4822 B0.1719 
N412 X-151.997 Y-55.782 Z-17.481 A180.7559 B0.1662 
N413 X-151.997 Y-54.423 Z-17.618 A181.1682 B0.1650 
N414 X-151.997 Y-52.803 Z-17.626 A181.2084 B0.1655 
N415 X-151.997 Y-50.895 Z-17.619 A181.2085 B0.1662 
N416 X-151.997 Y-48.679 Z-17.611 B0.1671 
N417 X-151.997 Y-46.144 Z-17.602 B0.1681 
N418 X-151.997 Y-43.287 Z-17.592 B0.1692 
N419 X-151.997 Y-40.120 Z-17.580 B0.1704 
N420 X-151.997 Y-36.665 Z-17.567 B0.1717 
N421 X-151.997 Y-32.957 Z-17.554 B0.1732 
N422 X-151.997 Y-29.043 Z-17.540 B0.1747 
N423 X-151.997 Y-24.981 Z-17.525 B0.1763 
N424 X-151.997 Y-20.835 Z-17.510 B0.1779 
N425 X-151.997 Y-16.675 Z-17.495 B0.1795 
N426 X-151.997 Y-12.570 Z-17.480 B0.1811 
N427 X-151.997 Y-8.586 Z-17.465 B0.1826 
N428 X-151.997 Y-4.785 Z-17.451 B0.1841 
N429 X-151.997 Y-1.217 Z-17.438 B0.1855 
N430 X-151.997 Y2.077 Z-17.431 A181.2212 B0.1867 
N431 X-151.997 Y5.070 Z-17.453 A181.3282 B0.1881 
N432 X-151.997 Y7.748 Z-17.513 A181.5694 B0.1901 
N433 X-151.997 Y10.108 Z-17.597 A181.9148 B0.1927 
N434 X-151.997 Y12.155 Z-17.639 A182.1502 B0.1942 
N435 X-151.997 Y13.904 Z-17.623 A182.2116 B0.1915 
N436 X-151.997 Y15.383 Z-17.650 A182.3930 B0.1858 
N437 X-151.997 Y16.628 Z-17.882 A183.1992 B0.1789 
N438 X-151.997 Y17.687 Z-18.414 A184.9573 B0.1710 
N439 X-151.997 Y18.618 Z-19.236 A187.6639 B0.1622 
N440 X-151.997 Y19.478 Z-20.264 A191.0896 B0.1524 
N441 X-151.997 Y20.303 Z-21.376 A194.8645 B0.1419 
N442 X-151.997 Y21.105 Z-22.469 A198.6711 B0.1308 
N443 X-151.997 Y21.883 Z-23.485 A202.3228 B0.1193 
N444 X-151.997 Y22.631 Z-24.402 A205.7329 B0.1078 
N445 X-151.997 Y23.348 Z-25.217 A208.8771 B0.0964 
N446 X-151.997 Y24.034 Z-25.939 A211.7734 B0.0851 
N447 X-151.997 Y24.695 Z-26.583 A214.4639 B0.0739 
N448 X-151.997 Y25.338 Z-27.165 A216.9970 B0.0628 
N449 X-151.997 Y25.972 Z-27.696 A219.4149 B0.0516 
N450 X-151.997 Y26.604 Z-28.185 A221.7520 B0.0404 
N451 X-151.997 Y27.239 Z-28.638 A224.0367 B0.0292 
N452 X-151.998 Y27.883 Z-29.061 A226.2930 B0.0181 
N453 X-151.998 Y28.542 Z-29.456 A228.5429 B0.0070 
N454 X-151.998 Y29.223 Z-29.826 A230.8094 B-0.0039 
N455 X-151.998 Y29.933 Z-30.173 A233.1185 B-0.0145 
N456 X-151.998 Y30.681 Z-30.497 A235.5000 B-0.0250 
N457 X-151.998 Y31.480 Z-30.797 A237.9867 B-0.0351 
N458 X-151.998 Y32.340 Z-31.069 A240.6125 B-0.0448 
N459 X-151.998 Y33.274 Z-31.306 A243.4072 B-0.0541 
N460 X-151.998 Y34.288 Z-31.494 A246.3858 B-0.0627 
N461 X-151.998 Y35.378 Z-31.613 A249.5372 B-0.0706 
N462 X-151.998 Y36.531 Z-31.639 A252.8172 B-0.0775 
N463 X-151.998 Y37.716 Z-31.547 A256.1477 B-0.0830 
N464 X-151.998 Y38.886 Z-31.314 A259.4046 B-0.0871 
N465 X-151.998 Y39.968 Z-30.923 A262.3977 B-0.0895 
N466 X-151.998 Y40.873 Z-30.372 A264.8814 B-0.0902 
N467 X-151.998 Y41.537 Z-29.670 A266.6763 B-0.0893 
N468 X-151.998 Y41.961 Z-28.831 A267.7812 B-0.0870 
N469 X-151.998 Y42.195 Z-27.868 A268.3390 B-0.0838 
N470 X-151.998 Y42.311 Z-26.787 A268.5407 B-0.0798 
N471 X-151.998 Y42.374 Z-25.595 A268.5794 B-0.0751 
N472 X-151.998 Y42.429 Z-24.302 A268.5808 B-0.0695 
N473 X-151.998 Y42.488 Z-22.921 B-0.0622 
N474 X-151.998 Y42.549 Z-21.472 B-0.0523 
N475 X-151.998 Y42.612 Z-19.975 B-0.0399 
N476 X-151.998 Y42.676 Z-18.455 B-0.0271 
N477 X-151.998 Y42.740 Z-16.938 B-0.0161 
N478 X-151.998 Y42.803 Z-15.449 B-0.0078 
N479 X-151.998 Y42.864 Z-14.012 B-0.0027 
N480 X-151.998 Y42.922 Z-12.649 B-0.0005 
N481 X-151.998 Y42.975 Z-11.377 A268.5808 B-0.0000 
N482 X-151.998 Y43.028 Z-10.210 A268.5921 B-0.0000 
N483 X-151.998 Y43.106 Z-9.155 A268.6925 
N484 X-151.998 Y43.257 Z-8.216 A269.0400 
N485 X-151.998 Y43.555 Z-7.392 A269.8652 
N486 X-151.998 Y44.083 Z-6.668 A271.4312 
N487 X-151.998 Y44.862 Z-6.016 A273.8181 
N488 X-151.998 Y45.824 Z-5.399 A276.8347 
N489 X-151.998 Y46.861 Z-4.795 A280.1543 
N490 X-151.998 Y47.899 Z-4.194 A283.5489 
N491 X-151.998 Y48.899 Z-3.594 A286.8999 
N492 X-151.998 Y49.843 Z-2.994 A290.1421 
N493 X-151.998 Y50.717 Z-2.399 A293.2250 
N494 X-151.998 Y51.513 Z-1.813 A296.1165 
N495 X-151.998 Y52.232 Z-1.241 A298.8139 
N496 X-151.998 Y52.886 Z-0.680 A301.3438 
N497 X-151.998 Y53.486 Z-0.126 A303.7464 
N498 X-151.998 Y54.043 Z0.426 A306.0576 
N499 X-151.998 Y54.566 Z0.982 A308.3076 
N500 X-151.998 Y55.060 Z1.546 A310.5216 
N501 X-151.998 Y55.531 Z2.124 A312.7211 
N502 X-151.998 Y55.981 Z2.719 A314.9256 
N503 X-151.998 Y56.413 Z3.337 A317.1530 
N504 X-151.998 Y56.827 Z3.983 A319.4208 
N505 X-151.998 Y57.226 Z4.664 A321.7493 
N506 X-151.998 Y57.607 Z5.387 A324.1642 
N507 X-151.998 Y57.971 Z6.166 A326.6991 
N508 X-151.998 Y58.316 Z7.014 A329.3969 
N509 X-151.998 Y58.635 Z7.950 A332.3055 
N510 X-151.998 Y58.915 Z8.990 A335.4661 
N511 X-151.998 Y59.135 Z10.143 A338.8963 
N512 X-151.998 Y59.262 Z11.400 A342.5667 
N513 X-151.998 Y59.254 Z12.726 A346.3766 
N514 X-151.998 Y59.074 Z14.061 A350.1656 
N515 X-151.998 Y58.691 Z15.322 A353.7235 
N516 X-151.998 Y58.090 Z16.405 A356.7789 
N517 X-151.998 Y57.269 Z17.211 A359.0660 
N518 X-151.998 Y56.230 Z17.690 A0.4391 
N519 X-151.998 Y54.966 Z17.875 A0.9781 
N520 X-151.998 Y53.455 Z17.902 A1.0638 
N521 X-151.998 Y51.668 Z17.900 A1.0647 
N522 X-151.998 Y49.585 Z17.898 
N523 X-151.998 Y47.194 Z17.895 
N524 X-151.998 Y44.488 Z17.892 
N525 X-151.998 Y41.477 Z17.889 
N526 X-151.998 Y38.178 Z17.885 
N527 X-151.998 Y34.623 Z17.881 
N528 X-151.998 Y30.853 Z17.877 
N529 X-151.998 Y26.921 Z17.872 
N530 X-151.998 Y22.888 Z17.868 
N531 X-151.998 Y18.817 Z17.863 
N532 X-151.998 Y14.776 Z17.859 
N533 X-151.998 Y10.828 Z17.854 
N534 X-151.998 Y7.033 Z17.850 
N535 X-151.998 Y3.444 Z17.846 A1.0651 
N536 X-151.998 Y0.100 Z17.873 A1.1620 
N537 X-151.998 Y-2.970 Z18.010 A1.6315 
N538 X-151.998 Y-5.748 Z18.191 A2.3119 
N539 X-151.998 Y-8.229 Z18.413 A3.2029 
N540 X-151.998 Y-10.413 Z18.620 A4.1291 B-0.0001 
N541 X-151.998 Y-12.302 Z18.685 A4.6627 B-0.0007 
N542 X-151.998 Y-13.915 Z18.656 A4.8945 B-0.0035 
N543 X-151.998 Y-15.288 Z18.697 A5.3071 B-0.0109 
N544 X-151.998 Y-16.469 Z18.986 A6.4679 B-0.0230 
N545 X-151.998 Y-17.511 Z19.583 A8.5960 B-0.0374 
N546 X-151.998 Y-18.465 Z20.415 A11.5094 B-0.0499 
N547 X-151.998 Y-19.365 Z21.376 A14.8934 B-0.0580 
N548 X-151.998 Y-20.229 Z22.357 A18.4272 B-0.0617 
N549 X-151.998 Y-21.058 Z23.291 A21.8867 B-0.0622 
N550 X-151.998 Y-21.851 Z24.145 A25.1643 B-0.0608 
N551 X-151.998 Y-22.608 Z24.914 A28.2281 B-0.0581 
N552 X-151.998 Y-23.332 Z25.602 A31.0804 B-0.0544 
N553 X-151.998 Y-24.026 Z26.218 A33.7430 B-0.0499 
N554 X-151.998 Y-24.699 Z26.773 A36.2497 B-0.0448 
N555 X-151.998 Y-25.356 Z27.276 A38.6376 B-0.0389 
N556 X-151.998 Y-26.007 Z27.739 A40.9406 B-0.0324 
N557 X-151.998 Y-26.657 Z28.166 A43.1873 B-0.0253 
N558 X-151.998 Y-27.312 Z28.562 A45.4016 B-0.0176 
N559 X-151.998 Y-27.979 Z28.932 A47.6042 B-0.0094 
N560 X-151.998 Y-28.662 Z29.275 A49.8136 B-0.0007 
N561 X-151.998 Y-29.367 Z29.595 A52.0490 B0.0083 
N562 X-151.998 Y-30.101 Z29.890 A54.3318 B0.0177 
N563 X-151.997 Y-30.873 Z30.159 A56.6854 B0.0275 
N564 X-151.997 Y-31.690 Z30.400 A59.1345 B0.0377 
N565 X-151.997 Y-32.562 Z30.608 A61.7029 B0.0484 
N566 X-151.997 Y-33.495 Z30.773 A64.4078 B0.0595 
N567 X-151.997 Y-34.492 Z30.882 A67.2535 B0.0711 
N568 X-151.997 Y-35.548 Z30.918 A70.2275 B0.0833 
N569 X-151.997 Y-36.652 Z30.862 A73.2983 B0.0959 
N570 X-151.997 Y-37.777 Z30.694 A76.4013 B0.1088 
N571 X-151.997 Y-38.878 Z30.393 A79.4152 B0.1218 
N572 X-151.997 Y-39.888 Z29.947 A82.1615 B0.1345 
N573 X-151.997 Y-40.737 Z29.354 A84.4512 B0.1467 
N574 X-151.997 Y-41.378 Z28.625 A86.1492 B0.1579 
N575 X-151.997 Y-41.792 Z27.772 A87.1967 B0.1679 
N576 X-151.997 Y-42.010 Z26.808 A87.6730 B0.1770 
N577 X-151.997 Y-42.114 Z25.744 A87.8024 B0.1855 
N578 X-151.996 Y-42.184 Z24.590 A87.8215 B0.1943 
N579 X-151.996 Y-42.262 Z23.359 A87.8509 B0.2035 
N580 X-151.996 Y-42.356 Z22.065 A87.9214 B0.2127 
N581 X-151.996 Y-42.462 Z20.725 A88.0245 B0.2213 
N582 X-151.996 Y-42.570 Z19.360 A88.1393 B0.2288 
N583 X-151.996 Y-42.686 Z17.992 A88.2875 B0.2353 
N584 X-151.996 Y-42.836 Z16.643 A88.5551 B0.2415 
N585 X-151.996 Y-43.054 Z15.334 A89.0557 B0.2486 
N586 X-151.996 Y-43.307 Z14.082 A89.7072 B0.2574 
N587 X-151.996 Y-43.507 Z12.903 A90.2453 B0.2672 
N588 X-151.996 Y-43.624 Z11.810 A90.5620 B0.2774 
N589 X-151.996 Y-43.687 Z10.814 A90.7355 B0.2872 
N590 X-151.996 Y-43.759 Z9.917 A90.9422 B0.2965 
N591 X-151.996 Y-43.914 Z9.119 A91.4128 B0.3053 
N592 X-151.996 Y-44.235 Z8.411 A92.4058 B0.3152 
N593 X-151.996 Y-44.796 Z7.772 A94.1618 B0.3289 
N594 X-151.996 Y-45.610 Z7.172 A96.7327 B0.3483 
N595 X-151.995 Y-46.606 Z6.575 A99.9216 B0.3733 
N596 X-151.995 Y-47.666 Z5.968 A103.3846 B0.4017 
N597 X-151.995 Y-48.701 Z5.352 A106.8436 B0.4313 
N598 X-151.995 Y-49.657 Z4.739 A110.1336 B0.4602 
N599 X-151.995 Y-50.522 Z4.136 A113.1978 B0.4875 
N600 X-151.995 Y-51.301 Z3.547 A116.0479 B0.5126 
N601 X-151.995 Y-52.012 Z2.967 A118.7304 B0.5355 
N602 X-151.994 Y-52.672 Z2.390 A121.3018 B0.5557 
N603 X-151.994 Y-53.293 Z1.809 A123.8000 B0.5730 
N604 X-151.994 Y-53.873 Z1.224 A126.2253 B0.5870 
N605 X-151.994 Y-54.410 Z0.639 A128.5637 B0.5975 
N606 X-151.994 Y-54.902 Z0.056 A130.8086 B0.6044 
N607 X-151.994 Y-55.353 Z-0.524 A132.9691 B0.6080 
N608 X-151.994 Y-55.768 Z-1.106 A135.0710 B0.6085 
N609 X-151.994 Y-56.155 Z-1.698 A137.1489 B0.6062 
N610 X-151.994 Y-56.522 Z-2.308 A139.2387 B0.6015 
N611 X-151.994 Y-56.873 Z-2.946 A141.3779 B0.5943 
N612 X-151.994 Y-57.213 Z-3.625 A143.6057 B0.5849 
N613 X-151.994 Y-57.543 Z-4.359 A145.9647 B0.5731 
N614 X-151.994 Y-57.861 Z-5.162 A148.4990 B0.5587 
N615 X-151.994 Y-58.161 Z-6.052 A151.2509 B0.5415 
N616 X-151.995 Y-58.432 Z-7.045 A154.2586 B0.5212 
N617 X-151.995 Y-58.653 Z-8.151 A157.5467 B0.4975 
N618 X-151.995 Y-58.796 Z-9.372 A161.1067 B0.4706 
N619 X-151.995 Y-58.820 Z-10.684 A164.8759 B0.4409 
N620 X-151.995 Y-58.685 Z-12.041 A168.7227 B0.4101 
N621 X-151.995 Y-58.352 Z-13.362 A172.4435 B0.3801 
N622 X-151.996 Y-57.800 Z-14.546 A175.7727 B0.3534 
N623 X-151.996 Y-57.020 Z-15.483 A178.4252 B0.3326 
N624 X-151.996 Y-56.018 Z-16.099 A180.1879 B0.3191 
N625 X-151.996 Y-54.792 Z-16.383 A181.0193 B0.3129 
N626 X-151.996 Y-53.324 Z-16.442 A181.2075 B0.3117 
N627 X-151.996 Y-51.587 Z-16.438 A181.2155 B0.3123 
N628 X-151.996 Y-49.560 Z-16.430 A181.2157 B0.3133 
N629 X-151.996 Y-47.227 Z-16.422 B0.3144 
N630 X-151.996 Y-44.582 Z-16.412 B0.3156 
N631 X-151.996 Y-41.632 Z-16.401 B0.3170 
N632 X-151.996 Y-38.393 Z-16.388 B0.3185 
N633 X-151.996 Y-34.895 Z-16.375 B0.3201 
N634 X-151.996 Y-31.178 Z-16.361 B0.3219 
N635 X-151.996 Y-27.296 Z-16.347 B0.3237 
N636 X-151.996 Y-23.307 Z-16.332 B0.3256 
N637 X-151.996 Y-19.277 Z-16.316 B0.3274 
N638 X-151.996 Y-15.273 Z-16.301 B0.3293 
N639 X-151.996 Y-11.360 Z-16.287 B0.3311 
N640 X-151.996 Y-7.600 Z-16.273 B0.3329 
N641 X-151.996 Y-4.045 Z-16.259 B0.3346 
N642 X-151.996 Y-0.739 Z-16.247 A181.2160 B0.3361 
N643 X-151.996 Y2.289 Z-16.252 A181.2674 B0.3374 
N644 X-151.996 Y5.020 Z-16.333 A181.5665 B0.3384 
N645 X-151.996 Y7.449 Z-16.507 A182.1958 B0.3398 
N646 X-151.996 Y9.579 Z-16.702 A182.9557 B0.3423 
N647 X-151.996 Y11.416 Z-16.788 A183.4279 B0.3434 
N648 X-151.996 Y12.977 Z-16.787 A183.6308 B0.3386 
N649 X-151.996 Y14.299 Z-16.872 A184.0790 B0.3276 
N650 X-151.996 Y15.429 Z-17.248 A185.4191 B0.3111 
N651 X-151.996 Y16.425 Z-17.962 A187.8397 B0.2909 
N652 X-151.996 Y17.341 Z-18.911 A191.0549 B0.2687 
N653 X-151.996 Y18.214 Z-19.969 A194.6953 B0.2455 
N654 X-151.996 Y19.057 Z-21.025 A198.4260 B0.2222 
N655 X-151.996 Y19.870 Z-22.012 A202.0255 B0.1994 
N656 X-151.997 Y20.649 Z-22.904 A205.3946 B0.1777 
N657 X-151.997 Y21.392 Z-23.698 A208.5126 B0.1570 
N658 X-151.997 Y22.103 Z-24.403 A211.3945 B0.1374 
N659 X-151.997 Y22.785 Z-25.032 A214.0745 B0.1187 
N660 X-151.997 Y23.449 Z-25.597 A216.5971 B0.1006 
N661 X-151.997 Y24.101 Z-26.112 A219.0077 B0.0829 
N662 X-151.997 Y24.751 Z-26.587 A221.3434 B0.0654 
N663 X-151.997 Y25.406 Z-27.027 A223.6340 B0.0480 
N664 X-151.997 Y26.072 Z-27.438 A225.9043 B0.0307 
N665 X-151.998 Y26.755 Z-27.821 A228.1770 B0.0135 
N666 X-151.998 Y27.463 Z-28.178 A230.4752 B-0.0035 
N667 X-151.998 Y28.204 Z-28.510 A232.8261 B-0.0203 
N668 X-151.998 Y28.988 Z-28.818 A235.2608 B-0.0368 
N669 X-151.998 Y29.828 Z-29.098 A237.8128 B-0.0531 
N670 X-151.998 Y30.734 Z-29.344 A240.5133 B-0.0689 
N671 X-151.998 Y31.716 Z-29.546 A243.3820 B-0.0843 
N672 X-151.998 Y32.773 Z-29.687 A246.4150 B-0.0989 
N673 X-151.998 Y33.894 Z-29.743 A249.5774 B-0.1123 
N674 X-151.998 Y35.057 Z-29.690 A252.8061 B-0.1241 
N675 X-151.998 Y36.222 Z-29.506 A256.0001 B-0.1338 
N676 X-151.998 Y37.329 Z-29.169 A258.9955 B-0.1408 
N677 X-151.998 Y38.296 Z-28.671 A261.5678 B-0.1447 
N678 X-151.998 Y39.053 Z-28.015 A263.5288 B-0.1453 
N679 X-151.998 Y39.578 Z-27.215 A264.8110 B-0.1429 
N680 X-151.998 Y39.894 Z-26.287 A265.4719 B-0.1381 
N681 X-151.998 Y40.067 Z-25.243 A265.6952 B-0.1314 
N682 X-151.998 Y40.185 Z-24.098 A265.7304 B-0.1235 
N683 X-151.998 Y40.299 Z-22.864 A265.7310 B-0.1149 
N684 X-151.998 Y40.419 Z-21.557 B-0.1058 
N685 X-151.998 Y40.545 Z-20.193 B-0.0963 
N686 X-151.998 Y40.674 Z-18.795 B-0.0865 
N687 X-151.998 Y40.804 Z-17.383 B-0.0759 
N688 X-151.998 Y40.933 Z-15.983 B-0.0629 
N689 X-151.998 Y41.059 Z-14.617 B-0.0467 
N690 X-151.998 Y41.180 Z-13.306 B-0.0296 
N691 X-151.998 Y41.294 Z-12.070 B-0.0154 
N692 X-151.998 Y41.400 Z-10.921 A265.7311 B-0.0064 
N693 X-151.998 Y41.506 Z-9.872 A265.7570 B-0.0021 
N694 X-151.998 Y41.653 Z-8.932 A265.9440 B-0.0006 
N695 X-151.998 Y41.914 Z-8.106 A266.5137 B-0.0001 
N696 X-151.998 Y42.351 Z-7.390 A267.6731 B-0.0000 
N697 X-151.998 Y43.015 Z-6.767 A269.5821 B-0.0000 
N698 X-151.998 Y43.901 Z-6.206 A272.2347 
N699 X-151.998 Y44.937 Z-5.670 A275.4172 
N700 X-151.998 Y46.017 Z-5.138 A278.8075 
N701 X-151.998 Y47.069 Z-4.604 A282.1833 
N702 X-151.998 Y48.063 Z-4.069 A285.4470 
N703 X-151.998 Y48.992 Z-3.533 A288.5689 
N704 X-151.998 Y49.854 Z-2.998 A291.5366 
N705 X-151.998 Y50.646 Z-2.467 A294.3348 
N706 X-151.998 Y51.367 Z-1.943 A296.9581 
N707 X-151.998 Y52.024 Z-1.427 A299.4187 
N708 X-151.998 Y52.627 Z-0.917 A301.7472 
N709 X-151.998 Y53.188 Z-0.407 A303.9812 
N710 X-151.998 Y53.715 Z0.106 A306.1540 
N711 X-151.998 Y54.217 Z0.628 A308.2936 
N712 X-151.998 Y54.698 Z1.164 A310.4230 
N713 X-151.998 Y55.162 Z1.718 A312.5611 
N714 X-151.998 Y55.612 Z2.294 A314.7241 
N715 X-151.998 Y56.048 Z2.898 A316.9271 
N716 X-151.998 Y56.470 Z3.533 A319.1860 
N717 X-151.998 Y56.880 Z4.207 A321.5206 
N718 X-151.998 Y57.277 Z4.928 A323.9576 
N719 X-151.998 Y57.661 Z5.710 A326.5329 
N720 X-151.998 Y58.028 Z6.569 A329.2930 
N721 X-151.998 Y58.373 Z7.524 A332.2908 
N722 X-151.998 Y58.682 Z8.593 A335.5687 
N723 X-151.998 Y58.929 Z9.783 A339.1353 
N724 X-151.998 Y59.079 Z11.077 A342.9390 
N725 X-151.998 Y59.087 Z12.429 A346.8425 
N726 X-151.998 Y58.917 Z13.763 A350.6476 
N727 X-151.998 Y58.545 Z14.993 A354.1332 
N728 X-151.998 Y57.961 Z16.019 A357.0355 
N729 X-151.998 Y57.167 Z16.751 A359.1109 
N730 X-151.998 Y56.167 Z17.175 A0.3207 
N731 X-151.998 Y54.948 Z17.364 A0.8646 
N732 X-151.998 Y53.489 Z17.420 A1.0283 
N733 X-151.998 Y51.764 Z17.428 A1.0586 
N734 X-151.998 Y49.754 Z17.427 A1.0607 
N735 X-151.998 Y47.446 Z17.424 
N736 X-151.998 Y44.836 Z17.422 
N737 X-151.998 Y41.932 Z17.419 
N738 X-151.998 Y38.753 Z17.415 
N739 X-151.998 Y35.328 Z17.412 
N740 X-151.998 Y31.699 Z17.408 
N741 X-151.998 Y27.914 Z17.404 
N742 X-151.998 Y24.032 Z17.400 
N743 X-151.998 Y20.114 Z17.395 
N744 X-151.998 Y16.221 Z17.391 
N745 X-151.998 Y12.415 Z17.387 
N746 X-151.998 Y8.751 Z17.383 
N747 X-151.998 Y5.278 Z17.380 
N748 X-151.998 Y2.033 Z17.383 A1.0805 
N749 X-151.998 Y-0.957 Z17.505 A1.4831 
N750 X-151.998 Y-3.680 Z17.787 A2.4597 
N751 X-151.998 Y-6.133 Z18.143 A3.7959 
N752 X-151.998 Y-8.324 Z18.554 A5.4381 B-0.0000 
N753 X-151.998 Y-10.248 Z18.857 A6.8621 B-0.0017 
N754 X-151.998 Y-11.900 Z18.940 A7.6534 B-0.0101 
N755 X-151.998 Y-13.312 Z18.949 A8.1895 B-0.0263 
N756 X-151.998 Y-14.534 Z19.075 A9.0476 B-0.0457 
N757 X-151.998 Y-15.623 Z19.453 A10.6666 B-0.0624 
N758 X-151.998 Y-16.627 Z20.088 A13.1015 B-0.0737 
N759 X-151.998 Y-17.579 Z20.887 A16.0972 B-0.0796 
N760 X-151.998 Y-18.494 Z21.747 A19.3584 B-0.0817 
N761 X-151.998 Y-19.376 Z22.592 A22.6430 B-0.0813 
N762 X-151.998 Y-20.220 Z23.376 A25.8027 B-0.0791 
N763 X-151.998 Y-21.026 Z24.084 A28.7775 B-0.0754 
N764 X-151.998 Y-21.796 Z24.718 A31.5625 B-0.0706 
N765 X-151.998 Y-22.535 Z25.283 A34.1740 B-0.0648 
N766 X-151.998 Y-23.248 Z25.790 A36.6373 B-0.0581 
N767 X-151.998 Y-23.943 Z26.247 A38.9831 B-0.0506 
N768 X-151.998 Y-24.628 Z26.661 A41.2436 B-0.0423 
N769 X-151.998 Y-25.309 Z27.040 A43.4476 B-0.0330 
N770 X-151.998 Y-25.994 Z27.389 A45.6201 B-0.0229 
N771 X-151.998 Y-26.688 Z27.710 A47.7828 B-0.0120 
N772 X-151.998 Y-27.398 Z28.004 A49.9555 B-0.0002 
N773 X-151.998 Y-28.131 Z28.274 A52.1588 B0.0122 
N774 X-151.997 Y-28.893 Z28.517 A54.4152 B0.0254 
N775 X-151.997 Y-29.694 Z28.734 A56.7488 B0.0394 
N776 X-151.997 Y-30.541 Z28.919 A59.1839 B0.0543 
N777 X-151.997 Y-31.444 Z29.067 A61.7405 B0.0703 
N778 X-151.997 Y-32.405 Z29.167 A64.4282 B0.0873 
N779 X-151.997 Y-33.424 Z29.205 A67.2428 B0.1056 
N780 X-151.997 Y-34.493 Z29.163 A70.1645 B0.1250 
N781 X-151.997 Y-35.595 Z29.023 A73.1432 B0.1455 
N782 X-151.997 Y-36.690 Z28.765 A76.0785 B0.1666 
N783 X-151.997 Y-37.723 Z28.374 A78.8179 B0.1876 
N784 X-151.996 Y-38.630 Z27.843 A81.1861 B0.2079 
N785 X-151.996 Y-39.351 Z27.178 A83.0184 B0.2266 
N786 X-151.996 Y-39.851 Z26.390 A84.2052 B0.2428 
N787 X-151.996 Y-40.152 Z25.497 A84.8002 B0.2562 
N788 X-151.996 Y-40.331 Z24.514 A85.0221 B0.2678 
N789 X-151.996 Y-40.467 Z23.456 A85.1010 B0.2787 
N790 X-151.996 Y-40.608 Z22.339 A85.1772 B0.2897 
N791 X-151.996 Y-40.770 Z21.177 A85.3133 B0.3008 
N792 X-151.996 Y-40.950 Z19.985 A85.5011 B0.3110 
N793 X-151.996 Y-41.135 Z18.778 A85.7117 B0.3198 
N794 X-151.996 Y-41.340 Z17.578 A86.0005 B0.3277 
N795 X-151.996 Y-41.611 Z16.403 A86.5199 B0.3362 
N796 X-151.996 Y-41.999 Z15.273 A87.4403 B0.3477 
N797 X-151.996 Y-42.447 Z14.193 A88.6144 B0.3626 
N798 X-151.995 Y-42.800 Z13.173 A89.5711 B0.3784 
N799 X-151.995 Y-42.997 Z12.225 A90.1066 B0.3930 
N800 X-151.995 Y-43.095 Z11.360 A90.3658 B0.4064 
N801 X-151.995 Y-43.179 Z10.582 A90.5974 B0.4190 
N802 X-151.995 Y-43.338 Z9.890 A91.0653 B0.4314 
N803 X-151.995 Y-43.644 Z9.274 A91.9984 B0.4446 
N804 X-151.995 Y-44.155 Z8.721 A93.5793 B0.4606 
N805 X-151.995 Y-44.893 Z8.201 A95.8899 B0.4815 
N806 X-151.995 Y-45.828 Z7.685 A98.8457 B0.5077 
N807 X-151.995 Y-46.873 Z7.148 A102.2050 B0.5375 
N808 X-151.994 Y-47.932 Z6.587 A105.6756 B0.5684 
N809 X-151.994 Y-48.935 Z6.010 A109.0496 B0.5985 
N810 X-151.994 Y-49.849 Z5.433 A112.2144 B0.6267 
N811 X-151.994 Y-50.668 Z4.863 A115.1403 B0.6524 
N812 X-151.994 Y-51.401 Z4.305 A117.8462 B0.6757 
N813 X-151.994 Y-52.063 Z3.757 A120.3709 B0.6968 
N814 X-151.993 Y-52.668 Z3.214 A122.7613 B0.7158 
N815 X-151.993 Y-53.230 Z2.671 A125.0648 B0.7329 
N816 X-151.993 Y-53.762 Z2.119 A127.3216 B0.7480 
N817 X-151.993 Y-54.267 Z1.555 A129.5510 B0.7608 
N818 X-151.993 Y-54.743 Z0.981 A131.7509 B0.7710 
N819 X-151.993 Y-55.188 Z0.398 A133.9117 B0.7783 
N820 X-151.993 Y-55.600 Z-0.191 A136.0288 B0.7825 
N821 X-151.993 Y-55.981 Z-0.788 A138.1111 B0.7838 
N822 X-151.993 Y-56.336 Z-1.398 A140.1844 B0.7820 
N823 X-151.993 Y-56.670 Z-2.032 A142.2874 B0.7772 
N824 X-151.993 Y-56.989 Z-2.703 A144.4672 B0.7695 
N825 X-151.993 Y-57.298 Z-3.429 A146.7782 B0.7587 
N826 X-151.993 Y-57.596 Z-4.231 A149.2815 B0.7445 
N827 X-151.993 Y-57.880 Z-5.129 A152.0386 B0.7265 
N828 X-151.994 Y-58.138 Z-6.145 A155.0981 B0.7041 
N829 X-151.994 Y-58.344 Z-7.288 A158.4809 B0.6770 
N830 X-151.994 Y-58.465 Z-8.553 A162.1583 B0.6453 
N831 X-151.994 Y-58.455 Z-9.902 A166.0254 B0.6100 
N832 X-151.994 Y-58.270 Z-11.268 A169.8933 B0.5730 
N833 X-151.995 Y-57.878 Z-12.555 A173.5160 B0.5375 
N834 X-151.995 Y-57.264 Z-13.656 A176.6164 B0.5066 
N835 X-151.995 Y-56.429 Z-14.475 A178.9334 B0.4834 
N836 X-151.995 Y-55.377 Z-14.974 A180.3588 B0.4691 
N837 X-151.995 Y-54.101 Z-15.198 A181.0138 B0.4627 
N838 X-151.995 Y-52.582 Z-15.256 A181.1982 B0.4613 
N839 X-151.995 Y-50.794 Z-15.259 A181.2273 B0.4619 
N840 X-151.995 Y-48.719 Z-15.251 A181.2289 B0.4629 
N841 X-151.995 Y-46.346 Z-15.241 B0.4641 
N842 X-151.995 Y-43.672 Z-15.231 B0.4654 
N843 X-151.995 Y-40.708 Z-15.219 B0.4669 
N844 X-151.995 Y-37.475 Z-15.206 B0.4685 
N845 X-151.995 Y-34.006 Z-15.192 B0.4702 
N846 X-151.995 Y-30.344 Z-15.178 B0.4720 
N847 X-151.995 Y-26.544 Z-15.162 B0.4739 
N848 X-151.995 Y-22.664 Z-15.147 B0.4758 
N849 X-151.995 Y-18.769 Z-15.131 B0.4778 
N850 X-151.995 Y-14.922 Z-15.116 B0.4797 
N851 X-151.995 Y-11.187 Z-15.101 B0.4815 
N852 X-151.995 Y-7.617 Z-15.087 B0.4833 
N853 X-151.995 Y-4.260 Z-15.073 B0.4850 
N854 X-151.995 Y-1.154 Z-15.061 A181.2292 B0.4865 
N855 X-151.995 Y1.678 Z-15.071 A181.2956 B0.4876 
N856 X-151.995 Y4.223 Z-15.196 A181.7337 B0.4872 
N857 X-151.995 Y6.485 Z-15.487 A182.7444 B0.4857 
N858 X-151.995 Y8.470 Z-15.804 A183.9388 B0.4853 
N859 X-151.995 Y10.180 Z-15.972 A184.7438 B0.4849 
N860 X-151.995 Y11.632 Z-16.029 A185.2180 B0.4773 
N861 X-151.995 Y12.869 Z-16.184 A185.9736 B0.4601 
N862 X-151.995 Y13.947 Z-16.622 A187.5998 B0.4342 
N863 X-151.995 Y14.925 Z-17.379 A190.2493 B0.4018 
N864 X-151.996 Y15.849 Z-18.339 A193.5976 B0.3661 
N865 X-151.996 Y16.742 Z-19.368 A197.2525 B0.3294 
N866 X-151.996 Y17.608 Z-20.367 A200.9080 B0.2935 
N867 X-151.996 Y18.440 Z-21.280 A204.3734 B0.2596 
N868 X-151.996 Y19.232 Z-22.089 A207.5771 B0.2280 
N869 X-151.996 Y19.985 Z-22.802 A210.5245 B0.1987 
N870 X-151.997 Y20.705 Z-23.430 A213.2515 B0.1714 
N871 X-151.997 Y21.399 Z-23.990 A215.8008 B0.1456 
N872 X-151.997 Y22.078 Z-24.493 A218.2189 B0.1209 
N873 X-151.997 Y22.750 Z-24.953 A220.5519 B0.0969 
N874 X-151.997 Y23.426 Z-25.377 A222.8393 B0.0732 
N875 X-151.997 Y24.114 Z-25.772 A225.1119 B0.0497 
N876 X-151.997 Y24.822 Z-26.139 A227.3952 B0.0262 
N877 X-151.998 Y25.557 Z-26.479 A229.7127 B0.0029 
N878 X-151.998 Y26.329 Z-26.793 A232.0899 B-0.0203 
N879 X-151.998 Y27.148 Z-27.078 A234.5578 B-0.0433 
N880 X-151.998 Y28.026 Z-27.332 A237.1499 B-0.0658 
N881 X-151.998 Y28.975 Z-27.546 A239.8953 B-0.0880 
N882 X-151.998 Y29.999 Z-27.707 A242.8042 B-0.1094 
N883 X-151.998 Y31.093 Z-27.795 A245.8552 B-0.1297 
N884 X-151.998 Y32.239 Z-27.785 A248.9960 B-0.1482 
N885 X-151.999 Y33.408 Z-27.654 A252.1449 B-0.1642 
N886 X-151.999 Y34.547 Z-27.379 A255.1636 B-0.1767 
N887 X-151.999 Y35.584 Z-26.942 A257.8486 B-0.1849 
N888 X-151.999 Y36.442 Z-26.343 A259.9918 B-0.1882 
N889 X-151.999 Y37.070 Z-25.589 A261.4461 B-0.1865 
N890 X-151.999 Y37.464 Z-24.698 A262.1889 B-0.1803 
N891 X-151.999 Y37.695 Z-23.691 A262.4193 B-0.1706 
N892 X-151.999 Y37.871 Z-22.590 A262.4485 B-0.1592 
N893 X-151.998 Y38.048 Z-21.414 A262.4487 B-0.1469 
N894 X-151.998 Y38.233 Z-20.178 B-0.1339 
N895 X-151.998 Y38.426 Z-18.899 B-0.1205 
N896 X-151.998 Y38.622 Z-17.596 B-0.1068 
N897 X-151.998 Y38.818 Z-16.291 A262.4488 B-0.0931 
N898 X-151.998 Y39.012 Z-15.006 A262.4501 B-0.0794 
N899 X-151.998 Y39.201 Z-13.760 A262.4557 B-0.0649 
N900 X-151.998 Y39.382 Z-12.573 A262.4651 B-0.0484 
N901 X-151.998 Y39.552 Z-11.459 A262.4724 B-0.0312 
N902 X-151.998 Y39.707 Z-10.431 A262.4757 B-0.0170 
N903 X-151.998 Y39.863 Z-9.499 A262.5247 B-0.0076 
N904 X-151.998 Y40.083 Z-8.674 A262.8191 B-0.0027 
N905 X-151.998 Y40.453 Z-7.966 A263.6280 B-0.0007 
N906 X-151.998 Y41.022 Z-7.366 A265.1128 B-0.0001 
N907 X-151.998 Y41.806 Z-6.854 A267.3274 B-0.0000 
N908 X-151.998 Y42.782 Z-6.394 A270.1945 B-0.0000 
N909 X-151.998 Y43.877 Z-5.950 A273.4973 
N910 X-151.998 Y44.994 Z-5.500 A276.9385 
N911 X-151.998 Y46.063 Z-5.042 A280.2998 
N912 X-151.998 Y47.058 Z-4.578 A283.4927 
N913 X-151.998 Y47.977 Z-4.111 A286.5053 
N914 X-151.998 Y48.828 Z-3.642 A289.3584 
N915 X-151.998 Y49.618 Z-3.170 A292.0662 
N916 X-151.998 Y50.348 Z-2.697 A294.6316 
N917 X-151.998 Y51.021 Z-2.226 A297.0577 
N918 X-151.998 Y51.641 Z-1.756 A299.3556 
N919 X-151.998 Y52.216 Z-1.287 A301.5483 
N920 X-151.998 Y52.755 Z-0.815 A303.6661 
N921 X-151.998 Y53.266 Z-0.336 A305.7383 
N922 X-151.998 Y53.755 Z0.154 A307.7908 
N923 X-151.998 Y54.229 Z0.661 A309.8460 
N924 X-151.998 Y54.690 Z1.189 A311.9221 
N925 X-151.998 Y55.141 Z1.741 A314.0347 
N926 X-151.998 Y55.582 Z2.322 A316.1974 
N927 X-151.998 Y56.013 Z2.936 A318.4244 
N928 X-151.998 Y56.436 Z3.591 A320.7347 
N929 X-151.998 Y56.848 Z4.295 A323.1544 
N930 X-151.998 Y57.251 Z5.061 A325.7194 
N931 X-151.998 Y57.643 Z5.905 A328.4778 
N932 X-151.998 Y58.018 Z6.850 A331.4880 
N933 X-151.998 Y58.365 Z7.917 A334.8033 
N934 X-151.998 Y58.658 Z9.115 A338.4410 
N935 X-151.998 Y58.860 Z10.431 A342.3507 
N936 X-151.998 Y58.926 Z11.815 A346.3852 
N937 X-151.998 Y58.813 Z13.181 A350.3103 
N938 X-151.998 Y58.499 Z14.434 A353.8829 
N939 X-151.998 Y57.978 Z15.478 A356.8500 
N940 X-151.998 Y57.256 Z16.215 A358.9433 
N941 X-151.998 Y56.337 Z16.623 A0.1004 
N942 X-151.998 Y55.212 Z16.813 A0.6349 
N943 X-151.998 Y53.858 Z16.903 A0.8896 
N944 X-151.998 Y52.251 Z16.943 A1.0073 
N945 X-151.998 Y50.371 Z16.957 A1.0510 
N946 X-151.998 Y48.205 Z16.957 A1.0595 
N947 X-151.998 Y45.748 Z16.955 A1.0597 
N948 X-151.998 Y43.004 Z16.952 
N949 X-151.998 Y39.991 Z16.949 
N950 X-151.998 Y36.734 Z16.945 
N951 X-151.998 Y33.272 Z16.942 
N952 X-151.998 Y29.652 Z16.938 
N953 X-151.998 Y25.926 Z16.934 
N954 X-151.998 Y22.155 Z16.930 
N955 X-151.998 Y18.397 Z16.926 
N956 X-151.998 Y14.710 Z16.922 
N957 X-151.998 Y11.147 Z16.919 
N958 X-151.998 Y7.756 Z16.915 
N959 X-151.998 Y4.574 Z16.912 
N960 X-151.998 Y1.628 Z16.928 A1.1197 
N961 X-151.998 Y-1.069 Z17.136 A1.7961 
N962 X-151.998 Y-3.519 Z17.552 A3.2284 
N963 X-151.998 Y-5.732 Z18.094 A5.2174 B-0.0000 
N964 X-151.998 Y-7.726 Z18.692 A7.5632 B-0.0010 
N965 X-151.998 Y-9.489 Z19.140 A9.5960 B-0.0063 
N966 X-151.998 Y-11.006 Z19.332 A10.8974 B-0.0211 
N967 X-151.998 Y-12.308 Z19.414 A11.8415 B-0.0436 
N968 X-151.998 Y-13.454 Z19.566 A12.9677 B-0.0649 
N969 X-151.998 Y-14.499 Z19.899 A14.6326 B-0.0796 
N970 X-151.998 Y-15.486 Z20.430 A16.9239 B-0.0882 
N971 X-151.998 Y-16.440 Z21.095 A19.6761 B-0.0927 
N972 X-151.998 Y-17.368 Z21.813 A22.6585 B-0.0940 
N973 X-151.998 Y-18.271 Z22.524 A25.6821 B-0.0927 
N974 X-151.998 Y-19.143 Z23.187 A28.6203 B-0.0893 
N975 X-151.998 Y-19.982 Z23.786 A31.4120 B-0.0843 
N976 X-151.998 Y-20.788 Z24.319 A34.0437 B-0.0779 
N977 X-151.998 Y-21.565 Z24.790 A36.5255 B-0.0704 
N978 X-151.998 Y-22.318 Z25.207 A38.8757 B-0.0619 
N979 X-151.998 Y-23.052 Z25.574 A41.1185 B-0.0524 
N980 X-151.998 Y-23.775 Z25.900 A43.2833 B-0.0417 
N981 X-151.998 Y-24.495 Z26.191 A45.3989 B-0.0300 
N982 X-151.998 Y-25.219 Z26.450 A47.4924 B-0.0170 
N983 X-151.998 Y-25.954 Z26.682 A49.5891 B-0.0029 
N984 X-151.998 Y-26.709 Z26.887 A51.7143 B0.0124 
N985 X-151.997 Y-27.493 Z27.067 A53.8951 B0.0290 
N986 X-151.997 Y-28.315 Z27.219 A56.1600 B0.0469 
N987 X-151.997 Y-29.186 Z27.342 A58.5363 B0.0664 
N988 X-151.997 Y-30.111 Z27.426 A61.0426 B0.0877 
N989 X-151.997 Y-31.094 Z27.463 A63.6830 B0.1109 
N990 X-151.997 Y-32.131 Z27.436 A66.4450 B0.1362 
N991 X-151.997 Y-33.208 Z27.328 A69.2901 B0.1633 
N992 X-151.997 Y-34.295 Z27.119 A72.1325 B0.1917 
N993 X-151.996 Y-35.343 Z26.793 A74.8367 B0.2204 
N994 X-151.996 Y-36.293 Z26.337 A77.2399 B0.2483 
N995 X-151.996 Y-37.090 Z25.754 A79.1839 B0.2740 
N996 X-151.996 Y-37.693 Z25.052 A80.5547 B0.2963 
N997 X-151.996 Y-38.110 Z24.247 A81.3700 B0.3147 
N998 X-151.996 Y-38.395 Z23.361 A81.7773 B0.3299 
N999 X-151.996 Y-38.608 Z22.410 A81.9582 B0.3432 
N1000 X-151.996 Y-38.805 Z21.414 A82.0725 B0.3560 
N1001 X-151.995 Y-39.019 Z20.388 A82.2327 B0.3686 
N1002 X-151.995 Y-39.252 Z19.344 A82.4552 B0.3804 
N1003 X-151.995 Y-39.498 Z18.298 A82.7253 B0.3907 
N1004 X-151.995 Y-39.785 Z17.265 A83.1412 B0.4007 
N1005 X-151.995 Y-40.173 Z16.267 A83.9024 B0.4131 
N1006 X-151.995 Y-40.715 Z15.317 A85.1948 B0.4308 
N1007 X-151.995 Y-41.363 Z14.413 A86.8977 B0.4543 
N1008 X-151.995 Y-41.927 Z13.547 A88.4372 B0.4787 
N1009 X-151.995 Y-42.276 Z12.733 A89.3951 B0.5001 
N1010 X-151.995 Y-42.447 Z11.985 A89.8557 B0.5182 
N1011 X-151.995 Y-42.549 Z11.309 A90.1268 B0.5345 
N1012 X-151.994 Y-42.692 Z10.706 A90.5320 B0.5507 
N1013 X-151.994 Y-42.962 Z10.170 A91.3384 B0.5682 
N1014 X-151.994 Y-43.402 Z9.690 A92.6836 B0.5879 
N1015 X-151.994 Y-44.026 Z9.245 A94.6130 B0.6107 
N1016 X-151.994 Y-44.822 Z8.812 A97.1009 B0.6373 
N1017 X-151.994 Y-45.754 Z8.367 A100.0477 B0.6674 
N1018 X-151.994 Y-46.763 Z7.893 A103.2840 B0.6995 
N1019 X-151.993 Y-47.778 Z7.388 A106.6038 B0.7315 
N1020 X-151.993 Y-48.748 Z6.861 A109.8514 B0.7619 
N1021 X-151.993 Y-49.645 Z6.322 A112.9360 B0.7898 
N1022 X-151.993 Y-50.459 Z5.782 A115.8211 B0.8148 
N1023 X-151.993 Y-51.194 Z5.244 A118.5120 B0.8373 
N1024 X-151.993 Y-51.861 Z4.710 A121.0360 B0.8574 
N1025 X-151.993 Y-52.471 Z4.179 A123.4258 B0.8755 
N1026 X-151.992 Y-53.033 Z3.647 A125.7142 B0.8919 
N1027 X-151.992 Y-53.557 Z3.110 A127.9322 B0.9067 
N1028 X-151.992 Y-54.051 Z2.563 A130.1087 B0.9199 
N1029 X-151.992 Y-54.520 Z2.002 A132.2691 B0.9315 
N1030 X-151.992 Y-54.966 Z1.423 A134.4277 B0.9412 
N1031 X-151.992 Y-55.388 Z0.827 A136.5844 B0.9486 
N1032 X-151.992 Y-55.784 Z0.216 A138.7317 B0.9535 
N1033 X-151.992 Y-56.149 Z-0.409 A140.8657 B0.9555 
N1034 X-151.992 Y-56.485 Z-1.051 A142.9950 B0.9544 
N1035 X-151.992 Y-56.795 Z-1.716 A145.1491 B0.9500 
N1036 X-151.992 Y-57.083 Z-2.421 A147.3795 B0.9419 
N1037 X-151.992 Y-57.354 Z-3.187 A149.7546 B0.9298 
N1038 X-151.992 Y-57.608 Z-4.041 A152.3553 B0.9129 
N1039 X-151.992 Y-57.840 Z-5.013 A155.2647 B0.8907 
N1040 X-151.993 Y-58.030 Z-6.123 A158.5390 B0.8623 
N1041 X-151.993 Y-58.144 Z-7.373 A162.1694 B0.8274 
N1042 X-151.993 Y-58.134 Z-8.728 A166.0501 B0.7872 
N1043 X-151.993 Y-57.950 Z-10.108 A169.9619 B0.7440 
N1044 X-151.994 Y-57.557 Z-11.403 A173.6109 B0.7019 
N1045 X-151.994 Y-56.941 Z-12.499 A176.6973 B0.6652 
N1046 X-151.994 Y-56.106 Z-13.297 A178.9536 B0.6378 
N1047 X-151.994 Y-55.057 Z-13.768 A180.2951 B0.6212 
N1048 X-151.994 Y-53.789 Z-13.987 A180.9324 B0.6133 
N1049 X-151.994 Y-52.281 Z-14.063 A181.1664 B0.6108 
N1050 X-151.994 Y-50.511 Z-14.078 A181.2299 B0.6108 
N1051 X-151.994 Y-48.462 Z-14.073 A181.2413 B0.6117 
N1052 X-151.994 Y-46.123 Z-14.064 A181.2422 B0.6129 
N1053 X-151.994 Y-43.495 Z-14.053 B0.6143 
N1054 X-151.994 Y-40.588 Z-14.040 B0.6159 
N1055 X-151.994 Y-37.426 Z-14.027 B0.6176 
N1056 X-151.994 Y-34.041 Z-14.013 B0.6194 
N1057 X-151.994 Y-30.478 Z-13.998 B0.6213 
N1058 X-151.994 Y-26.789 Z-13.982 B0.6233 
N1059 X-151.994 Y-23.032 Z-13.966 B0.6253 
N1060 X-151.994 Y-19.269 Z-13.950 B0.6273 
N1061 X-151.994 Y-15.562 Z-13.935 B0.6293 
N1062 X-151.994 Y-11.970 Z-13.920 B0.6312 
N1063 X-151.994 Y-8.543 Z-13.905 B0.6331 
N1064 X-151.994 Y-5.327 Z-13.891 B0.6348 
N1065 X-151.994 Y-2.355 Z-13.879 A181.2422 B0.6364 
N1066 X-151.994 Y0.352 Z-13.878 A181.2738 B0.6376 
N1067 X-151.994 Y2.783 Z-13.984 A181.6437 B0.6364 
N1068 X-151.994 Y4.947 Z-14.323 A182.7889 B0.6308 
N1069 X-151.994 Y6.858 Z-14.789 A184.4461 B0.6239 
N1070 X-151.994 Y8.518 Z-15.144 A185.8687 B0.6190 
N1071 X-151.994 Y9.934 Z-15.333 A186.8298 B0.6095 
N1072 X-151.994 Y11.145 Z-15.538 A187.8393 B0.5882 
N1073 X-151.994 Y12.208 Z-15.943 A189.4651 B0.5554 
N1074 X-151.995 Y13.183 Z-16.626 A191.9717 B0.5130 
N1075 X-151.995 Y14.116 Z-17.516 A195.1854 B0.4650 
N1076 X-151.995 Y15.028 Z-18.487 A198.7352 B0.4154 
N1077 X-151.995 Y15.919 Z-19.441 A202.3246 B0.3666 
N1078 X-151.996 Y16.782 Z-20.317 A205.7570 B0.3206 
N1079 X-151.996 Y17.608 Z-21.092 A208.9390 B0.2781 
N1080 X-151.996 Y18.395 Z-21.766 A211.8599 B0.2391 
N1081 X-151.996 Y19.148 Z-22.354 A214.5551 B0.2031 
N1082 X-151.997 Y19.875 Z-22.870 A217.0705 B0.1696 
N1083 X-151.997 Y20.586 Z-23.326 A219.4525 B0.1379 
N1084 X-151.997 Y21.291 Z-23.736 A221.7487 B0.1073 
N1085 X-151.997 Y22.003 Z-24.108 A224.0056 B0.0775 
N1086 X-151.997 Y22.733 Z-24.448 A226.2618 B0.0478 
N1087 X-151.998 Y23.490 Z-24.759 A228.5496 B0.0183 
N1088 X-151.998 Y24.285 Z-25.041 A230.8978 B-0.0111 
N1089 X-151.998 Y25.128 Z-25.291 A233.3393 B-0.0403 
N1090 X-151.998 Y26.034 Z-25.506 A235.9109 B-0.0691 
N1091 X-151.998 Y27.014 Z-25.679 A238.6434 B-0.0973 
N1092 X-151.998 Y28.071 Z-25.793 A241.5399 B-0.1248 
N1093 X-151.999 Y29.194 Z-25.826 A244.5633 B-0.1505 
N1094 X-151.999 Y30.361 Z-25.753 A247.6458 B-0.1736 
N1095 X-151.999 Y31.530 Z-25.549 A250.6748 B-0.1929 
N1096 X-151.999 Y32.636 Z-25.189 A253.4649 B-0.2070 
N1097 X-151.999 Y33.596 Z-24.663 A255.7863 B-0.2146 
N1098 X-151.999 Y34.337 Z-23.970 A257.4277 B-0.2148 
N1099 X-151.999 Y34.830 Z-23.126 A258.2936 B-0.2080 
N1100 X-151.999 Y35.141 Z-22.161 A258.5773 B-0.1964 
N1101 X-151.999 Y35.390 Z-21.107 A258.6272 B-0.1826 
N1102 X-151.999 Y35.637 Z-19.990 A258.6338 B-0.1679 
N1103 X-151.999 Y35.893 Z-18.824 A258.6344 B-0.1525 
N1104 X-151.998 Y36.155 Z-17.628 B-0.1367 
N1105 X-151.998 Y36.420 Z-16.419 B-0.1208 
N1106 X-151.998 Y36.684 Z-15.216 A258.6354 B-0.1049 
N1107 X-151.998 Y36.947 Z-14.041 A258.6497 B-0.0894 
N1108 X-151.998 Y37.211 Z-12.912 A258.7024 B-0.0745 
N1109 X-151.998 Y37.471 Z-11.844 A258.7824 B-0.0597 
N1110 X-151.998 Y37.705 Z-10.847 A258.8393 B-0.0444 
N1111 X-151.998 Y37.910 Z-9.930 A258.8599 B-0.0287 
N1112 X-151.998 Y38.112 Z-9.105 A258.9335 B-0.0153 
N1113 X-151.998 Y38.395 Z-8.390 A259.3210 B-0.0066 
N1114 X-151.998 Y38.853 Z-7.797 A260.3221 B-0.0024 
N1115 X-151.998 Y39.523 Z-7.316 A262.0525 B-0.0008 
N1116 X-151.998 Y40.394 Z-6.920 A264.4801 B-0.0003 
N1117 X-151.998 Y41.429 Z-6.568 A267.4803 B-0.0001 
N1118 X-151.998 Y42.564 Z-6.226 A270.8492 B-0.0000 
N1119 X-151.998 Y43.715 Z-5.870 A274.3284 B-0.0000 
N1120 X-151.998 Y44.810 Z-5.496 A277.7001 B-0.0000 
N1121 X-151.998 Y45.822 Z-5.109 A280.8685 
N1122 X-151.998 Y46.746 Z-4.715 A283.8206 
N1123 X-151.998 Y47.596 Z-4.315 A286.5875 
N1124 X-151.998 Y48.388 Z-3.908 A289.2135 
N1125 X-151.998 Y49.130 Z-3.493 A291.7260 
N1126 X-151.998 Y49.826 Z-3.071 A294.1354 
N1127 X-151.998 Y50.477 Z-2.643 A296.4442 
N1128 X-151.998 Y51.085 Z-2.211 A298.6542 
N1129 X-151.998 Y51.652 Z-1.776 A300.7744 
N1130 X-151.998 Y52.185 Z-1.335 A302.8244 
N1131 X-151.998 Y52.691 Z-0.887 A304.8283 
N1132 X-151.998 Y53.176 Z-0.427 A306.8107 
N1133 X-151.998 Y53.646 Z0.049 A308.7948 
N1134 X-151.998 Y54.106 Z0.544 A310.8011 
N1135 X-151.998 Y54.558 Z1.065 A312.8468 
N1136 X-151.998 Y55.003 Z1.614 A314.9461 
N1137 X-151.998 Y55.441 Z2.196 A317.1123 
N1138 X-151.998 Y55.874 Z2.818 A319.3619 
N1139 X-151.998 Y56.300 Z3.487 A321.7182 
N1140 X-151.998 Y56.720 Z4.215 A324.2144 
N1141 X-151.998 Y57.134 Z5.017 A326.8962 
N1142 X-151.998 Y57.539 Z5.916 A329.8222 
N1143 X-151.998 Y57.927 Z6.937 A333.0597 
N1144 X-151.998 Y58.279 Z8.100 A336.6571 
N1145 X-151.998 Y58.562 Z9.404 A340.5993 
N1146 X-151.998 Y58.726 Z10.814 A344.7695 
N1147 X-151.998 Y58.724 Z12.243 A348.9284 
N1148 X-151.998 Y58.522 Z13.580 A352.7726 
N1149 X-151.998 Y58.115 Z14.722 A356.0379 
N1150 X-151.998 Y57.509 Z15.570 A358.4624 
N1151 X-151.998 Y56.715 Z16.055 A359.8442 
N1152 X-151.998 Y55.731 Z16.247 A0.3755 
N1153 X-151.998 Y54.535 Z16.340 A0.6241 
N1154 X-151.998 Y53.104 Z16.421 A0.8481 
N1155 X-151.998 Y51.415 Z16.472 A0.9954 
N1156 X-151.998 Y49.452 Z16.490 A1.0527 
N1157 X-151.998 Y47.208 Z16.490 A1.0602 
N1158 X-151.998 Y44.681 Z16.488 A1.0602 
N1159 X-151.998 Y41.883 Z16.485 
N1160 X-151.998 Y38.836 Z16.482 
N1161 X-151.998 Y35.573 Z16.478 
N1162 X-151.998 Y32.135 Z16.475 
N1163 X-151.998 Y28.573 Z16.471 
N1164 X-151.998 Y24.943 Z16.467 
N1165 X-151.998 Y21.301 Z16.463 
N1166 X-151.998 Y17.706 Z16.459 
N1167 X-151.998 Y14.211 Z16.456 
N1168 X-151.998 Y10.864 Z16.452 
N1169 X-151.998 Y7.704 Z16.449 
N1170 X-151.998 Y4.761 Z16.446 
N1171 X-151.998 Y2.054 Z16.459 A1.1096 
N1172 X-151.998 Y-0.411 Z16.666 A1.7771 
N1173 X-151.998 Y-2.647 Z17.163 A3.4443 
N1174 X-151.998 Y-4.680 Z17.842 A5.8557 B-0.0000 
N1175 X-151.998 Y-6.540 Z18.633 A8.8271 B-0.0010 
N1176 X-151.998 Y-8.223 Z19.322 A11.6806 B-0.0071 
N1177 X-151.998 Y-9.698 Z19.752 A13.8470 B-0.0212 
N1178 X-151.998 Y-10.970 Z19.971 A15.3846 B-0.0410 
N1179 X-151.998 Y-12.090 Z20.144 A16.7580 B-0.0617 
N1180 X-151.998 Y-13.113 Z20.384 A18.3208 B-0.0782 
N1181 X-151.998 Y-14.083 Z20.744 A20.2558 B-0.0893 
N1182 X-151.998 Y-15.029 Z21.217 A22.5749 B-0.0955 
N1183 X-151.998 Y-15.963 Z21.760 A25.1621 B-0.0979 
N1184 X-151.998 Y-16.886 Z22.323 A27.8782 B-0.0973 
N1185 X-151.998 Y-17.794 Z22.868 A30.6070 B-0.0940 
N1186 X-151.998 Y-18.682 Z23.369 A33.2662 B-0.0887 
N1187 X-151.998 Y-19.545 Z23.815 A35.8116 B-0.0815 
N1188 X-151.998 Y-20.383 Z24.202 A38.2279 B-0.0729 
N1189 X-151.998 Y-21.196 Z24.531 A40.5160 B-0.0630 
N1190 X-151.998 Y-21.987 Z24.807 A42.6876 B-0.0518 
N1191 X-151.998 Y-22.762 Z25.034 A44.7666 B-0.0394 
N1192 X-151.998 Y-23.529 Z25.221 A46.7852 B-0.0256 
N1193 X-151.998 Y-24.298 Z25.373 A48.7782 B-0.0102 
N1194 X-151.998 Y-25.080 Z25.494 A50.7825 B0.0068 
N1195 X-151.997 Y-25.886 Z25.590 A52.8369 B0.0257 
N1196 X-151.997 Y-26.729 Z25.660 A54.9815 B0.0466 
N1197 X-151.997 Y-27.621 Z25.704 A57.2527 B0.0701 
N1198 X-151.997 Y-28.570 Z25.716 A59.6723 B0.0963 
N1199 X-151.997 Y-29.577 Z25.684 A62.2382 B0.1256 
N1200 X-151.997 Y-30.632 Z25.592 A64.9216 B0.1578 
N1201 X-151.997 Y-31.713 Z25.420 A67.6506 B0.1923 
N1202 X-151.996 Y-32.775 Z25.149 A70.3010 B0.2279 
N1203 X-151.996 Y-33.766 Z24.763 A72.7169 B0.2629 
N1204 X-151.996 Y-34.630 Z24.258 A74.7445 B0.2956 
N1205 X-151.996 Y-35.327 Z23.640 A76.2676 B0.3244 
N1206 X-151.996 Y-35.856 Z22.925 A77.2786 B0.3485 
N1207 X-151.995 Y-36.250 Z22.135 A77.8790 B0.3684 
N1208 X-151.995 Y-36.557 Z21.290 A78.2096 B0.3851 
N1209 X-151.995 Y-36.823 Z20.411 A78.4099 B0.3995 
N1210 X-151.995 Y-37.085 Z19.514 A78.5931 B0.4126 
N1211 X-151.995 Y-37.354 Z18.613 A78.8080 B0.4246 
N1212 X-151.995 Y-37.642 Z17.721 A79.0936 B0.4358 
N1213 X-151.995 Y-37.993 Z16.857 A79.5991 B0.4482 
N1214 X-151.995 Y-38.475 Z16.041 A80.5518 B0.4654 
N1215 X-151.995 Y-39.134 Z15.281 A82.1149 B0.4903 
N1216 X-151.995 Y-39.942 Z14.567 A84.2220 B0.5233 
N1217 X-151.994 Y-40.739 Z13.877 A86.3971 B0.5594 
N1218 X-151.994 Y-41.340 Z13.209 A88.0649 B0.5920 
N1219 X-151.994 Y-41.700 Z12.581 A89.0670 B0.6189 
N1220 X-151.994 Y-41.897 Z12.007 A89.6063 B0.6414 
N1221 X-151.994 Y-42.041 Z11.490 A90.0083 B0.6619 
N1222 X-151.994 Y-42.253 Z11.030 A90.6270 B0.6833 
N1223 X-151.994 Y-42.615 Z10.618 A91.7125 B0.7076 
N1224 X-151.993 Y-43.139 Z10.240 A93.3141 B0.7346 
N1225 X-151.993 Y-43.804 Z9.879 A95.3673 B0.7637 
N1226 X-151.993 Y-44.581 Z9.519 A97.7904 B0.7944 
N1227 X-151.993 Y-45.442 Z9.143 A100.5060 B0.8265 
N1228 X-151.993 Y-46.356 Z8.741 A103.4291 B0.8592 
N1229 X-151.992 Y-47.288 Z8.307 A106.4551 B0.8914 
N1230 X-151.992 Y-48.201 Z7.845 A109.4796 B0.9219 
N1231 X-151.992 Y-49.072 Z7.361 A112.4293 B0.9501 
N1232 X-151.992 Y-49.886 Z6.862 A115.2627 B0.9755 
N1233 X-151.992 Y-50.641 Z6.353 A117.9631 B0.9983 
N1234 X-151.992 Y-51.337 Z5.838 A120.5334 B1.0186 
N1235 X-151.992 Y-51.980 Z5.318 A122.9896 B1.0366 
N1236 X-151.992 Y-52.578 Z4.792 A125.3542 B1.0526 
N1237 X-151.991 Y-53.136 Z4.257 A127.6484 B1.0669 
N1238 X-151.991 Y-53.660 Z3.712 A129.8922 B1.0796 
N1239 X-151.991 Y-54.154 Z3.155 A132.1035 B1.0908 
N1240 X-151.991 Y-54.622 Z2.580 A134.2997 B1.1005 
N1241 X-151.991 Y-55.066 Z1.986 A136.4978 B1.1086 
N1242 X-151.991 Y-55.488 Z1.369 A138.7142 B1.1150 
N1243 X-151.991 Y-55.888 Z0.725 A140.9578 B1.1193 
N1244 X-151.991 Y-56.262 Z0.054 A143.2277 B1.1213 
N1245 X-151.991 Y-56.605 Z-0.643 A145.5198 B1.1203 
N1246 X-151.991 Y-56.915 Z-1.366 A147.8358 B1.1160 
N1247 X-151.991 Y-57.188 Z-2.123 A150.1947 B1.1078 
N1248 X-151.991 Y-57.424 Z-2.928 A152.6460 B1.0949 
N1249 X-151.991 Y-57.625 Z-3.808 A155.2703 B1.0763 
N1250 X-151.992 Y-57.783 Z-4.795 A158.1669 B1.0510 
N1251 X-151.992 Y-57.883 Z-5.919 A161.4187 B1.0179 
N1252 X-151.992 Y-57.888 Z-7.177 A165.0172 B0.9770 
N1253 X-151.992 Y-57.747 Z-8.516 A168.8120 B0.9300 
N1254 X-151.993 Y-57.414 Z-9.832 A172.5192 B0.8813 
N1255 X-151.993 Y-56.863 Z-11.000 A175.8044 B0.8363 
N1256 X-151.993 Y-56.091 Z-11.905 A178.3588 B0.8004 
N1257 X-151.993 Y-55.104 Z-12.475 A179.9791 B0.7771 
N1258 X-151.993 Y-53.904 Z-12.752 A180.7761 B0.7655 
N1259 X-151.993 Y-52.473 Z-12.859 A181.0935 B0.7610 
N1260 X-151.993 Y-50.791 Z-12.892 A181.2075 B0.7600 
N1261 X-151.993 Y-48.841 Z-12.898 A181.2496 B0.7605 
N1262 X-151.993 Y-46.612 Z-12.891 A181.2570 B0.7616 
N1263 X-151.993 Y-44.102 Z-12.880 A181.2571 B0.7631 
N1264 X-151.993 Y-41.322 Z-12.867 B0.7646 
N1265 X-151.993 Y-38.290 Z-12.854 B0.7664 
N1266 X-151.993 Y-35.040 Z-12.839 B0.7682 
N1267 X-151.993 Y-31.611 Z-12.824 B0.7702 
N1268 X-151.993 Y-28.054 Z-12.808 B0.7722 
N1269 X-151.993 Y-24.425 Z-12.792 B0.7743 
N1270 X-151.993 Y-20.784 Z-12.775 B0.7764 
N1271 X-151.993 Y-17.189 Z-12.759 B0.7784 
N1272 X-151.993 Y-13.699 Z-12.743 B0.7804 
N1273 X-151.993 Y-10.364 Z-12.728 B0.7823 
N1274 X-151.993 Y-7.226 Z-12.714 B0.7841 
N1275 X-151.993 Y-4.320 Z-12.701 A181.2571 B0.7857 
N1276 X-151.993 Y-1.667 Z-12.690 A181.2583 B0.7872 
N1277 X-151.993 Y0.721 Z-12.719 A181.3825 B0.7874 
N1278 X-151.993 Y2.848 Z-12.945 A182.1358 B0.7818 
N1279 X-151.993 Y4.736 Z-13.464 A183.8801 B0.7680 
N1280 X-151.993 Y6.406 Z-14.061 A186.0104 B0.7526 
N1281 X-151.993 Y7.858 Z-14.524 A187.8429 B0.7379 
N1282 X-151.993 Y9.105 Z-14.863 A189.3441 B0.7153 
N1283 X-151.994 Y10.192 Z-15.244 A190.9883 B0.6794 
N1284 X-151.994 Y11.179 Z-15.794 A193.1736 B0.6316 
N1285 X-151.994 Y12.118 Z-16.538 A195.9992 B0.5751 
N1286 X-151.995 Y13.039 Z-17.404 A199.2779 B0.5141 
N1287 X-151.995 Y13.951 Z-18.298 A202.7333 B0.4527 
N1288 X-151.995 Y14.850 Z-19.154 A206.1613 B0.3933 
N1289 X-151.996 Y15.728 Z-19.931 A209.4303 B0.3374 
N1290 X-151.996 Y16.577 Z-20.614 A212.4763 B0.2858 
N1291 X-151.996 Y17.395 Z-21.203 A215.2909 B0.2384 
N1292 X-151.996 Y18.186 Z-21.706 A217.9008 B0.1948 
N1293 X-151.997 Y18.958 Z-22.136 A220.3432 B0.1543 
N1294 X-151.997 Y19.719 Z-22.501 A222.6605 B0.1162 
N1295 X-151.997 Y20.482 Z-22.815 A224.9051 B0.0798 
N1296 X-151.997 Y21.262 Z-23.084 A227.1316 B0.0443 
N1297 X-151.998 Y22.073 Z-23.314 A229.3867 B0.0093 
N1298 X-151.998 Y22.928 Z-23.506 A231.7120 B-0.0253 
N1299 X-151.998 Y23.842 Z-23.659 A234.1545 B-0.0593 
N1300 X-151.998 Y24.832 Z-23.768 A236.7605 B-0.0929 
N1301 X-151.998 Y25.903 Z-23.820 A239.5436 B-0.1255 
N1302 X-151.999 Y27.041 Z-23.791 A242.4593 B-0.1561 
N1303 X-151.999 Y28.219 Z-23.654 A245.4184 B-0.1833 
N1304 X-151.999 Y29.379 Z-23.379 A248.2589 B-0.2051 
N1305 X-151.999 Y30.439 Z-22.940 A250.7368 B-0.2192 
N1306 X-151.999 Y31.312 Z-22.326 A252.6020 B-0.2242 
N1307 X-151.999 Y31.945 Z-21.545 A253.6931 B-0.2198 
N1308 X-151.999 Y32.379 Z-20.630 A254.1322 B-0.2084 
N1309 X-151.999 Y32.724 Z-19.625 A254.2538 B-0.1936 
N1310 X-151.999 Y33.052 Z-18.563 A254.2793 B-0.1775 
N1311 X-151.999 Y33.383 Z-17.463 A254.2815 B-0.1607 
N1312 X-151.998 Y33.720 Z-16.343 B-0.1435 
N1313 X-151.998 Y34.057 Z-15.221 B-0.1263 
N1314 X-151.998 Y34.390 Z-14.114 A254.2839 B-0.1094 
N1315 X-151.998 Y34.723 Z-13.041 A254.3142 B-0.0931 
N1316 X-151.998 Y35.063 Z-12.022 A254.4177 B-0.0782 
N1317 X-151.998 Y35.398 Z-11.067 A254.5661 B-0.0644 
N1318 X-151.998 Y35.694 Z-10.178 A254.6678 B-0.0504 
N1319 X-151.998 Y35.945 Z-9.363 A254.7033 B-0.0353 
N1320 X-151.998 Y36.190 Z-8.636 A254.7952 B-0.0216 
N1321 X-151.998 Y36.524 Z-8.023 A255.2504 B-0.0116 
N1322 X-151.998 Y37.050 Z-7.543 A256.3942 B-0.0058 
N1323 X-151.998 Y37.794 Z-7.185 A258.3086 B-0.0027 
N1324 X-151.998 Y38.729 Z-6.910 A260.8917 B-0.0012 
N1325 X-151.998 Y39.805 Z-6.677 A263.9778 B-0.0005 
N1326 X-151.998 Y40.964 Z-6.449 A267.3770 B-0.0002 
N1327 X-151.998 Y42.140 Z-6.201 A270.8785 B-0.0001 
N1328 X-151.998 Y43.267 Z-5.925 A274.2791 B-0.0000 
N1329 X-151.998 Y44.308 Z-5.626 A277.4668 B-0.0000 
N1330 X-151.998 Y45.257 Z-5.311 A280.4158 
N1331 X-151.998 Y46.122 Z-4.984 A283.1495 
N1332 X-151.998 Y46.921 Z-4.648 A285.7160 
N1333 X-151.998 Y47.673 Z-4.301 A288.1696 
N1334 X-151.998 Y48.388 Z-3.940 A290.5467 
N1335 X-151.998 Y49.071 Z-3.565 A292.8622 
N1336 X-151.998 Y49.723 Z-3.176 A295.1158 
N1337 X-151.998 Y50.339 Z-2.776 A297.2997 
N1338 X-151.998 Y50.919 Z-2.368 A299.4068 
N1339 X-151.998 Y51.464 Z-1.955 A301.4400 
N1340 X-151.998 Y51.978 Z-1.534 A303.4141 
N1341 X-151.998 Y52.468 Z-1.104 A305.3508 
N1342 X-151.998 Y52.941 Z-0.662 A307.2743 
N1343 X-151.998 Y53.401 Z-0.202 A309.2083 
N1344 X-151.998 Y53.853 Z0.281 A311.1740 
N1345 X-151.998 Y54.300 Z0.790 A313.1890 
N1346 X-151.998 Y54.744 Z1.330 A315.2680 
N1347 X-151.998 Y55.183 Z1.906 A317.4251 
N1348 X-151.998 Y55.620 Z2.526 A319.6788 
N1349 X-151.998 Y56.053 Z3.197 A322.0563 
N1350 X-151.998 Y56.484 Z3.934 A324.5962 
N1351 X-151.998 Y56.912 Z4.755 A327.3505 
N1352 X-151.998 Y57.333 Z5.685 A330.3852 
N1353 X-151.998 Y57.740 Z6.751 A333.7748 
N1354 X-151.998 Y58.108 Z7.976 A337.5695 
N1355 X-151.998 Y58.398 Z9.353 A341.7347 
N1356 X-151.998 Y58.554 Z10.828 A346.1019 
N1357 X-151.998 Y58.526 Z12.285 A350.3491 
N1358 X-151.998 Y58.289 Z13.584 A354.0936 
N1359 X-151.998 Y57.850 Z14.620 A357.0680 
N1360 X-151.998 Y57.225 Z15.333 A359.1119 
N1361 X-151.998 Y56.421 Z15.707 A0.1802 
N1362 X-151.998 Y55.430 Z15.836 A0.5362 
N1363 X-151.998 Y54.227 Z15.897 A0.6947 
N1364 X-151.998 Y52.789 Z15.959 A0.8662 
N1365 X-151.998 Y51.094 Z16.005 A0.9973 
N1366 X-151.998 Y49.129 Z16.022 A1.0523 
N1367 X-151.998 Y46.887 Z16.022 A1.0588 
N1368 X-151.998 Y44.370 Z16.019 A1.0588 
N1369 X-151.998 Y41.593 Z16.017 
N1370 X-151.998 Y38.578 Z16.014 
N1371 X-151.998 Y35.361 Z16.010 
N1372 X-151.998 Y31.987 Z16.007 
N1373 X-151.998 Y28.505 Z16.003 
N1374 X-151.998 Y24.973 Z16.000 
N1375 X-151.998 Y21.448 Z15.996 
N1376 X-151.998 Y17.986 Z15.992 
N1377 X-151.998 Y14.639 Z15.989 
N1378 X-151.998 Y11.451 Z15.986 
N1379 X-151.998 Y8.458 Z15.983 
N1380 X-151.998 Y5.685 Z15.980 
N1381 X-151.998 Y3.148 Z15.980 A1.0672 
N1382 X-151.998 Y0.850 Z16.085 A1.4035 
N1383 X-151.998 Y-1.224 Z16.517 A2.8072 
N1384 X-151.998 Y-3.109 Z17.226 A5.2186 
N1385 X-151.998 Y-4.849 Z18.139 A8.4663 B-0.0001 
N1386 X-151.998 Y-6.475 Z19.094 A12.0759 B-0.0029 
N1387 X-151.998 Y-7.965 Z19.884 A15.3744 B-0.0135 
N1388 X-151.998 Y-9.287 Z20.412 A17.9738 B-0.0308 
N1389 X-151.998 Y-10.446 Z20.737 A19.9741 B-0.0492 
N1390 X-151.998 Y-11.488 Z20.980 A21.7213 B-0.0651 
N1391 X-151.998 Y-12.458 Z21.225 A23.4733 B-0.0774 
N1392 X-151.998 Y-13.392 Z21.512 A25.3750 B-0.0861 
N1393 X-151.998 Y-14.315 Z21.851 A27.4820 B-0.0912 
N1394 X-151.998 Y-15.240 Z22.229 A29.7716 B-0.0930 
N1395 X-151.998 Y-16.170 Z22.619 A32.1783 B-0.0918 
N1396 X-151.998 Y-17.101 Z22.995 A34.6282 B-0.0878 
N1397 X-151.998 Y-18.025 Z23.336 A37.0521 B-0.0813 
N1398 X-151.998 Y-18.936 Z23.626 A39.3979 B-0.0727 
N1399 X-151.998 Y-19.827 Z23.857 A41.6328 B-0.0624 
N1400 X-151.998 Y-20.694 Z24.026 A43.7408 B-0.0505 
N1401 X-151.998 Y-21.538 Z24.134 A45.7266 B-0.0371 
N1402 X-151.998 Y-22.366 Z24.190 A47.6200 B-0.0221 
N1403 X-151.998 Y-23.190 Z24.202 A49.4671 B-0.0053 
N1404 X-151.998 Y-24.024 Z24.181 A51.3252 B0.0138 
N1405 X-151.997 Y-24.886 Z24.135 A53.2565 B0.0357 
N1406 X-151.997 Y-25.793 Z24.068 A55.3191 B0.0609 
N1407 X-151.997 Y-26.757 Z23.980 A57.5504 B0.0901 
N1408 X-151.997 Y-27.778 Z23.861 A59.9490 B0.1237 
N1409 X-151.997 Y-28.843 Z23.692 A62.4694 B0.1612 
N1410 X-151.996 Y-29.918 Z23.453 A65.0092 B0.2015 
N1411 X-151.996 Y-30.954 Z23.123 A67.4154 B0.2426 
N1412 X-151.996 Y-31.896 Z22.688 A69.5262 B0.2819 
N1413 X-151.996 Y-32.697 Z22.149 A71.2080 B0.3172 
N1414 X-151.996 Y-33.342 Z21.518 A72.4155 B0.3471 
N1415 X-151.995 Y-33.850 Z20.817 A73.2073 B0.3717 
N1416 X-151.995 Y-34.256 Z20.069 A73.6916 B0.3916 
N1417 X-151.995 Y-34.597 Z19.294 A73.9839 B0.4079 
N1418 X-151.995 Y-34.906 Z18.513 A74.1907 B0.4217 
N1419 X-151.995 Y-35.209 Z17.739 A74.3925 B0.4340 
N1420 X-151.995 Y-35.531 Z16.989 A74.6804 B0.4459 
N1421 X-151.995 Y-35.925 Z16.285 A75.2331 B0.4607 
N1422 X-151.995 Y-36.463 Z15.647 A76.2826 B0.4825 
N1423 X-151.995 Y-37.180 Z15.081 A77.9627 B0.5141 
N1424 X-151.994 Y-38.064 Z14.570 A80.2391 B0.5557 
N1425 X-151.994 Y-39.021 Z14.082 A82.8286 B0.6033 
N1426 X-151.994 Y-39.894 Z13.595 A85.2521 B0.6500 
N1427 X-151.994 Y-40.572 Z13.113 A87.1580 B0.6908 
N1428 X-151.993 Y-41.038 Z12.652 A88.4795 B0.7246 
N1429 X-151.993 Y-41.344 Z12.227 A89.3504 B0.7531 
N1430 X-151.993 Y-41.577 Z11.842 A90.0225 B0.7794 
N1431 X-151.993 Y-41.849 Z11.496 A90.8280 B0.8074 
N1432 X-151.993 Y-42.251 Z11.181 A92.0404 B0.8396 
N1433 X-151.993 Y-42.800 Z10.883 A93.7144 B0.8753 
N1434 X-151.992 Y-43.462 Z10.590 A95.7508 B0.9121 
N1435 X-151.992 Y-44.192 Z10.291 A98.0228 B0.9481 
N1436 X-151.992 Y-44.966 Z9.978 A100.4519 B0.9828 
N1437 X-151.992 Y-45.766 Z9.646 A102.9962 B1.0161 
N1438 X-151.992 Y-46.582 Z9.288 A105.6250 B1.0481 
N1439 X-151.991 Y-47.401 Z8.903 A108.3045 B1.0785 
N1440 X-151.991 Y-48.208 Z8.491 A110.9940 B1.1071 
N1441 X-151.991 Y-48.992 Z8.055 A113.6587 B1.1336 
N1442 X-151.991 Y-49.743 Z7.598 A116.2754 B1.1576 
N1443 X-151.991 Y-50.457 Z7.122 A118.8307 B1.1792 
N1444 X-151.991 Y-51.134 Z6.631 A121.3198 B1.1985 
N1445 X-151.991 Y-51.772 Z6.126 A123.7444 B1.2154 
N1446 X-151.990 Y-52.375 Z5.608 A126.1123 B1.2303 
N1447 X-151.990 Y-52.945 Z5.075 A128.4362 B1.2432 
N1448 X-151.990 Y-53.486 Z4.526 A130.7311 B1.2543 
N1449 X-151.990 Y-54.000 Z3.958 A133.0119 B1.2636 
N1450 X-151.990 Y-54.490 Z3.369 A135.2939 B1.2713 
N1451 X-151.990 Y-54.958 Z2.754 A137.5931 B1.2772 
N1452 X-151.990 Y-55.406 Z2.109 A139.9272 B1.2813 
N1453 X-151.990 Y-55.833 Z1.429 A142.3158 B1.2835 
N1454 X-151.990 Y-56.239 Z0.705 A144.7795 B1.2835 
N1455 X-151.990 Y-56.620 Z-0.066 A147.3322 B1.2807 
N1456 X-151.990 Y-56.969 Z-0.886 A149.9701 B1.2746 
N1457 X-151.990 Y-57.272 Z-1.750 A152.6715 B1.2646 
N1458 X-151.990 Y-57.515 Z-2.649 A155.4072 B1.2500 
N1459 X-151.990 Y-57.688 Z-3.580 A158.1663 B1.2299 
N1460 X-151.991 Y-57.780 Z-4.555 A160.9907 B1.2033 
N1461 X-151.991 Y-57.785 Z-5.601 A163.9711 B1.1692 
N1462 X-151.991 Y-57.681 Z-6.737 A167.1727 B1.1271 
N1463 X-151.991 Y-57.433 Z-7.929 A170.5148 B1.0787 
N1464 X-151.992 Y-57.001 Z-9.096 A173.7746 B1.0285 
N1465 X-151.992 Y-56.361 Z-10.137 A176.6950 B0.9820 
N1466 X-151.992 Y-55.505 Z-10.946 A178.9790 B0.9451 
N1467 X-151.992 Y-54.434 Z-11.434 A180.3733 B0.9222 
N1468 X-151.992 Y-53.144 Z-11.643 A180.9851 B0.9122 
N1469 X-151.992 Y-51.619 Z-11.702 A181.1684 B0.9095 
N1470 X-151.992 Y-49.838 Z-11.718 A181.2344 B0.9092 
N1471 X-151.992 Y-47.790 Z-11.720 A181.2678 B0.9099 
N1472 X-151.992 Y-45.469 Z-11.710 A181.2717 B0.9113 
N1473 X-151.992 Y-42.879 Z-11.698 B0.9128 
N1474 X-151.992 Y-40.037 Z-11.684 B0.9145 
N1475 X-151.992 Y-36.968 Z-11.670 B0.9164 
N1476 X-151.992 Y-33.709 Z-11.654 B0.9184 
N1477 X-151.992 Y-30.305 Z-11.638 B0.9204 
N1478 X-151.992 Y-26.809 Z-11.621 A181.2718 B0.9225 
N1479 X-151.992 Y-23.278 Z-11.605 B0.9247 
N1480 X-151.992 Y-19.770 Z-11.588 B0.9268 
N1481 X-151.992 Y-16.343 Z-11.572 B0.9289 
N1482 X-151.992 Y-13.047 Z-11.556 B0.9309 
N1483 X-151.992 Y-9.929 Z-11.541 B0.9328 
N1484 X-151.992 Y-7.023 Z-11.528 B0.9345 
N1485 X-151.992 Y-4.356 Z-11.515 B0.9361 
N1486 X-151.992 Y-1.942 Z-11.504 A181.2737 B0.9376 
N1487 X-151.992 Y0.214 Z-11.544 A181.4285 B0.9369 
N1488 X-151.992 Y2.124 Z-11.812 A182.3101 B0.9278 
N1489 X-151.992 Y3.821 Z-12.423 A184.3378 B0.9057 
N1490 X-151.993 Y5.336 Z-13.178 A186.9611 B0.8774 
N1491 X-151.993 Y6.677 Z-13.855 A189.4806 B0.8480 
N1492 X-151.993 Y7.853 Z-14.418 A191.7323 B0.8105 
N1493 X-151.993 Y8.896 Z-14.951 A193.9378 B0.7608 
N1494 X-151.994 Y9.859 Z-15.563 A196.4213 B0.7000 
N1495 X-151.994 Y10.787 Z-16.281 A199.2881 B0.6317 
N1496 X-151.994 Y11.706 Z-17.070 A202.4495 B0.5596 
N1497 X-151.995 Y12.627 Z-17.872 A205.7463 B0.4873 
N1498 X-151.995 Y13.550 Z-18.644 A209.0504 B0.4168 
N1499 X-151.996 Y14.472 Z-19.355 A212.2730 B0.3493 
N1500 X-151.996 Y15.386 Z-19.985 A215.3476 B0.2858 
N1501 X-151.996 Y16.285 Z-20.522 A218.2313 B0.2271 
N1502 X-151.997 Y17.164 Z-20.960 A220.9048 B0.1734 
N1503 X-151.997 Y18.022 Z-21.301 A223.3660 B0.1248 
N1504 X-151.997 Y18.861 Z-21.548 A225.6383 B0.0808 
N1505 X-151.997 Y19.698 Z-21.717 A227.7881 B0.0402 
N1506 X-151.998 Y20.553 Z-21.821 A229.9000 B0.0018 
N1507 X-151.998 Y21.451 Z-21.872 A232.0608 B-0.0353 
N1508 X-151.998 Y22.417 Z-21.877 A234.3599 B-0.0716 
N1509 X-151.998 Y23.467 Z-21.834 A236.8530 B-0.1074 
N1510 X-151.998 Y24.593 Z-21.720 A239.5078 B-0.1413 
N1511 X-151.999 Y25.760 Z-21.507 A242.2157 B-0.1714 
N1512 X-151.999 Y26.902 Z-21.158 A244.7719 B-0.1947 
N1513 X-151.999 Y27.923 Z-20.641 A246.8877 B-0.2082 
N1514 X-151.999 Y28.739 Z-19.946 A248.3093 B-0.2101 
N1515 X-151.999 Y29.337 Z-19.092 A248.9976 B-0.2020 
N1516 X-151.999 Y29.806 Z-18.132 A249.2297 B-0.1882 
N1517 X-151.999 Y30.231 Z-17.115 A249.2847 B-0.1721 
N1518 X-151.999 Y30.650 Z-16.068 A249.2903 B-0.1552 
N1519 X-151.998 Y31.070 Z-15.013 A249.2903 B-0.1382 
N1520 X-151.998 Y31.488 Z-13.964 B-0.1212 
N1521 X-151.998 Y31.897 Z-12.938 A249.2930 B-0.1047 
N1522 X-151.998 Y32.302 Z-11.954 A249.3300 B-0.0889 
N1523 X-151.998 Y32.714 Z-11.032 A249.4603 B-0.0745 
N1524 X-151.998 Y33.120 Z-10.179 A249.6606 B-0.0612 
N1525 X-151.998 Y33.487 Z-9.392 A249.8294 B-0.0483 
N1526 X-151.998 Y33.800 Z-8.672 A249.9267 B-0.0353 
N1527 X-151.998 Y34.092 Z-8.035 A250.0603 B-0.0236 
N1528 X-151.998 Y34.466 Z-7.515 A250.5571 B-0.0146 
N1529 X-151.998 Y35.034 Z-7.144 A251.7790 B-0.0086 
N1530 X-151.998 Y35.824 Z-6.907 A253.8048 B-0.0048 
N1531 X-151.998 Y36.796 Z-6.761 A256.4877 B-0.0025 
N1532 X-151.998 Y37.892 Z-6.656 A259.6224 B-0.0012 
N1533 X-151.998 Y39.061 Z-6.553 A263.0246 B-0.0006 
N1534 X-151.998 Y40.247 Z-6.428 A266.5224 B-0.0002 
N1535 X-151.998 Y41.399 Z-6.267 A269.9488 B-0.0001 
N1536 X-151.998 Y42.474 Z-6.072 A273.1796 B-0.0000 
N1537 X-151.998 Y43.458 Z-5.849 A276.1700 B-0.0000 
N1538 X-151.998 Y44.356 Z-5.605 A278.9281 
N1539 X-151.998 Y45.179 Z-5.347 A281.4905 
N1540 X-151.998 Y45.946 Z-5.074 A283.9079 
N1541 X-151.998 Y46.674 Z-4.786 A286.2354 
N1542 X-151.998 Y47.376 Z-4.479 A288.5174 
N1543 X-151.998 Y48.061 Z-4.152 A290.7755 
N1544 X-151.998 Y48.726 Z-3.804 A293.0116 
N1545 X-151.998 Y49.368 Z-3.438 A295.2129 
N1546 X-151.998 Y49.979 Z-3.058 A297.3590 
N1547 X-151.998 Y50.556 Z-2.669 A299.4331 
N1548 X-151.998 Y51.098 Z-2.272 A301.4316 
N1549 X-151.998 Y51.608 Z-1.870 A303.3672 
N1550 X-151.998 Y52.093 Z-1.458 A305.2614 
N1551 X-151.998 Y52.561 Z-1.035 A307.1403 
N1552 X-151.998 Y53.017 Z-0.593 A309.0293 
N1553 X-151.998 Y53.466 Z-0.130 A310.9510 
N1554 X-151.998 Y53.911 Z0.360 A312.9248 
N1555 X-151.998 Y54.355 Z0.883 A314.9668 
N1556 X-151.998 Y54.797 Z1.442 A317.0918 
N1557 X-151.998 Y55.239 Z2.046 A319.3190 
N1558 X-151.998 Y55.680 Z2.702 A321.6763 
N1559 X-151.998 Y56.121 Z3.427 A324.2039 
N1560 X-151.998 Y56.564 Z4.238 A326.9557 
N1561 X-151.998 Y57.004 Z5.160 A329.9995 
N1562 X-151.998 Y57.433 Z6.224 A333.4125 
N1563 X-151.998 Y57.831 Z7.456 A337.2610 
N1564 X-151.998 Y58.157 Z8.858 A341.5335 
N1565 X-151.998 Y58.353 Z10.379 A346.0680 
N1566 X-151.998 Y58.362 Z11.896 A350.5155 
N1567 X-151.998 Y58.156 Z13.233 A354.3932 
N1568 X-151.998 Y57.748 Z14.257 A357.3471 
N1569 X-151.998 Y57.161 Z14.926 A359.2709 
N1570 X-151.998 Y56.406 Z15.276 A0.2775 
N1571 X-151.998 Y55.471 Z15.405 A0.6388 
N1572 X-151.998 Y54.332 Z15.453 A0.7665 
N1573 X-151.998 Y52.965 Z15.500 A0.8929 
N1574 X-151.998 Y51.348 Z15.536 A0.9965 
N1575 X-151.998 Y49.466 Z15.551 A1.0463 
N1576 X-151.998 Y47.312 Z15.552 A1.0552 
N1577 X-151.998 Y44.887 Z15.550 A1.0553 
N1578 X-151.998 Y42.204 Z15.547 
N1579 X-151.998 Y39.285 Z15.545 
N1580 X-151.998 Y36.163 Z15.542 
N1581 X-151.998 Y32.882 Z15.538 
N1582 X-151.998 Y29.492 Z15.535 
N1583 X-151.998 Y26.050 Z15.532 
N1584 X-151.998 Y22.611 Z15.528 
N1585 X-151.998 Y19.234 Z15.525 
N1586 X-151.998 Y15.969 Z15.522 
N1587 X-151.998 Y12.864 Z15.519 
N1588 X-151.998 Y9.952 Z15.516 
N1589 X-151.998 Y7.262 Z15.514 
N1590 X-151.998 Y4.808 Z15.511 
N1591 X-151.998 Y2.594 Z15.523 A1.0970 
N1592 X-151.998 Y0.614 Z15.706 A1.6784 
N1593 X-151.998 Y-1.162 Z16.248 A3.4381 
N1594 X-151.998 Y-2.783 Z17.090 A6.2747 
N1595 X-151.998 Y-4.307 Z18.154 A10.0033 B-0.0001 
N1596 X-151.998 Y-5.769 Z19.261 A14.1002 B-0.0021 
N1597 X-151.998 Y-7.152 Z20.225 A17.9690 B-0.0104 
N1598 X-151.998 Y-8.422 Z20.955 A21.2635 B-0.0252 
N1599 X-151.998 Y-9.565 Z21.458 A23.9292 B-0.0413 
N1600 X-151.998 Y-10.605 Z21.809 A26.1628 B-0.0548 
N1601 X-151.998 Y-11.577 Z22.081 A28.1812 B-0.0648 
N1602 X-151.998 Y-12.514 Z22.315 A30.1242 B-0.0718 
N1603 X-151.998 Y-13.437 Z22.532 A32.0771 B-0.0762 
N1604 X-151.998 Y-14.363 Z22.742 A34.0857 B-0.0781 
N1605 X-151.998 Y-15.303 Z22.941 A36.1610 B-0.0774 
N1606 X-151.998 Y-16.257 Z23.120 A38.2846 B-0.0738 
N1607 X-151.998 Y-17.221 Z23.262 A40.4140 B-0.0675 
N1608 X-151.998 Y-18.184 Z23.354 A42.4965 B-0.0587 
N1609 X-151.998 Y-19.134 Z23.380 A44.4816 B-0.0477 
N1610 X-151.998 Y-20.061 Z23.334 A46.3294 B-0.0349 
N1611 X-151.998 Y-20.962 Z23.218 A48.0378 B-0.0204 
N1612 X-151.998 Y-21.847 Z23.042 A49.6529 B-0.0039 
N1613 X-151.998 Y-22.735 Z22.825 A51.2545 B0.0152 
N1614 X-151.997 Y-23.650 Z22.586 A52.9374 B0.0378 
N1615 X-151.997 Y-24.611 Z22.335 A54.7819 B0.0652 
N1616 X-151.997 Y-25.628 Z22.073 A56.8205 B0.0983 
N1617 X-151.997 Y-26.688 Z21.787 A59.0166 B0.1368 
N1618 X-151.997 Y-27.757 Z21.456 A61.2586 B0.1792 
N1619 X-151.996 Y-28.780 Z21.055 A63.3751 B0.2227 
N1620 X-151.996 Y-29.702 Z20.570 A65.1941 B0.2639 
N1621 X-151.996 Y-30.486 Z20.001 A66.5994 B0.2999 
N1622 X-151.996 Y-31.125 Z19.365 A67.5819 B0.3294 
N1623 X-151.996 Y-31.643 Z18.686 A68.2113 B0.3528 
N1624 X-151.995 Y-32.069 Z17.987 A68.5857 B0.3708 
N1625 X-151.995 Y-32.436 Z17.289 A68.8128 B0.3849 
N1626 X-151.995 Y-32.781 Z16.615 A69.0097 B0.3970 
N1627 X-151.995 Y-33.145 Z15.985 A69.3187 B0.4097 
N1628 X-151.995 Y-33.584 Z15.423 A69.9293 B0.4271 
N1629 X-151.995 Y-34.158 Z14.951 A71.0436 B0.4537 
N1630 X-151.995 Y-34.893 Z14.569 A72.7522 B0.4915 
N1631 X-151.994 Y-35.776 Z14.256 A75.0055 B0.5398 
N1632 X-151.994 Y-36.753 Z13.978 A77.6282 B0.5954 
N1633 X-151.994 Y-37.737 Z13.704 A80.3419 B0.6534 
N1634 X-151.994 Y-38.634 Z13.418 A82.8559 B0.7085 
N1635 X-151.993 Y-39.397 Z13.122 A85.0194 B0.7586 
N1636 X-151.993 Y-40.025 Z12.829 A86.8177 B0.8036 
N1637 X-151.993 Y-40.545 Z12.547 A88.3248 B0.8449 
N1638 X-151.992 Y-41.002 Z12.282 A89.6670 B0.8846 
N1639 X-151.992 Y-41.451 Z12.034 A91.0057 B0.9249 
N1640 X-151.992 Y-41.950 Z11.799 A92.5103 B0.9676 
N1641 X-151.992 Y-42.526 Z11.568 A94.2649 B1.0126 
N1642 X-151.991 Y-43.167 Z11.331 A96.2366 B1.0577 
N1643 X-151.991 Y-43.844 Z11.083 A98.3363 B1.1005 
N1644 X-151.991 Y-44.531 Z10.823 A100.4877 B1.1397 
N1645 X-151.991 Y-45.216 Z10.550 A102.6588 B1.1750 
N1646 X-151.991 Y-45.900 Z10.261 A104.8490 B1.2072 
N1647 X-151.990 Y-46.583 Z9.954 A107.0680 B1.2370 
N1648 X-151.990 Y-47.269 Z9.625 A109.3247 B1.2649 
N1649 X-151.990 Y-47.956 Z9.271 A111.6220 B1.2911 
N1650 X-151.990 Y-48.642 Z8.892 A113.9531 B1.3157 
N1651 X-151.990 Y-49.320 Z8.487 A116.3056 B1.3385 
N1652 X-151.990 Y-49.985 Z8.057 A118.6673 B1.3594 
N1653 X-151.990 Y-50.634 Z7.604 A121.0282 B1.3783 
N1654 X-151.990 Y-51.262 Z7.128 A123.3809 B1.3951 
N1655 X-151.989 Y-51.868 Z6.630 A125.7207 B1.4099 
N1656 X-151.989 Y-52.451 Z6.113 A128.0465 B1.4225 
N1657 X-151.989 Y-53.009 Z5.574 A130.3619 B1.4330 
N1658 X-151.989 Y-53.545 Z5.014 A132.6761 B1.4415 
N1659 X-151.989 Y-54.061 Z4.428 A135.0052 B1.4479 
N1660 X-151.989 Y-54.558 Z3.811 A137.3698 B1.4523 
N1661 X-151.989 Y-55.040 Z3.156 A139.7952 B1.4545 
N1662 X-151.989 Y-55.508 Z2.454 A142.3112 B1.4543 
N1663 X-151.989 Y-55.963 Z1.694 A144.9517 B1.4514 
N1664 X-151.989 Y-56.402 Z0.863 A147.7514 B1.4452 
N1665 X-151.989 Y-56.818 Z-0.051 A150.7382 B1.4350 
N1666 X-151.989 Y-57.197 Z-1.051 A153.9160 B1.4201 
N1667 X-151.990 Y-57.513 Z-2.124 A157.2316 B1.3995 
N1668 X-151.990 Y-57.736 Z-3.231 A160.5608 B1.3734 
N1669 X-151.990 Y-57.837 Z-4.317 A163.7436 B1.3423 
N1670 X-151.990 Y-57.802 Z-5.341 A166.6702 B1.3073 
N1671 X-151.990 Y-57.627 Z-6.304 A169.3676 B1.2687 
N1672 X-151.991 Y-57.307 Z-7.230 A171.9296 B1.2267 
N1673 X-151.991 Y-56.829 Z-8.119 A174.3789 B1.1830 
N1674 X-151.991 Y-56.171 Z-8.963 A176.7121 B1.1399 
N1675 X-151.991 Y-55.314 Z-9.723 A178.8487 B1.1007 
N1676 X-151.991 Y-54.240 Z-10.251 A180.3561 B1.0732 
N1677 X-151.991 Y-52.945 Z-10.486 A181.0466 B1.0608 
N1678 X-151.991 Y-51.414 Z-10.543 A181.2300 B1.0580 
N1679 X-151.991 Y-49.630 Z-10.546 A181.2638 B1.0581 
N1680 X-151.991 Y-47.581 Z-10.543 A181.2837 B1.0589 
N1681 X-151.991 Y-45.265 Z-10.532 A181.2866 B1.0603 
N1682 X-151.991 Y-42.688 Z-10.520 B1.0620 
N1683 X-151.991 Y-39.869 Z-10.505 A181.2866 B1.0638 
N1684 X-151.991 Y-36.836 Z-10.490 B1.0657 
N1685 X-151.991 Y-33.626 Z-10.474 B1.0678 
N1686 X-151.991 Y-30.288 Z-10.458 B1.0699 
N1687 X-151.991 Y-26.874 Z-10.440 B1.0721 
N1688 X-151.991 Y-23.440 Z-10.423 B1.0743 
N1689 X-151.991 Y-20.044 Z-10.406 B1.0765 
N1690 X-151.991 Y-16.742 Z-10.390 B1.0786 
N1691 X-151.991 Y-13.581 Z-10.374 A181.2866 B1.0806 
N1692 X-151.991 Y-10.606 Z-10.359 B1.0825 
N1693 X-151.991 Y-7.846 Z-10.345 B1.0843 
N1694 X-151.991 Y-5.326 Z-10.333 B1.0859 
N1695 X-151.991 Y-3.056 Z-10.321 A181.2866 B1.0874 
N1696 X-151.991 Y-1.037 Z-10.330 A181.3441 B1.0878 
N1697 X-151.991 Y0.742 Z-10.504 A181.9181 B1.0806 
N1698 X-151.991 Y2.311 Z-11.032 A183.6351 B1.0571 
N1699 X-151.992 Y3.724 Z-11.890 A186.4961 B1.0167 
N1700 X-151.992 Y5.011 Z-12.814 A189.7224 B0.9693 
N1701 X-151.992 Y6.186 Z-13.686 A192.9252 B0.9144 
N1702 X-151.993 Y7.254 Z-14.452 A195.9047 B0.8490 
N1703 X-151.993 Y8.240 Z-15.159 A198.7686 B0.7747 
N1704 X-151.994 Y9.191 Z-15.880 A201.7499 B0.6932 
N1705 X-151.994 Y10.138 Z-16.624 A204.8941 B0.6079 
N1706 X-151.995 Y11.098 Z-17.368 A208.1461 B0.5218 
N1707 X-151.995 Y12.080 Z-18.085 A211.4512 B0.4368 
N1708 X-151.996 Y13.091 Z-18.756 A214.7693 B0.3536 
N1709 X-151.996 Y14.128 Z-19.355 A218.0345 B0.2736 
N1710 X-151.996 Y15.170 Z-19.846 A221.1360 B0.1993 
N1711 X-151.997 Y16.186 Z-20.195 A223.9421 B0.1336 
N1712 X-151.997 Y17.146 Z-20.380 A226.3488 B0.0788 
N1713 X-151.997 Y18.047 Z-20.410 A228.3671 B0.0343 
N1714 X-151.998 Y18.924 Z-20.324 A230.1587 B-0.0032 
N1715 X-151.998 Y19.829 Z-20.161 A231.9266 B-0.0376 
N1716 X-151.998 Y20.806 Z-19.951 A233.8437 B-0.0712 
N1717 X-151.998 Y21.869 Z-19.692 A235.9613 B-0.1043 
N1718 X-151.998 Y22.987 Z-19.357 A238.1848 B-0.1343 
N1719 X-151.999 Y24.096 Z-18.907 A240.3038 B-0.1577 
N1720 X-151.999 Y25.097 Z-18.302 A242.0084 B-0.1704 
N1721 X-151.999 Y25.911 Z-17.525 A243.0472 B-0.1706 
N1722 X-151.999 Y26.552 Z-16.609 A243.4721 B-0.1611 
N1723 X-151.998 Y27.110 Z-15.620 A243.5883 B-0.1474 
N1724 X-151.998 Y27.643 Z-14.603 A243.6045 B-0.1325 
N1725 X-151.998 Y28.169 Z-13.587 A243.6047 B-0.1174 
N1726 X-151.998 Y28.687 Z-12.589 B-0.1025 
N1727 X-151.998 Y29.188 Z-11.623 A243.6055 B-0.0881 
N1728 X-151.998 Y29.670 Z-10.704 A243.6219 B-0.0746 
N1729 X-151.998 Y30.139 Z-9.850 A243.6945 B-0.0622 
N1730 X-151.998 Y30.602 Z-9.075 A243.8665 B-0.0513 
N1731 X-151.998 Y31.058 Z-8.387 A244.1466 B-0.0415 
N1732 X-151.998 Y31.479 Z-7.775 A244.4500 B-0.0322 
N1733 X-151.998 Y31.854 Z-7.235 A244.7388 B-0.0235 
N1734 X-151.998 Y32.272 Z-6.805 A245.2992 B-0.0162 
N1735 X-151.998 Y32.861 Z-6.534 A246.5518 B-0.0108 
N1736 X-151.998 Y33.663 Z-6.416 A248.6176 B-0.0068 
N1737 X-151.998 Y34.641 Z-6.400 A251.3372 B-0.0041 
N1738 X-151.998 Y35.732 Z-6.429 A254.4750 B-0.0023 
N1739 X-151.998 Y36.885 Z-6.462 A257.8429 B-0.0012 
N1740 X-151.998 Y38.058 Z-6.470 A261.2947 B-0.0006 
N1741 X-151.998 Y39.209 Z-6.440 A264.7022 B-0.0002 
N1742 X-151.998 Y40.303 Z-6.367 A267.9534 B-0.0001 
N1743 X-151.998 Y41.317 Z-6.255 A270.9860 B-0.0000 
N1744 X-151.998 Y42.249 Z-6.111 A273.7911 B-0.0000 
N1745 X-151.998 Y43.106 Z-5.943 A276.3911 B-0.0000 
N1746 X-151.998 Y43.900 Z-5.754 A278.8238 
N1747 X-151.998 Y44.647 Z-5.547 A281.1341 
N1748 X-151.998 Y45.362 Z-5.321 A283.3699 
N1749 X-151.998 Y46.060 Z-5.074 A285.5785 
N1750 X-151.998 Y46.750 Z-4.802 A287.7915 
N1751 X-151.998 Y47.435 Z-4.505 A290.0201 
N1752 X-151.998 Y48.110 Z-4.182 A292.2555 
N1753 X-151.998 Y48.767 Z-3.837 A294.4725 
N1754 X-151.998 Y49.396 Z-3.474 A296.6393 
N1755 X-151.998 Y49.988 Z-3.102 A298.7288 
N1756 X-151.998 Y50.542 Z-2.722 A300.7312 
N1757 X-151.998 Y51.060 Z-2.338 A302.6567 
N1758 X-151.998 Y51.551 Z-1.947 A304.5285 
N1759 X-151.998 Y52.021 Z-1.545 A306.3742 
N1760 X-151.998 Y52.478 Z-1.127 A308.2214 
N1761 X-151.998 Y52.928 Z-0.689 A310.0945 
N1762 X-151.998 Y53.374 Z-0.225 A312.0141 
N1763 X-151.998 Y53.819 Z0.269 A313.9980 
N1764 X-151.998 Y54.264 Z0.798 A316.0621 
N1765 X-151.998 Y54.710 Z1.370 A318.2243 
N1766 X-151.998 Y55.157 Z1.992 A320.5098 
N1767 X-151.998 Y55.608 Z2.677 A322.9553 
N1768 X-151.998 Y56.062 Z3.443 A325.6112 
N1769 X-151.998 Y56.518 Z4.313 A328.5416 
N1770 X-151.998 Y56.972 Z5.315 A331.8200 
N1771 X-151.998 Y57.406 Z6.478 A335.5193 
N1772 X-151.998 Y57.792 Z7.823 A339.6816 
N1773 X-151.998 Y58.076 Z9.331 A344.2377 
N1774 X-151.998 Y58.198 Z10.914 A348.9307 
N1775 X-151.998 Y58.108 Z12.404 A353.2910 
N1776 X-151.998 Y57.803 Z13.597 A356.7576 
N1777 X-151.998 Y57.315 Z14.381 A359.0298 
N1778 X-151.998 Y56.666 Z14.786 A0.2030 
N1779 X-151.998 Y55.852 Z14.949 A0.6683 
N1780 X-151.998 Y54.852 Z15.003 A0.8170 
N1781 X-151.998 Y53.639 Z15.038 A0.9132 
N1782 X-151.998 Y52.190 Z15.068 A1.0009 
N1783 X-151.998 Y50.487 Z15.080 A1.0404 
N1784 X-151.998 Y48.518 Z15.082 A1.0497 
N1785 X-151.998 Y46.279 Z15.080 A1.0504 
N1786 X-151.998 Y43.777 Z15.078 
N1787 X-151.998 Y41.029 Z15.075 
N1788 X-151.998 Y38.063 Z15.073 
N1789 X-151.998 Y34.917 Z15.070 
N1790 X-151.998 Y31.639 Z15.067 
N1791 X-151.998 Y28.282 Z15.064 
N1792 X-151.998 Y24.902 Z15.061 
N1793 X-151.998 Y21.559 Z15.058 
N1794 X-151.998 Y18.306 Z15.055 
N1795 X-151.998 Y15.194 Z15.053 
N1796 X-151.998 Y12.263 Z15.050 
N1797 X-151.998 Y9.545 Z15.048 
N1798 X-151.998 Y7.061 Z15.045 
N1799 X-151.998 Y4.821 Z15.044 
N1800 X-151.998 Y2.825 Z15.054 A1.0881 
N1801 X-151.998 Y1.059 Z15.216 A1.5988 
N1802 X-151.998 Y-0.507 Z15.726 A3.2348 
N1803 X-151.998 Y-1.927 Z16.575 A6.0384 
N1804 X-151.998 Y-3.270 Z17.694 A9.8495 
N1805 X-151.998 Y-4.591 Z18.937 A14.2668 B-0.0004 
N1806 X-151.998 Y-5.892 Z20.104 A18.6801 B-0.0034 
N1807 X-151.998 Y-7.150 Z21.095 A22.7529 B-0.0115 
N1808 X-151.998 Y-8.342 Z21.873 A26.3211 B-0.0234 
N1809 X-151.998 Y-9.459 Z22.450 A29.3812 B-0.0354 
N1810 X-151.998 Y-10.516 Z22.874 A32.0579 B-0.0446 
N1811 X-151.998 Y-11.537 Z23.181 A34.4722 B-0.0505 
N1812 X-151.998 Y-12.534 Z23.390 A36.6848 B-0.0534 
N1813 X-151.998 Y-13.513 Z23.503 A38.7143 B-0.0542 
N1814 X-151.998 Y-14.477 Z23.524 A40.5706 B-0.0532 
N1815 X-151.998 Y-15.435 Z23.462 A42.2924 B-0.0505 
N1816 X-151.998 Y-16.398 Z23.329 A43.9341 B-0.0457 
N1817 X-151.998 Y-17.369 Z23.132 A45.5197 B-0.0384 
N1818 X-151.998 Y-18.342 Z22.865 A47.0307 B-0.0288 
N1819 X-151.998 Y-19.299 Z22.517 A48.4073 B-0.0174 
N1820 X-151.998 Y-20.232 Z22.093 A49.6367 B-0.0044 
N1821 X-151.998 Y-21.155 Z21.611 A50.7885 B0.0105 
N1822 X-151.997 Y-22.091 Z21.102 A51.9764 B0.0288 
N1823 X-151.997 Y-23.062 Z20.589 A53.3050 B0.0519 
N1824 X-151.997 Y-24.074 Z20.082 A54.8166 B0.0812 
N1825 X-151.997 Y-25.107 Z19.575 A56.4628 B0.1162 
N1826 X-151.997 Y-26.117 Z19.046 A58.1048 B0.1544 
N1827 X-151.997 Y-27.051 Z18.477 A59.5673 B0.1919 
N1828 X-151.996 Y-27.865 Z17.859 A60.7136 B0.2251 
N1829 X-151.996 Y-28.544 Z17.201 A61.4983 B0.2517 
N1830 X-151.996 Y-29.100 Z16.525 A61.9617 B0.2712 
N1831 X-151.996 Y-29.562 Z15.856 A62.2026 B0.2849 
N1832 X-151.996 Y-29.976 Z15.224 A62.3830 B0.2959 
N1833 X-151.996 Y-30.408 Z14.667 A62.7242 B0.3094 
N1834 X-151.996 Y-30.914 Z14.214 A63.4266 B0.3305 
N1835 X-151.996 Y-31.532 Z13.877 A64.6195 B0.3626 
N1836 X-151.995 Y-32.272 Z13.649 A66.3264 B0.4063 
N1837 X-151.995 Y-33.118 Z13.503 A68.4759 B0.4600 
N1838 X-151.995 Y-34.038 Z13.408 A70.9439 B0.5209 
N1839 X-151.994 Y-34.993 Z13.335 A73.5847 B0.5856 
N1840 X-151.994 Y-35.943 Z13.262 A76.2617 B0.6513 
N1841 X-151.993 Y-36.860 Z13.177 A78.8773 B0.7160 
N1842 X-151.993 Y-37.727 Z13.077 A81.3766 B0.7787 
N1843 X-151.993 Y-38.536 Z12.962 A83.7262 B0.8388 
N1844 X-151.992 Y-39.281 Z12.835 A85.9053 B0.8961 
N1845 X-151.992 Y-39.966 Z12.698 A87.9275 B0.9508 
N1846 X-151.992 Y-40.610 Z12.555 A89.8423 B1.0039 
N1847 X-151.991 Y-41.238 Z12.405 A91.7240 B1.0567 
N1848 X-151.991 Y-41.880 Z12.246 A93.6621 B1.1104 
N1849 X-151.991 Y-42.559 Z12.073 A95.7263 B1.1655 
N1850 X-151.991 Y-43.272 Z11.878 A97.9146 B1.2208 
N1851 X-151.990 Y-43.999 Z11.661 A100.1635 B1.2737 
N1852 X-151.990 Y-44.710 Z11.424 A102.3902 B1.3220 
N1853 X-151.990 Y-45.387 Z11.171 A104.5362 B1.3645 
N1854 X-151.989 Y-46.025 Z10.908 A106.5877 B1.4012 
N1855 X-151.989 Y-46.631 Z10.635 A108.5641 B1.4330 
N1856 X-151.989 Y-47.215 Z10.349 A110.4969 B1.4608 
N1857 X-151.989 Y-47.787 Z10.049 A112.4182 B1.4857 
N1858 X-151.989 Y-48.354 Z9.731 A114.3549 B1.5082 
N1859 X-151.989 Y-48.922 Z9.391 A116.3275 B1.5289 
N1860 X-151.989 Y-49.493 Z9.026 A118.3483 B1.5481 
N1861 X-151.989 Y-50.067 Z8.635 A120.4208 B1.5657 
N1862 X-151.988 Y-50.640 Z8.216 A122.5403 B1.5817 
N1863 X-151.988 Y-51.210 Z7.770 A124.7010 B1.5960 
N1864 X-151.988 Y-51.772 Z7.296 A126.8965 B1.6085 
N1865 X-151.988 Y-52.324 Z6.795 A129.1220 B1.6189 
N1866 X-151.988 Y-52.863 Z6.268 A131.3757 B1.6273 
N1867 X-151.988 Y-53.388 Z5.711 A133.6609 B1.6335 
N1868 X-151.988 Y-53.899 Z5.124 A135.9880 B1.6375 
N1869 X-151.988 Y-54.398 Z4.499 A138.3777 B1.6390 
N1870 X-151.988 Y-54.889 Z3.826 A140.8644 B1.6379 
N1871 X-151.988 Y-55.374 Z3.090 A143.4970 B1.6337 
N1872 X-151.988 Y-55.857 Z2.272 A146.3349 B1.6256 
N1873 X-151.988 Y-56.335 Z1.346 A149.4432 B1.6127 
N1874 X-151.988 Y-56.798 Z0.292 A152.8780 B1.5934 
N1875 X-151.989 Y-57.222 Z-0.904 A156.6585 B1.5661 
N1876 X-151.989 Y-57.570 Z-2.224 A160.7199 B1.5298 
N1877 X-151.989 Y-57.791 Z-3.600 A164.8502 B1.4852 
N1878 X-151.989 Y-57.841 Z-4.908 A168.6907 B1.4365 
N1879 X-151.990 Y-57.706 Z-6.009 A171.8634 B1.3902 
N1880 X-151.990 Y-57.398 Z-6.834 A174.1868 B1.3512 
N1881 X-151.990 Y-56.932 Z-7.424 A175.8050 B1.3198 
N1882 X-151.990 Y-56.313 Z-7.906 A177.0984 B1.2918 
N1883 X-151.990 Y-55.527 Z-8.406 A178.4654 B1.2623 
N1884 X-151.990 Y-54.546 Z-8.928 A179.9377 B1.2321 
N1885 X-151.991 Y-53.347 Z-9.263 A180.9110 B1.2126 
N1886 X-151.991 Y-51.917 Z-9.371 A181.2463 B1.2064 
N1887 X-151.991 Y-50.238 Z-9.381 A181.3001 B1.2062 
N1888 X-151.991 Y-48.299 Z-9.371 A181.3013 B1.2073 
N1889 X-151.991 Y-46.093 Z-9.360 A181.3014 B1.2087 
N1890 X-151.991 Y-43.627 Z-9.347 B1.2104 
N1891 X-151.991 Y-40.916 Z-9.332 A181.3014 B1.2122 
N1892 X-151.991 Y-37.986 Z-9.317 B1.2142 
N1893 X-151.991 Y-34.874 Z-9.301 B1.2163 
N1894 X-151.991 Y-31.627 Z-9.283 B1.2185 
N1895 X-151.991 Y-28.295 Z-9.266 B1.2207 
N1896 X-151.991 Y-24.935 Z-9.248 B1.2230 
N1897 X-151.991 Y-21.606 Z-9.231 B1.2253 
N1898 X-151.991 Y-18.361 Z-9.214 A181.3014 B1.2275 
N1899 X-151.990 Y-15.253 Z-9.197 B1.2296 
N1900 X-151.990 Y-12.323 Z-9.182 B1.2315 
N1901 X-151.990 Y-9.606 Z-9.168 B1.2334 
N1902 X-151.990 Y-7.125 Z-9.155 B1.2351 
N1903 X-151.990 Y-4.892 Z-9.143 B1.2366 
N1904 X-151.990 Y-2.909 Z-9.133 A181.3023 B1.2379 
N1905 X-151.990 Y-1.169 Z-9.161 A181.4175 B1.2370 
N1906 X-151.991 Y0.350 Z-9.401 A182.1928 B1.2249 
N1907 X-151.991 Y1.688 Z-10.034 A184.2362 B1.1910 
N1908 X-151.991 Y2.916 Z-11.045 A187.5655 B1.1327 
N1909 X-151.991 Y4.080 Z-12.188 A191.4686 B1.0601 
N1910 X-151.992 Y5.210 Z-13.344 A195.5883 B0.9734 
N1911 X-151.993 Y6.305 Z-14.396 A199.5489 B0.8745 
N1912 X-151.993 Y7.354 Z-15.296 A203.1744 B0.7708 
N1913 X-151.994 Y8.402 Z-16.132 A206.7436 B0.6622 
N1914 X-151.994 Y9.486 Z-16.939 A210.3931 B0.5502 
N1915 X-151.995 Y10.615 Z-17.687 A214.0692 B0.4391 
N1916 X-151.996 Y11.793 Z-18.349 A217.7192 B0.3317 
N1917 X-151.996 Y13.011 Z-18.898 A221.2849 B0.2302 
N1918 X-151.997 Y14.224 Z-19.278 A224.5652 B0.1399 
N1919 X-151.997 Y15.346 Z-19.417 A227.2391 B0.0690 
N1920 X-151.997 Y16.310 Z-19.283 A229.0913 B0.0220 
N1921 X-151.998 Y17.156 Z-18.937 A230.3122 B-0.0072 
N1922 X-151.998 Y17.992 Z-18.478 A231.3421 B-0.0296 
N1923 X-151.998 Y18.895 Z-17.970 A232.4829 B-0.0516 
N1924 X-151.998 Y19.871 Z-17.417 A233.7763 B-0.0733 
N1925 X-151.998 Y20.880 Z-16.797 A235.0998 B-0.0918 
N1926 X-151.998 Y21.855 Z-16.074 A236.2316 B-0.1031 
N1927 X-151.998 Y22.716 Z-15.219 A236.9158 B-0.1044 
N1928 X-151.998 Y23.456 Z-14.253 A237.1397 B-0.0974 
N1929 X-151.998 Y24.148 Z-13.245 A237.1792 B-0.0877 
N1930 X-151.998 Y24.823 Z-12.239 A237.1825 B-0.0777 
N1931 X-151.998 Y25.480 Z-11.257 B-0.0679 
N1932 X-151.998 Y26.112 Z-10.314 B-0.0584 
N1933 X-151.998 Y26.710 Z-9.422 B-0.0495 
N1934 X-151.998 Y27.267 Z-8.592 A237.1848 B-0.0412 
N1935 X-151.998 Y27.791 Z-7.842 A237.2417 B-0.0338 
N1936 X-151.998 Y28.319 Z-7.201 A237.4925 B-0.0279 
N1937 X-151.998 Y28.853 Z-6.671 A237.9583 B-0.0230 
N1938 X-151.998 Y29.356 Z-6.229 A238.5095 B-0.0185 
N1939 X-151.998 Y29.863 Z-5.888 A239.2537 B-0.0143 
N1940 X-151.998 Y30.481 Z-5.701 A240.5490 B-0.0107 
N1941 X-151.998 Y31.273 Z-5.679 A242.5830 B-0.0078 
N1942 X-151.998 Y32.220 Z-5.773 A245.2396 B-0.0053 
N1943 X-151.998 Y33.269 Z-5.925 A248.2954 B-0.0033 
N1944 X-151.998 Y34.374 Z-6.089 A251.5642 B-0.0019 
N1945 X-151.998 Y35.502 Z-6.234 A254.9187 B-0.0010 
N1946 X-151.998 Y36.623 Z-6.344 A258.2578 B-0.0005 
N1947 X-151.998 Y37.709 Z-6.409 A261.4913 B-0.0002 
N1948 X-151.998 Y38.735 Z-6.427 A264.5469 B-0.0001 
N1949 X-151.998 Y39.690 Z-6.404 A267.3961 B-0.0000 
N1950 X-151.998 Y40.577 Z-6.345 A270.0467 B-0.0000 
N1951 X-151.998 Y41.403 Z-6.258 A272.5246 B-0.0000 
N1952 X-151.998 Y42.178 Z-6.146 A274.8652 
N1953 X-151.998 Y42.917 Z-6.013 A277.1064 
N1954 X-151.998 Y43.631 Z-5.857 A279.2891 
N1955 X-151.998 Y44.333 Z-5.679 A281.4552 
N1956 X-151.998 Y45.036 Z-5.474 A283.6442 
N1957 X-151.998 Y45.746 Z-5.241 A285.8778 
N1958 X-151.998 Y46.460 Z-4.977 A288.1575 
N1959 X-151.998 Y47.172 Z-4.682 A290.4628 
N1960 X-151.998 Y47.869 Z-4.361 A292.7566 
N1961 X-151.998 Y48.535 Z-4.020 A294.9962 
N1962 X-151.998 Y49.162 Z-3.667 A297.1472 
N1963 X-151.998 Y49.745 Z-3.308 A299.1970 
N1964 X-151.998 Y50.289 Z-2.943 A301.1549 
N1965 X-151.998 Y50.802 Z-2.572 A303.0461 
N1966 X-151.998 Y51.291 Z-2.192 A304.8986 
N1967 X-151.998 Y51.764 Z-1.797 A306.7402 
N1968 X-151.998 Y52.228 Z-1.384 A308.5947 
N1969 X-151.998 Y52.685 Z-0.949 A310.4823 
N1970 X-151.998 Y53.140 Z-0.486 A312.4203 
N1971 X-151.998 Y53.594 Z0.008 A314.4247 
N1972 X-151.998 Y54.047 Z0.539 A316.5121 
N1973 X-151.998 Y54.502 Z1.114 A318.7028 
N1974 X-151.998 Y54.959 Z1.743 A321.0257 
N1975 X-151.998 Y55.421 Z2.440 A323.5219 
N1976 X-151.998 Y55.888 Z3.223 A326.2465 
N1977 X-151.998 Y56.358 Z4.119 A329.2654 
N1978 X-151.998 Y56.822 Z5.152 A332.6472 
N1979 X-151.998 Y57.261 Z6.348 A336.4461 
N1980 X-151.998 Y57.641 Z7.716 A340.6756 
N1981 X-151.998 Y57.909 Z9.232 A345.2504 
N1982 X-151.998 Y58.010 Z10.806 A349.9140 
N1983 X-151.998 Y57.902 Z12.273 A354.2149 
N1984 X-151.998 Y57.587 Z13.426 A357.5794 
N1985 X-151.998 Y57.097 Z14.140 A359.6615 
N1986 X-151.998 Y56.456 Z14.458 A0.5906 
N1987 X-151.998 Y55.654 Z14.559 A0.8837 
N1988 X-151.998 Y54.667 Z14.586 A0.9610 
N1989 X-151.998 Y53.469 Z14.600 A1.0011 
N1990 X-151.998 Y52.036 Z14.610 A1.0347 
N1991 X-151.998 Y50.351 Z14.613 A1.0453 
N1992 X-151.998 Y48.402 Z14.611 A1.0459 
N1993 X-151.998 Y46.187 Z14.610 
N1994 X-151.998 Y43.712 Z14.608 
N1995 X-151.998 Y40.995 Z14.606 
N1996 X-151.998 Y38.064 Z14.603 
N1997 X-151.998 Y34.959 Z14.601 
N1998 X-151.998 Y31.727 Z14.598 
N1999 X-151.998 Y28.422 Z14.595 
N2000 X-151.998 Y25.100 Z14.593 
N2001 X-151.998 Y21.820 Z14.590 
N2002 X-151.998 Y18.637 Z14.588 
N2003 X-151.998 Y15.599 Z14.585 
N2004 X-151.998 Y12.748 Z14.583 
N2005 X-151.998 Y10.115 Z14.581 
N2006 X-151.998 Y7.721 Z14.579 
N2007 X-151.998 Y5.574 Z14.577 
N2008 X-151.998 Y3.674 Z14.578 A1.0517 
N2009 X-151.998 Y2.009 Z14.646 A1.2678 
N2010 X-151.998 Y0.555 Z14.979 A2.3170 
N2011 X-151.998 Y-0.735 Z15.675 A4.5616 
N2012 X-151.998 Y-1.931 Z16.701 A7.9471 
N2013 X-151.998 Y-3.111 Z17.987 A12.3121 
N2014 X-151.998 Y-4.322 Z19.355 A17.1596 B-0.0003 
N2015 X-151.998 Y-5.559 Z20.621 A21.9405 B-0.0024 
N2016 X-151.998 Y-6.807 Z21.722 A26.4531 B-0.0078 
N2017 X-151.998 Y-8.055 Z22.640 A30.6244 B-0.0161 
N2018 X-151.998 Y-9.291 Z23.367 A34.4248 B-0.0244 
N2019 X-151.998 Y-10.519 Z23.918 A37.8999 B-0.0296 
N2020 X-151.998 Y-11.738 Z24.299 A41.0716 B-0.0302 
N2021 X-151.998 Y-12.920 Z24.487 A43.8417 B-0.0268 
N2022 X-151.998 Y-14.007 Z24.441 A46.0086 B-0.0215 
N2023 X-151.998 Y-14.958 Z24.144 A47.4315 B-0.0168 
N2024 X-151.998 Y-15.812 Z23.653 A48.2973 B-0.0132 
N2025 X-151.998 Y-16.654 Z23.054 A48.9521 B-0.0096 
N2026 X-151.998 Y-17.521 Z22.389 A49.5647 B-0.0046 
N2027 X-151.998 Y-18.405 Z21.658 A50.1201 B0.0015 
N2028 X-151.998 Y-19.290 Z20.866 A50.5855 B0.0081 
N2029 X-151.998 Y-20.179 Z20.033 A51.0084 B0.0156 
N2030 X-151.997 Y-21.077 Z19.186 A51.4544 B0.0249 
N2031 X-151.997 Y-21.985 Z18.346 A51.9676 B0.0368 
N2032 X-151.997 Y-22.890 Z17.527 A52.5458 B0.0515 
N2033 X-151.997 Y-23.767 Z16.729 A53.1366 B0.0681 
N2034 X-151.997 Y-24.586 Z15.952 A53.6608 B0.0844 
N2035 X-151.997 Y-25.320 Z15.192 A54.0394 B0.0981 
N2036 X-151.997 Y-25.951 Z14.452 A54.2212 B0.1069 
N2037 X-151.997 Y-26.493 Z13.752 A54.2703 B0.1118 
N2038 X-151.997 Y-27.002 Z13.138 A54.3922 B0.1180 
N2039 X-151.997 Y-27.555 Z12.663 A54.8823 B0.1340 
N2040 X-151.997 Y-28.200 Z12.355 A55.9154 B0.1647 
N2041 X-151.996 Y-28.942 Z12.201 A57.4924 B0.2104 
N2042 X-151.996 Y-29.773 Z12.171 A59.5438 B0.2692 
N2043 X-151.996 Y-30.679 Z12.231 A61.9821 B0.3384 
N2044 X-151.995 Y-31.639 Z12.344 A64.6896 B0.4148 
N2045 X-151.995 Y-32.627 Z12.479 A67.5476 B0.4951 
N2046 X-151.994 Y-33.624 Z12.614 A70.4717 B0.5772 
N2047 X-151.994 Y-34.616 Z12.734 A73.4007 B0.6593 
N2048 X-151.993 Y-35.588 Z12.828 A76.2801 B0.7400 
N2049 X-151.993 Y-36.524 Z12.891 A79.0573 B0.8179 
N2050 X-151.992 Y-37.408 Z12.922 A81.6798 B0.8915 
N2051 X-151.992 Y-38.228 Z12.921 A84.1145 B0.9600 
N2052 X-151.992 Y-38.985 Z12.895 A86.3670 B1.0237 
N2053 X-151.991 Y-39.690 Z12.848 A88.4673 B1.0834 
N2054 X-151.991 Y-40.356 Z12.784 A90.4602 B1.1402 
N2055 X-151.991 Y-41.003 Z12.703 A92.4020 B1.1955 
N2056 X-151.990 Y-41.654 Z12.606 A94.3639 B1.2508 
N2057 X-151.990 Y-42.335 Z12.487 A96.4302 B1.3075 
N2058 X-151.990 Y-43.069 Z12.338 A98.6680 B1.3665 
N2059 X-151.989 Y-43.857 Z12.152 A101.0899 B1.4272 
N2060 X-151.989 Y-44.679 Z11.925 A103.6421 B1.4873 
N2061 X-151.989 Y-45.500 Z11.660 A106.2220 B1.5440 
N2062 X-151.988 Y-46.282 Z11.370 A108.7195 B1.5948 
N2063 X-151.988 Y-47.004 Z11.065 A111.0628 B1.6385 
N2064 X-151.988 Y-47.660 Z10.755 A113.2348 B1.6753 
N2065 X-151.988 Y-48.260 Z10.441 A115.2605 B1.7061 
N2066 X-151.988 Y-48.818 Z10.122 A117.1819 B1.7320 
N2067 X-151.987 Y-49.347 Z9.796 A119.0408 B1.7542 
N2068 X-151.987 Y-49.858 Z9.457 A120.8743 B1.7732 
N2069 X-151.987 Y-50.359 Z9.101 A122.7128 B1.7896 
N2070 X-151.987 Y-50.857 Z8.723 A124.5806 B1.8039 
N2071 X-151.987 Y-51.355 Z8.319 A126.4972 B1.8161 
N2072 X-151.987 Y-51.855 Z7.886 A128.4766 B1.8263 
N2073 X-151.987 Y-52.358 Z7.419 A130.5287 B1.8344 
N2074 X-151.987 Y-52.861 Z6.916 A132.6575 B1.8404 
N2075 X-151.987 Y-53.364 Z6.375 A134.8668 B1.8439 
N2076 X-151.987 Y-53.865 Z5.792 A137.1652 B1.8449 
N2077 X-151.987 Y-54.362 Z5.161 A139.5692 B1.8428 
N2078 X-151.987 Y-54.856 Z4.472 A142.1035 B1.8373 
N2079 X-151.987 Y-55.346 Z3.714 A144.8011 B1.8279 
N2080 X-151.987 Y-55.828 Z2.872 A147.7004 B1.8135 
N2081 X-151.987 Y-56.296 Z1.931 A150.8405 B1.7932 
N2082 X-151.987 Y-56.738 Z0.874 A154.2606 B1.7655 
N2083 X-151.988 Y-57.134 Z-0.312 A157.9885 B1.7290 
N2084 X-151.988 Y-57.452 Z-1.624 A162.0049 B1.6824 
N2085 X-151.988 Y-57.653 Z-3.028 A166.2108 B1.6259 
N2086 X-151.989 Y-57.694 Z-4.446 A170.3898 B1.5622 
N2087 X-151.989 Y-57.548 Z-5.736 A174.1503 B1.4982 
N2088 X-151.989 Y-57.215 Z-6.741 A177.0621 B1.4439 
N2089 X-151.989 Y-56.717 Z-7.400 A178.9605 B1.4055 
N2090 X-151.990 Y-56.062 Z-7.751 A179.9649 B1.3836 
N2091 X-151.990 Y-55.242 Z-7.913 A180.4166 B1.3728 
N2092 X-151.990 Y-54.233 Z-8.058 A180.8316 B1.3634 
N2093 X-151.990 Y-53.010 Z-8.174 A181.1806 B1.3561 
N2094 X-151.990 Y-51.553 Z-8.207 A181.2997 B1.3544 
N2095 X-151.990 Y-49.846 Z-8.203 A181.3173 B1.3552 
N2096 X-151.990 Y-47.876 Z-8.193 A181.3176 B1.3566 
N2097 X-151.990 Y-45.642 Z-8.180 B1.3581 
N2098 X-151.990 Y-43.153 Z-8.167 B1.3599 
N2099 X-151.990 Y-40.427 Z-8.151 B1.3618 
N2100 X-151.990 Y-37.494 Z-8.135 B1.3639 
N2101 X-151.990 Y-34.395 Z-8.118 B1.3661 
N2102 X-151.990 Y-31.176 Z-8.100 B1.3684 
N2103 X-151.990 Y-27.893 Z-8.082 A181.3176 B1.3707 
N2104 X-151.990 Y-24.602 Z-8.064 B1.3731 
N2105 X-151.990 Y-21.361 Z-8.046 B1.3754 
N2106 X-151.990 Y-18.225 Z-8.028 B1.3776 
N2107 X-151.990 Y-15.241 Z-8.012 B1.3797 
N2108 X-151.990 Y-12.450 Z-7.996 B1.3817 
N2109 X-151.990 Y-9.881 Z-7.982 A181.3176 B1.3835 
N2110 X-151.990 Y-7.555 Z-7.969 B1.3851 
N2111 X-151.990 Y-5.478 Z-7.958 B1.3866 
N2112 X-151.990 Y-3.650 Z-7.948 A181.3177 B1.3879 
N2113 X-151.990 Y-2.057 Z-7.956 A181.3696 B1.3880 
N2114 X-151.990 Y-0.678 Z-8.113 A181.8792 B1.3789 
N2115 X-151.990 Y0.528 Z-8.632 A183.5359 B1.3473 
N2116 X-151.990 Y1.640 Z-9.661 A186.8488 B1.2801 
N2117 X-151.991 Y2.756 Z-11.057 A191.4642 B1.1792 
N2118 X-151.992 Y3.947 Z-12.610 A196.8097 B1.0504 
N2119 X-151.992 Y5.266 Z-14.208 A202.6205 B0.8899 
N2120 X-151.993 Y6.635 Z-15.560 A208.0082 B0.7208 
N2121 X-151.994 Y8.044 Z-16.681 A213.0189 B0.5517 
N2122 X-151.995 Y9.531 Z-17.643 A217.9234 B0.3844 
N2123 X-151.996 Y11.016 Z-18.340 A222.3613 B0.2364 
N2124 X-151.997 Y12.422 Z-18.730 A226.1050 B0.1167 
N2125 X-151.997 Y13.630 Z-18.752 A228.7828 B0.0351 
N2126 X-151.998 Y14.515 Z-18.355 A229.9811 B0.0005 
N2127 X-151.998 Y15.204 Z-17.680 A230.2217 B-0.0058 
N2128 X-151.998 Y15.887 Z-16.891 A230.2277 B-0.0057 
N2129 X-151.998 Y16.620 Z-16.040 B-0.0053 
N2130 X-151.998 Y17.401 Z-15.136 B-0.0049 
N2131 X-151.998 Y18.219 Z-14.187 B-0.0046 
N2132 X-151.998 Y19.065 Z-13.206 B-0.0041 
N2133 X-151.998 Y19.924 Z-12.209 B-0.0037 
N2134 X-151.998 Y20.784 Z-11.212 B-0.0033 
N2135 X-151.998 Y21.630 Z-10.231 B-0.0029 
N2136 X-151.998 Y22.448 Z-9.283 B-0.0025 
N2137 X-151.998 Y23.225 Z-8.381 B-0.0022 
